/* XPM */
static char *ed3e25b107de4e0fcfc26433b27aa363ofELtQw7qKiVAK5R[] = {
/* columns rows colors chars-per-pixel */
"512 512 233 2 ",
"   c #5EBDCD",
".  c #5CB2C3",
"X  c #5BBED2",
"o  c #62B4C6",
"O  c #64BDCD",
"+  c #6BBCCB",
"@  c #68B8C8",
"#  c #74BDCC",
"$  c #79BECB",
"%  c #77BAC9",
"&  c #63BFD1",
"*  c #6ABDD1",
"=  c #75BCD2",
"-  c #7ABDD4",
";  c #5DC1D2",
":  c #5CC7DB",
">  c #5FC4CC",
",  c #6DC3CE",
"<  c #6EC8CE",
"1  c #64C1CF",
"2  c #73C3CE",
"3  c #7BC3CE",
"4  c #72C8CF",
"5  c #7BCACF",
"6  c #64C2D3",
"7  c #6DC5D5",
"8  c #6DCAD5",
"9  c #6DC6D9",
"0  c #66CBDB",
"q  c #6DCBDB",
"w  c #65C7D5",
"e  c #74C5D3",
"r  c #7AC5D4",
"t  c #73CAD5",
"y  c #7BCAD5",
"u  c #73C6D9",
"i  c #79C6D9",
"p  c #73CBDB",
"a  c #7CCCDB",
"s  c #6CD0DB",
"d  c #6BD1D6",
"f  c #7DD1D6",
"g  c #75D3DA",
"h  c #7DD2DD",
"j  c #75D8DD",
"k  c #7CD8DF",
"l  c #6ECDE0",
"z  c #73CEE1",
"x  c #7CCEE2",
"c  c #6ED3E2",
"v  c #75D3E2",
"b  c #7ED3E4",
"n  c #7CD9E3",
"m  c #7ED4E8",
"M  c #7ED9E9",
"N  c #76D9E4",
"B  c #83C4CD",
"V  c #84CBCE",
"C  c #89C9CF",
"Z  c #8BC5CD",
"A  c #95CACE",
"S  c #94C6CD",
"D  c #82C6D4",
"F  c #8BC7D5",
"G  c #84CCD5",
"H  c #8BCCD5",
"J  c #84C6DA",
"K  c #8CC7D9",
"L  c #84CEDC",
"P  c #8ACEDC",
"I  c #93CCD5",
"U  c #9BCDD5",
"Y  c #93CDDB",
"T  c #9CCEDB",
"R  c #95C6D2",
"E  c #84D1D6",
"W  c #8CD2D5",
"Q  c #83D2DE",
"!  c #8BD2DD",
"~  c #83D9DE",
"^  c #8DD8DF",
"/  c #94D2D6",
"(  c #9CD2D5",
")  c #94D3DD",
"_  c #9BD4DD",
"`  c #94D9DE",
"'  c #9DD9DF",
"]  c #A3CEDC",
"[  c #A1CDD5",
"{  c #A2D2D6",
"}  c #A2D4DD",
"|  c #AAD5DC",
" . c #A4D9DE",
".. c #ABDADE",
"X. c #ABD4D6",
"o. c #B3D4DD",
"O. c #B2DADC",
"+. c #BAD9DE",
"@. c #83CFE2",
"#. c #8ACEE2",
"$. c #86CFE8",
"%. c #88CEE9",
"&. c #94CFE0",
"*. c #9CCEE1",
"=. c #81D2E4",
"-. c #8CD5E3",
";. c #84D9E4",
":. c #8DD9E5",
">. c #82D3E8",
",. c #8CD6E9",
"<. c #85DAEA",
"1. c #8CDAEA",
"2. c #93D6E6",
"3. c #9BD6E3",
"4. c #92D9E5",
"5. c #9DDAE5",
"6. c #93D6E9",
"7. c #9BD6E9",
"8. c #93DAE9",
"9. c #9DDCEA",
"0. c #8EDCF1",
"q. c #86DBF0",
"w. c #94D7F1",
"e. c #93DBF1",
"r. c #9DDEF1",
"t. c #A5CAE1",
"y. c #A2D6E2",
"u. c #AAD6E3",
"i. c #A3DDE6",
"p. c #A9DBE6",
"a. c #A3DEE9",
"s. c #AADEEA",
"d. c #A1D7EA",
"f. c #B3DEE5",
"g. c #B9DDE4",
"h. c #B3DEEC",
"j. c #BADFEC",
"k. c #B6D6E1",
"l. c #A2DFF1",
"z. c #ACDEF1",
"x. c #B4DEF2",
"c. c #BADEF1",
"v. c #8DE1ED",
"b. c #92E0E7",
"n. c #9EE1E6",
"m. c #94E1ED",
"M. c #9DE1EB",
"N. c #8BE5F3",
"B. c #95E3F2",
"V. c #9CE3F2",
"C. c #9CE9F6",
"Z. c #9DEBF9",
"A. c #99E5F9",
"S. c #A2E0E6",
"D. c #ACE1E6",
"F. c #A3E1EA",
"G. c #ACE3ED",
"H. c #A4E8EF",
"J. c #ADE9EE",
"K. c #B3E2E6",
"L. c #BAE2E6",
"P. c #B4E4ED",
"I. c #B9E3ED",
"U. c #B2E8EE",
"Y. c #BCE9ED",
"T. c #BBE9E7",
"R. c #B9F1EE",
"E. c #A5E5F2",
"W. c #ADE5F2",
"Q. c #A5EAF4",
"!. c #ADE9F4",
"~. c #A4E5FA",
"^. c #ACE6F9",
"/. c #A5EAF9",
"(. c #ACEBF9",
"). c #B6E6F1",
"_. c #B4E4F1",
"`. c #B9E3F1",
"'. c #B3E9F4",
"]. c #BAEAF3",
"[. c #B5E6F9",
"{. c #BBE5F9",
"}. c #B3EBFA",
"|. c #BAEBFA",
" X c #A4F1FE",
".X c #ACF2FE",
"XX c #BBF2F5",
"oX c #B4F3FD",
"OX c #BCF3FD",
"+X c #B4FBFF",
"@X c #BCFDFF",
"#X c #B7F1F5",
"$X c #AFF0EC",
"%X c #C1DEEC",
"&X c #C2E4EC",
"*X c #C2EBED",
"=X c #CBECED",
"-X c #C5E4E9",
";X c #D4EDED",
":X c #DAEDEF",
">X c #CDF3EF",
",X c #D4F2ED",
"<X c #DAF2EE",
"1X c #C3E6F2",
"2X c #C3ECF4",
"3X c #CBEDF4",
"4X c #C4EDFB",
"5X c #CCEEFB",
"6X c #CAE4F7",
"7X c #D3EFF2",
"8X c #DBEDF4",
"9X c #D3EEFA",
"0X c #DAEEFA",
"qX c #C4F2F5",
"wX c #CCF2F4",
"eX c #CEF9F6",
"rX c #C3F4FD",
"tX c #CCF4FC",
"yX c #C5FCFF",
"uX c #CCFBFF",
"iX c #D4F3F5",
"pX c #DBF3F5",
"aX c #D3F9F5",
"sX c #DCF9F6",
"dX c #D4F5FC",
"fX c #DBF5FB",
"gX c #D3FBFE",
"hX c #DBFBFE",
"jX c #E1EEF6",
"kX c #E1F4F4",
"lX c #E1F5FC",
"zX c #E2F9FD",
"xX c #ECF6FF",
/* pixels */
"2.2.2.2.2.2.2.2.2.2.2.2.2.2.2.2.2.2.2.2.2.2.2.2.2.2.2.2.2.2.2.2.2.2.2.2.2.2.2.2.2.2.2.2.2.2.2.2.2.2.2.2.2.2.2.2.2.2.2.2.2.2.2.2.6.8.2.3.5.G.P.P.P.).W.5.) 2.2.-.5.W._.P._.I.I._.P.W.!.8.L =.h Q G i.uXuXa.F E -.3.3.2.4.,.,.3.3.2.2.2.2.2.2.2.2.2.2.2.2.2.2.2.4.:.,.Q Q =.-.>.>.=.=.=.=.=.=.=.=.=.=.=.=.b b b b b b a -.:.8.8.2.2.2.2.2.2.2.2.2.2.2.2.2.2.2.2.2.2.2.:.:.-.-.Q Q -.=.=.=.b b b b =.=.=.=.=.=.=.=.=.=.=.=.=.=.=.=.>.>.>.>.>.>.m m m =.b b b b b k h Q =.=.Q Q Q L -.P 2.2.) p.}.).I.I.P.G.!.H.3.) ! H I a.W.P.h._.h._._.W.^.8.P Q k k ~ y Q.yXuX} G Q Q Q Q Q Q Q L Q -.:.4.4.:.:.2.2.2.2.2.2.2.2.2.2.2.2.2.2.2.2.2.2.2.2.2.2.2.2.2.2.2.2.2.2.2.2.,.=.Q Q L =.=.>.=.=.=.=.>.=.=.m =.=.=.=.=.=.=.=.b b =.=.b b b =.L L Q -.:.4.2.8.2.2.2.2.3.3.3.2.2.2.2.2.2.2.2.2.2.2.2.2.2.2.2.2.2.2.2.2.2.2.2.2.-.-.-.! P P P P =.b b b k Q Q Q y G 2.F.!.}.p.Y P ! :.:.! ! 9.J.P.h.`.`._._.h.3.8.:.3.U L.gXiXaX3X{ 2.2.6.8.:.8.2.2.2.2.2.2.2.2.-.-.-.-.P P P P P P P P #.-.-.-.2.2.2.2.2.2.2.2.2.2.2.2.2.2.2.2.2.2.2.2.2.2.2.2.2.2.2.2.2.2.2.2.2.2.2.2.2.2.2.2.",
"2.2.2.2.2.2.2.2.2.2.2.2.2.2.2.2.2.2.2.2.2.2.2.2.2.2.2.2.2.2.2.2.2.2.2.2.2.2.2.2.2.2.2.2.2.2.2.2.2.2.2.2.2.2.2.2.2.2.2.2.2.2.2.2.6.8.2.3.5.G.P.P.P.).W.5.) 2.2.-.5.W._.P._.I.I._.P.W.!.4.L ;.h =.G i.uXuXp.G Q :.3.3.2.4.,.,.3.3.2.2.2.2.2.2.2.2.2.2.2.2.2.2.2.2.:.,.=.Q -.-.-.=.=.=.=.=.=.=.=.=.=.=.=.=.b b b b b b L -.:.8.8.2.2.2.2.2.2.2.2.2.2.2.2.2.2.2.2.2.2.2.4.:.:.-.-.Q -.=.=.=.=.b b b =.=.=.=.=.=.=.=.=.=.=.=.=.=.=.=.>.=.>.>.>.>.m m =.=.b b b b b Q Q Q Q Q Q Q =.-.-.-.2.3.Y i._.P.I.I.P.G.!.H.3.) 2.I ) p._._.P._.P._._.^.^.7.P Q k k Q y !.uXuXu.G h Q ~ Q Q Q Q Q -.:.:.4.4.:.2.2.2.2.2.2.2.2.2.2.2.2.2.2.2.2.2.2.2.2.2.2.2.2.2.2.2.2.2.2.2.2.2.,.,.=.Q Q Q =.=.b =.=.=.>.=.=.=.=.=.=.=.=.=.=.=.b b =.=.=.b =.Q Q Q -.:.:.4.2.2.2.2.2.2.3.3.3.2.2.2.2.2.2.2.2.2.2.2.2.2.2.2.2.2.2.2.2.2.2.2.2.2.:.-.-.-.-.! P Q h b h h h h Q Q L :.9.E.!.}.G.3.Y -.:.:.! ) 9.J.P.h.`.`._._.h.3.8.:.3.U L.gXiXaXqX{ 3.2.2.8.:.8.2.2.2.2.2.2.2.2.2.2.2.2.2.2.-.-.-.-.2.2.2.2.2.2.2.2.2.2.2.2.2.2.2.2.2.2.2.2.2.2.2.2.2.2.2.2.2.2.2.2.2.2.2.2.2.2.2.2.2.2.2.2.2.2.",
"2.2.2.2.2.2.2.2.2.2.2.2.2.2.2.2.2.2.2.2.2.2.2.2.2.2.2.2.2.2.2.2.2.2.2.2.2.2.2.2.2.2.2.2.2.2.2.2.2.2.2.2.2.2.2.2.2.2.2.2.2.2.2.2.6.8.2.3.5.G._.P.P.'.W.5.3.2.8.-.5.W._.P._.I.I._.P.G.!.2.L =.b =.V i.tXuXF.P ~ :.3.3.2.:.-.,.3.3.2.2.2.2.2.2.2.2.2.2.2.2.2.2.2.2.:.,.-.=.=.=.-.Q =.=.=.=.=.=.=.=.=.=.=.=.b b b b =.h =.-.4.8.8.2.2.2.2.2.2.2.2.2.2.2.2.2.2.2.2.2.4.4.4.4.:.:.-.=.Q Q =.=.=.=.b b =.=.=.=.=.=.=.=.=.=.=.=.=.=.=.=.=.=.=.=.>.=.m m =.=.=.=.b b b Q =.E a a Q =.,.:.:.2.2.3.Y d._.G.I.I.P.G.!.F.` ) 8.) 3.G.}._.I._.h._._.^.W.7.P =.Q k ~ D !.uXgXp.F E Q Q Q Q -.-.-.:.:.4.4.2.2.2.2.2.2.2.2.2.2.2.2.2.2.2.2.2.2.2.2.2.2.2.2.2.2.2.2.2.2.2.2.2.2.2.:.:.,.=.-.=.Q L =.=.=.=.=.=.=.=.=.=.=.=.=.=.=.=.=.=.=.=.=.b =.Q =.-.:.:.4.4.4.4.2.2.2.2.3.3.3.2.2.2.2.2.2.2.2.2.2.2.2.2.2.2.2.2.2.2.2.2.2.2.2.2.2.2.2.2.-.-.-.-.=.b =.=.Q Q Q Q Q 8.F.W.}.}.W.p.2.:.2.4.! ` i.!.P.h.`.`._._.G.3.8.:.3.U I.hXiXaXtX{ 3.2.2.8.:.8.2.2.2.2.2.2.2.2.8.8.8.2.2.2.2.2.2.2.2.2.2.8.8.8.2.2.2.2.2.2.2.2.2.2.2.2.2.2.2.2.2.2.2.2.2.2.2.2.2.2.2.2.2.2.2.2.2.2.2.2.2.2.2.2.",
"2.2.2.2.2.2.2.2.2.2.2.2.2.2.2.2.2.2.2.2.2.2.2.2.2.2.2.2.2.2.2.2.2.2.2.2.2.2.2.2.2.2.2.2.2.2.2.2.2.2.2.2.2.2.2.2.2.2.2.2.2.2.2.2.6.8.2.3.5.G._.P.P.'.W.5.3.2.2.-.5.W._.P._.I.I._.P.W.!.) J =.h =.G i.uXgXG.W -.4.3.3.2.4.:.,.2.3.2.2.2.2.2.2.2.2.2.2.2.2.2.2.2.2.4.:.:.,.,.,.-.Q =.=.=.=.=.=.=.=.=.=.=.=.b b b =.=.=.-.,.2.8.6.2.2.2.2.2.2.2.2.2.2.2.2.2.2.2.2.2.8.8.8.4.2.:.:.-.Q =.=.=.=.=.=.=.=.=.=.=.=.=.=.=.=.=.=.=.=.=.=.=.=.=.=.=.=.=.m m =.=.=.=.=.b =.Q ~ E a a =.,.1.1.8.2.8.3.Y d.W.G.I.I.P.G.!.H.` ) 7.3.3.G.}._.I._.h._._._.W.7.-.=.=.Q ~ G }.uXgXI.H Q =.-.-.-.:.:.:.4.4.4.4.2.2.2.2.2.2.2.2.2.2.2.2.2.2.2.2.2.2.2.2.2.2.2.2.2.2.2.2.2.2.2.2.2.2.2.8.:.:.,.>.-.L a =.=.=.=.=.=.=.=.=.=.=.=.=.=.=.=.=.=.=.=.=.=.=.-.,.,.:.:.4.4.2.2.2.2.2.2.3.3.3.2.2.2.2.2.2.2.2.2.2.2.2.2.2.2.2.2.2.2.2.2.2.2.2.2.4.4.2.2.2.2.2.:.,.,.,.,.-.-.-.-.! 9.E.!.W._._.W.3.2.2.4.:.` F.!.P.I.`.`._._.G.3.4.:.3.U I.hXiXaXtX} 3.2.2.8.:.8.2.2.2.2.2.2.2.2.2.2.2.2.2.2.2.2.2.2.2.2.2.2.2.2.2.2.2.2.2.2.2.2.2.2.2.2.2.2.2.2.2.2.2.2.2.2.2.2.2.2.2.2.2.2.2.2.2.2.2.2.2.2.2.2.",
"2.2.2.2.2.2.2.2.2.2.2.2.2.2.2.2.2.2.2.2.2.2.2.2.2.2.2.2.2.2.2.2.2.2.2.2.2.2.2.2.2.2.2.2.2.2.2.2.2.2.2.2.2.2.2.2.2.2.2.2.2.2.2.2.6.8.2.3.5.G._.P.P.'.G.5.` 2.8.2.5.W._.P._.I.I._._.W.!.) G Q a Q H p.tXgXG.! -.4.3.3.2.4.:.-.2.3.2.2.2.2.2.2.2.2.2.2.2.2.2.2.2.2.2.:.:.4.:.,.-.=.=.=.=.=.=.b b b b b b b b b =.=.=.-.-.:.6.6.6.2.2.2.2.2.2.2.2.2.2.2.2.2.2.2.2.2.4.8.8.8.4.:.:.,.Q Q =.=.=.=.=.=.=.=.=.=.=.=.=.=.-.=.=.=.=.=.=.=.=.m =.=.=.=.m =.=.=.=.=.=.=.=.Q Q L L Q ,.1.1.:.2.2.2.3.) i._.P.I.I.P.G.!.H.` ) 7.3.3.G.}._.I.`.P._._._._.9.-.:.,.=.^ H }.uXgXI.H -.:.:.:.:.4.8.4.4.4.2.2.2.2.2.2.2.2.2.2.2.2.2.2.2.2.2.2.2.2.2.2.2.2.2.2.2.2.2.2.2.2.2.2.2.2.2.8.1.1.:.,.=.=.L -.=.=.=.=.=.=.=.=.b =.=.=.=.=.Q =.=.=.-.=.-.-.=.1.:.8.4.4.4.2.2.2.2.2.2.3.3.2.2.2.2.2.2.2.2.2.2.2.2.2.2.2.2.2.2.2.2.2.2.2.2.2.2.8.8.4.4.4.2.2.4.1.1.:.:.,.:.:.:.! 9.!.!.W._._._.7.2.4.4.4.` F.!.P.I.`.)._.).G.3.4.:.3.( T.hXiXaXtX} 3.2.2.8.-.8.2.2.2.2.2.2.2.2.2.2.2.2.2.2.2.2.2.2.2.2.2.2.2.2.2.2.2.2.2.2.2.2.2.2.2.2.2.2.2.2.2.2.2.2.2.2.2.2.2.2.2.2.2.2.2.2.2.2.2.2.2.2.2.2.",
"2.2.2.2.2.2.2.2.2.2.2.2.2.2.2.2.2.2.2.2.2.2.2.2.2.2.2.2.2.2.2.2.2.2.2.2.2.2.2.2.2.2.2.2.2.2.2.2.2.2.2.2.2.2.2.2.2.2.2.2.2.2.2.2.6.6.2.3.5.G._.P.P.'.G.5.3.2.8.2.5.W._.P._.I.I._._._.}.2.G =.h =.W p.tXgXW.) :.4.3.3.2.4.:.,.2.3.2.2.2.2.2.2.2.2.2.2.2.2.2.2.2.2.2.2.2.2.4.:.,.-.-.=.=.b =.b b b b b b b b =.=.=.=.-.:.2.6.6.2.2.2.2.2.2.2.2.2.2.2.2.2.2.2.2.2.2.4.4.4.8.4.4.:.:.=.=.-.=.-.=.=.=.=.=.=.=.=.=.=.=.-.=.=.=.=.=.=.=.=.m =.=.=.=.=.=.=.=.=.=.=.=.=.Q Q E =.,.1.1.:.:.:.2.2.3.2.a.}.P.I.I.P.G.!.H.` ) 7.3.3.G._._.h.`.I.)._._._.d.2.8.:.-.4.! |.uXgXI.) :.4.4.4.4.8.8.2.2.2.2.2.2.2.2.2.2.2.2.2.2.2.2.2.2.2.2.2.2.2.2.2.2.2.2.2.2.2.2.2.2.2.2.2.2.2.2.2.:.:.:.:.-.-.-.-.-.=.=.@.=.=.>.b b b b =.=.=.=.=.-.@.-.-.-.:.:.1.8.4.8.4.4.2.2.2.2.2.2.3.3.2.2.2.2.2.2.2.2.2.2.2.2.2.2.2.2.2.2.2.2.2.2.2.2.2.2.4.4.4.4.2.4.4.4.:.1.:.:.:.:.:.4.! 9.W.W._._._._.d.8.2.2.4.4.F.J.P.I.`.)._._.G.3.:.:.3.( T.hXiXiXdXy.7.2.2.8.-.8.2.2.2.2.2.2.2.2.2.2.2.2.2.2.2.2.2.2.2.2.2.2.2.2.2.2.2.2.2.2.2.2.2.2.2.2.2.2.2.2.2.2.2.2.2.2.2.2.2.2.2.2.2.2.2.2.2.2.2.2.2.2.2.2.",
"2.2.2.2.2.2.2.2.2.2.2.2.2.2.2.2.2.2.2.2.2.2.2.2.2.2.2.2.2.2.2.2.2.2.2.2.2.2.2.2.2.2.2.2.2.2.2.2.2.2.2.2.2.2.2.2.2.2.2.2.2.2.2.2.6.8.2.3.5.G._.P.P.P.G.5.3.2.8.2.5.W._.P.).I.I.).I._.}.7.! :.>.:.) p.dXgX_.) :.4.3.3.2.4.:.:.2.2.2.2.2.2.2.2.2.2.2.2.2.2.2.2.2.2.2.2.2.2.6.8.:.,.-.=.=.=.=.b b b b b b b =.=.=.=.P -.2.2.2.2.2.2.2.2.2.2.2.2.2.2.2.2.2.2.2.2.2.2.2.4.4.4.4.4.4.:.:.,.-.=.-.=.=.Q =.=.=.=.=.=.=.=.-.=.=.=.=.=.=.=.=.m =.=.=.=.=.=.=.=.=.=.Q Q Q Q Q ~ ,.:.:.:.:.:.4.2.8.3.2.a.}.P.I.I.P.G.!.H.` ) 8.2.3.G.)._.I.`.I.).c._.).a.2.8.:.-.4.) OXgXhXI.) 2.8.8.2.2.2.8.2.2.2.2.2.2.2.2.2.2.2.2.2.2.2.2.2.2.2.2.2.2.2.2.2.2.2.2.2.2.2.2.2.2.2.2.2.2.2.2.:.:.:.:.:.:.,.,.-.-.Q L @.=.=.>.b b b b =.=.=.=.-.-.@.@.-.-.6.8.:.4.4.4.4.4.2.2.2.2.2.2.2.2.2.2.2.2.2.2.2.2.2.2.2.2.2.2.2.2.2.2.2.2.2.2.2.2.2.2.2.2.2.2.2.2.2.2.:.:.:.:.:.:.2.2.) 9.W._._._.I._.a.8.2.2.2.` i.J._.I._.`._._.G.3.:.:.3.( T.hXiXiXdXu.7.2.2.8.-.8.2.2.2.2.2.2.2.2.2.2.2.2.2.2.2.2.2.2.2.2.2.2.2.2.2.2.2.2.2.2.2.2.2.2.2.2.2.2.2.2.2.2.2.2.2.2.2.2.2.2.2.2.2.2.2.2.2.2.2.2.2.2.2.2.",
"2.2.2.2.2.2.2.2.2.2.2.2.2.2.2.2.2.2.2.2.2.2.2.2.2.2.2.2.2.2.2.2.2.2.2.2.2.2.2.2.2.2.2.2.2.2.2.2.2.2.2.2.2.2.2.2.2.2.2.2.2.2.2.2.6.8.2.3.5.G._.P.P.P.G.5.3.8.8.2.5.W._.P._.I.I.).P._.|.9.2.8.,.8./ D.gXgX_.` ! 4.7.3.2.:.:.:.2.2.2.2.2.2.2.2.2.2.2.2.2.2.2.2.2.2.2.2.2.2.6.8.4.:.-.-.=.=.=.b b b b b b =.=.=.=.-.P -.2.6.2.2.2.2.2.2.2.2.2.2.2.2.2.2.2.2.2.2.2.2.2.2.4.4.4.4.2.2.4.:.:.-.-.-.-.L -.=.=.=.=.-.=.=.=.=.=.=.=.=.=.=.=.m =.=.=.=.=.=.=.=.=.=.Q Q Q Q ! :.4.:.,.-.:.4.8.2.8.3.2.i._.P.I.I.P.G.!.H.` ) 8.2.3.G.}.)._.).I.).I._.).p.2.8.:.! 4._ rXgXhX&X3.2.8.8.2.2.2.2.2.2.2.2.2.2.2.2.2.2.2.2.2.2.2.2.2.2.2.2.2.2.2.2.2.2.2.2.2.2.2.2.2.2.2.2.2.2.2.2.2.:.:.:.:.:.:.:.-.-.Q L @.=.=.=.=.b b =.=.=.=.-.-.@.@.#.-.2.8.8.2.:.4.4.4.4.2.2.2.2.2.2.2.2.2.2.2.2.2.2.2.2.2.2.2.2.2.2.2.2.2.2.2.2.2.2.2.2.2.2.2.2.2.2.2.2.2.2.2.4.4.4.4.4.2.2.) a._._._.).`._.a.7.2.) 2.4.9.G.P.h._.`._._.G.3.:.:.3.( T.hXiXiXdXu.7.3.2.6.:.8.2.2.2.2.2.2.2.2.2.2.2.2.2.2.2.2.2.2.2.2.2.2.2.2.2.2.2.2.2.2.2.2.2.2.2.2.2.2.2.2.2.2.2.2.2.2.2.2.2.2.2.2.2.2.2.2.2.2.2.2.2.2.2.2.",
"2.2.2.2.2.2.2.2.2.2.2.2.2.2.2.2.2.2.2.2.2.2.2.2.2.2.2.2.2.2.2.2.2.2.2.2.2.2.2.2.2.2.2.2.2.2.2.2.2.2.2.2.2.2.2.2.2.2.2.2.2.2.2.2.6.2.2.2.5.G._.P.P.).G.3.) 2.8.-.5._._.P._.I.h.I.I._.G.5.2.:.1.:.I ].gXtXOXI 4.4.7.7.6.6.,.,.2.2.2.2.2.2.2.2.2.2.2.2.2.2.2.2.2.2.2.2.2.2.2.2.2.:.:.,.,.>.=.b h h b b =.=.=.-.-.-.2.2.2.2.2.2.2.2.2.2.2.2.2.2.2.2.2.2.2.2.2.2.2.2.2.2.4.4.4.4.2.4.:.:.:.:.:.:.:.-.L L L L Q =.-.-.-.-.=.=.=.=.-.=.=.=.=.=.=.=.=.=.-.=.Q Q Q -.=.-.:.4.4.:.:.:.:.4.2.2.2.3.) d._.P.I.I.P.J.!.H.3.) 8.2.3.G.}._.I.`.I.I.I.`._.d.2.2.4.2.3./ rXtXfX5XT 2.2.2.2.2.2.2.2.2.2.2.2.2.2.2.2.2.2.2.2.2.2.2.2.2.2.2.2.2.2.2.2.2.2.2.2.2.2.2.2.2.2.2.2.2.2.2.4.4.2.4.4.4.4.:.:.,.,.,.-.-.-.=.=.Q Q Q Q Q Q Q -.-.:.2.2.6.6.6.2.2.2.2.2.2.2.2.2.2.2.2.2.2.2.2.2.2.2.2.2.2.2.2.2.2.2.2.2.2.2.2.2.2.2.2.2.2.2.2.2.2.2.2.2.2.2.2.2.2.2.2.2.2.2.3.3.G._._.{.).h._.E.2.2.8.2.` F.J.P.I.I.I.)._.a.3.2.2.3.U wXiXfXiXwXh.T 2.6.6.:.2.2.2.2.2.2.2.2.2.2.2.2.2.2.2.2.2.2.2.2.2.2.2.2.2.2.2.2.2.2.2.2.2.2.2.2.2.2.2.2.2.2.2.2.2.2.2.2.2.2.2.2.2.2.2.2.2.2.2.2.2.2.2.2.2.",
"2.2.2.2.2.2.2.2.2.2.2.2.2.2.2.2.2.2.2.2.2.2.2.2.2.2.2.2.2.2.2.2.2.2.2.2.2.2.2.2.2.2.2.2.2.2.2.2.2.2.2.2.2.2.2.2.2.2.2.2.2.2.2.2.6.2.2.3.5.G._.P.P.).G.3.2.2.8.-.5.W._.P._.I.h.I.I._.G.5.2.4.1.4.I ].hXtXrXI 4.4.7.7.6.6.,.,.2.2.2.2.2.2.2.2.2.2.2.2.2.2.2.2.2.2.2.2.2.2.2.2.2.4.8.1.,.,.>.>.=.=.b h b b =.-.P P 2.2.2.2.2.2.2.2.2.2.2.2.2.2.2.2.2.2.2.2.2.2.2.2.2.2.4.4.4.4.2.2.2.4.2.:.2.:.:.:.L L L =.=.=.-.-.-.-.=.=.-.-.-.-.=.=.=.=.=.=.=.h =.=.Q Q Q -.-.:.4.4.4.4.1.1.:.:.2.2.2.3.) d.'.P.I.I.P.J.'.H.3.) 8.2.3.G.}._.I.I.I.I.I.).W.d.2.2.4.2.3./ rXdXfX9X_ 2.2.2.2.2.2.2.2.2.2.2.2.2.2.2.2.2.2.2.2.2.2.2.2.2.2.2.2.2.2.2.2.2.2.2.2.2.2.2.2.2.2.2.2.2.2.2.4.4.2.2.2.4.4.4.:.:.,.,.,.,.,.-.Q Q Q Q Q Q Q Q -.-.:.2.6.6.6.6.2.2.2.2.2.2.2.2.2.2.2.2.2.2.2.2.2.2.2.2.2.2.2.2.2.2.2.2.2.2.2.2.2.2.2.2.2.2.2.2.2.2.2.2.2.2.2.2.2.2.2.2.2.2.2.3.3.G._.I.).).h.`.E.2.2.8.2.` F.J.P.P.I.I.).}.F.3.2.2.3.( qXiXfXiXtXh.T 2.6.6.2.2.2.2.2.2.2.2.2.2.2.2.2.2.2.2.2.2.2.2.2.2.2.2.2.2.2.2.2.2.2.2.2.2.2.2.2.2.2.2.2.2.2.2.2.2.2.2.2.2.2.2.2.2.2.2.2.2.2.2.2.2.2.2.2.2.",
"2.2.2.2.2.2.2.2.2.2.2.2.2.2.2.2.2.2.2.2.2.2.2.2.2.2.2.2.2.2.2.2.2.2.2.2.2.2.2.2.2.2.2.2.2.2.2.2.2.2.2.2.2.2.2.2.2.2.2.2.2.2.2.2.6.2.2.2.5.G._.P.P.).G.3.2.6.8.-.5.W._.P._.I.I.I._._.G.5.2.2.8.4./ ].hXtXrX) 8.8.7.7.6.6.,.,.6.2.2.2.2.2.2.2.2.2.2.2.2.2.2.2.2.2.2.3.2.2.2.2.2.2.8.8.1.:.,.,.,.;.=.=.=.=.Q ! P P 2.2.2.2.2.2.2.2.2.2.2.2.2.2.2.2.2.2.2.2.2.2.2.2.2.2.2.2.2.2.2.2.2.4.2.2.2.2.2.2.-.-.-.-.-.=.=.=.Q =.@.=.=.-.-.=.>.b >.=.=.=.=.Q Q Q Q Q -.-.:.:.4.4.2.4.8.8.4.4.2.2.2.3.) d.W.G.I.I.P.J.!.H.3.) 8.) 3.G.}._.I.I.I.I.I._._.d.2.2.4.) ` ( rXdXfX9X_ 2.2.2.2.2.2.2.2.2.2.2.2.2.2.2.2.2.2.2.2.2.2.2.2.2.2.2.2.2.2.2.2.2.2.2.2.2.2.2.2.2.2.2.2.2.2.2.2.2.2.4.4.4.2.4.8.8.:.:.,.,.:.,.,.-.,.,.,.,.,.:.-.:.2.2.2.2.2.2.2.2.2.2.2.2.2.2.2.2.2.2.2.2.2.2.2.2.2.2.2.2.2.2.2.2.2.2.2.2.2.2.2.2.2.2.2.2.2.2.2.2.2.2.2.2.2.2.2.2.2.2.2.2.3.3.3.G._.I.).).h._.^.3.2.8.2.` F.J.P.I.I.I.).}.F.3.2.2.3.{ qXiXfXiXdXI.*.2.6.6.2.2.2.2.2.2.2.2.2.2.2.2.2.2.2.2.2.2.2.2.2.2.2.2.2.2.2.2.2.2.2.2.2.2.2.2.2.2.2.2.2.2.2.2.2.2.2.2.2.2.2.2.2.2.2.2.2.2.2.2.2.2.2.2.2.2.",
"2.2.2.2.2.2.2.2.2.2.2.2.2.2.2.2.2.2.2.2.2.2.2.2.2.2.2.2.2.2.2.2.2.2.2.2.2.2.2.2.2.2.2.2.2.2.2.2.2.2.2.2.2.2.2.2.2.2.2.2.2.2.2.2.6.2.2.) 5.G._.P.P.).G.3.) 2.8.-.5.W._.P.).I.I.I._._.G.5.2.2.8.2./ ].hXdXrX/ 8.8.3.7.6.6.,.,.6.6.2.2.2.2.2.2.2.2.2.2.2.2.2.2.2.2.2.2.2.2.3.2.2.2.2.4.:.:.1.1.1.1.,.,.,.:.:.2.2.2.2.2.2.2.2.4.4.4.2.2.2.2.2.2.2.2.2.2.2.2.2.2.2.2.2.2.2.2.2.2.2.2.2.2.2.2.6.6.6.8.:.,.,.,.-.-.=.=.L L L @.L -.-.-.>.>.>.=.=.Q Q Q Q Q -.-.-.:.:.4.2.2.2.2.6.4.4.2.2.2.2.3.) i.W.G.I.I.P.J.'.H.3.) 4.) 3.G.)._.I.I.I.I.I._.P.d.2.2.4.) ` ( rXdXfX9X3.2.2.2.2.2.2.2.2.2.2.2.2.2.2.2.2.2.2.2.2.2.2.2.2.2.2.2.2.2.2.2.2.2.2.2.2.2.2.2.2.2.2.2.2.2.2.2.2.2.2.2.2.4.2.2.2.4.4.4.6.8.8.1.:.:.1.1.1.8.8.8.:.:.2.2.2.2.2.2.2.2.2.2.2.2.2.2.2.2.2.2.2.2.2.2.2.2.2.2.2.2.2.2.2.2.2.2.2.2.2.2.2.2.2.2.2.2.2.2.2.2.2.2.2.2.2.2.2.2.2.4.2.2.3.3.3.W._.P.).).h.).W.3.3.8.2.` F.J.P.I.I.I.).}.F.3.8.2.3.{ eXiXfXiXdXI.*.2.7.6.2.6.2.2.2.2.2.2.2.2.2.2.2.2.2.2.2.2.2.2.2.2.2.2.2.2.2.2.2.2.2.2.2.2.2.2.2.2.2.2.2.2.2.2.2.2.2.2.2.2.2.2.2.2.2.2.2.2.2.2.2.2.2.2.2.2.",
"2.2.2.2.2.2.2.2.2.2.2.2.2.2.2.2.2.2.2.2.2.2.2.2.2.2.2.2.2.2.2.2.2.2.2.2.2.2.2.2.2.2.2.2.2.2.2.2.2.2.2.2.2.2.2.2.2.2.2.2.2.2.2.2.6.2.2.) d.G._.P.P.'.G.3.3.8.8.-.7.W.'.P._.I.h.I._._.s.d.2.2.8.2.( *XhXdXrX) 4.8.3.7.6.6.,.,.6.6.2.2.2.2.2.2.2.2.2.2.2.2.2.2.2.2.2.3.3.3.2.2.2.2.2.:.:.:.:.8.8.1.:.4.4.4.6.6.2.2.2.2.3.2.4.4.4.4.2.2.2.2.2.2.2.2.2.2.2.2.2.2.2.2.2.) ` ` 4.4.2.2.2.2.2.2.2.8.8.8.:.1.,.,.-.-.Q -.L L L L L L Q =.=.b b =.=.=.Q Q Q Q -.-.:.:.4.4.2.2.2.2.2.2.2.2.2.-.2.3.) i.!.G.I.I.P.G.'.H.3.) 8.3.3.W.)._.P.I.I.I.I._.G.d.2.2.4.) ` ( tXdXfX9Xy.3.2.2.2.2.2.2.2.2.2.4.4.4.4.4.2.2.2.2.2.2.2.2.2.2.2.2.2.2.2.2.2.2.2.2.2.2.2.2.2.2.2.2.2.2.2.2.2.3.2.2.2.2.2.2.2.2.2.4.4.4.8.8.:.:.:.:.:.:.:.:.4.4.4.4.4.2.2.2.2.2.2.2.2.2.2.2.2.2.2.2.2.2.2.2.2.2.2.2.2.2.2.2.2.2.2.2.2.2.2.2.2.2.2.2.2.2.2.2.2.2.2.2.2.2.2.2.2.4.:.:.4.2.3.3.3.W._.P.).I.h.)._.7.3.7.) ` F.J.P.I.I.P.).}.F.3.8.2.3.} eXiXfXiXdXI.3.2.6.6.2.8.2.2.2.2.2.2.2.2.2.2.2.2.2.2.2.2.2.2.2.2.2.2.2.2.2.2.2.2.2.2.2.2.2.2.2.2.2.2.2.2.2.2.2.2.2.2.2.2.2.2.2.2.2.2.2.2.2.2.2.2.2.2.2.2.",
"2.2.2.2.2.2.2.2.2.2.2.2.2.2.2.2.2.2.2.2.2.2.2.2.2.2.2.2.2.2.2.2.2.2.2.2.2.2.2.2.2.2.2.2.2.2.2.2.2.2.2.2.2.2.2.2.2.2.2.2.2.2.2.2.6.2.2.) d.G._.P.P.'.G.3.2.8.8.-.7.W.'.P._.I.h.I._._.s.d.2.2.8.2.( *XhXdXrX_ 9.8.3.7.6.6.,.,.6.6.2.2.2.2.2.2.2.2.2.2.2.2.2.2.2.2.2.3.3.3.2.2.2.2.2.2.2.:.2.4.8.8.4.4.4.2.6.6.2.2.2.2.3.4.4.4.:.:.2.2.2.2.2.2.2.2.2.2.2.2.2.2.2.2.2.) ` ` 2.4.2.2.2.2.2.2.2.8.8.8.1.1.:.,.,.,.-.,.Q Q Q Q Q Q Q Q =.b b b =.=.Q Q -.-.-.:.:.4.4.2.2.2.2.2.2.2.2.2.2.-.2.3.) i.!.J.I.I.P.G.'.H.3.) 2.2.3.E._._.h.P.P.P.P._.G.5.3.2.4.! ) ( tXdXlXdXy.7.2.2.2.2.2.2.2.4.4.4.:.:.:.4.2.2.2.2.2.2.2.2.2.2.2.2.2.2.2.2.2.2.2.2.2.2.2.2.2.2.2.2.2.2.2.2.2.3.2.2.2.2.2.2.2.2.2.2.4.4.:.:.4.:.4.:.2.:.4.4.4.4.4.4.4.4.2.2.2.2.2.2.2.2.2.2.2.2.2.2.2.2.2.2.2.2.2.2.2.2.2.2.2.2.2.2.2.2.2.2.2.2.2.2.2.2.2.2.2.2.2.2.2.2.2.2.2.4.4.:.4.4.) 2.7.W.'.P.P.I.I.)._.7.2.3.) ` F.W.P.I.I.P.).!.F.2.8.2.3.} aXiXfXdXdXI.3.2.6.6.2.8.2.2.2.2.2.2.2.2.2.2.2.2.2.2.2.2.2.2.2.2.2.2.2.2.2.2.2.2.2.2.2.2.2.2.2.2.2.2.2.2.2.2.2.2.2.2.2.2.2.2.2.2.2.2.2.2.2.2.2.2.2.2.2.2.",
"2.2.2.2.2.2.2.2.2.2.2.2.2.2.2.2.2.2.2.2.2.2.2.2.2.2.2.2.2.2.2.2.2.2.2.2.2.2.2.2.2.2.2.2.2.2.2.2.2.2.2.2.2.2.2.2.2.2.2.2.2.2.2.2.6.4.2.3.d.G._.P.P.'.G.3.2.8.8.-.7.W._.P._.P.h.I._._.s.d.2.2.6.2.( *XhXdXtX3.7.2.3.7.6.6.,.,.6.6.2.2.2.2.2.2.2.2.2.2.2.2.2.2.2.2.2.3.3.2.2.2.2.2.2.2.2.2.2.2.8.8.2.2.2.2.2.2.2.2.3.3.3.4.4.:.:.:.2.2.2.2.2.2.2.2.2.2.2.2.2.2.2.2.2.) ) ` 2.2.3.3.2.2.2.2.2.3.3.8.:.:.:.:.:.1.1.1.-.,.,.-.-.-.-.-.h h h b =.=.=.=.=.-.:.:.4.4.4.2.2.2.2.2.2.2.2.2.2.2.2.3.) i.!.J.I.Y.P.G.'.H.3.) 8.` 3.E.}._.P.I.P.P.P._.J.5.3.2.4.! ` _ tXdXlXdXd.7.6.2.2.2.2.2.2.4.4.:.:.:.:.:.2.2.2.2.2.2.2.2.2.2.2.2.2.2.2.2.2.2.2.2.2.2.2.2.2.2.2.2.2.2.2.2.2.3.3.3.2.2.2.2.2.2.2.2.2.2.:.:.8.8.8.8.8.8.8.8.4.4.4.8.8.4.4.4.2.2.2.2.2.2.2.2.2.2.2.2.2.2.2.2.2.2.2.2.2.2.2.2.2.2.2.2.2.2.2.2.2.2.2.2.2.2.2.2.2.2.2.2.2.2.2.2.4.4.4.4.4.4.2.2.9.!.!.G._.I.I._._.7.3.2.) ` F.W.P.I._.P._.}.F.2.8.-.3. .gXiXfXdXhXI.3.2.6.6.2.8.2.2.2.2.2.2.2.2.2.2.2.2.2.2.2.2.2.2.2.2.2.2.2.2.2.2.2.2.2.2.2.2.2.2.2.2.2.2.2.2.2.2.2.2.2.2.2.2.2.2.2.2.2.2.2.2.2.2.2.2.2.2.2.2.",
"2.2.2.2.2.2.2.2.2.2.2.2.2.2.2.2.2.2.2.2.2.2.2.2.2.2.2.2.2.2.2.2.2.2.2.2.2.2.2.2.2.2.2.2.2.2.2.2.2.2.2.2.2.2.2.2.2.2.2.2.2.2.2.2.2.2.2.3.d.G.P.P.P.'.G.3.2.8.8.-.7.W._.P._.I.h.I._._.s.d.3.2.8.3.{ *XhXdXtX_ 5.3.3.7.6.8.,.,.6.6.2.2.2.2.2.2.2.2.2.2.2.2.2.2.2.2.2.3.2.2.2.2.2.2.8.2.2.2.6.2.6.6.6.6.6.2.6.6.2.2.3.2.2.4.4.:.:.:.2.2.2.2.2.2.2.2.2.2.2.2.2.2.2.2.2.2.4.4.2.2.3.2.2.2.2.2.2.2.3.2.:.:.:.1.8.8.8.8.8.8.:.:.:.,.-.-.L h h Q -.=.=.=.-.:.:.:.4.4.4.2.2.2.2.2.2.2.2.2.2.2.2.3.) i.!.J.P.I.P.G.'.H.4.) 4.) 3.W.}._.P.P.I.I.P._.G.5.3.2.4.) ` ( tXgXzXdXd.7.2.2.2.2.2.2.4.4.4.4.:.:.4.4.2.2.2.2.2.2.2.2.2.2.2.2.2.2.2.2.2.2.2.2.2.2.2.2.2.2.2.2.2.2.2.2.2.3.3.3.2.2.2.2.8.8.8.8.8.2.2.2.2.2.2.2.2.2.2.2.2.4.4.8.8.8.8.4.2.2.2.2.2.2.2.2.2.2.2.2.2.2.2.2.2.2.2.2.2.2.2.2.2.2.2.2.2.2.2.2.2.2.2.2.2.2.2.2.2.2.2.2.2.2.2.2.2.4.4.4.4.4.2.4.9.!.'.P._.P.P._.}.7.2.3.) ` F.W.P.I._.P.).!.F.2.8.-.3.u.gXiXpXpXhXI.y.2.6.2.4.8.2.2.2.2.2.2.2.2.2.2.2.4.2.4.2.2.2.2.2.2.2.2.2.2.2.2.2.2.2.2.2.2.2.2.2.2.2.2.2.2.2.2.2.2.2.2.2.2.2.2.2.2.2.2.2.2.2.2.2.2.2.2.2.2.",
"2.2.2.2.2.2.2.2.2.2.2.2.2.2.2.2.2.2.2.2.2.2.2.2.2.2.2.2.2.2.2.2.2.2.2.2.2.2.2.2.2.2.2.2.2.2.2.2.2.2.2.2.2.2.2.2.2.2.2.2.2.2.2.2.2.8.) ) F.U.P.P.P.P.p._ 3.8.2.P 5.J.).P._.I.I.`.I._.G.d.3.2.4.2.( >XiXhXtX} T 3.3.2.2.:.1.4.2.2.2.4.4.4.4.2.2.2.2.4.4.2.2.2.4.4.2.2.2.2.2.2.2.2.2.2.2.2.2.2.2.2.2.2.2.2.2.2.2.2.2.2.2.2.2.4.2.2.2.2.2.2.2.2.2.2.2.2.2.2.2.2.2.2.2.2.2.2.2.2.2.2.2.2.2.2.2.2.2.2.2.2.2.2.2.2.2.2.2.2.2.2.2.2.2.2.4.4.4.4.4.4.4.2.2.2.2.2.2.2.2.2.2.2.2.2.6.6.2.2.6.2.2.3.) d.!.J.P.I.P.G.'.H.4.` 4.) 7.W.'.P.P.).I.I.I.G.W.H 8.:.2.2.` ( uXaXiXgXG.) ) 8.2.2.4.2.2.2.4.2.2.3.3.3.2.2.2.2.2.2.2.4.2.2.2.4.4.4.:.4.2.2.2.2.2.2.2.2.2.2.2.2.2.2.2.2.2.2.2.2.2.2.2.2.2.2.2.2.2.2.2.2.2.2.2.2.2.2.2.2.2.2.2.2.2.2.2.2.2.2.2.2.2.2.2.2.2.2.2.2.2.2.2.2.2.2.2.2.2.2.2.2.2.2.2.2.2.2.2.2.2.2.2.2.2.2.2.2.2.2.2.2.2.2.2.2.2.2.2.8.4.2.3.` d._._.P.P.P.G._.W.7.3.7.2.` F.!.P._._._.)._.a.3.2.8.I P.dXiXpXpXhX4XT &.9.:.1.:.2.2.2.2.2.2.4.4.4.4.4.4.:.:.:.4.2.2.2.2.2.2.2.2.2.2.2.2.2.2.2.2.2.2.2.2.2.2.2.2.2.2.2.2.2.2.2.2.2.2.2.2.2.2.2.2.2.2.2.2.2.2.2.2.",
"2.2.2.2.2.2.2.2.2.2.2.2.2.2.2.2.2.2.2.2.2.2.2.2.2.2.2.2.2.2.2.2.2.2.2.2.2.2.2.2.2.2.2.2.2.2.2.2.2.2.2.2.2.2.2.2.2.2.2.2.2.2.2.2.2.8.) ) F.P.P.P.P.P.p._ 3.8.2.K 3.J.).P.P.I.I.`.I._.G.5.3.4.:.) { wXiXgXtXu.T 7.2.4.:.:.6.2.2.2.2.2.2.2.2.2.2.2.2.2.2.2.2.2.2.2.2.2.2.2.2.2.2.2.2.2.2.2.2.2.2.2.2.2.2.2.2.2.2.2.2.2.2.2.2.2.2.2.2.2.2.2.2.2.2.2.2.2.2.2.2.2.2.2.2.2.2.2.2.2.2.2.2.2.2.2.2.2.2.2.2.2.2.2.2.2.2.2.2.2.2.2.2.2.2.2.2.2.2.2.2.2.2.2.2.2.2.2.2.2.2.2.2.2.2.2.6.2.2.2.6.2.2.3.) d.!.J.P.U.P.G.'.H.4.` 4.) 7.G.}._.P.).I.I.I.G.W.P 8.:.2.3._ ( uXaXiXaXG.` ) 7.3.2.4.:.2.2.2.2.2.3.3.3.2.2.2.2.2.2.2.2.2.2.4.4.4.4.:.:.2.2.2.2.2.2.2.2.2.2.2.2.2.2.2.2.2.2.2.2.2.2.2.2.2.2.2.2.2.2.2.2.2.2.2.2.2.2.2.2.2.2.2.2.2.2.2.2.2.2.2.2.2.2.2.2.2.2.2.2.2.2.2.2.2.2.2.2.2.2.2.2.2.2.2.2.2.2.2.2.2.2.2.2.2.2.2.2.2.2.2.2.2.2.2.2.2.2.2.8.8.2.3.` p._._.h.P.P.G.W.^.7.3.7.2.` F.!.P._.`._.)._.F.3.2.8.I P.dXpXpXpXfX4XT &.7.:.:.:.2.2.2.2.2.2.4.4.4.4.4.4.:.:.:.4.2.2.2.2.2.2.2.2.2.2.2.2.2.2.2.2.2.2.2.2.2.2.2.2.2.2.2.2.2.2.2.2.2.2.2.2.2.2.2.2.2.2.2.2.2.2.2.2.",
"2.2.2.2.2.2.2.2.2.2.2.2.2.2.2.2.2.2.2.2.2.2.2.2.2.2.2.2.2.2.2.2.2.2.2.2.2.2.2.2.2.2.2.2.2.2.2.2.2.2.2.2.2.2.2.2.2.2.2.2.2.2.2.2.2.8.) / F.P.P.P.P.J.p._ 3.8.:.G 5.J.).P.P.I.I.`.I._.G.5.3.4.:.2.{ eXaXgXtXp.y.7.2.1.1.1.,.6.6.6.2.3.3.3.3.3.3.3.3.3.3.3.3.3.3.2.2.2.2.2.2.2.2.2.2.2.2.2.2.2.2.2.2.2.2.2.2.2.2.2.2.2.2.2.2.2.2.2.2.2.2.2.2.2.2.2.2.2.2.2.2.2.2.2.2.2.2.2.2.2.2.2.2.2.2.2.2.2.2.2.2.2.2.2.2.2.2.2.2.2.2.2.2.2.2.2.2.2.2.2.2.2.2.2.2.2.2.2.2.2.2.2.2.2.2.2.6.6.2.2.6.2.3.3.) d.!.J.P.I.P.G.}.H.4.2.4.) 3.G._.P.P.).I.I.P.G.W.F 4.:.2.2._ ( uXaXpXaXP._ ` 7.8.2.4.2.2.2.2.2.2.2.2.2.2.6.2.2.2.2.6.6.2.2.2.2.2.2.2.2.2.2.2.2.2.2.2.2.2.2.2.2.2.2.2.2.2.2.2.2.2.2.2.2.2.2.2.2.2.2.2.2.2.2.2.2.2.2.2.2.2.2.2.2.2.2.2.2.2.2.2.2.2.2.2.2.2.2.2.2.2.2.2.2.2.2.2.2.2.2.2.2.2.2.2.2.2.2.2.2.2.2.2.2.2.2.2.2.2.2.2.2.2.2.2.2.2.2.2.4.4.4.3.` p._._.P.P.P.G.W.W.7.3.7.) ` F.!.P.P._.I.)._.p.3.2.8.I I.aXpXpXpXfXtX] &.8.:.:.:.2.2.2.2.2.2.2.2.2.2.4.4.2.2.2.2.2.2.2.2.2.2.2.2.2.2.2.2.2.2.2.2.2.2.2.2.2.2.2.2.2.2.2.2.2.2.2.2.2.2.2.2.2.2.2.2.2.2.2.2.2.2.2.2.",
"2.2.2.2.2.2.2.2.2.2.2.2.2.2.2.2.2.2.2.2.2.2.2.2.2.2.2.2.2.2.2.2.2.2.2.2.2.2.2.2.2.2.2.2.2.2.2.2.2.2.2.2.2.2.2.2.2.2.2.2.2.2.2.2.2.8.) / F.P.P.P.P.P.p._ 3.8.-.D 5.J.U.P.P.I.I.I.I._.G.5.3.4.:.2.{ eXgXgXdXh.y.2.2.1.1.1.1.6.6.6.3.3.3.3.3.3.3.3.3.3.3.3.3.3.3.3.2.2.2.2.2.2.2.2.2.2.2.2.2.2.2.2.2.2.2.2.2.2.2.2.2.2.2.2.2.2.2.2.2.2.2.2.2.2.2.2.2.2.2.2.2.2.2.2.2.2.2.2.2.2.2.2.2.2.2.2.2.2.2.2.2.2.2.2.2.2.2.2.2.2.2.2.2.2.2.2.2.2.2.2.2.2.2.2.2.2.2.2.2.2.2.2.2.2.4.2.6.6.2.2.6.2.3.3.) d.!.P.P.I.P.G.}.H.4.) 4.) 3.G._._.I.I.I.I.P.W.W.D 2.2.2.2.3.{ gXdXpXfXP._ / 3.7.2.8.2.2.2.2.2.2.2.2.2.2.6.2.2.2.6.6.6.2.2.2.2.2.2.2.2.2.2.2.2.2.2.2.2.2.2.2.2.2.2.2.2.2.2.2.2.2.2.2.2.2.2.2.2.2.2.2.2.2.2.2.2.2.2.2.2.2.2.2.2.2.2.2.2.2.2.2.2.2.2.2.2.2.2.2.2.2.2.2.2.2.2.2.2.2.2.2.2.2.2.2.2.2.2.2.2.2.2.2.2.2.2.2.2.2.2.2.2.2.2.2.2.2.2.2.4.4.4.3.` i._._.P.P.P.G.!.W.7.3.8.) ` F.W.P.P._._.).W.p.3.2.8.I I.aXpXpXpXfXtXy.&.8.:.1.:.2.2.2.2.2.2.2.2.2.2.2.2.2.2.2.2.2.2.2.2.2.2.2.2.2.2.2.2.2.2.2.2.2.2.2.2.2.2.2.2.2.2.2.2.2.2.2.2.2.2.2.2.2.2.2.2.2.2.2.2.2.2.2.2.",
"2.2.2.2.2.2.2.2.2.2.2.2.2.2.2.2.2.2.2.2.2.2.2.2.2.2.2.2.2.2.2.2.2.2.2.2.2.2.2.2.2.2.2.2.2.2.2.2.2.2.2.2.2.2.2.2.2.2.2.2.2.2.2.2.2.8.) ) F.P.P.P.P.J.i._ 3.8.-.r i.J.U.P.P.I.I.I.I._.s.5.3.4.:.2.{ gXgXdXgX`.u.Y 2.,.1.1.1.6.6.6.2.2.2.2.2.2.2.2.2.2.2.2.2.2.2.2.2.2.2.2.2.2.2.2.2.2.2.2.2.2.2.2.2.6.6.6.6.6.6.6.6.6.6.6.6.6.6.2.2.2.2.2.2.2.2.2.2.2.2.2.2.2.2.2.2.2.2.2.2.2.2.2.2.2.2.2.2.2.2.2.2.2.2.2.2.2.2.2.2.2.2.2.2.2.2.2.2.2.2.2.2.2.2.2.2.2.2.2.2.2.2.2.2.2.2.2.2.2.2.2.6.2.2.3.) d.!.P.P.I.I.G.}.G.4.2.3.) 3.s.)._.I.I.I.I.P.W.W.D 2.2.2.3.3.} gXdXfXfXI._ I _ 3.3.8.2.2.6.,.,.6.6.6.2.6.6.6.6.6.6.6.6.6.6.6.2.6.2.6.2.2.2.2.2.2.2.2.2.2.2.2.2.2.2.2.2.2.2.2.2.2.2.2.2.2.2.2.2.2.2.2.2.2.2.2.2.2.2.2.2.2.2.2.2.2.2.2.2.2.2.2.2.2.2.2.2.2.2.2.2.2.2.2.2.2.2.2.2.2.2.2.2.2.2.2.2.2.2.2.2.2.2.2.2.2.2.2.2.2.2.2.2.2.2.2.2.2.2.3.4.4.4.2.) d._._.P.P.P.G.J.W.3.2.8.) ) F.W.P.P._.I.)._.p.3.2.7.U I.fXpXpXpXfXtXu.&.8.:.8.:.2.2.2.2.2.2.2.2.2.2.2.2.2.2.7.2.2.2.2.2.2.2.2.2.2.2.2.2.2.2.2.2.2.2.2.2.2.2.2.2.2.2.2.2.2.2.2.2.2.2.2.2.2.2.2.2.2.2.2.2.2.2.2.2.",
"2.2.2.2.2.2.2.2.2.2.2.2.2.2.2.2.2.2.2.2.2.2.2.2.2.2.2.2.2.2.2.2.2.2.2.2.2.2.2.2.2.2.2.2.2.2.2.2.2.2.2.2.2.2.2.2.2.2.2.2.2.2.2.2.2.8.) ) F.U.P.P.P.J.d.) 2.8.-.3 a.'.P.G.P.I.I.I.I._.s.5.3.2.1.2.{ gXgXdXgX4Xh.3.3.2.:.1.6.6.6.6.2.2.2.2.2.2.2.2.2.2.2.2.2.2.2.2.2.2.2.2.2.2.2.2.2.2.2.2.2.2.2.2.6.6.6.6.6.6.6.6.6.6.6.6.6.6.6.2.2.2.2.2.2.2.2.2.2.2.2.2.2.2.2.2.2.2.2.2.2.2.2.2.2.2.2.2.2.2.2.2.2.2.2.2.2.2.2.2.2.2.2.2.2.2.2.2.2.2.2.2.2.2.2.2.2.2.2.2.2.2.2.2.2.4.4.2.2.2.2.2.6.2.2.3.) d.!.P.P.I.I.P.}.G.3.3.2.Y 2.a.)._._.I.I.I._._.W.D -.2.2.3.3.} gXfXpXfX2X .( _ _ 3.7.2.2.6.6.6.6.6.6.6.6.6.6.6.6.6.6.6.6.6.6.6.6.6.6.6.2.2.2.2.2.2.2.2.2.2.2.2.2.2.2.2.2.2.2.2.2.2.2.2.2.2.2.2.2.2.2.2.2.2.2.2.2.2.2.2.2.2.2.2.2.2.2.2.2.2.2.2.2.2.2.2.2.2.2.2.2.2.2.2.2.2.2.2.2.2.2.2.2.2.2.2.2.2.2.2.2.2.2.2.2.2.2.2.2.2.2.2.2.2.2.2.2.2.3.4.4.4.2.) d._._.P.P.P.G.J.^.2.2.3.! ) F.J.P.P._.I.)._.F.3.2.3.U L.fXpXpXpXfXtXu.&.2.2.8.:.2.2.2.2.2.2.2.2.2.2.2.2.3.3.3.3.2.2.2.2.2.2.2.2.2.2.2.2.2.2.2.2.2.2.2.2.2.2.2.2.2.2.2.2.2.2.2.2.2.2.2.2.2.2.2.2.2.2.2.2.2.2.2.2.",
"2.2.2.2.2.2.2.2.2.2.2.2.2.2.2.2.2.2.2.2.2.2.2.2.2.2.2.2.2.2.2.2.2.2.2.2.2.2.2.2.2.2.2.2.2.2.2.2.2.2.2.2.2.2.2.2.2.2.2.2.2.2.2.2.2.8.) ) F.U.P.P.'.J.d.2.2.8.Q # F.'.P.G.P.I.I.I.I._.s.5.3.4.8.3.} gXdX9XfXdX4Xh.3.3.3.2.2.3.3.2.4.:.:.:.:.:.:.:.:.:.:.:.:.:.:.:.2.2.2.2.2.2.2.2.2.2.2.2.2.2.2.2.6.6.6.6.6.6.6.6.6.6.6.6.6.6.6.6.2.2.2.2.2.2.2.2.2.2.2.2.2.2.2.2.2.2.2.2.2.2.2.2.2.2.2.2.2.2.2.2.2.2.2.2.2.2.2.2.2.2.2.2.2.2.2.2.2.2.2.2.2.2.2.2.2.2.2.2.2.2.2.2.2.2.4.2.2.2.2.2.6.2.2.3.) d.!.P.I.I.P.P.}.G.3.3.2.Y Y s.).)._.I.`.I._._.^.$ -.2.2.3.y.} gXfXpXfXgXD.{ _ _ _ 3.2.2.6.6.6.6.6.6.6.6.2.2.2.2.2.2.2.6.6.6.6.6.6.6.6.2.2.2.2.2.2.2.2.2.2.2.2.2.2.2.2.2.2.2.2.2.2.2.2.2.2.2.2.2.2.2.2.2.2.2.2.2.2.2.2.2.2.2.2.2.2.2.2.2.2.2.2.2.2.2.2.2.2.2.2.2.2.2.2.2.2.2.2.2.2.2.2.2.2.2.2.2.2.2.2.2.2.2.2.2.2.2.2.2.2.2.2.2.2.2.2.2.2.2.4.4.4.2.) d._._.P.P.P.G.!.^.3.2.3.! ) F.J.P._._.I.)._.F.3.2.3.U L.hXpXpXpXfXdXp.3.3.2.8.2.2.2.2.2.2.2.2.2.2.2.2.2.2.2.7.2.2.2.2.2.2.2.2.2.2.2.2.2.2.2.2.2.2.2.2.2.2.2.2.2.2.2.2.2.2.2.2.2.2.2.2.2.2.2.2.2.2.2.2.2.2.2.2.2.",
"2.2.2.2.2.2.2.2.2.2.2.2.2.2.2.2.2.2.2.2.2.2.2.2.2.2.2.2.2.2.2.2.2.2.2.2.2.2.2.2.2.2.2.2.2.2.2.2.2.2.2.2.2.2.2.2.2.2.2.2.2.2.2.2.2.8.2.) F._.P.P.'.J.d.3.2.8.@.# F.'.P.G.P.I.I.I.I._.s.5.3.4.8.3.| hXdX3XfXfXdX2X{ _ _ _ _ _ 3.3.4.:.:.:.:.:.:.:.:.:.:.:.:.:.:.:.2.2.2.2.2.2.2.2.2.2.2.2.2.2.2.2.2.2.6.2.6.2.6.2.6.2.6.2.6.2.6.2.2.2.2.2.2.2.2.2.2.2.2.2.2.2.2.2.2.2.2.2.2.2.2.2.2.2.2.2.2.2.2.2.2.2.2.2.2.2.2.2.2.2.2.2.2.2.2.2.2.2.2.2.2.2.2.2.2.2.2.2.2.2.2.2.2.2.2.2.2.2.2.2.6.2.2.3.) d.!.P.I.I.P.P.}.G.3.3.2.Y Y s.[.)._._.`.I._.}.^.$ #.6.2.3.y.y.gXfXpXfXhXY.| { ( _ 3.2.2.6.6.6.6.6.6.6.4.:.4.4.4.4.2.2.6.6.6.6.6.6.6.6.2.2.2.2.2.2.2.2.2.2.2.2.2.2.2.2.2.2.2.2.2.2.2.2.2.2.2.2.2.2.2.2.2.2.2.2.2.2.2.2.2.2.2.2.2.2.2.2.2.2.2.2.2.2.2.2.2.2.2.2.2.2.2.2.2.2.2.2.2.2.2.2.2.2.2.2.2.2.2.2.2.2.2.2.2.2.2.2.2.2.2.2.2.2.2.2.2.2.2.4.4.4.2.` d._._.P.P.P.G.J.^.2.2.4.! ) F.J.P._._._.).!.F.3.2.7.U I.hXpXpXpXdXdXs.T 3.2.7.2.4.4.4.4.4.2.2.2.2.2.2.2.2.2.6.2.2.2.2.2.2.2.2.2.2.2.2.2.2.2.2.2.2.2.2.2.2.2.2.2.2.2.2.2.2.2.2.2.2.2.2.2.2.2.2.2.2.2.2.2.2.2.2.2.",
"2.2.2.2.2.2.2.2.2.2.2.2.2.2.2.2.2.2.2.2.2.2.2.2.2.2.2.2.2.2.2.2.2.2.2.2.2.2.2.2.2.2.2.2.2.2.2.2.2.2.2.2.2.2.2.2.2.2.2.2.2.2.2.2.2.6.2.) G._.P.P.P.J.5.2.8.1.a i H.J.P.P.P.I.I.I.I.P._.3.Y 8.-.3.u.iXhXpXfXfXpXdXY...( A U { [ U ` :.:.:.:.4.4.4.4.4.4.4.:.:.:.2.2.2.2.2.2.3.2.3.3.8.2.2.2.2.2.2.2.2.2.2.2.2.2.2.2.2.2.2.2.2.2.2.2.2.2.2.2.2.2.2.2.2.2.2.2.2.2.2.2.2.2.2.2.2.2.2.2.2.2.2.2.2.2.2.2.2.2.2.2.2.2.2.2.2.2.2.2.2.2.2.2.2.2.2.2.2.2.2.2.2.2.2.2.2.2.2.2.2.2.2.2.2.2.2.2.2.2.2.3.3.F.P.P.)._._.}.a.) 3.7.F K E.)._._.`.).h._.G.^.G i -.6.2._ s.tXhXpXfXaXgXrX..R I 7.d.7.7.7.8.6.2.2.2.:.^ ^ :.:.4.4.4.4.:.-.-.-.2.6.6.2.2.2.2.2.2.2.2.2.2.2.2.2.2.2.2.2.2.2.2.2.2.2.2.2.2.2.2.2.2.2.2.2.2.2.2.2.2.2.2.2.2.2.2.2.2.2.2.2.2.2.2.2.2.2.2.2.2.2.2.2.2.2.2.2.2.2.2.2.2.2.2.2.2.2.2.2.2.2.2.2.2.2.2.2.2.2.2.2.2.2.2.2.2.2.2.2.2.4.4.:.:.4.3.i.J.)._.P.J.J.J.a.2.2.2.8.4.9.J.P.P.P.P._.W.a.3.7.H T Y.hXsXpXzXdXdX{.y.Y 3.7.7.4.:.:.:.4.4.4.2.2.2.2.2.2.2.2.2.2.2.2.2.2.2.2.2.2.2.2.2.2.2.2.2.2.2.2.2.2.2.2.2.2.2.2.2.2.2.2.2.2.2.2.2.2.2.2.2.2.2.2.2.2.2.2.2.",
"2.2.2.2.2.2.2.2.2.2.2.2.2.2.2.2.2.2.2.2.2.2.2.2.2.2.2.2.2.2.2.2.2.2.2.2.2.2.2.2.2.2.2.2.2.2.2.2.2.2.2.2.2.2.2.2.2.2.2.2.2.2.2.2.2.6.2.) s._._.P.G.G.3.) 8.,.i i E.J.P.P.P.I.I.I.I.P._.3.Y 8.-.2.| =XfX8X8X8X8XiXaXwXT.K.L.L.f.u.y.3.3._ ) ) Y I _ ) _ 3.3.3.3.7.3.3.3.3.3.3.3.3.3.3.2.3.2.3.8.8.2.2.2.2.2.8.2.8.2.2.2.2.2.4.8.8.2.2.2.2.2.2.2.2.2.2.2.2.2.2.2.2.2.2.2.2.2.2.2.2.2.2.2.2.2.2.2.2.2.2.2.2.2.2.2.2.2.2.2.2.2.2.2.2.2.2.2.2.2.2.2.2.2.2.2.2.2.2.2.2.2.2.2.2.2.2.2.2.2.2.2.2.3.d.G.}.P.I.P._.}.a.2.2.7.D Y E._._._.`.).h.).G.^.D i ,.8.2.) G.gXhXiXiXiXgXuXI.} ( T I &.2.2.2.7.7.a.a.n.b.4.4.4.4.4.:.:.:.4.8.8.8.8.8.2.2.2.2.2.2.2.2.2.2.2.2.2.2.2.2.2.2.2.2.2.2.2.2.2.2.2.2.2.2.2.2.2.2.2.2.2.2.2.2.2.2.2.2.2.2.2.2.2.2.2.2.2.2.2.2.2.2.2.2.2.2.2.2.2.2.2.2.2.2.2.2.2.2.2.2.2.2.2.2.2.2.2.2.2.2.2.2.2.2.2.2.2.2.2.2.2.2.4.:.:.:.4.` 5.G.)._.J.J.J.!.a.2.2.2.8.4.9.!.J.P.P.P._.!.F.3.6.Y _ ].aXpXpXfXiX5XI.T R _ d.5.3.4.4.4.4.4.4.2.4.4.4.4.8.2.2.2.2.2.2.2.2.2.2.2.2.2.2.2.2.2.2.2.2.2.2.2.2.2.2.2.2.2.2.2.2.2.2.2.2.2.2.2.2.2.2.2.2.2.2.2.2.2.2.2.",
"2.2.2.2.2.2.2.2.2.2.2.2.2.2.2.2.2.2.2.2.2.2.2.2.2.2.2.2.2.2.2.2.2.2.2.2.2.2.2.2.2.2.2.2.2.2.2.2.2.2.2.2.2.2.2.2.2.2.2.2.2.2.2.2.2.8.2.2.G.}.P._.G.G.3.! :.=.i i E.J.P.P.P.I.I.I.I.P.W.) P 8.:.2.p.eXhXfXfXpXpXfXhXgXgXgXaXaXaXwXtX4X4X4X4X].{.{.u.u.u.u.u.] ] ] T T T T Y Y Y Y 3.3.3.3.3.` 3.3.2.2.3.2.2.3.2.3.2.2.2.2.3.2.3.2.2.2.2.2.2.2.2.2.2.2.2.2.2.2.2.2.2.2.2.2.2.2.2.2.2.2.2.2.2.2.2.2.2.2.2.2.2.2.2.2.2.2.2.2.2.2.2.2.2.2.2.2.2.2.2.2.2.2.2.2.2.2.2.2.2.2.2.2.2.2.2.2.2.2.2.2.3.5.G.).P.P.P.}.}.E.2.8.8.D P E.}._._._.`.h.}.E.~.r r :.8.2.) G.uXhXdXiXiXgXgXtX2X]._.s.d.7.3.Y Y Y T ) ) ! ! ) 4.4.4.2.4.8.8.8.8.:.-.-.2.2.2.2.2.2.2.2.2.2.2.2.2.2.2.2.2.2.2.2.2.2.2.2.2.2.2.2.2.2.2.2.2.2.2.2.2.2.2.2.2.2.2.2.2.2.2.2.2.2.2.2.2.2.2.2.2.2.2.2.2.2.2.2.2.2.2.2.2.2.2.2.2.2.2.2.2.2.2.2.2.2.2.2.2.2.2.2.2.2.2.2.2.2.2.2.2.2.4.4.:.:.4.` 3.s._._.G.G.J.!.9.2.2.4.4.` 9.!.J.P.P.P.}.!.F.2.6.-.3.].dXiXiXpXhXdX2Xp.} } { U / / ) ` 4.5.9.3.2.2.2.2.2.2.2.2.2.2.2.2.2.2.2.2.2.2.2.2.2.2.2.2.2.2.2.2.2.2.2.2.2.2.2.2.2.2.2.2.2.2.2.2.2.2.2.2.2.2.2.2.2.2.2.2.",
"2.2.2.2.2.2.2.2.2.2.2.2.2.2.2.2.2.2.2.2.2.2.2.2.2.2.2.2.2.2.2.2.2.2.2.2.2.2.2.2.2.2.2.2.2.2.2.2.2.2.2.2.2.2.2.2.2.2.2.2.2.2.2.2.2.7.2.3.G.}.P._.G.F.3.:.:.=.i i E.J.P.P.P.I.I.I.`.P.G.I K 8.:.2. .*XaXdXfXiXiXsX>XwXeXaXaXaXaXdXdXdXdXdXdXdXdXdXhXhXhXdXdX5X5X5X)._._.P.s.s.p.p.d.d.5.5._ ` ` ) ` 3.3.` 3.` 2.) 3.3.3.3.3.` 3.3.2.2.2.2.2.2.2.2.2.2.2.2.2.2.2.2.2.2.2.2.2.2.2.2.2.2.2.2.2.2.2.2.2.2.2.2.2.2.2.2.2.2.2.2.2.2.2.2.2.2.2.2.2.2.2.2.2.2.2.2.2.2.2.2.2.2.4.4.2.4.4.2.8.8.2.) ) 3.p.P.P.P.P.!.}.F.2.8.2.D H ^.}._._._.`.I.].E.~.r i ,.1.8.2.a.rXgXaXhXiXaXaXaXuXgXuXuXrXrX|._.s.y.y.} _ ) / ) ' 3.3.3.3.2.8.4.2.2.:.-.2.2.2.2.2.2.2.2.2.2.2.2.2.2.2.2.2.2.2.2.2.2.2.2.2.2.2.2.2.2.2.2.2.2.2.2.2.2.2.2.2.2.2.2.2.2.2.2.2.2.2.2.2.2.2.2.2.2.2.2.2.2.2.2.2.2.2.2.2.2.2.2.2.2.2.2.2.2.2.2.2.2.2.2.2.2.2.2.2.2.2.2.2.2.2.2.2.2.4.4.:.:.4.` ) p._._.G.J.J.!.7.2.2.4.2./ 9.!.J.P._._._.!.F.2.6.-.7._.aXfXpXiXfXhXgXtX1XI.f.{ _ _ ( ( _ _ / / ) 3.3.2.8.8.7.7.2.2.2.2.2.2.2.2.2.2.2.2.2.2.2.2.2.2.2.2.2.2.2.2.2.2.2.2.2.2.2.2.2.2.2.2.2.2.2.2.2.2.2.2.2.2.2.2.",
"2.2.2.2.2.2.2.2.2.2.2.2.2.2.2.2.2.2.2.2.2.2.2.2.2.2.2.2.2.2.2.2.2.2.2.2.2.2.2.2.2.2.2.2.2.2.2.2.2.2.2.2.2.2.2.2.2.2.2.2.2.2.2.2.2.7.2.2.G.}.P.P.J.F.3.2.:.b p a E.J.P.P.P.I.I.I.).I.G.I D 8.:.:./ U.rXuXgXgXaXhXgXgXgXgXgXuXgXgXdXdXdXdXhXhXhXhXdXdXdXdXdXdXdXgXgXgXgXgXuXuXuXyXyXyX@XOXOXOXoXoXG.F.F.F.a.i.i.5.) ) ) / I I F F 2.2.2.2.2.2.2.2.2.2.2.2.2.2.2.2.2.2.2.2.2.2.2.2.2.2.2.2.2.2.2.2.2.2.2.2.2.2.2.2.2.2.2.2.2.2.2.2.2.2.2.2.2.2.2.2.2.2.2.2.2.2.2.2.2.2.2.2.2.2.2.6.2.2.2.2.2.3.G.'._._.W.W.!.9.:.:.-.r P ^.}.^._._.`.I.].E.~.r i ,.1.8.2.` G.].eXhXaXaXdXeXdXgXgXuXuXuXuXtXrX2X1XY.P.G.p. .} ( I I Y / ) 2.3.8.7.9.2.2.2.2.2.2.2.2.2.2.2.2.2.2.2.2.2.2.2.2.2.2.2.2.2.2.2.2.2.2.2.2.2.2.2.2.2.2.2.2.2.2.2.2.2.2.2.2.2.2.2.2.2.2.2.2.2.2.2.2.2.2.2.2.2.2.2.2.2.2.2.2.2.2.2.2.2.2.2.2.2.2.2.2.2.2.2.2.2.2.2.2.2.2.2.2.2.2.4.:.:.:.4.` ) p.P._.P.J.J.G.7.2.2.4.! ! 9.!.J.P._._.}.W.9.! 8.,.2.s.wXhXfXpX7XiXgXgXgXgXwX3XY.I.K.p.u.{ T I T T Y Y Y Y Y Y 2.2.2.2.2.2.2.2.2.2.2.2.2.2.2.2.2.2.2.2.2.2.2.2.2.2.2.2.2.2.2.2.2.2.2.2.2.2.2.2.2.2.2.2.2.2.2.2.",
"2.2.2.2.2.2.2.2.2.2.2.2.2.2.2.2.2.2.2.2.2.2.2.2.2.2.2.2.2.2.2.2.2.2.2.2.2.2.2.2.2.2.2.2.2.2.2.2.2.2.2.2.2.2.2.2.2.2.2.2.2.2.2.2.6.7.2.2.a._.G.J.W.F.3.:.:.a p a !.J.P.P.P.I.I.I.I._._.F D 2.:.4.W 9.!.|.tXtXqXeXeXeXuXeXtXtXuXgXtXeXtXtXtXeXtXeXtXtXtXtXuXgXgXgXtXrXtXtXrXrXuXyXuXuXyXyXyXyXyXyXuXuXuXyXyXyXyXyXOXOXOXoX|.}.}.}.E.V.9.9.7.8.2.2.2.2.2.2.2.2.2.2.2.2.2.2.2.2.2.2.2.2.2.2.2.2.2.2.2.2.2.2.2.2.2.2.2.2.2.2.2.2.2.2.2.2.2.2.2.2.2.2.2.2.2.2.2.2.2.2.2.2.2.2.2.2.6.6.2.2.2.3.3.d.G.}.].|._.W.^.M.4.8.! r P ^.}.^._._.`.I.].W.~.r i =.;.m.:.! ' D.Y.aXiXiXdXgXgXgXgXtXuXuXuXgXgXgXgXgXtXtX3X].I.I.p.u.y.3._ ) Y Y &.2.2.2.2.2.2.2.2.2.2.2.2.2.2.2.2.2.2.2.2.2.2.2.2.2.2.2.2.2.2.2.2.2.2.2.2.2.2.2.2.2.2.2.2.2.2.2.2.2.2.2.2.2.2.2.2.2.2.2.2.2.2.2.2.2.2.2.2.2.2.2.2.2.2.2.2.2.2.2.2.2.2.2.2.2.2.2.2.2.2.2.2.2.2.2.2.2.2.2.4.:.:.:.4.) ) d.G.P.'.'.G.F.2.2.4.4.^ E 5.!.J.P._._._.G.7.P e.,.2.d.1XaXfXpXiXdXdXdXdXhXhXhXhXgXdXwXtX3X2X].P.P.s.s.d.7.3.3.3.2.2.2.2.2.2.2.2.2.2.2.2.2.2.2.2.2.2.2.2.2.2.2.2.2.2.2.2.2.2.2.2.2.2.2.2.2.2.2.2.2.2.2.2.2.2.2.",
"2.2.2.2.2.2.2.2.2.2.2.2.2.2.2.2.2.2.2.2.2.2.2.2.2.2.2.2.2.2.2.2.2.2.2.2.2.2.2.2.2.2.2.2.2.2.2.2.2.2.2.2.2.2.2.2.2.2.2.2.2.2.2.2.2.8.2.2.a.W.G.G.G.F.3.:.,.a 7 h !.J.P.P.P.I.I.I.h._._.F $ ! :.8.L ! ! ) p.u.{ ..{ { {  .u.p.p.p.p. .p. . . . . .D. .p. . . . . .| | | | u.u.u.u. . . . .y. .i.i.' ' _ _ _ _ _ _ p.p.p.i.d.y.y.5.M.V.9.9.9.8.8.8.2.2.2.2.2.2.2.2.2.2.2.2.2.2.2.2.2.2.2.2.2.2.2.2.2.2.2.2.2.2.2.2.2.2.2.2.2.2.2.2.2.2.2.2.2.2.2.2.2.2.2.2.2.2.2.2.2.2.2.2.2.2.6.6.2.2.7.3.3.5.p.G._._.F.a.E.4.-.1.P r P /.}.^._._.I.h.).E.^.r i b >.v.:.! )  ...K.L.L.-X3X3X3X3XqXeXeXtXeXaXaXaXgXhXhXfXgXhXgXgXgX].)._.s.d.3.Y Y 2.2.2.2.2.2.2.2.2.2.2.2.2.2.2.2.2.2.2.2.2.2.2.2.2.2.2.2.2.2.2.2.2.2.2.2.2.2.2.2.2.2.2.2.2.2.2.2.2.2.2.2.2.2.2.2.2.2.2.2.2.2.2.2.2.2.2.2.2.2.2.2.2.2.2.2.2.2.2.2.2.2.2.2.2.2.2.2.2.2.2.2.2.2.2.2.2.2.4.:.:.:.4.) ` 5.p.G.P.'.F.3.3.2.8.4.W H 3.!.P.P._.P.W.G.3.G 0.0.6.3.f.=XiXpXhXfXdXiXiX7XiXiXfXpXfXfXfXhXgXdXgXtXtXrXrX|.|.}.F.V.9.9.8.2.2.2.2.2.2.2.2.2.2.2.2.2.2.2.2.2.2.2.2.2.2.2.2.2.2.2.2.2.2.2.2.2.2.2.2.2.2.2.2.2.2.2.",
"2.2.2.2.2.2.2.2.2.2.2.2.2.2.2.2.2.2.2.2.2.2.2.2.2.2.2.2.2.2.2.2.2.2.2.2.2.2.2.2.2.2.2.2.2.2.2.2.2.2.2.2.2.2.2.2.2.2.2.2.2.2.2.2.2.8.-.! a.W.F.F.H.9.2.-.-.t 7 a !._._.P.P.I.I.I.P._.}.F $ -.,.v.B.B.,.-.3.3.I / _ _ ` 3.3.3.Y I / W W / / / / / W W / / ` ` ` ' _ } } T T T T T _ _ / / Y Y ) ) 3._ _ 3.3.3.3.3.Y / / ) ) ) ) ) -.-.-.-.2.:.2.2.2.2.2.2.2.2.2.2.2.4.4.4.4.4.4.4.4.4.4.4.4.4.:.:.4.4.4.4.4.4.4.4.4.4.4.4.4.4.4.4.4.4.4.4.4.4.4.4.4.4.4.4.4.4.4.4.4.:.1.1.1.1.1.1.1.8.8.2.-.-.3.7.7.8.! ! :.Q y Q L e P ^.}.^._._.`.h._.E.(.y e a >.v.1.~ 4.` / / ( U ( { ( ( y.p.y.y.} y.u.p.K.P.I.I.I.I.].4X|.|.rXrXOXOXoX}.^.~.2.2.6.2.6.2.6.2.6.2.6.2.6.2.6.2.,.4.6.4.6.4.6.4.6.4.6.4.6.4.6.4.4.4.4.4.4.4.4.4.4.4.4.4.4.4.4.4.4.:.4.:.4.:.4.:.4.:.4.:.4.:.4.:.4.:.4.:.4.:.4.:.4.:.4.:.8.1.:.4.4.4.4.4.4.4.4.4.4.4.4.4.4.4.4.4.2.4.:.:.:.:.:.4.) 3.5.F.!.(.M.! :.,.:.:.W G ` !.J.P.P.P.W.F.) D ,.e.8.) { L.wXiXeXwXeXtXeXqXwXwX3X3X2X1X1X1X1X`.`.)._._._.P.G.G.^.~.E.M.7.2.2.2.2.2.2.2.2.2.2.2.2.2.2.2.2.2.2.2.2.2.2.2.2.2.2.2.2.2.2.2.2.2.2.2.2.2.2.2.2.2.2.2.",
"3.3.3.2.3.3.3.3.3.2.3.2.3.2.3.2.4.4.4.4.4.4.4.4.2.2.2.2.2.2.2.2.2.3.2.3.3.3.3.3.3.3.3.3.3.3.3.3.2.3.2.3.2.3.2.3.3.3.3.3.3.3.2.2.:.:.:.:.4.4.:.:.4.:.:.=.Q y + Q !._._.P.P.P.P.P.p.!.E.! r a b b >.>.<.<.,.,.,.,.,.,.,.,.,.,.,.,.,.-.-.-.-.-.:.:.-.-.-.-.-.-.-.:.6.6.6.6.6.6.6.6.6.6.6.6.6.8.8.8.6.6.6.6.6.6.7.6.6.6.6.6.6.6.6.6.6.8.6.8.8.8.8.8.6.8.6.8.6.8.6.8.1.,.,.,.,.,.:.:.:.:.:.:.,.,.,.,.1.1.:.:.1.1.1.1.1.1.:.:.1.1.1.1.,.,.,.,.,.,.,.,.,.,.,.-.=.Q Q =.x x x b x m x x p p p p p p p p u 9 p 9 9 9 9 t t r -.~.}._.x._.{.h.W.}.E.G e a b b b b >.>.,.,.-.=.=.>.>.,.,.,.,.,.,.,.,.,.,.,.-.-.-.-.-.-.:.:.:.,.1.1.1.1.8.e.,.6.w.6.6.,.6.,.6.,.6.,.6.,.6.,.1.1.1.1.1.1.1.1.,.<.,.<.<.<.<.<.>.>.,.,.,.1.1.1.1.1.1.1.1.1.1.1.,.,.,.,.,.,.,.,.,.,.1.1.1.1.1.1.1.1.1.,.,.<.,.<.;.;.;.;.;.;.;.;.,.,.,.,.,.,.,.,.,.,.,.,.,.,.,.,.1.1.1.1.1.1.1.1.1.1.8.8.8.1.1.1.<.N.<.;.r 3 M.J.J.G.G.J.J.F.) 3 :.4.4.) ) ' 5.' _ _ ' ' ' _ _ _ _ _ _ _ ( _ _ _ / / / ) ) ) ) ) ) ) ) ) ) ) ) ) 3.3.3.3.3.3.` 3.2.2.2.2.2.2.2.2.2.8.3.8.7.8.3.2.2.2.2.2.2.2.4.4.2.2.2.2.2.2.2.2.",
"2.2.2.2.3.3.3.3.2.2.2.2.2.2.2.2.4.4.4.4.4.4.2.2.:.:.:.:.:.:.:.2.2.2.2.2.2.2.2.2.2.2.2.2.2.2.2.2.8.8.8.8.8.8.8.8.8.8.8.8.8.8.8.8.:.,.,.,.,.,.:.:.;.Q ,.Q Q a 2 -.^._._.P.P.P.P.P.G.!.E.! e 7 9 9 9 u u u p p p p x x x x x x x x b h h h h k b k h h h h h h h h =.=.@.=.@.=.=.=.>.=.=.=.=.=.=.=.>.=.-.=.,.=.,.=.$.=.$.=.$.=.$.=.>.=.>.=.>.=.>.=.>.=.>.=.>.=.>.=.=.=.=.=.=.=.=.Q ;.;.>.=.;.=.>.=.=.Q =.Q =.=.=.=.=.Q =.Q =.=.=.=.a a a a a a a a t t t r i e e e 9 9 9 9 9 9 9 9 z p z p z p z p l 0 l 0 q q q p a a -.E.[._.x.{.{.x.W.}.E.G 2 e 7 7 7 9 7 9 u u p q q q p p p z q q q p p p q p p i i p p i p i i i p p p p p x i i i i i i i i x x x x x x x x x x x x x x x z x x z z x z z z p a x a x x x b x a x a x a x a h h h g h h h g p p g g g h g g h h h p p p g g h h h h h h h h a a a h a h a a a a a h a h a a a p a p i p i p i p a p i p i p s c q g t y F.J.G.G.G.J.!.H.) % G ! 4.! ^ :.:.! ! ! :.:.:.:.:.:.2.2.2.2.) ) 2.2.2.2.2.2.2.2.2.2.9.9.9.9.9.9.9.9.2.2.2.2.) ) ` 2.2.2.2.2.2.2.2.2.2.2.2.2.2.2.2.2.:.:.:.:.8.8.4.:.:.:.:.:.:.:.:.:.",
"8.8.1.1.8.8.8.8.8.8.4.4.8.8.8.1.1.1.1.1.1.1.1.1.1.1.1.1.1.1.1.1.1.1.8.1.1.1.,.1.8.1.8.1.8.1.8.1.1.,.1.,.1.,.1.,.-.-.-.-.-.-.-.-.x b b b b b b b i i a i i i 7 ,.^._._.P.P.P.P.P.P.!.E.8.y 7 u p u u p p p p p p u e 9 7 9 7 9 7 e e e e e e e e e e e e e e e e 7 7 7 7 7 7 7 7 9 9 p t p t 9 9 9 9 p 9 p t p t u 7 u 9 p 9 p 9 p t p t p p p t p p p p p p p t e e e i t t t t i t i t i i i i t t e i i i i i t t e i i i i i e e e e e e e e i i i t i t i i p p p p z p z p 9 9 9 9 u 9 9 9 9 9 q 9 9 9 9 e y J 2.E.[.x.c.{._._._.}.E.2.r 2 y i i i i p p p i p p p p p i i p p p p p p p p i i i i i i i i u i i i i i p p p 9 p p p p p p 9 9 9 9 9 7 9 7 9 7 9 7 9 7 9 7 9 7 9 7 7 7 7 7 7 7 7 7 e e u e i p i p i t i t 9 9 9 9 8 8 8 8 9 9 9 9 9 9 t t 8 9 8 9 9 9 9 t t t t t t t t t 7 7 e 8 e 7 7 7 7 7 e 8 e 7 7 7 i t p p t p i p t t t t t t t p w w 1 t 2 D F.G.D.D.G.J.'.G.) % L =.:.:.1.1.1.:.1.1.1.1.1.1.1.1.8.8.8.8.8.m.8.8.,.,.,.,.,.,.,.,.-.-.-.-.-.-.-.-.8.8.4.4.:.:.:.:.1.1.8.1.1.1.1.1.1.1.1.1.1.1.1.1.1.1.1.1.1.1.1.1.1.1.1.1.1.1.1.1.",
",.,.,.,.,.,.,.,.1.,.1.1.1.1.1.,.1.1.1.<.1.1.,.1.1.1.1.<.1.1.1.1.1.1.<.<.<.<.>.>.>.>.>.>.>.>.>.>.a x x x x x x x p p p p p p p p p p u p u p u p u 7 p 7 u u 7 ,.^._._.P.P.P.P.P.P.J.!.F.-.e e x i i i i p p p p p a p p p p p p i i i i i i i i i i i i i i i p t t t t t t t t t t t t t t t t 8 8 8 8 t 8 t 8 t q t s t s g g q t t t q q q 8 8 8 q q q q q t i i i i i i i i i i i i i i i i i i i i i i i i i i i i i i i i p p p p p p p p i i i i i i p p p p p p p p p p p p p p p p p p p p p p p p i y # G 7.}.|._.c.c.h._._._.W.9.! y r r r r e e e e i i y y i i i i i i i i i i i i t t t t t t t t t t t t t i i i t q t t t t q t g p p g g g g p p a a a a a a a a a a a p p p p a p a p a a a a i i i i p p p p t 9 t t t t t t t t t t t t p t t t t t t t p p t t t t t t t t t t t t t t t t t t t t t t t t t t t t t t t t t t t t t t t 9 p p 7 t 3 V F.G.P.D.G.P.}.!.3.D # e i a Q =.-.=.Q h Q h Q h Q h =.b =.b =.=.=.=.;.;.;.;.;.;.;.;.1.1.1.1.1.1.1.1.,.;.,.;.>.;.>.;.,.<.1.<.1.<.1.<.1.1.1.1.1.<.1.,.<.<.,.<.1.1.1.<.,.<.,.<.,.<.,.<.",
"x x x x m x x x =.m m m =.m =.m x x x x x x x x x x x x x x x x x x z z z p p p p p p p p p p q 9 9 q q q q q q q q q q q q q q p p p p p p p p p 9 z 9 p p 9 1.^._._.P.P.I.P.I.P.P.}.W.6.r = i e e e e e e e e e e e e e e e e i i i i i i i i i i i i i i i i t 8 8 8 8 8 8 8 9 9 8 8 9 8 8 8 < < < 8 8 8 8 8 8 8 8 8 8 8 8 8 8 8 < 8 8 8 8 < 8 8 8 8 8 8 8 7 e i i i i i i i i i i i i i u u e e e e e e e e e e e e e e e e e i i i i i u e e e e e e e e e e e e e e e e e i i i i i i i i r r i i i r r 3 G ) F.}.|._.c.c.h._._.W.W.!.H.4.D G G y D D J D D r r r r r r r r r r r r r r r r r r r r r r r e r r r r r r r 7 8 9 8 7 8 8 8 8 7 7 7 8 8 8 8 e e e e e e e e i i i i i r r r e e e t r e r e e e e e e e e e t 8 t t t t t t t t t t t t t t 7 7 7 8 t t t t t t t t t t t t t t t t t t t t t t t t t t t t t t t t t t t t t t t t t t t t p p i y 3 C G.U.P.P.P.P.'.}.F.2.r e e e i i i a i i i i i i i t p p t t p p p p 7 7 9 9 9 9 7 7 p p p p p p p p x a a a a p a p x v x v z v z v x v v v b v v x x x x x x x x x x x x x x x x x ",
"i i u u u u u u u u i u i i i i i i i i i u u u u u u u u u u u p q 9 9 9 9 9 9 q q q q q q q q q q q q q q q q p q p p p p q p p p p p p p p p p u p 9 p p 9 1.^._.P.P.I.I.I.I.I.P._.}.~.2.#.-.P Q Q Q Q Q Q Q L L a a L J L L L J J L J J J J L L L L J J J L L E E E E h E E a a a y a y y y f f h h h h h h y y f f y f y y a a a a a a y y a a a y a a a L L L L L L L L L L L L L @.@.J J L L L L L L L @.L L L L L L L L L L J L L L J J @.@.@.@.@.@.@.@.P Q P Q P Q P Q L L P L P L P P G K L G G G G F F.E.W._._.c.`.`.I._._.P._.}.!.!.H.H.F.E.E.F.l.l.9.9.9.7.7.7.7.7.3.3.3.3.3.3.3.3.4.:.:.:.:.:.:.:.-.-.-.-.:.:.:.-.-.=.=.=.-.-.=.~ a a a a a a a a y y y y y y y r r r r r r r r r r 2 r 2 r r r r r r r r r r r r t t t t t t t t e e e e r e r r 2 2 e 2 e 2 e e e e e e e e e 2 e 7 e 8 e 7 e 7 e 7 e 8 e e e 7 t t t t t t t t t t e t e t t t , e 2 r % B G.U.P.P.I.P._.'.W.F.,.a i i i e e i i i i i i i i t t 9 t 9 t t t t p p g p g g p a p p p p p p p p u e u e u 9 u 7 7 7 7 7 7 7 7 7 7 7 7 7 7 7 7 7 u u u u u u i u u u u u u u u u ",
"i i i i i i i i i i i i i i i i i i i i i i i i u u u u u u u u p p p p p p p p p p z z p p p p p p p p p p p p p p p p p p p p i i i i i i i i i e i e i i e 8.!._.P.P.I.I.I.I.I.P._.).[.[.^.W.E.E.E.E.E.E.E.E.^.Q.Q.Q.^.^.^.^././.Q.Q.~.~.E.E.~.~.Q.Q.~.~.~.~.^.^.^.^.^.^.^.^.W.W.W.W.W.W.W.W.^.^.^.^.^.^.^.^.W.Q.Q.Q.E.E.E.W.W.W.^.W.W.W.W.W.W.W.W.W.W.W.W.^././././././.Q.Q.Q.E.E.E./././.E././././././././././././././././.^./././././././.E.E.E.E.E.E.E.E.~.E.~.~.~.~.~.~.^.Q.^.Q.^.Q.^.^.^.^.^.^.^.^.^.!.}.}.}.P.P.I.`.I.I.I.P.P.P.J.!.}.!.!.!.!.W._._._.|.}.}.}.}.}.}.}.!.!.!.!.}.!.}.!.!.(.(.(.^.^.^.Q.Q.Q.Q.Q.Q.Q.Q.^.W.W.^.^.W.W.W.W.!.!.!.!.!.!.!.^.~.Q.Q.Q.Q.E.Q.E.H.H.M.M.M.M.M.M.M.M.M.M.M.M.M.M.4.4.4.4.4.4.4.4.:.:.:.:.:.:.:.:.-.-.-.-.-.-.-.-.-.^ -.^ -.~ -.~ Q Q Q Q Q Q Q Q Q E Q E Q E Q E Q E Q E Q E Q E y y a y a y y y a y y r y y y a a L G ! F I G.P.P.P.).I.P._._.^.8.-.a a i i e i i i i i i i i y i i i i i e i e e e e e e e e e i i i i i i i i a p a p a p a p i i i i i i i i i t t t t t t i i i i i i i i i i i i i i i i i ",
"L L L L L L J L J J J J L L J J J J L L L L L L J J J J J J J J a a a a a a a a i i i i i i i i i i i i i i i i i i i i i i i i i i r i r i r r y r y e r y r M.W._.P.I.I.I.I.I.`.I.h.h._.[.[.^.W.W.W.W.W.W.W.W.W.W.W.W.W.W.W.W.!.!.!.!.W.W.^.W.^.W.^.W.W.W.W.W.).).).).)._.)._.)._.)._.)._.).)._._._._._._.)._.)._.)._.)._.)._.)._.)._.)._.)._.)._._._._._._._.W.W.^.W.^.W.W.W.!.!.!.!.^.!.^.!.!.!.!.!.!.!.W.!.!.!.!.!.!.!.!.!.^.W.^.W.^.W.^.W.^.!.^.!.!.!.!.!.W.W.W.W.W.W.W.W.W.W.W.W.W.W._._._._._._.W.W.W.W.W._.P.P._.).I.h.I.I.P._.P.p.s._.J.W._._._._._._.P.G.G.G.G.G.G.G.P.J.J.J.P.P.P.W.!.!.W.W.W.W.W.G.W.W.W.W.W.W.W.W.)._.)._.)._.)._._._._._._._._._.W.!.!.!.!.!.!.!.!.!.!.!.!.!.!.!.!.!.^.!.^.!.!.!.!.!.!.!.!.!.!.!.(.(.(.(.(.(.(.(.(.(.(.(.(.(.(.(.(.(.(.(.^.Q.Q.Q.^.Q.^.(.(.(.(.(.Q.Q.Q.Q.Q.Q.Q.Q.Q.Q.Q.Q.Q.Q.Q.Q.Q.Q.Q.Q.Q.Q.Q.Q./.Q.Q.Q.Q.Q././.Q.Q.E.^.G.G.].P.h.I.].P.G.G._.W..XQ.V.m.V.8.8.m.m.m.m.m.m.m.m.m.8.m.m.m.8.8.8.8.8.8.8.8.8.8.8.8.8.8.8.8.8.8.8.8.,.:.,.:.,.:.:.:.-.^ -.^ -.^ -.^ -.^ -.-.-.^ -.-.P P P P P ! ! ! P P P P P P P P ",
"/.Q./.Q./.Q.Q.Q.Q.Q.Q.Q.Q.Q.Q.Q.^.^.^.^.^.^.^.^.^.^.^.^.^.^.^.^.^.^.^.^.^.^.^.^.~.~.~.~.~.~.~.~.~.~.~.~.~.~.~.~.~.~.~.~.~.~.~.~.E.E.E.E.E.H.E.H.E.H.E.E.E.E.E.W._._._._.I.I.I.I.I.I.`._._._._._._._._._._._._._._._._._._._._._._.P._.P.P.P.P.P._.P._.P.P.P.P.I.`.`.c.`.c.`.c.`.c.`.c.`.c.`.c.`.`.`.`.`.`.`.`.`.`.`.`.`.`.`.`.`.`.`.c.`.c.`.c.`.c.`.c.`.c.`.c.`.P.G.P.P.P.P.P.P.P.P.P.P.P.P.P.P.P.P.G.G.G.G.G.P.P.P.P.P.P.P.P.P.P.P.P.P.P.P.P.P.P.P.P.P.P.P.P.P._._._._.)._.)._._._._._._._._._._._._._._._._._._._._._.I.I.I.I.I.P.P.P.P.P.P.P.P._._._._._._._.P.P.P.P.P.P.P.P.P.P.P.P.P.P.P.P._._._._._._._._._._._._._._._._.`.I.c.`.c.`.c.`.`.`.`.`.c.`.c.`._._._._._._._._._._._._._._._._._._._._._._.W.W._.W.W._._._._.W.W.W.W.W.W.W.W.W.W.!.W.W.W.W.W.W.W.W.W.W.W.W.W.W.W.W.W.W.W.W.W.W.!.!.W.!.W.!.W.!.W.!.W.!.W.!.^.!.W.!.W.!.W.!.W.!.W.!.W.!.W.!.^.^.Q.Q.^.!.W._.P.I.I.I.I.I._._._._.!.!.!.!.!.!.!.!.!.!.!.!.!.!.!.!.!.!.!.!.!.!.!.!.!.!.!.!.!.!.!.!.!.!.^.!.^.!.^.W.^.!.^.!.^.!.^.!.!.!.!.!.!.!.!.!.!.!.!.!.!.!.!.!.W.W.^.!.^.!.^.!.^.!.^.!.^.!.^.!.",
"!.!.!.!.!.!.!.!.!.!.!.!.!.!.!.!.W.W._.W._.W._.W._.W._.W._.W._.W._._._._._._._._._._.W.W._._._._.W.W.W.W.W.W.W.W.W.W.W.W.W.W.W.W.!.!.!.!.!.!.!.!.!.!.!.!.!.W.W._._._._._.I.I.I.I.I.I.`.`._._._._.`.`.`.`.`.`.`.`.`.`.`.`.`.`.`.I.I.I.I.I.I.I.I.I.I.I.I.I.I.I.I.I.I.`.`.c.`.`.`.`.`.`.`.`.`.`.`.`.`.`.`.`.`.`.`.`.`.`.`.`.`.`.`.`.`.`.`.c.`.`.`.`.`.`.`.`.`.`.`.I.I.P.P.P.P.P.P.P.I.I.I.I.I.P.I.P.I.I.I.I.I.P.I.P.I.I.I.I.I.U.Y.I.I.P.I.I.I.I.I.I.I.P.I.I.I.I.Y.I.`.`.`._.`.`.`.`.`.`.`.`.`.`.`.`.`._._._._._._._.P.P.P.P.I.I.I.I.P.P.P.P.P.P.P.P._.P._._.).).`.I.P.P.I.I.I.I.I.I.I.I.I.I.I.I.I.I.I.`.`.`.`.`.`.`.`.`.`.`.`.`.`.`.I.I.`.`.`.`.`.`.`.`.`.`.`.`.c.c.`._._._._._._._._._._._._._._._._._._._._._._._._._._._._._._._._._._._._._._._._._._._._._._._._._._._._._._._._._._._._._._._._._._.W._._._._._._._._._._._.W._._._._._._._._._._._._._._._.W.!.!.W.W._._.P.I.I.I.I.I._._._._._.J.P.J.P.J.P.J.J.J.P.J.P.J.P.P.P.P.P.P.P.P.P.P.P.P.P.P.P.P.P._._._._._._._._._._._._._._._._._._.P.P.P.P.P.P.P.P.P.P.P.P.P.P.P._.W.W.W._.J.P.J._.W._.W.W.W.P.J.",
"U.U.U.U.U.U.U.U.P.P.P.P.U.P.P.P.P.P.P.P.P.P.P.P.P.P.P.P.P.P.P.P.P.I.I.I.I.I.I.I.).).).).).).)._.P.P.P.P.P.P.P._._._.P.P.P.P.P.P.P.P.P.P.P.P.P.P.P.P.P.P.P.P.P.P._._._._._._.I.I.I.I.`.`._._._._.`.I.I.I.I.I.I.I.I.I.I.I.I.I.I.I.I.I.I.I.I.I.I.I.I.I.I.I.I.I.I.I.I.P.P.P.P.P.P.P.P.P.P.P.P.I.P.P.P.P.P.P.P.P.I.I.P.P.P.P.P.P.P.P.P.P.P.P.P.P.P.P.P.P.P.P.P.I.P.I.P.P.I.P.I.P.L.L.L.L.L.L.L.K.L.K.L.L.L.L.L.L.L.L.g.K.g.K.f.K.L.K.I.I.I.I.I.P.I.I.L.K.L.K.L.L.L.L.`.`.`.`.`.`.`.`.`.`.`.`.`.`.`.`.`.`.`.).).).)._._._._._._._._.P.P.P.P.P.P.P.P.P._._.P.P.I.I.I.I.I.I.I.I.I.I.I.I.I.I.I.I.I.I.I.I.I.I.I.I.I.I.I.I.I.I.I.I.I.I.I.I.I.P.P.P.I.I.P.P.P.P.P.P.P.I.I.I.I.I.I.I.I.I.I.I.I.I.I.I.I.I.I.I.I.I.I.I.I.I.I.I.I.I.I.I.I.I.I._._._._._._._._._._.P._._._._._._._._._._._._._._._._._._._._._._._._._._._._._._._._._._._._._._._._._._._._._._._._._._._._._._.W.W._._._._.P.I.I.I._._._._._._.P.P.P.P.P.P.P.P.P.P.P.P.P.P.P.P.I.I.I.I.I.I.I.I.I.I.I.I.I.I.I.I.I.I.I.I.I.I.I.I.I.I.I.I.I.I.I.I.I.I.I.I.I.I.I.I.I.I.I.I.I.I.I.I.P.P.P.P.P.P.P.P.P.P.P.P.P.P.P.P.",
"P.P.P.P.P.P.P.P.P.P.P.P.P.P.P.P.P.P.P.P.P.P.P.P.P.P.P.P.P.P.P.P.I.I.I.I.I.I.I.I.I.I.I.I.I.I.I.I.I.I.I.I.I.I.I.I.I.I.I.I.I.I.I.I.I.I.I.I.I.I.I.I.I.I.I.I.I.I.I.I.I._._._._._.I.I.I.I.`.`._._._.I.I.I.I.I.I.I.I.I.I.I.I.I.I.I.I.I.I.I.I.I.I.I.I.I.I.I.I.I.I.I.I.I.P.P.P.P.P.P.P.P.P.P.P.P.P.P.P.P.P.P.P.P.P.P.P.P.P.P.P.P.P.P.P.P.P.P.P.P.P.P.P.P.P.P.P.P.P.P.P.P.P.L.L.L.L.L.I.L.P.P.I.I.P.I.P.I.I.I.I.I.I.I.I.I.I.I.I.I.P.P.I.P.P.P.P.P.P.P.P.P.P.P.P.P.I.P.P.I.I.`.`.`.I.`.`.`.`.`.`.`.I.I.`.`.`.`.`.`._._._._._._._._._._._._._.P.P.P.P.P.P.P.P.P.P.P.P.P.P.P.P.P._.P._.P._.P._.P._.P._.P._.I.I.I.I.I.I.I.I.I.I.I.I.I.I.I.I.I.P.P.P.P.P.P.P.P.P.P.P.P.P.P.P.P.I.I.I.I.I.I.I.I.I.I.I.I.I.I.I.I.I.I.I.I.I.I.I.I.I.I.I.I.I.I.I.I.`.`.`.`.`.`.`._.I.I.`.`.`.`.`.`.`.`.`.`.`.`.`.`.`.`.`.`.`.`.`.`._._._._._._._._._._._._._._._._._._._._._._._._._._._._._._._._._.W._._._._.I.I.I.I._._._._._.P.P.P.P.P.P.P.P.P.P.P.P.P.P.P.P.P.I.I.I.I.I.I.I.I.I.I.I.I.I.I.I.I.I.I.j.I.j.I.j.I.j.j.j.j.j.j.j.j.I.I.I.I.I.I.I.I.I.I.I.I.I.I.I.I.P.P.P.P.P.P.P.P.P.I.I.I.P.P.P.P.",
"P.P.P.P.P.P.P.P.P.P.P.P.P.P.P.P.P.I.I.I.I.I.I.I.I.I.I.I.I.I.I.I.I.I.I.I.I.I.I.I.I.I.I.I.I.I.I.I.I.I.I.I.I.I.I.I.I.I.I.I.I.I.I.I.I.I.I.I.I.I.`.I.I.I.I.I.`.I.I.I.I.I._._._._.`.`._._.I.I.I.I.I.I.I.I.I.I.I.I.I.I.I.I.I.I.I.I.I.I.I.I.I.I.I.I.I.I.I.I.I.I.I.I.I.P.P._._._.W._._._._._._.W._._._._._._._._._._._._._._._._._._._._._._._._._._._._._._._._._._._.P.P.P.P.I.P.P.P.P.P.P.P.P.I.I.I.I.P.P.P.P.P.P.P.P.P.P.P.P.P.P.P.P.P.P.P.P.P.P.P.P.I.I.I.I.P.P.P.P.P.P.P.P.P.P.P.P.P.P.P.P.P.P.P.P.P.I.I.P._._._._._._._._._._._._._.P.P.P.P.P.P.P._._._._.P.P.P.P._._._._._._._._._._._._._._._._._._.`.`.`.`.`.`._._._._.`._._.P.P.P.P.J.P.P.P.P.P.P.P.P.J.J.J.P.P.I.I.I.I.I.I.I.I.I.I.I.I.I.I.I.I._.`._._._.`._.`._.`._.`._.`._.I.I.I.I.I.I.I.P.P.P.I.I.I.I.I.I.P.P.P.P.P.P.I.I.I.I.I.I.I.I.I.I.I.I.I.I.I.I.I.I.I.I.I.I.I.I.I.I.I.I.I.I.I.I.I.I.I.I.I.I.I.I.I.I.P.P.P.P.P.P._._._._._._._._.P.P.P.I.I.I.I.I.I.I.I.I.I.I.I.I.I.I.I.I.I.I.I.I.I.I.I.I.I.I.I.I.I.I.I.I.I.I.I.I.j.I.I.I.I.I.I.I.I.I.I.I.I.I.I.I.I.I.I.I.I.I.I.I.I.I.I.I.I.I.I.I.I.I.I.I.I.I.I.I.I.I.",
"P.P.P.P.I.I.I.I.P.P.P.P.P.P.P.P.P.P.I.P.I.P.I.P.I.P.I.P.I.P.I.I.I.I.I.I.I.I.I.I.I.I.I.I.I.I.I.I.I.I.I.I.P.P.I.I.I.I.I.P.I.I.I.I._.`.`.`.`.`.`.`.I.I.I.I._._._.`.I.I.`._._._._.`._._.I.I.I.I.I.I.I.I.I.I.I.I.I.I.I.I.I.I.I.I.I.I._._._._.I.I.I.I._._._._._._._._._._._._._._._._._._._._._._._._._._._._._._._._._._._._._.P._._._._._._._._._._._._._._._._._._.P._._._.).'.).).G.G.P.G.P.G.P.G.P.G.P.G.P.G.P.J.P.P.P.P.P.P.P.P.).'.)._._._._._.P.G.P.G.G.G.G.G._._._._._._._._._._.).).).).).)._.).).).{.{.{.{.).).).).).).).).).).)._._._._._._._._._._.'.'._._._._._._._._._._._._._._._._._._._._._._._._._._._._._._._._._.P.P.P.P.P.P.P.P.P.P.P.P.P.P.P.P.P.P.P.P.P.P.P.P.P.P.P.P.P.P.P.P._._._._._._._._._._._._._._._._.P.P.P.P.P.P.P.P.P.P.P.P.P.P.P.P.P.P.P.P.P.P.P.P.P.P.P.P.P.P.P.P.I.I.I.I.I.I.I.I.I.I.I.I.I.I.I.I.I.I.I.I.I.I.I.I.I.I.I.I.I.I.I.P.P.P.P.P.P.P._._._._._._._._.P.P._._._._._._._._._._._._._._._._._._._._._._._._._._._._._._._._._.I.`.I.`.I.`.I.`.I.`.I.`.).`.I.I.P.I.P.I.P.I.P.I.P.I.P.).P.I.P._._._._._._._._._._._._._._._._.",
"P.I.P.P.P.P.I.I.P.P.P.P.P.P.P.P._._._._._._._._._._._._._._._._._._._._._._._._.I.I.I.I._._.P.P._._._._._._._._._._._._._._._._._._._._._._._._._._._._._._._._.`.I.`.`._._._._._._.I.I.I.I.I.I.P.P.P.P.I.I.I.I.P.P.P.P.P.P.P._._._._._._._._._._._._._._._._._._._._._._._._._._._._._._._._._._.`.`.`.`.`._._._._.`.`._._.`.`._._._._._._._._._._._._._._._._._.W.W.W.W.W.W.W.}.}.}.^.}.}.}.^.}.}.}.}.}.}.}.^.}.}.}.}.}.}.}.}.W.W.W.W.W.W.W.W.}.}.}.}.}.^.}.!.W.!.W.!.J.J.W.!._.!._.!.!.!.!.!._._._._.).)._._._._._._._._._._._._._._._._._._._._._._._._.W.W._._._._._._._._._._._._._._._._._._._._._._._._._._._._._._._._.P.P.P.P.P.P.P.P.P.P.P.P.P.P.I.P.P.P.P.P.J.J.P.P.P.J.J.J.P.P.P.P._._._._._._._._._._._._._._._._.P.P.P.P.P.P.P.P.P.P.P.P.P.P.P.P.P.P.P.P.P.P.P.P.P.P.P.P.P.P.P.P.P.P.P.P.P.P.P.P.P.P.P.P.P.P.P.P.P.P.P.P.P.P.P.P.P.P.P.P.P.P.P.P.P.P.P.P.P.P._._._._._._._._.P._._._._._._._._._._._._._._._._._._._._._._._._._._._._._._._._._._._._._._._._._._._._._.)._._._._._._._._._._._._._._._._._._._._._._._._._._._._._._._._._._._.",
"P.I.P.I.I.I.I._._._._._._.W._._._._.W.W._._._._.W.W.W.W.W.W.W.W.W.W.W.W.W.W.W.W.W.W.W.W.W.W.W.W.!.!.!.!.!.!.!.!.!.!.!.!.!.!.!.!.}.[.[.[.[.[.[.[.[.[.[.[.[.[.[.[._._._._._._._._._._._._._._._._._.W.W.W.W.W.W.W.W.W.W.W.W.W.W.W.W.^.^.^.W.W.W.W.W.W.W.^.^.^.W.W._._._._._._._._._._._._._._._._._._._._._._._._._._._._._._._._._._._._._._._._.`.`.`.`._._._._.W.^.~.E.E.V.V.9.7.7.7.7.7.7.7.8.7.8.8.8.8.8.8.8.8.8.8.8.8.8.8.8.9.9.9.7.7.7.7.7.7.7.7.7.8.8.7.7.9.9.9.9.9.9.9.9.9.9.9.9.9.9.9.9.a.a.a.a.d.d.d.d.a.a.a.a.a.a.a.a.F.F.F.F.F.F.F.F.G.G.G.G.G.H.H.H.W.W.W.W.W.W.W.W.W.W.W.W.W.W.W.W.!.!.!.!.!.!.W.W.!.!.!.!.!.!.!.W._._._._._._._._._._._._._._._._.W.!.!.!.!.!.!.!.!.!.!.!.!.!.W._._._._._._._._._._._._._._._._._.P.P.P.P.P.P.P.U.W.J.P.P.P.P.P.P.P.P.P.P.P.P.P.P.P.P.P.P.P.P.P.P.P.P.P.P.P.P.P.P.P.P.P.P.P.P.P.P.P.P.P.P.P.P.P.P.P.P.P.P.P.P.P.P.P.P.P.P.P._._._._._._._._._._._._._._._._._._._._._._._._._._._._._._._._._._._._._._._._._._._._._._._._._._._._._._._._._._._.W.W.W.W.W.W.W.W.W.W.W.W.W.W.W.W._._._._._._._._._._._._._._._._.",
"P.P.I.I.`._._.G.E.E.E.E.E.E.E.E.V.V.V.V.V.V.M.M.M.M.M.M.M.M.M.M.9.9.9.9.9.9.9.9.9.9.r.9.9.9.9.9.V.V.V.V.V.V.V.V.B.m.V.m.V.m.m.9.9.9.9.r.r.r.r.r.9.9.9.9.9.9.9.9.9.9.9.9.9.9.9.9.9.9.9.9.9.9.9.9.9.9.9.9.9.9.9.9.9.9.9.r.9.9.9.9.9.m.9.m.9.V.r.m.9.9.9.9.9.9.9.9.9.M.V.M.V.V.V.V.9.9.9.9.9.9.9.r.E.E.E.E.E.E.E.E.E.~.W.^.^.^.^.^./.~.^.^.W.}.|.P.I.`.`.j.I._.}.!.(.V.:.Q L -.Q h =.=.=.-.-.-.-.@.-.-.-.-.-.-.-.-.-.-.@.@.@.-.-.-.-.-.-.-.-.-.@.@.@.-.-.-.-.-.-.-.Q Q Q Q Q Q Q Q Q Q Q Q Q Q Q Q P P P P Q G P Q ! Q Q Q Q Q Q Q Q Q Q Q Q Q Q Q Q Q Q Q Q Q Q Q Q Q Q Q Q Q Q Q Q Q Q Q ! ! ! ! :.:.:.:.:.:.:.:.8.1.4.:.4.1.8.8.8.7.7.8.8.8.7.7.9.9.9.9.9.9.9.9.M.M.V.V.V.V.C.C./.Q.Q.^.!.!.W.W._.P.P.P._._._.P.)._._._._.}._.!.J.J.J.W.W.W.W.W.W.W.W.W.W.W.W.J.P.P.P.P.P.P._._.'.'.'.'.}.}.}.'._._._._._._.}.}.}._._.}.}.}._.W._._._._._._._._.}.}._._._._._._._._._._._.).).)._._._._.W.W.W.W._._._._._._._._._.W._.W._.W._._._._._._._._._._._._.[.[.[.[._._._._._._._._._._.}._._._.}._._.}._._._._._._._._._._._._._._._._.W.G.G.G.W._._._.W.).)._._.`.{._.",
"P.P.I.I.`._._.G.Y -.,.,.,.,.,.-.-.-.-.-.-.-.-.-.-.-.-.-.-.-.-.-.-.-.-.-.-.-.-.-.-.-.-.-.-.-.-.-.L L L L L L L L a a L L L L L L L P P P L L L L -.-.-.-.-.-.-.-.-.-.-.-.-.-.-.-.-.-.-.-.-.-.-.-.-.-.-.-.-.-.-.-.L L L L L L L L G G P G P G P P -.-.-.! -.! -.-.L P P P P P Q Q -.-.-.-.-.-.-.-.,.,.,.-.-.-.-.-.#.#.P P P P P #.,.-.:.4.2.a.W.h.I.1XI.j._._.!.H.8.:.Q L Q =.b h b b b b =.=.=.=.=.=.=.=.=.=.=.=.=.=.=.=.=.=.=.=.=.=.=.=.=.=.=.=.=.=.=.=.=.=.=.=.=.Q Q Q Q Q Q Q Q Q Q Q Q Q Q Q Q Q Q Q Q Q h Q Q Q Q Q Q Q Q Q Q Q Q Q Q Q Q Q Q Q Q Q Q Q Q Q Q Q Q Q Q Q Q Q Q Q Q Q Q Q Q Q =.=.=.=.Q Q =.=.=.=.=.=.=.=.=.=.-.@.@.-.-.-.-.-.-.-.-.-.-.-.-.-.-.-.=.=.=.;.;.;.~ -.:.4.7.F.W.}._.I.I.P._.P.P.P.s.s.s.p.s.G.a.p.p.p.p.p.a.F.l.l.E.l.F.F.F.F.F.G.D.G.G.G.s.G.G.G.s.p.p.p.a.F.F.F.p.s.s.s.s.s.s.s.G.G.s.G.W.W.G.s.G.G.G.G.G.G.G.G.G.W.W.W.G.G.G.s.G.G.G.W.W.W.W.W.G.G.G.G.G.G.G.G.G.G.G.G.G.G.W.W.W.G.G.G.G.G.W.W.G.G.G.G.G.G.W.W.s.G.z.z.z.z.z.s.G.G.G.G.G.G.G.G.G.s.s.G.G.G.s.G.s.s.s.s.s.s.G.s.s.s.s.s.s.s.s.G.G.F.F.F.G.G.G.G.G._.)._._.`.`.`.",
"P.P.I.I._._._.G.K G L L a L L L L L L L L L L L Q Q Q Q Q Q Q Q L L L L L L L L L L L L L L L L -.-.-.-.-.-.-.-.=.-.-.-.-.-.-.-.-.-.-.-.-.-.-.-.L L L L L L L L L L L L L L L L L L L L L L L L L L L L L L L L -.-.-.-.-.-.-.-.-.Q -.Q -.-.-.-.L L L L L L L L -.-.-.-.-.-.=.-.L L L L L L L L L a a L L L L P -.-.! ! ! P -.-.-.J P G G 7.!.P.I.I.j.j._._.G.9.G P L Q Q h b h b b b b =.=.=.=.=.=.=.=.=.=.=.=.=.=.=.=.=.=.=.=.=.=.=.=.=.=.=.=.=.=.=.=.=.=.=.=.=.Q Q Q Q Q Q Q Q Q Q Q Q Q Q Q =.=.=.=.Q Q =.Q Q Q Q Q Q Q Q Q Q Q Q Q Q Q Q Q Q Q Q Q Q Q Q Q Q Q Q Q Q Q Q Q h h Q h Q Q h h Q h =.=.Q Q Q Q h h h h h h h Q L L L L L L L L L L L L L L L L L L L a Q Q h Q a L Q G ! 2.a.W._.P.P.P._.P.P.G.p.d.y.5.d.5.5.3.3.5.5.5.5.7.7.7.d.d.7.5.d.d.y.y.y.y.y.y.y.y.y.y.3.3.3.5.5.5.5.d.5.d.d.d.d.d.d.d.p.d.d.p.p.p.p.d.p.p.p.p.p.p.p.p.p.p.p.s.s.p.p.d.p.p.s.s.s.s.s.s.s.s.s.s.s.s.s.s.s.s.s.s.s.s.s.G.p.s.s.p.s.s.s.s.s.s.G.G.s.s.s.s.p.p.a.a.a.a.p.p.p.p.p.p.p.p.p.p.p.d.y.p.p.p.p.p.p.p.p.p.p.p.p.p.p.p.p.p.p.p.p.a.F.F.a.a.p.p.p.p.s._.)._._.`.`.`.",
"P.P.P.I._._._.G.P ! -.-.=.=.=.-.-.-.-.Q -.-.-.Q -.-.-.-.-.-.-.-.=.=.-.-.-.-.-.-.=.=.-.-.-.-.-.-.=.=.-.-.-.-.-.-.=.=.=.=.=.=.=.=.=.Q Q Q =.=.=.=.-.-.-.-.-.-.-.-.-.=.-.=.-.-.-.-.=.=.-.-.-.-.-.-.-.-.-.-.-.-.-.-.=.=.=.=.=.=.=.=.Q Q Q Q =.=.=.=.-.-.-.-.-.-.-.-.Q Q Q Q Q Q Q Q Q Q Q Q Q Q -.=.=.=.=.=.=.=.-.-.Q Q Q Q Q Q -.-.,.Q -.Q G 9.}._.I.I.j.I.).).F.) G P -.=.Q h h h b b b =.=.=.=.=.=.=.=.=.=.=.=.=.=.=.=.m =.=.=.=.=.=.=.=.=.=.=.m =.=.=.=.=.=.=.=.=.Q Q Q Q Q Q Q Q Q Q Q Q Q Q Q Q Q Q Q Q Q Q Q Q Q Q Q Q Q Q Q Q Q Q Q Q Q Q Q Q Q Q Q Q Q Q Q Q Q Q Q Q Q Q Q Q Q h Q Q Q Q h =.=.=.=.=.=.=.=.=.=.=.=.=.=.=.-.-.-.-.-.-.-.-.-.-.-.-.-.-.-.-.-.=.=.=.=.=.=.=.=.Q =.-.! G P 2.a.P.P.P.P.P.P.G.G.p.d.3.5.5.5.3.3.5.5.5.5.5.5.7.7.7.7.7.7.3.3.5.5.' '  .' 5.5.5.5.3.5.3.5.5.5.5.5.5.d.d.d.d.a.d.a.p.a.d.a.p.p.p.p.p.p.p.p.p.p.p.p.y.d.p.p.s.i.y.3.d.d.p.p.p.p.p.i.p.p.p.p.p.p.p.p.p.p.p.p.p.p.p.p.p.p.p.a.p.p.p.i.p.p.p.p.p.p.p.p.p.p.p.a.p.p.p.p.p.p.p.p.p.p.p.p.p.5.3.i.p.i.p.p.p.p.p.p.p.a.p.p.p.a.p.a.p.a.p.a.F.a.a.a.a.p.p.d.s._.)._._.`.`._.",
"P.P.P.P._._.W.G.P Q Q =.=.=.-.-.=.-.-.-.=.-.=.=.=.=.=.=.=.=.=.=.=.=.=.=.=.=.=.=.=.=.=.=.=.=.=.=.=.=.=.=.=.=.=.=.=.=.=.=.=.=.=.=.=.=.=.=.=.=.=.=.=.=.=.=.=.=.=.=.=.=.=.=.-.-.=.=.=.=.=.=.=.=.=.=.=.=.=.=.=.=.=.=.=.=.=.=.=.=.=.=.=.=.=.=.=.=.=.=.=.=.=.=.=.=.=.=.Q Q Q Q Q Q Q Q Q Q Q Q Q Q Q Q b b b b b b b b h h h E L L L Q =.Q -.Q G 4.W.P.I.I.h.I.).'.9.P ! -.-.Q Q h b =.=.=.=.=.=.=.=.=.=.=.=.=.=.=.=.=.=.=.=.=.=.=.=.=.=.=.=.=.=.=.=.=.=.=.=.=.=.=.=.=.=.=.=.=.=.=.=.Q =.=.=.=.=.=.=.=.=.=.=.=.=.=.=.=.=.=.=.=.=.=.=.=.=.Q Q =.=.=.=.=.=.=.=.=.=.=.=.=.=.=.=.=.=.=.=.=.=.=.=.=.=.=.=.=.=.=.=.=.=.=.=.=.=.=.=.=.=.=.=.=.=.=.=.=.=.=.=.=.=.=.=.=.=.=.=.=.>.>.=.=.=.b b =.a h Q Q L G -.2.W.P.P.P.P.G.G.F.i.d.5.5.5.5.5.5.9.5.5.5.7.5.7.7.7.7.7.5.5.5.5.5.i.i.y.i.i.i.i.i.9.9.5.9.9.9.9.9.a.a.p.a.p.F.a.F.p.a.a.a.p.F.F.a.F.F.F.F.F.F.F.F.3.d.p.F.F.i.5.3.3.5.d.a.p.a.i.i.p.p.p.a.p.a.p.a.p.p.p.a.p.p.p.a.p.i.p.p.p.i.d.5.p.S.p.S.p.a.p.a.a.a.a.a.a.a.a.F.a.F.F.F.F.F.F.F.p.5.5.i.p.a.a.p.p.p.F.F.F.F.p.p.F.F.p.F.p.p.p.p.F.F.a.a.p.p.d.y.s._.)._._._.`._.",
"P.G.P.P._._.W.H.G E h h b Q @.@.=.=.=.=.=.=.=.=.=.=.=.b =.=.=.=.b b b b =.=.=.=.b b b b =.=.=.=.>.>.>.>.>.>.>.>.>.,.,.,.>.>.>.>.>.>.>.>.>.>.>.>.=.=.=.=.=.=.=.=.=.=.=.=.=.=.=.=.=.=.=.=.=.=.=.=.=.=.=.=.=.=.=.=.>.>.>.>.<.<.>.>.>.>.>.>.>.>.>.>.b b =.b =.=.=.=.>.=.=.=.=.=.=.=.Q h h h Q Q Q h b N N N b b k k k Q =.=.=.~ Q Q Q a Q Q G 4.W._.P.I.h.I._.!.9.E P P L L Q Q =.=.=.=.=.=.=.=.=.=.=.=.=.=.=.=.=.=.=.=.=.=.=.=.=.=.=.=.=.=.=.=.=.=.=.=.=.=.=.=.=.=.=.=.=.=.=.=.=.=.=.=.=.=.=.=.=.=.b b Q Q Q Q Q b =.=.=.=.=.=.=.=.=.=.Q =.=.=.=.=.=.=.=.=.=.=.=.=.=.=.=.=.=.=.=.=.=.=.=.=.=.=.=.=.=.=.=.=.=.=.=.=.=.=.=.=.=.=.=.=.b b b b b b b b b b b b =.=.=.b b b b b b b b b h Q =.=.Q Q Q ! G.J.P.P.P.G.F.p.d.5.5.3.5.9.5.5.5.5.9.i.7.7.7.7.a.a.a.a.a.a.i.i.S.S.S.S.F.F.S.S.9.9.9.9.9.9.9.9.F.a.a.F.F.F.F.F.a.9.5.9.a.F.F.F.F.F.p.F.p.F.p.F.5.i.p.F.F.a.5.3.3.5.d.a.p.F.a.i.p.F.p.F.p.F.p.F.a.a.a.a.p.a.a.F.i.F.F.F.p.a.d.5.S.S.S.S.p.a.a.a.a.a.a.7.d.a.a.F.a.F.p.F.F.F.p.F.d.3.3.i.a.i.a.F.a.a.a.a.p.a.p.a.p.F.p.F.a.a.a.a.F.F.a.F.F.p.i.y.p._.)._._._.`.c.",
"P.G.P.P._._.W.H.G E h b =.=.=.=.=.>.>.>.>.>.>.>.>.>.>.=.>.>.>.>.=.=.b m =.=.=.=.=.=.b m =.=.=.=.a a a a L L L L @.@.@.@.L L a a a h h h b b b b =.=.>.=.>.>.=.>.>.>.>.>.=.=.>.>.>.>.>.>.>.>.>.>.>.=.>.>.=.=.=.=.h b b b a a a a b b b b b b b b m m m m =.=.=.=.h h h h a a a a =.=.=.=.=.=.=.b b b b b b b b b a h ~ -.:.:.:.:.=.Q =.~ L 4.!.}.P.I.I.P._.J.9.W Q L L Q =.=.=.=.=.=.=.=.=.=.=.=.=.=.=.=.=.=.=.=.=.=.=.=.=.=.=.=.=.=.=.=.=.=.=.=.=.=.=.=.=.=.=.=.=.=.=.=.=.=.=.=.=.=.=.=.=.=.=.=.=.=.=.=.=.=.=.=.=.=.=.=.=.=.=.=.=.=.=.=.=.=.=.=.=.=.=.=.=.=.=.=.=.=.=.=.=.=.=.=.=.=.=.=.=.=.=.=.>.>.>.>.>.>.>.>.>.>.>.>.>.>.>.>.=.=.=.=.=.=.=.=.m b b b =.=.=.=.m M m b b b =.=.>.>.>.>.-.=.Q G G.J.J.P.J.G.p.i.5.3.3.3.9.9.9.9.9.i.i.i.d.d.d.7.a.a.a.a.a.a.i.i.S.S.S.S.F.F.S.S.F.n.M.n.9.9.9.9.M.M.F.F.a.F.F.F.9.9.5.7.9.M.F.F.F.F.a.F.a.F.a.F.5.9.a.F.F.a.5.3.3.3.i.F.F.F.a.9.F.F.F.F.F.F.F.F.a.F.a.F.a.F.a.F.a.F.F.F.a.9.5.7.i.S.i.S.a.F.a.F.a.a.d.7.7.9.a.a.a.F.a.F.a.F.a.F.i.3.3.9.a.9.a.F.a.9.a.9.a.F.a.a.a.a.a.M.a.9.a.9.F.F.F.F.F.F.i.y.p.G._._._._.`.c.",
"P.P.P.P._._.W.H.Q E b b =.=.-.=.=.m m m m m m m m m m m =.=.=.=.m b b b b b b b b b b b b b b b =.=.=.=.=.=.=.=.>.>.>.>.>.>.=.=.>.>.>.>.>.>.>.>.b b b b =.=.=.=.b b b b =.=.=.=.=.=.b b =.=.=.=.b b b b =.=.=.=.>.>.>.>.>.>.>.>.>.>.>.>.>.>.>.>.m m m m b b b b =.=.Q Q Q h h h k Q Q Q Q Q k k b b b b k b h h Q -.8.M.Q.(.(.(.,.=.=.Q y ^ !.'.P.P.I.P.P.G.9.! -.-.Q -.,.,.-.a =.=.=.=.=.=.=.=.=.=.=.=.=.=.=.=.=.=.=.=.=.=.=.=.=.=.=.=.=.=.=.=.=.=.=.=.=.=.=.=.=.=.=.=.=.=.=.=.=.=.=.=.=.=.=.=.=.=.=.=.=.=.=.=.=.=.=.=.=.=.=.=.=.=.=.=.=.=.=.=.=.=.=.=.=.=.=.=.=.=.=.=.=.=.=.=.Q =.=.=.Q Q Q Q =.=.=.=.=.=.=.=.=.=.=.=.=.=.=.=.b b b b b b b b b b b b b b b b m m b b b b h h h a a a =.=.>.Q H.J.J.J.J.G.F.i.9.5.3.7.9.M.M.M.F.i.a.a.a.a.d.d.a.a.a.a.a.i.i.i.S.i.i.i.i.i.n.n.F.M.M.M.n.9.9.4.M.9.F.F.F.F.F.F.9.9.7.7.9.M.F.F.F.F.F.F.F.F.F.F.3.9.9.F.F.9.3.3._ 3.9.F.F.F.F.9.F.F.F.F.F.F.F.F.9.a.M.M.a.a.a.a.9.a.F.F.F.9.7.3.i.i.i.9.9.a.a.a.F.a.9.7.7.9.a.F.a.F.F.F.F.F.F.F.9.3.3.9.F.F.F.F.9.9.9.9.F.F.F.a.a.a.F.M.M.9.9.9.a.a.a.F.F.F.i.d.p.G._._._._.`._.",
"P.P.P._.P.'.!.9.G E ;.h ;.1.J =.=.m m m m m m m m m m m m m m m m m b b b b b b b b b b b b b =.=.=.=.=.=.=.=.=.=.=.=.=.=.=.=.=.=.b b b b b b b b b b b b b b b b b b b b b b b b b b b b b b b b b b b b b b m b b b b b b b b b b b b b b b b b b b b b b b b b k ;.h O v.h k k k k k k k k Q =.=.=.=.=.=.Q Q y m.Q.E.!.!.E.W.V.=.h ~ Q ^ H.'.P.P.P.P.J.!.M.G Q Q -.L P /.L -.=.=.=.=.=.=.=.=.=.=.=.=.=.=.=.=.=.=.=.=.=.=.=.=.x <.=.=.<.=.x <.=.=.=.=.=.=.=.=.=.=.=.=.=.=.=.=.=.=.=.=.=.=.=.=.=.=.=.=.=.=.=.=.=.=.=.=.=.=.=.=.=.=.=.=.=.=.=.=.=.=.=.=.=.=.=.=.=.=.=.=.=.=.=.=.=.=.=.=.=.=.=.=.=.=.=.=.=.=.=.=.=.=.=.=.=.=.=.=.=.b b b b b b b b b b b b b b b <.n b m >.b L Q L a a b =.=.b Q F.'.J.G.!.!.F.S.F.9.9.9.9.M.M.F.a.S.F.i.9.5.9.9.a.a.a.a.a.F.S.S.S.S.S.S.S.S.S.n.M.M.M.M.9.4.4.4.M.M.M.M.M.M.M.M.n.9.5.5.9.M.M.M.M.9.9.9.M.M.9.9.3.9.n.F.F.9.7.3.3.9.n.F.F.F.F.F.F.F.M.M.M.M.F.F.F.9.9.9.9.9.9.M.F.9.9.9.F.9.9.3.5.9.S.S.9.M.9.F.F.9.9.7.7.9.9.F.F.F.M.M.M.M.M.F.7.7.9.9.n.F.F.F.M.M.M.F.F.F.M.M.F.F.M.M.M.M.M.F.F.9.9.a.a.a.d.3.d.s.).)._._._._.",
"P.P.P._.P.'.!.9.L h ;.h ;.1.L =.=.m m m m m m m m m m m m m m m b b b b b b b b b b b b b b b =.=.=.=.=.=.=.=.=.=.=.=.=.=.=.=.=.=.b b b b b b b b b b b b b b b b b b b b b b b b b b b b b b b b b b b b b b m b b b b b b b b b b b b b b b b b b b b b b b b b k k t < v.h k k k k k k k k =.=.-.-.-.-.-.Q Q G 9.^.W.}._.P.W.V.=.h ~ Q ^ H.'.P.P.P.P.J.!.M.G Q Q -.a Q  XL -.-.-.=.=.=.=.=.=.=.=.=.=.=.=.=.=.=.=.=.=.=.=.=.=.x <.=.=.<.=.x <.=.=.=.=.=.=.=.=.=.=.=.=.=.=.=.=.=.=.=.=.=.=.=.=.=.=.=.=.=.=.=.=.=.=.=.=.=.=.=.=.=.=.=.=.=.=.=.=.=.=.=.=.=.=.=.=.=.=.=.=.=.=.=.=.=.=.=.=.=.=.=.=.=.=.=.=.=.=.=.=.=.=.=.=.=.=.=.=.=.b b b b b b b b b b b b b b m m m b =.=.-.-.:.V.1.=.Q =.>.b a F.'.J.G.!.!.F.S.a.9.3.3.9.M.M.M.9.S.F.i.9.5.9.9.a.a.a.a.a.F.S.S.S.S.S.S.S.S.S.M.M.M.M.M.9.5.4.4.M.M.M.M.M.M.M.M.9.9.3.3.9.M.M.M.F.9.9.9.F.M.9.9.3.9.n.F.F.9.7.3.3.9.n.F.F.F.F.F.F.F.M.M.M.M.F.F.F.9.9.9.9.9.9.M.F.9.9.9.F.9.9.3.5.9.S.S.n.M.9.F.F.9.9.7.7.9.9.F.F.F.M.M.M.M.F.F.3.3.9.9.n.F.F.F.M.M.M.F.F.F.F.M.F.F.M.M.M.M.F.F.F.9.9.a.a.i.d.3.d.G.).)._._.)._.",
"P.P.P._.P._.!.9.L h ;.h ;.8.L $.=.=.=.=.>.=.=.=.m m =.=.=.=.=.=.=.=.=.=.=.=.=.=.=.=.=.=.=.=.=.=.=.=.=.=.=.=.=.=.=.=.=.=.=.=.=.=.=.=.=.=.=.=.=.=.=.=.=.=.=.=.=.=.=.=.=.=.=.=.=.=.=.=.=.=.=.=.=.=.=.=.=.=.=.=.=.=.=.>.=.=.=.=.=.=.=.=.=.=.=.=.=.=.=.=.=.=.=.=.b b =.=.t , h v.y Q Q Q Q Q Q Q Q =.=.=.-.-.-.-.Q ! F F.^.W._._.h._.V.=.h ~ Q ! H.'.P.P.I.P.J.!.M.G Q Q -.L -..X@.-.@.@.=.=.=.=.=.=.=.=.=.=.=.=.=.=.=.=.=.=.=.=.=.=.x <.>.=.<.=.x <.=.=.=.=.=.=.=.=.=.=.=.=.=.=.=.=.=.=.=.=.=.=.=.=.=.=.=.=.=.=.=.=.=.=.=.=.=.=.=.=.=.=.=.=.=.=.=.=.=.=.=.=.=.=.=.=.=.=.=.=.=.=.=.=.=.=.=.=.=.=.=.=.=.=.=.=.=.=.=.=.=.=.=.=.=.=.=.=.=.=.=.=.=.=.=.=.m =.=.=.=.=.=.m m b m =.-.-.8.M..XV.:.Q -.>.b L F.'.P.G.!.!.F.i.9.3.3.3.9.9.9.9.9.S.F.a.9.5.9.9.a.a.a.a.a.F.S.S.S.S.S.S.S.S.S.S.9.M.M.M.9.9.9.9.M.F.F.F.M.M.F.F.9.9.7.3.9.M.M.M.F.a.a.a.F.F.9.9.5.9.S.F.F.9.5.3.3.9.F.F.F.F.F.F.F.F.F.F.F.F.F.F.F.S.9.9.9.9.M.F.F.a.9.a.F.S.9.3.5.9.S.S.S.S.S.F.F.9.7.7.7.7.9.a.a.F.F.F.F.F.F.F.3.5.9.9.S.F.F.F.F.F.F.F.F.F.F.F.F.F.F.F.F.F.F.F.F.n.9.n.F.a.d.5.d.G.).)._._.)._.",
"I.I.I.).P._.!.9.L h =.h ,.B.@.#.=.=.=.=.>.>.=.=.=.=.=.>.>.=.=.=.=.=.=.=.=.=.=.=.=.=.=.=.=.=.=.=.=.=.=.=.=.=.=.=.=.=.=.=.=.=.=.=.=.=.=.=.=.=.=.=.=.=.=.=.=.=.=.=.=.=.=.=.=.=.=.=.=.=.=.=.=.=.=.=.=.=.=.=.=.=.=.=.=.=.=.=.=.=.=.=.=.=.=.=.=.=.=.=.=.=.=.=.=.=.=.b =.=.+ + ;.v.y ;.Q Q Q Q Q Q Q =.-.$.-.-.-.Q Q ! G F.!.W._.`.h._.E.=.h E E ! F.'.P.P.I.P.J.!.M.G Q -.-.L -..X-.-.@.@.-.=.=.=.=.=.=.=.=.=.=.=.=.=.=.=.=.=.=.=.=.=.x <.<.=.<.=.x >.=.=.=.=.=.=.=.=.=.=.=.=.=.=.=.=.=.=.=.=.=.=.=.=.=.=.=.=.=.=.=.=.=.=.=.=.=.=.=.=.=.=.=.=.=.=.=.=.=.=.=.=.=.=.=.=.=.=.=.=.=.=.=.=.=.=.=.=.=.=.=.=.=.=.=.=.=.=.=.=.=.=.=.=.=.=.=.=.=.=.=.=.=.=.=.=.=.=.=.=.=.=.=.>.b m >.=.@.-.9.Q.(.E.8.Q Q =.>.-.F.'.U.G.'.W.p.i.5.3.3.3.9.9.9.9.9.S.F.a.9.5.7.9.a.a.a.a.a.F.S.S.S.S.S.S.S.S.S.S.9.F.F.M.9.9.9.9.F.F.F.F.M.M.F.F.9.9.7.7.9.M.M.M.F.a.a.a.F.F.9.9.7.9.S.F.F.9.5.3.3.9.F.F.F.F.F.F.F.F.F.F.F.F.F.F.F.S.9.9.9.9.M.F.F.a.9.9.F.S.9.3.5.9.S.S.S.S.F.F.F.9.7.7.7.7.9.a.a.F.F.F.F.F.F.F.3.5.9.9.F.F.F.F.F.F.F.F.F.F.F.F.F.F.F.F.F.F.F.F.F.n.9.n.F.i.d.3.d.G._.)._._.)._.",
"I.I.I.).P._.!.9.G E =.a 1.V.#.#.=.=.=.=.=.=.=.=.=.=.=.=.=.=.=.=.>.>.>.>.>.=.=.=.>.>.>.=.=.=.=.=.=.=.=.=.m >.>.>.=.=.m m =.=.=.=.=.=.=.=.>.>.>.=.>.>.>.>.=.=.=.>.>.>.>.>.>.>.=.=.=.=.=.=.>.>.=.=.=.>.>.>.>.>.>.>.=.=.=.=.>.=.=.=.=.=.=.=.=.=.=.=.=.=.=.=.=.=.=.=.Q h @ + m.1.a =.Q Q Q Q Q Q Q =.=.$.@.-.-.Q Q Q P F.!.W._.I.j._./.-.Q Q G ! F.'.P.I.I.P.G.!.M.G Q -.-.L :.+X:.@.#.@.-.-.=.=.m m =.=.=.=.=.=.=.=.=.=.=.=.=.=.=.=.x 1.<.m >.>.b =.=.=.=.=.=.=.=.=.=.=.=.=.=.=.=.=.=.=.=.=.=.=.=.=.=.=.=.=.=.=.=.=.=.=.=.=.=.=.=.=.=.=.=.=.=.=.=.=.=.=.=.=.=.=.=.=.=.=.=.=.=.=.=.=.=.=.=.=.=.=.=.=.=.=.=.=.>.>.>.>.=.=.=.>.=.=.=.=.=.=.=.>.>.>.>.>.=.>.>.>.>.>.>.>.m >.>.@.P 2.F.!.W.W.F.2.L Q >.=.F.'.P.G.'.W.p.p.i.9.5.5.9.F.F.9.9.S.F.M.9.7.7.9.9.9.F.F.F.F.n.S.S.S.S.S.i.S.S.S.a.F.F.F.9.9.9.9.M.a.a.a.a.a.a.a.9.5.7.7.9.a.a.a.a.a.a.a.a.a.i.5.5.i.i.a.a.i.5.5.5.5.a.F.a.a.F.F.a.a.a.a.F.F.F.F.a.i.i.i.a.a.a.F.a.a.i.i.F.i.9.5.5.i.i.S.a.a.a.a.F.i.5.5.5.7.a.a.F.F.F.F.a.a.a.a.5.5.i.a.F.F.a.a.a.a.a.a.a.a.a.a.F.F.a.a.a.a.a.F.F.M.9.n.F.a.5.3.d.G._._._._._._.",
"I.I.I.).I._.!.9.G E =.a 1.V.#.#.=.=.=.=.=.=.=.=.=.=.=.=.=.=.=.=.>.>.>.>.>.>.=.=.>.>.>.>.=.=.=.=.=.=.>.=.m m >.>.=.=.m m =.=.=.=.=.=.=.=.>.>.>.=.>.>.>.>.=.=.>.>.>.>.>.>.>.>.=.=.=.=.=.=.>.=.=.=.=.=.>.>.>.>.>.>.=.=.=.>.=.=.=.=.=.Q =.Q =.Q =.Q =.Q =.Q =.Q =.Q a t @ t C.=.Q Q Q Q Q Q Q Q Q =.=.=.-.=.=.Q Q Q Q H.!.J.I.I.j._./.,.Q Q G ! F._.P.I.I.I.P.!.F.G Q =.-.a 4.@X6.P #.#.-.-.=.=.m m =.=.=.=.=.=.=.=.=.=.=.=.=.=.=.=.x 1.<.x =.>.b =.=.=.=.=.=.=.=.=.=.=.=.=.=.=.=.=.=.=.=.=.=.=.=.=.=.=.=.=.=.=.=.=.=.=.=.=.=.=.=.=.=.=.=.=.=.=.=.=.=.=.=.=.=.=.=.=.=.=.=.=.=.=.=.=.=.=.=.=.=.=.=.=.=.=.>.=.>.>.>.>.=.=.=.>.=.=.=.=.=.=.=.=.>.>.>.=.=.>.=.>.>.>.>.>.>.>.=.L P 3.G.}.G.}.!.9.Q L b Q F.U.P.G.'._.s.p.i.i.i.9.F.F.F.F.9.S.F.9.9.7.7.9.9.a.F.F.M.M.n.S.S.p.S.S.i.S.i.S.a.F.F.F.9.7.7.7.a.a.a.a.a.a.a.a.9.5.7.7.9.a.a.a.a.a.a.a.a.a.i.5.5.i.i.a.a.i.5.5.3.5.a.F.a.a.F.F.a.a.F.F.a.F.F.F.a.a.a.a.a.a.a.a.a.a.i.i.F.i.5.5.5.i.i.S.a.a.a.a.F.i.5.5.5.7.a.a.F.F.F.a.a.a.a.a.3.5.9.F.F.F.a.a.a.a.a.a.a.a.a.a.F.a.a.a.a.a.a.F.M.M.9.9.F.a.9.5.d.G._._._._._._.",
"I.j.I.`.I._.W.9.Q E =.a 1.V.#.#.-.=.=.=.=.=.=.=.=.=.=.=.=.=.=.=.>.>.>.>.=.=.=.=.>.>.>.=.=.=.>.>.m >.>.>.>.>.=.=.=.=.m m >.>.=.>.=.=.>.>.>.>.=.=.=.=.=.=.=.=.=.=.>.>.>.>.=.=.=.=.=.=.>.>.>.>.=.=.=.=.>.>.>.>.=.=.=.=.>.>.>.>.=.=.=.Q Q Q Q Q Q Q Q Q Q Q Q Q =.=.y + + Q Z.a =.Q Q Q Q Q Q =.=.=.=.=.=.=.=.k Q Q Q H.!.J.P.I.j._.^.,.Q Q G ! F._._.I.I.I.P.!.F.G Q -.-.a 8.@X8.P #.#.-.-.=.=.m m =.=.=.=.=.=.=.=.=.=.=.=.=.=.=.=.x 1.1.x =.<.b b =.=.=.=.=.=.=.=.=.=.=.=.=.=.=.=.=.=.=.=.=.=.=.=.=.=.=.=.=.=.=.=.=.=.=.=.=.=.=.=.=.=.=.=.=.=.=.=.=.=.=.=.=.=.=.=.=.=.=.=.=.=.=.=.=.=.=.=.=.=.=.=.>.>.>.>.>.>.=.=.=.=.>.>.>.>.=.>.=.=.=.>.>.>.=.=.=.=.=.=.=.>.=.=.=.>.$.L &.d.W._.P.}.!.9.! Q =.L p._.P.G.'._.s.p.i.i.i.a.F.F.F.F.M.S.F.9.9.9.9.9.a.a.F.F.M.M.M.S.S.p.p.i.S.S.S.i.a.F.F.a.9.7.7.7.a.a.a.a.a.a.a.a.a.5.5.5.i.a.a.a.p.a.a.a.p.p.i.d.5.d.i.p.p.i.5.3.3.5.a.p.p.p.p.F.p.a.p.p.a.a.a.a.a.p.p.p.p.p.p.a.a.a.i.i.p.i.d.3.y.i.p.p.a.a.a.p.p.a.d.5.5.d.a.p.a.a.a.a.p.p.p.p.3.5.d.p.F.p.a.i.p.a.p.p.p.p.p.a.a.a.p.a.p.p.a.a.F.n.9.9.F.i.5.3.d.G._._._._._._.",
"I.I.I.`.I.).W.9.E h Q L 8.E.#.-.-.=.=.=.=.=.=.=.=.=.=.=.=.=.=.=.=.=.>.=.=.=.=.=.>.>.>.=.=.=.>.>.>.>.>.>.=.=.=.=.=.=.m m m >.>.>.=.=.=.>.>.>.=.=.=.=.=.=.=.=.=.=.=.>.=.=.=.=.=.=.>.>.>.>.>.>.=.=.=.=.=.>.>.>.>.=.=.=.>.>.>.>.>.=.=.Q Q Q Q Q Q Q Q Q Q Q Q Q Q Q r @ , ,.Z.r ,.h Q Q Q Q Q Q Q =.=.b b b b b Q Q Q H.!.J.I.I.I._.^.:.Q Q G ! F._._.I.I.I.P.!.F.G Q -.=.y 8.yX7.P #.-.=.=.@.=.=.m =.=.=.=.=.=.=.=.=.=.=.=.=.=.=.=.a 1.,.a =.<.=.x =.=.=.=.=.=.=.=.=.=.=.=.=.=.=.=.=.=.=.=.=.=.=.=.=.=.=.=.=.=.=.=.=.=.=.=.=.=.=.=.=.=.=.=.=.=.=.=.=.=.=.=.=.=.=.=.=.=.=.=.=.=.=.=.=.=.=.=.=.=.=.=.>.>.>.>.>.>.=.=.=.=.>.>.>.>.>.>.=.=.=.=.>.>.=.>.=.=.=.=.=.=.=.=.x @.L J ) p._._.P.).G.3.! =.=.a p._.P.P.'._.s.p.i.i.i.a.F.F.F.9.M.S.F.9.9.9.9.9.F.F.a.a.F.F.F.F.S.p.i.i.S.S.i.i.a.F.F.a.9.5.7.7.a.F.a.a.F.F.a.a.a.5.5.3.i.a.a.a.a.a.a.a.p.a.i.5.5.i.i.F.a.i.5.5.5.5.a.F.a.a.p.F.p.p.p.a.a.p.p.p.a.p.p.p.p.p.p.a.p.a.i.i.p.a.d.3.y.i.p.i.a.a.a.p.p.a.d.5.5.d.a.a.a.a.p.p.p.p.p.p.3.5.i.p.F.p.a.i.p.a.p.p.p.p.p.a.a.a.p.p.p.p.p.a.F.9.9.9.F.S.5.3.d.G._._._._._._.",
"I.P.P._.j.{.W.4.j g ;.D a.(.G Q =.=.=.=.>.=.>.=.>.=.=.=.=.=.>.=.=.=.=.=.=.=.=.=.=.=.=.=.=.=.=.=.=.=.=.=.=.=.=.=.=.=.=.=.=.=.=.=.=.=.=.=.=.m =.m =.m =.=.=.=.=.=.=.=.=.=.=.=.=.=.=.=.=.=.=.=.=.=.=.=.=.=.=.=.=.=.=.=.=.=.=.=.=.=.=.Q =.=.=.=.=.=.=.>.b b m b n p 7 + e v.C.=.r -.Q Q E Q Q =.=.=.=.=.=.b b b =.Q P E._._._.P.P.P.Q.:.Q -.L ! F.!.P.K.I.P.G.!.F.G =.x =.G 3.yX}.F Q b b m >.$.=.=.=.=.=.=.=.=.=.=.>.x <.<.a >.<.i Q V.L Q ,.a =.>.=.=.=.=.=.=.=.=.=.=.=.=.=.=.=.=.=.=.=.=.=.=.=.=.=.=.=.=.=.=.=.=.=.=.=.=.=.=.=.=.=.=.=.=.=.=.=.=.=.=.=.=.=.=.=.=.=.=.=.=.=.=.=.=.=.=.=.=.=.=.=.=.=.=.=.=.=.=.=.=.=.=.=.=.=.=.=.=.=.=.=.=.=.=.=.=.=.=.=.=.=.=.=.=.x =.-.P 2.G.)._._.G.W.F.-.L =.L F._.P.G.'.P.p.p.d.d.i.a.F.F.F.9.F.F.F.9.9.5.5.9.a.a.a.a.F.F.F.F.S.S.S.S.i.i.i.S.F.9.9.F.9.3.3.9.F.n.F.M.F.M.F.F.5.9.5.7.7.9.9.F.a.a.a.F.F.F.a.5.7.5.9.F.F.9.9.3.3.5.a.F.a.a.F.F.i.i.i.i.p.p.p.S.i.S.i.F.F.a.a.a.a.a.a.a.a.a.7.5.i.i.F.F.a.a.a.F.F.i.5.5.5.5.d.F.p.S.S.S.p.p.p.p.3.5.a.a.i.i.p.F.i.i.i.i.a.a.S.S.i.F.F.a.i.i.i.a.F.F.a.F.F.F.i.5.d.G._._._._.`._.",
"P.P._.I.c.{._.4.j j ;.D p.}.E k =.=.=.=.>.>.>.>.>.>.=.=.>.>.>.>.=.=.=.=.=.=.=.=.=.=.=.=.=.=.=.=.=.=.=.=.=.=.=.=.=.=.=.=.=.=.=.=.=.=.=.=.m m =.m m m m m =.=.=.=.=.=.=.=.=.=.=.=.=.=.=.=.=.=.=.=.=.=.=.=.=.=.=.=.=.=.=.=.=.=.=.=.=.=.=.=.=.=.=.=.=.b b v n n v 9 7 O a B.B.Q y ~ E E E Q Q =.=.=.-.=.=.b b b =.Q P E._._._.P.P.J.Q.:.Q -.L -.a.!.P.K.P.P.G.!.F.P =.x >.G 5.uX{.I Q N N m $.$.>.=.=.=.=.=.=.=.=.=.>.x >.<.v >.<.i -.M.L L ,.a =.=.m m =.=.=.=.=.=.=.=.=.=.=.=.=.=.=.=.=.=.=.=.=.=.=.=.=.=.=.=.=.=.=.=.=.=.=.=.=.=.=.=.=.=.=.=.=.=.=.=.=.=.=.=.=.=.=.=.=.=.=.=.=.=.=.=.=.=.=.=.=.=.=.=.=.=.=.=.=.=.=.=.=.=.=.=.=.=.=.=.=.=.=.=.=.=.=.=.=.=.=.=.=.=.b =.-.P 2.G.)._._.G._.E.-.Q =.L F._.P.G._.W.p.p.d.i.i.9.F.F.M.M.F.F.F.9.9.5.9.9.a.a.a.a.a.a.a.F.S.S.S.S.i.i.i.S.F.9.a.F.9.3.3.9.F.S.n.n.M.M.F.F.7.9.9.7.7.9.9.F.a.a.a.a.F.F.9.5.7.9.M.M.M.n.9.4.3.9.9.F.a.a.F.F.i.i.i.i.p.p.p.i.i.S.S.S.a.a.a.a.a.a.a.a.a.a.7.5.i.i.F.F.a.a.a.F.F.i.5.7.7.5.d.F.p.p.p.p.p.p.a.a.5.5.a.a.i.i.p.S.S.S.i.i.i.a.S.S.i.S.i.a.i.i.a.a.F.a.a.a.F.F.i.5.i.G._._._._.`.`.",
"P.P._._.c.{._.4.j j ~ D p.|.E k =.=.=.=.=.>.=.=.=.=.=.=.=.>.>.>.=.=.=.=.=.=.=.=.=.=.=.=.=.=.=.=.=.=.=.=.=.=.=.=.=.=.=.=.=.=.=.=.=.=.=.=.=.=.=.=.=.=.=.=.=.=.=.=.=.=.=.=.=.=.=.=.=.=.=.=.=.=.=.=.=.=.=.=.=.=.=.=.=.=.=.=.=.=.=.=.=.=.=.=.=.=.=.=.b m m n b n q 6 7 O >.Z.1.a Q Q Q E Q Q Q =.=.=.-.=.=.b b b =.Q P E._._._.P.P.J.Q.:.Q -.L -.a.!.P.K.P.P.G.!.F.P =.x >.G 5.uX].I Q N N m $.%.>.=.=.=.=.=.=.=.=.=.>.x =.>.m >.b e 8.m.a a >.h m m m m =.=.=.=.=.=.=.=.=.=.=.=.=.=.=.=.=.=.=.=.=.=.=.=.=.=.=.=.=.=.=.=.=.=.=.=.=.=.=.=.=.=.=.=.=.=.=.=.=.=.=.=.=.=.=.=.=.=.=.=.=.=.=.=.=.=.=.=.=.=.=.=.=.=.=.=.=.=.=.=.=.=.=.=.=.=.=.=.=.=.=.=.=.=.=.=.=.=.=.=.=.=.b =.-.P 2.G.).P._.P._.E.:.Q =.L F._.P.G.).P.p.i.i.i.5.9.F.F.M.M.F.F.F.9.5.5.9.9.a.a.a.a.a.a.a.a.S.S.p.p.i.i.S.S.F.9.9.F.9.3.3.9.F.S.S.n.F.F.F.F.3.9.9.7.7.7.9.F.a.a.a.a.F.a.9.5.7.9.M.M.M.9.9.4.3.9.M.F.F.a.F.F.S.i.i.S.p.p.p.S.S.S.S.S.a.a.a.a.a.a.a.a.a.a.7.5.i.i.F.F.a.a.a.F.F.i.5.7.7.5.d.F.S.S.S.S.p.p.a.a.5.5.a.a.i.i.p.S.S.S.S.S.i.i.i.S.i.i.i.i.S.S.S.S.F.a.a.a.F.F.i.5.d.G.}._._._.`.`.",
"P.P._._.c.{._.4.g g ~ D s.|.E k =.=.=.=.=.=.=.=.=.=.=.=.=.>.>.>.=.=.=.=.=.=.=.=.=.=.=.=.=.=.=.=.=.=.=.=.=.=.=.=.=.=.=.=.=.=.=.=.=.=.=.=.=.=.=.=.=.=.=.=.=.=.=.=.=.=.=.=.=.=.=.=.=.=.=.=.=.=.=.=.=.=.=.=.=.=.=.=.=.=.=.=.=.=.=.=.=.=.=.=.=.=.=.=.=.m m b m v 9 O + + v. X;.a =.E Q Q Q Q =.=.=.=.-.=.=.b b b =.Q #.E._.P._.P.P.J.Q.:.Q -.L -.a.!.P.K.P.P.G.!.F.P =.x =.G 5.uX].Y Q k n m $.%.=.=.m =.=.=.=.=.=.=.>.b b =.>.>.x e C.8.L a =.=.m b m m =.=.=.=.=.=.=.=.=.=.=.=.=.=.=.=.=.=.=.=.=.=.=.=.=.=.=.=.=.=.=.=.=.=.=.=.=.=.=.=.=.=.=.=.=.=.=.=.=.=.=.=.=.=.=.=.=.=.=.=.=.=.=.=.=.=.=.=.=.=.=.=.=.=.=.=.=.=.=.=.=.=.=.=.=.=.=.=.=.=.=.=.=.=.=.=.=.=.=.=.=.=.b =.L P 7.E.)._._.P._.F.:.Q =.L F._.P.G._.P.p.i.i.5.5.9.9.F.M.M.F.F.F.9.9.5.9.9.a.a.a.a.a.a.p.p.S.S.p.p.a.a.S.S.F.9.9.F.9.3.3.9.F.S.S.n.F.F.F.F.3.9.9.9.7.9.9.F.a.a.a.a.F.a.9.7.9.9.M.M.M.9.9.4.3.9.M.F.F.F.F.F.S.i.S.S.p.p.p.S.S.i.i.i.a.a.a.a.a.a.a.a.a.a.7.5.i.i.F.F.a.a.a.F.a.5.5.d.d.5.7.a.F.S.S.S.p.p.a.a.5.a.a.a.i.i.p.S.S.S.S.i.i.i.S.S.i.i.i.i.S.S.S.S.F.a.a.a.F.F.i.5.i.G._.)._._.`.`.",
"P.P._._.c.{._.4.g g ~ F s.OXE k =.=.=.=.=.=.=.=.=.=.=.=.=.=.=.=.=.=.=.=.=.=.=.=.=.=.=.=.=.=.=.=.=.=.=.=.=.=.=.=.=.=.=.=.=.=.=.=.=.=.=.=.=.=.=.=.=.=.=.=.=.=.=.=.=.=.=.=.=.=.=.=.=.=.=.=.=.=.=.=.=.=.=.=.=.=.=.=.=.=.=.=.=.=.=.=.=.=.=.=.=.=.=.=.=.m b b b p 6 O + e A. X=.a ;.h Q Q Q =.=.=.=.=.-.=.=.b b b =.Q #.E._._._.P.P.J.Q.:.Q -.L -.9.!.P.K.P.P.G.!.F.P =.x =.G y.uX2XT Q k n b $.%.=.=.=.=.=.=.=.=.=.m >.=.b m <.>.p i /.:.L L Q =.b b m m =.=.=.=.=.=.=.=.=.=.=.=.=.=.=.=.=.=.=.=.=.=.=.=.=.=.=.=.=.=.=.=.=.=.=.=.=.=.=.=.=.=.=.=.=.=.=.=.=.=.=.=.=.=.=.=.=.=.=.=.=.=.=.=.=.=.=.=.=.=.=.=.=.=.=.=.=.=.=.=.=.=.=.=.=.=.=.=.=.=.=.=.=.=.=.=.=.=.=.=.=.=.b h L ! 7.W.)._._.P._.E.:.Q =.L F.).P.P._.P.p.i.i.5.5.5.9.F.M.M.F.F.F.9.9.5.9.9.a.a.a.a.p.p.p.p.S.p.p.p.i.S.S.S.F.9.a.F.9.3.3.9.F.S.S.S.F.M.M.M.9.9.9.9.7.9.9.F.F.a.a.a.F.a.9.7.9.9.M.M.M.9.9.3.3.9.9.F.a.a.F.F.S.S.i.i.p.p.S.S.i.i.i.i.i.i.a.a.a.a.a.a.a.a.7.5.i.i.F.F.a.a.a.F.a.5.5.d.a.5.7.a.S.S.i.i.a.a.a.a.5.a.a.a.i.i.S.S.i.i.i.a.F.S.i.i.i.i.S.S.i.i.i.S.F.a.i.a.F.F.i.5.d.G._._._._.`.c.",
"P.P._._.c.{._.:.g g ~ F G.OXE k =.=.=.=.=.=.=.=.=.=.=.=.=.=.=.=.=.=.=.=.=.=.=.=.=.=.=.=.=.=.=.=.=.=.=.=.=.=.=.=.=.=.=.=.=.=.=.=.=.=.=.=.=.=.m =.=.=.=.=.=.=.=.=.=.=.=.=.=.=.=.=.=.=.=.=.=.=.=.=.=.=.=.=.=.=.=.=.=.=.=.=.=.=.=.=.=.=.=.=.=.=.=.=.=.b b b v 9 6 6 + a Z.Z.~ a ;.Q Q Q Q =.=.=.=.=.-.=.b b b b =.Q #.E.[._._.P.P.J.Q.:.Q -.L ! 9.!.P.K.P.P.G.!.F.P >.a =.G y.uX4X_ Q k n b $.%.=.=.=.=.=.=.=.=.=.=.=.>.b =.<.b p x  X! Q Q L =.b b m m =.=.=.=.=.=.=.=.=.=.=.=.=.=.=.=.=.=.=.=.=.=.=.=.=.=.=.=.=.=.=.=.=.=.=.=.=.=.=.=.=.=.=.=.=.=.=.=.=.=.=.=.=.=.=.=.=.=.=.=.=.=.=.=.=.=.=.=.=.=.=.=.=.=.=.=.=.=.=.=.=.=.=.=.=.=.=.=.=.=.=.=.=.=.=.=.=.=.=.=.=.=.>.a L ! 9.W._._._.P._.E.2.Q =.Q F.).P.P._.P.p.i.i.5.5.7.9.9.M.M.F.F.M.9.9.5.9.9.a.a.a.a.p.p.p.p.p.p.p.p.i.i.S.S.F.9.a.F.9.3.3.9.F.S.S.S.F.F.M.M.9.9.9.9.7.9.9.F.F.F.a.a.F.a.5.3.F.M.M.M.M.9.9.3.3.9.M.F.a.a.F.F.S.S.i.i.p.p.S.S.i.i.i.i.i.i.a.a.a.a.a.a.a.a.7.5.i.i.F.F.a.a.a.F.a.5.7.a.a.5.7.a.i.S.i.i.F.F.a.a.7.a.F.F.i.i.S.S.i.i.a.a.F.S.S.i.i.i.S.S.i.i.i.a.F.a.i.a.F.F.9.5.d.G._._._._.`.c.",
"P.P._._.c.{._.:.g g ~ F _.OXE E =.=.=.=.=.=.=.=.=.=.=.=.=.=.=.=.=.=.=.=.=.=.=.=.=.=.=.=.=.=.=.=.=.=.=.=.=.=.=.=.=.=.=.=.=.=.=.=.m m =.=.=.=.m m m m =.=.=.=.m m =.=.=.=.=.=.=.=.=.=.=.=.=.=.=.=.=.=.=.=.=.=.=.=.=.=.=.=.=.=.=.=.=.=.=.=.=.=.=.=.=.m b v p & & 7 + ,./.B.=.Q =.=.Q Q =.=.=.=.-.-.=.=.b b b b =.Q P E.)._._.P.P.J.Q.:.Q -.L ! F.!.P.K.P.P.G.!.F.G =.a =.G y.gX4X} Q k n m $.%.>.m =.=.=.=.=.=.b b b <.=.x ,.x i ,./.L -.=.a >.b >.m m =.=.=.=.=.=.=.=.=.=.=.=.=.=.=.=.=.=.=.=.=.=.=.=.=.=.=.=.=.=.=.=.=.=.=.=.=.=.=.=.=.=.=.=.=.=.=.=.=.=.=.=.=.=.=.=.=.=.=.=.=.=.=.=.=.=.=.=.=.=.=.=.=.=.=.=.=.=.=.=.=.=.=.=.=.=.=.=.=.=.=.=.=.=.=.=.=.=.=.=.=.=.>.a a ! a.W._.P.P.P._.E.2.Q =.L F.).P.P._.P.p.p.i.5.5.3.9.9.M.M.M.M.M.9.9.5.9.9.a.a.a.a.a.a.a.F.S.i.p.p.i.i.i.i.F.9.a.F.9.3.3.9.F.n.S.S.F.M.M.M.9.9.9.7.7.7.9.F.F.F.a.F.F.a.5.3.F.F.M.M.M.9.9.5.3.9.9.F.a.a.F.F.S.a.i.a.p.S.S.S.i.i.i.5.5.i.a.a.a.a.a.a.a.a.7.5.i.i.F.F.a.a.a.F.a.5.5.a.a.5.7.a.i.S.p.i.F.F.a.a.d.a.F.F.S.i.S.S.i.i.i.S.F.S.i.i.S.F.F.S.i.i.i.a.F.a.i.a.F.F.9.5.d.G._._._._.`.c.",
"P.P._._.c.{._.2.j g ~ F _.OXE E =.=.=.=.=.=.=.=.=.=.=.=.=.=.=.=.=.=.=.=.=.=.=.=.=.=.=.=.=.=.=.=.=.=.=.=.=.=.=.=.=.=.=.=.=.=.=.=.m m =.=.=.=.m m m m =.=.=.=.m m =.=.=.=.=.=.=.=.=.=.=.=.=.=.=.=.=.=.=.=.=.=.=.=.=.=.=.=.=.=.=.=.=.=.=.=.=.=.-.=.x b b v w   O p + 8./.8.-.~ Q =.Q Q =.=.=.=.-.-.=.=.b b b b =.Q P E.)._._.P.P.J.Q.:.Q -.L ! F.!.P.K.P.P.G.!.F.G =.a =.G y.gX5X} Q k b m $.$.=.m =.=.=.=.=.=.b b b <.=.@.,.x i 8./.G ,.-.a >.b >.m m =.=.=.=.=.=.=.=.=.=.=.=.=.=.=.=.=.=.=.=.=.=.=.=.=.=.=.=.=.=.=.=.=.=.=.=.=.=.=.=.=.=.=.=.=.=.=.=.=.=.=.=.=.=.=.=.=.=.=.=.=.=.=.=.=.=.=.=.=.=.=.=.=.=.=.=.=.=.=.=.=.=.=.=.=.=.=.=.=.=.=.=.=.=.=.=.=.=.=.=.=.=.=.a y ! a.W._.P.P.P._.F.2.Q =.L F.).P.P._.P.p.p.i.5.5.3.9.9.M.M.M.M.M.9.9.5.9.9.a.a.a.a.a.a.a.F.S.p.p.p.i.i.i.i.F.9.a.F.9.3.3.9.M.n.S.S.F.M.M.M.9.9.9.7.7.7.9.F.F.F.a.F.F.a.5.3.F.F.M.M.M.9.9.9.3.9.9.F.a.a.F.F.S.i.i.a.S.S.S.S.i.i.i.5.5.i.a.a.a.a.a.a.a.a.7.5.i.i.F.F.a.a.a.F.a.5.5.a.a.5.7.a.i.S.p.i.F.F.a.a.d.a.F.F.S.i.S.S.i.i.i.S.S.S.i.i.S.S.F.S.i.i.i.a.F.a.i.a.F.F.9.5.d.G._._._._.`.c.",
"P.P._._.c.{._.! k j ^ F _.rX! E Q =.=.=.=.=.=.=.=.=.=.=.=.=.=.=.=.=.=.=.=.=.=.=.=.=.=.=.=.=.=.=.=.=.=.=.=.=.=.=.=.=.=.=.=.=.=.=.>.m b >.>.b b >.=.=.=.=.=.=.=.m =.=.=.=.=.=.=.=.=.=.=.=.=.=.=.=.=.=.=.=.=.=.=.=.=.=.=.=.=.=.=.=.=.=.=.=.=.=.=.=.=.>.v 7 7 6 6 O i V./.8.Q Q h h i a =.>.=.=.-.-.=.=.=.b b b =.Q #.E.[._._.P.P.J.Q.4.Q Q -.! 7.}.P.K.P.P.G.!.F.G -.;.h G p.gXdXs.G h b >.,.,.=.b =.=.=.=.=.b b b b <.=.=.,.i i A.Q.! L =.-.h >.b m m =.=.=.=.=.=.=.=.=.=.=.=.=.=.=.=.=.=.=.=.=.=.=.=.=.=.=.=.=.=.=.=.=.=.=.=.=.=.=.=.=.=.=.=.=.=.=.=.=.=.=.=.=.=.=.=.=.=.=.=.=.=.=.=.=.=.=.=.=.=.=.=.=.=.=.=.=.=.=.=.=.=.=.=.=.=.=.=.=.=.=.=.=.=.=.=.=.=.=.=.=.=.=.Q L ! H.W.G.P.P.P.}.W.4.Q =.L G.P._.P.P.G.G.d.p.i.5.3.9.9.M.M.M.F.F.9.9.3.9.9.a.a.a.a.p.p.a.F.S.S.p.p.i.i.i.i.F.a.a.F.9.7.7.n.M.n.S.S.F.F.F.F.9.3.7.7.7.7.9.H.F.a.a.F.F.9.5.9.F.M.M.M.M.M.9.4.3.9.F.F.a.9.F.F.S.S.S.S.p.p.p.p.i.i.i.5.3.5.a.F.F.F.a.a.a.a.d.5.i.i.i.F.F.F.F.a.a.5.5.a.a.d.7.i.9.S.S.9.F.F.a.7.7.9.F.F.S.S.S.S.i.i.i.S.S.S.i.i.F.F.S.S.i.i.a.i.F.a.a.a.F.F.i.5.d.G._._._._.`.c.",
"P.P._._.c.1XW.! k j -.F _.rX) E Q =.=.=.=.=.=.=.=.=.=.=.=.=.=.=.=.=.=.=.=.=.=.=.=.=.=.=.=.=.=.=.=.=.=.=.=.=.=.=.=.=.=.=.=.=.=.=.>.m m >.>.b m >.=.=.=.=.=.=.m m =.=.=.=.=.=.=.=.=.=.=.=.=.=.=.=.=.=.=.=.=.=.=.=.=.=.=.=.=.=.=.=.=.=.=.=.=.=.=.=.=.>.v 7 7 6 6 O y E.Q.4.Q Q h b a b =.>.=.=.-.=.-.=.Q k b b =.Q #.E._._._.P.P.J.Q.4.Q Q -.! 7.}.P.K.P.P.G.!.F.G =.>.h G p.gXdXP.G h b >.,.-.=.=.=.=.=.=.=.b b b b >.=.=.=.i J ~.V.! L -.=.=.>.b m m =.=.=.=.=.=.=.=.=.=.=.=.=.=.=.=.=.=.=.=.=.=.=.=.=.=.=.=.=.=.=.=.=.=.=.=.=.=.=.=.=.=.=.=.=.=.=.=.=.=.=.=.=.=.=.=.=.=.=.=.=.=.=.=.=.=.=.=.=.=.=.=.=.=.=.=.=.=.=.=.=.=.=.=.=.=.=.=.=.=.=.=.=.=.=.=.=.=.=.=.=.=.=.Q L 2.E.J.P.P.P.P._.W.4.Q =.L G.P._.P.P.G.G.d.p.9.5.3.7.9.M.M.F.F.F.9.9.3.9.9.a.a.a.a.p.p.a.S.S.S.p.p.i.i.i.i.F.9.a.F.9.3.7.9.M.n.S.S.F.F.F.F.9.3.7.9.7.7.9.H.F.a.a.F.F.9.5.9.F.9.M.M.M.M.9.4.3.9.F.F.F.a.F.F.S.S.S.S.p.p.p.p.i.i.i.5.5.5.a.F.a.a.a.a.a.a.d.d.i.i.i.F.F.F.F.a.a.5.5.a.a.d.7.i.9.S.S.i.F.F.a.7.7.9.a.F.S.i.S.S.i.i.S.S.S.S.i.i.F.S.S.S.i.a.a.i.F.a.a.a.F.F.9.5.d.G._._._._.`.c.",
"P.G._._.c.1X_.! k j ^ F _.uX) E Q =.=.=.=.=.=.=.=.=.=.=.=.=.=.=.=.=.=.=.=.=.=.=.=.=.=.=.=.=.=.=.=.=.=.=.=.=.=.=.=.=.=.=.=.=.=.=.>.b m >.m b b >.>.=.=.=.=.=.=.=.=.=.=.=.=.=.=.=.=.=.=.=.=.=.=.=.=.=.=.=.=.=.=.=.=.=.=.=.=.=.=.=.=.=.=.=.=.=.=.=.=.b v p 7 6 6 O Q Q.Q.:.Q =.Q b a v =.>.=.=.-.=.-.=.=.k b b =.Q #.E.[._._.P.P.J.Q.4.Q Q -.! 7.}.P.K.P.P.G.!.F.G =.>.k G p.gXdXI.F h b >.-.-.=.b =.=.=.=.=.b b b b >.=.<.@.- @.(.V.! L -.=.b >.b m m =.=.=.=.=.=.=.=.=.=.=.=.=.=.=.=.=.=.=.=.=.=.=.=.=.=.=.=.=.=.=.=.=.=.=.=.=.=.=.=.=.=.=.=.=.=.=.=.=.=.=.=.=.=.=.=.=.=.=.=.=.=.=.=.=.=.=.=.=.=.=.=.=.=.=.=.=.=.=.=.=.=.=.=.=.=.=.=.=.=.=.=.=.=.=.=.=.=.=.=.=.=.=.Q L 2.W.!.P.P.P.P.'.H.2.Q =.L G.P._.P.P.G.G.d.p.9.5.3.9.9.M.M.F.F.F.9.9.5.9.9.a.a.a.a.p.p.p.S.S.S.S.p.S.S.S.S.F.9.9.F.9.3.7.9.F.S.S.S.F.F.M.M.9.3.7.9.7.7.9.F.F.a.a.F.F.9.5.9.F.9.M.M.M.M.9.4.3.9.F.F.F.a.F.F.i.i.S.S.p.p.p.p.i.i.i.i.i.i.a.F.a.a.a.a.a.a.7.5.i.i.i.F.F.F.F.a.a.5.5.a.a.a.7.i.9.S.S.S.F.F.a.7.7.9.a.F.S.i.S.S.i.i.i.i.S.F.a.i.a.i.S.S.i.i.i.i.F.a.a.a.F.F.i.5.d.G._._._._.`.c.",
"U.G._._.c.{.W.) k j ^ F `.uX) E Q =.=.=.=.=.=.=.=.=.=.=.=.=.=.=.=.=.=.=.=.=.=.=.=.=.=.=.=.=.=.=.=.=.=.=.=.=.=.=.=.=.=.=.=.=.=.=.=.b =.>.b x b >.=.=.=.=.=.=.=.=.=.=.=.=.=.=.=.=.=.=.=.=.=.=.=.=.=.=.=.=.=.=.=.=.=.=.=.=.=.=.=.=.=.=.=.=.=.=.=.=.=.b b t w 6 6 1 :.!.Q.! Q =.=.b v b =.=.=.=.-.-.-.=.=.k b b =.Q #.E.[._._.P.P.J.Q.4.Q Q -.! 7.}.J.K.P.P.G.!.F.G =.=.k E D.gXdXI.H h b =.-.-.=.b =.=.=.=.=.b b b >.b =.<.J = #.oXm.! G =.=.=.>.m m m =.=.=.=.=.=.=.=.=.=.=.=.=.=.=.=.=.=.=.=.=.=.=.=.=.=.=.=.=.=.=.=.=.=.=.=.=.=.=.=.=.=.=.=.=.=.=.=.=.=.=.=.=.=.=.=.=.=.=.=.=.=.=.=.=.=.=.=.=.=.=.=.=.=.=.=.=.=.=.=.=.=.=.=.=.=.=.=.=.=.=.=.=.=.=.=.=.=.=.=.=.=.=.Q E 4.!.J.P.P.P.P.'.H.2.Q =.E G.P._.P.P.G.G.d.p.9.5.3.9.9.M.M.F.F.F.9.9.5.9.9.a.a.a.a.p.p.p.S.S.S.S.S.S.S.S.S.F.9.9.F.9.3.7.9.F.S.S.S.M.M.M.M.9.3.7.9.9.7.9.F.F.a.a.F.F.9.5.9.F.9.M.M.M.M.9.4.3.9.F.F.F.a.F.F.i.i.S.S.S.i.S.S.i.i.i.S.a.a.i.a.a.a.a.a.a.a.d.5.i.i.i.F.F.F.F.a.a.5.5.a.a.d.7.i.9.S.S.S.F.F.a.7.7.9.a.F.S.i.S.S.a.a.a.i.S.F.a.i.i.i.S.i.i.i.S.S.F.a.a.a.F.F.i.5.d.G._._._._.`.c.",
"P.G._._.c.{.W.! k g ^ F {.gX` E Q =.=.=.=.=.=.=.=.=.=.=.=.=.=.=.=.=.=.=.=.=.=.=.=.=.=.=.=.=.=.=.=.=.=.=.=.=.=.=.=.=.=.=.=.=.=.=.=.b >.>.b a x >.m m =.=.=.=.=.=.=.=.=.=.=.=.=.=.=.=.=.=.=.=.=.=.=.=.=.=.=.=.=.=.=.=.=.=.=.=.=.=.=.=.=.=.=.=.=.=.=.b m p 9 6 6 7 4.!.H.W G -.=.h m m =.=.=.=.-.-.-.=.=.b b b =.Q P E._._._.P.P.J.(.8.Q Q @.P 7.!.P.K.P.P.G.!.F.G =.=.h E D.gXdX2XH E b =.-.-.=.b =.=.=.=.=.b b b >.x =.>.i - 6.oX8.Q Q =.Q =.<.m m m =.=.=.=.=.=.=.=.=.=.=.=.=.=.=.=.=.=.=.=.=.=.=.=.=.=.=.=.=.=.=.=.=.=.=.=.=.=.=.=.=.=.=.=.=.=.=.=.=.=.=.=.=.=.=.=.=.=.=.=.=.=.=.=.=.=.=.=.=.=.=.=.=.=.=.=.=.=.=.=.=.=.=.=.=.=.=.=.=.=.=.=.=.=.=.=.=.=.=.=.=.=.Q Q E ` !.'.P.P.I.P._.H.! Q =.E G.P._.P.P.G.G.i.p.i.5.3.7.9.M.M.F.F.F.9.9.5.5.9.a.a.a.a.a.a.a.S.p.p.S.S.S.S.i.i.F.S.a.F.9.3.3.n.F.S.S.S.F.F.M.M.9.3.9.9.9.7.9.F.F.a.a.F.F.9.5.9.F.9.n.M.M.M.5.` 7.9.M.F.a.a.F.F.i.i.i.i.S.S.S.S.i.i.i.i.F.a.a.i.5.a.a.a.a.a.7.5.i.i.i.F.F.F.F.a.a.5.5.a.a.d.7.i.9.S.S.n.F.F.M.7.7.9.F.F.S.n.S.S.S.S.S.i.i.i.i.S.i.i.i.i.S.S.S.S.F.a.a.a.F.F.i.5.i.G.}._._._.`.`.",
"P.G._.P.c.{.W.! k g ! F {.gX` E Q =.=.=.=.=.=.=.Q =.=.=.=.=.=.=.=.=.=.=.=.=.=.=.=.=.=.=.=.=.=.=.=.=.=.=.=.=.=.=.=.=.=.=.=.=.=.=.b =.>.>.x p x >.m m =.=.=.=.=.m =.=.=.=.=.=.=.=.=.=.=.=.=.=.=.=.=.=.=.=.=.=.=.=.=.=.=.=.=.=.=.=.=.Q =.=.=.=.=.=.=.b b v 9 6 & , M.!.F.P G ,.=.a >.b =.=.=.=.-.-.=.=.=.b b b =.Q P E._._._.P.P.J.(.8.Q Q -.P 7.!.P.K.P.P.G.!.F.G =.=.h E D.dXhX4XH Q b =.#.-.=.b =.=.=.=.=.b b b >.x >.$.- J r.(.4.Q Q =.L =.<.m m m =.=.=.=.=.=.=.=.=.=.=.=.=.=.=.=.=.=.=.=.=.=.=.=.=.=.=.=.=.=.=.=.=.=.=.=.=.=.=.=.=.=.=.=.=.=.=.=.=.=.=.=.=.=.=.=.=.=.=.=.=.=.=.=.=.=.=.=.=.=.=.=.=.=.=.=.=.=.=.=.=.=.=.=.=.=.=.=.=.=.=.=.=.=.=.=.=.=.=.=.=.=.Q Q E 4.!.'.P.P.I.P.U.H.! E =.Q G.P._.P.P.G.G.y.p.i.5.3.7.9.M.M.F.F.F.9.9.5.5.9.a.a.a.a.a.a.a.S.p.p.p.S.S.S.i.i.F.F.a.F.9.3.3.n.M.S.S.S.F.F.M.M.3.3.9.9.9.7.9.F.F.a.a.F.F.9.5.9.F.9.n.M.M.M.9.4.7.9.M.F.a.a.F.F.i.i.i.i.S.S.S.S.S.i.i.i.F.F.a.i.5.5.a.a.a.a.7.5.i.i.i.F.F.F.F.a.a.5.5.a.a.d.7.9.9.S.S.n.F.F.M.7.7.9.F.F.S.n.S.S.S.S.S.i.i.i.i.S.i.i.i.i.S.i.S.S.F.a.a.a.F.F.i.5.d.G.}._._._.`.`.",
"P.G._.P.c.{.W.! k g ! F 1XgX` G Q =.=.=.=.=.=.=.=.Q =.=.=.=.=.=.=.=.=.=.=.=.=.=.=.=.=.=.=.=.=.=.=.=.=.=.=.=.=.=.=.=.=.=.=.=.=.=.b =.>.>.x i a >.m =.=.=.=.=.=.m =.=.=.=.=.=.=.=.=.=.=.=.=.=.=.=.=.=.=.=.=.=.=.=.=.=.=.=.=.=.=.=.=.=.=.=.=.=.=.=.=.b b v p & & 7 M.!.a.F G ,.Q t >.m m m =.=.-.-.-.=.=.b b b =.Q P E._.P._.P.P.J.(.8.Q Q @.P 7.!.P.K.P.P.G.!.F.G -.=.h E G.dXhXtXH Q =.=.$.-.=.b =.=.=.=.=.b m b m b <.@.= #.~.^.2.Q Q Q a =.<.m m m =.=.=.=.=.=.=.=.=.=.=.=.=.=.=.=.=.=.=.=.=.=.=.=.=.=.=.=.=.=.=.=.=.=.=.=.=.=.=.=.=.=.=.=.=.=.=.=.=.=.=.=.=.=.=.=.=.=.=.=.=.=.=.=.=.=.=.=.=.=.=.=.=.=.=.=.=.=.=.=.=.=.=.=.=.=.=.=.=.=.=.=.=.=.=.=.=.=.=.=.=.b k Q Q 4.!.'.P.P.Y.P.U.H.! Q =.Q G.P._.P.P.G.G.y.p.i.5.3.7.9.M.M.F.F.F.9.5.5.9.9.a.a.a.a.a.a.a.p.p.p.p.S.a.a.i.i.F.F.a.F.9.3.3.n.M.n.n.n.F.F.F.M.3.3.9.9.9.7.9.F.F.a.a.F.F.9.5.9.F.9.M.M.M.M.9.4.7.9.M.F.a.a.F.F.F.F.i.i.S.S.p.p.F.S.i.i.F.F.a.i.5.5.a.a.a.a.7.5.i.i.i.F.F.F.F.a.a.5.5.a.a.d.7.9.9.S.S.n.M.F.9.7.7.9.F.F.S.n.n.S.S.S.a.a.i.i.S.S.F.F.i.i.i.i.i.i.F.a.a.a.F.F.i.5.i.G._._._._.`.`.",
"P.P.P._.c.{.W.-.k g Q F {.gX_ G Q =.=.=.=.=.=.=.Q =.=.=.=.=.=.=.=.=.=.=.=.=.=.=.=.=.=.=.=.=.=.=.=.=.=.=.=.=.=.=.=.=.=.=.=.=.=.=.b =.>.>.x i a >.=.=.=.=.=.=.=.m =.=.=.=.=.=.=.=.=.=.=.=.=.=.=.=.=.=.=.=.=.=.=.=.=.=.=.=.=.=.=.=.=.=.b =.=.=.=.=.>.=.b b p * & e M.!.9.F E ;.h e >.m m m >.=.=.=.-.=.=.b b b Q Q P E._.P._.P.P.J.(.8.Q Q -.P 8.!.P.K.P.P.G.!.F.P =.b h W D.dXhXtXI ! Q =.$.$.=.b =.=.=.=.b b b b b b ,.a % #.^.~.-.Q Q Q L -.<.=.=.=.=.=.=.-.-.-.=.=.=.=.=.=.=.=.=.=.=.=.=.=.=.=.=.=.=.=.=.=.=.=.=.=.=.=.=.=.=.=.=.=.=.=.=.=.=.=.=.=.=.=.=.=.=.=.=.=.=.=.=.=.=.=.=.=.=.=.=.=.=.=.=.=.=.=.=.=.=.=.=.=.=.=.=.=.=.=.=.=.=.=.=.=.=.=.=.=.=.=.=.=.=.b k Q Q 4.!.).P.P.Y.P.U.H.! E =.Q G.P._.P.P.G.G.d.p.d.5.3.5.9.F.F.F.F.F.9.9.5.9.9.a.a.a.F.a.p.p.p.i.S.S.S.i.F.a.S.F.F.a.F.9.7.3.M.M.n.n.n.F.F.F.F.3.3.9.M.9.9.9.F.F.a.a.F.F.9.5.9.a.9.9.F.F.M.9.4.7.9.M.F.a.a.F.F.S.F.F.S.S.i.i.p.F.i.i.i.a.F.F.a.5.5.a.a.a.a.7.5.i.i.i.F.F.F.F.a.a.5.5.a.a.d.7.i.9.S.S.n.F.F.9.7.7.9.F.F.S.n.S.F.S.i.i.a.i.i.S.S.F.S.S.i.a.a.i.i.F.a.a.F.F.F.i.5.d.G._._._._.`.I.",
"j.h._._._.{.z.P h k ~ P 4XtXP.H Q b b b b b b b b b b b b =.=.=.h h Q Q Q =.=.=.Q Q Q Q Q Q Q Q Q Q =.=.=.=.=.=.b b m b >.b >.>.=.=.>.m >.* m <.$.$.$.=.=.=.b b =.=.=.>.>.-.=.=.=.=.=.=.=.b b b =.Q Q Q Q Q h h h h Q Q Q =.Q Q Q k k h h h b b =.=.<.x b 7 . @.Q.(.! Q a v.p p <.<.=.@.>.<.>.=.=.b h b k k Q Q P F.}._._._.P.J.^.4.Q -.-.Q 8.^.J.D.P.P.G.!.F.Q b v E V K.gXaXgX} D -.=.x <.b b =.=.=.b b b N b <.t ,.a % 7.(.~.! Q Q Q L L L L -.-.-.-.-.-.-.-.1.,.,.,.=.-.=.=.@.Q @.=.=.=.=.=.=.=.=.=.=.=.=.=.=.=.=.=.=.=.m m =.=.=.=.=.=.=.=.=.=.=.=.=.=.=.=.=.=.=.=.=.=.=.=.=.=.=.=.=.=.=.=.=.=.=.=.=.=.=.=.=.=.=.=.=.=.=.=.=.=.>.>.>.=.=.=.=.=.=.=.=.=.b b k Q G n.!.G.I.I.h.P.J.i.! E Q Q W.P.P.P._.G.p.d.a.i.5.3.7.9.a.a.i.i.a.i.5.5.i.a.a.a.a.a.a.a.F.a.5.S.S.S.F.F.F.9.F.M.M.F.9.7.7.M.M.n.n.S.F.F.M.M.3.3.9.M.9.7.9.9.F.a.F.F.F.9.5.a.F.a.a.9.F.9.9.4.9.9.M.M.9.i.a.F.F.F.F.F.p.p.p.p.S.S.S.S.i.i.S.S.i.a.a.a.a.i.5.5.F.S.i.i.a.a.a.a.a.5.3.7.a.d.5.5.i.9.a.F.a.9.5.5.a.F.a.F.a.F.a.i.S.i.i.i.i.i.S.S.S.S.i.i.i.i.i.i.F.a.a.a.F.9.5.3.y.G._._._.I.).I.",
"%Xj._.W._.[.z.#.h k =.P OXtX_.H Q b b b b b b b b b =.=.=.=.=.=.=.Q Q Q Q h h h Q Q Q Q Q Q Q Q Q Q Q Q =.=.=.=.b b m m b b b b =.=.>.b M 6 m >.$.$.#.#.-.=.b b =.=.=.=.-.=.=.=.=.=.=.=.=.b =.=.Q Q Q Q Q Q h h h h h h h h h h h h h k h h b =.b =.<.x b e o -.^.^.! Q h ;.t g <.<.=.=.>.<.>.m b b k k k k h E P F.}._._.P.P.P.^.4.Q Q -.Q 8.!.J.D.P.P.G.!.H.Q M N E H K.gXaXgXy.F -.=.v <.b =.=.=.=.b b N N b ;.t =.r % 7.(.l.G L L Q ! -.-.:.:.:.:.:.2.2.2.2.4.:.:.:.,.,.,.-.L L L =.-.-.-.=.=.=.=.=.=.=.=.=.=.=.=.=.=.=.b b =.=.Q =.=.=.=.=.=.=.=.=.=.=.=.=.=.=.=.=.=.=.=.=.=.=.=.=.=.=.=.=.=.=.=.=.=.=.=.=.=.=.=.=.=.=.=.=.=.=.>.>.>.>.=.=.=.=.=.=.=.=.=.=.k Q y n.!.G.).I.I.P.P.i.! Q Q Q W.P.P.P._.G.p.d.p.d.5.5.7.9.a.a.i.i.a.i.5.5.i.a.a.a.a.a.a.a.a.F.9.S.S.n.9.F.F.9.F.M.9.F.9.7.7.M.M.n.n.S.F.F.F.M.3.3.9.F.9.7.9.9.F.9.F.F.F.5.5.a.p.p.a.a.F.9.7.4.9.9.M.M.i.i.i.F.F.F.a.F.p.a.p.p.i.S.S.S.i.S.S.S.i.a.a.a.a.i.5.5.F.S.i.i.a.a.a.a.a.5.3.7.a.d.7.5.i.i.a.F.p.i.5.5.a.a.a.a.a.a.a.a.S.S.S.i.i.i.S.S.S.S.i.i.S.S.i.i.F.a.a.a.F.9.5.3.y.G._._.P.P.I.I.",
"%Xj._.W._.[.z.#.h k =.P OXtX).H Q b b b b b b b =.=.=.=.=.=.=.=.Q Q Q Q Q Q Q Q ~ ~ ~ ~ =.=.=.=.=.=.Q Q =.Q =.h =.=.b b b b b b =.=.b b b * m >.$.$.#.$.-.=.b b =.=.=.=.=.=.=.=.=.=.=.=.=.=.-.=.=.=.=.=.~ ~ =.=.Q Q Q Q Q Q Q Q h h h h =.=.=.=.b =.>.a m e o =.(.E.P ~ k k t n <.>.=.=.>.>.>.=.=.=.b b k k h E H F._.P._._.P.U.(.4.Q ! -.Q 8.!.J.D.P.P.G.!.H.Q M N E H K.gXaXgXu.H -.=.b <.b =.=.=.=.b b b b b ;.y =.2 % E.(.7.P Q Q -.:.:.4.4.4.4.4.4.4.4.2.4.8.8.2.2.:.:.:.:.Q -.Q -.-.Q Q @.=.=.=.=.=.=.=.=.=.=.=.=.b b b b =.=.=.=.=.=.=.=.=.=.=.=.=.=.>.>.=.=.=.=.=.=.=.=.=.=.=.=.=.=.=.=.=.=.=.=.=.=.=.=.=.=.=.=.=.=.=.=.=.>.>.>.=.=.=.=.=.=.=.=.=.=.=.=.Q Q L M.!.G.).I.I.P.P.5.! Q Q Q W.P.J.P._.G.p.d.p.i.5.5.5.9.F.F.a.a.a.i.5.5.i.a.p.a.a.a.a.a.a.F.S.F.S.9.9.F.F.F.F.9.9.F.9.7.7.M.M.n.S.S.F.F.M.M.3.3.9.F.9.7.9.9.F.9.a.F.a.5.5.a.p.p.a.a.a.9.7.3.9.9.F.F.i.i.i.F.a.a.a.a.a.a.a.F.i.S.S.S.i.i.S.S.i.a.a.a.a.i.5.5.F.S.i.i.a.a.a.a.a.5.3.7.a.d.5.5.i.i.a.F.a.i.5.5.a.a.a.p.a.a.a.a.F.S.S.i.i.a.a.S.i.i.i.a.S.S.F.F.F.a.a.a.F.9.5.3.y.G._._.P.P.I.I.",
"%Xj._.W._.[.z.#.h k Q P rXuX].H Q b b b b b b =.=.=.=.=.=.=.=.Q Q Q Q Q =.-.,.,.,.:.:.:.:.:.:.:.-.=.=.=.-.=.Q h =.=.=.=.>.b >.=.Q =.b N M 1 m >.>.=.$.$.-.=.b b =.=.=.=.=.=.=.=.=.-.-.=.>.,.,.,.,.,.,.,.,.,.,.,.-.,.-.-.-.-.=.=.Q Q Q Q =.=.=.=.b =.>.x >.i @ >.(.9.G ~ ;.t t v.<.>.=.=.>.>.>.=.=.>.=.b b k Q Q H F._.P.P._.P.'.(.4.! ! -.P 8.!.J.D.P.P.G.!.F.Q b N Q H I.gXaXgXG.F Q =.b <.b >.=.=.=.b b b b b k h Q + $ /.(.2.:.,.,.,.:.:.:.:.4.:.2.2.2.2.2.2.2.:.2.2.2.8.8.8.:.:.:.-.-.L L a =.=.=.=.=.=.=.=.=.=.=.=.b b b b =.=.=.=.=.=.=.=.=.=.=.=.=.>.>.>.=.=.=.=.=.=.=.=.=.=.=.=.=.=.=.=.=.=.=.=.=.=.=.=.=.=.=.=.=.=.=.=.=.>.>.>.=.=.=.=.=.=.=.=.=.=.=.=.Q ~ G M.!.G.).I.I.P.P.5.! Q Q Q W.P.J.P._.G.p.d.p.i.5.5.5.9.F.F.a.a.a.i.5.5.i.a.a.a.a.a.a.a.a.F.S.F.n.5.7.F.F.F.F.9.9.F.9.7.7.M.F.n.S.S.F.F.M.M.7.7.9.F.9.7.7.M.F.9.a.F.a.5.5.a.p.p.a.a.a.9.7.3.9.9.F.F.i.i.i.F.a.a.a.a.a.a.a.F.i.S.S.S.i.i.S.S.i.a.a.a.a.i.5.5.F.S.i.i.a.a.a.a.a.5.3.d.a.d.5.5.i.i.a.F.a.i.5.5.a.a.a.a.a.a.F.F.F.F.F.i.i.i.i.S.i.a.a.a.S.S.F.F.F.a.a.a.F.9.5.3.5.G._._.P.P.I.I.",
"I.j._.!._.[.z.P Q k Q H rXuX].H Q b b =.=.=.=.=.=.=.=.=.=.Q Q Q -.-.-.-.:.:.1.1.:.:.:.:.:.:.:.:.,.,.-.=.=.=.=.=.L h b =.=.>.>.>.Q Q b v n O b m =.=.$.=.-.=.b k =.=.=.Q Q =.-.-.>.,.,.,.,.:.1.1.1.:.:.:.:.:.:.:.:.:.:.:.:.:.:.,.-.-.=.=.-.Q =.Q Q =.=.a >.i O ,.(.7.G Q ;.8 t N.>.=.$.$.>.>.>.=.=.=.=.b k k Q Q P F._.P.P._.P.'.!.8.! -.-.Q 8.!.J.D.P.P.P.'.E.! b N Q H I.hXaXdXP.F ! =.b <.b =.=.=.=.=.b b k k k Q Q # r (.^.2.8.8.4.4.:.:.:.:.:.:.2.2.2.2.2.2.2.2.2.2.2.2.8.8.8.8.4.:.-.Q P L -.=.=.=.=.=.=.=.=.=.b b b b b b =.=.=.=.=.=.=.=.=.=.=.=.=.=.>.>.=.=.=.=.=.=.=.=.=.=.=.=.=.=.=.=.=.=.=.=.=.=.=.=.=.=.=.=.=.=.=.=.=.=.=.=.=.=.=.=.=.=.=.=.=.=.=.=.Q ~ G F.}.G.].I.I.P.G.5.! Q ~ ! W.P.J.P.P.G.s.d.p.d.5.3.7.9.F.F.a.a.a.i.5.5.i.a.a.a.a.a.a.a.a.F.S.F.n.5.3.9.F.F.F.9.9.F.9.7.7.M.F.S.S.S.F.F.M.M.7.7.9.F.F.9.9.M.F.F.a.F.a.5.d.p.p.p.a.a.a.9.9.3.9.9.F.F.9.9.a.F.a.a.a.a.p.p.a.F.i.S.S.S.i.i.i.F.i.a.a.a.a.i.5.5.F.S.i.i.a.a.a.a.a.5.3.d.a.a.5.5.i.i.a.F.a.i.5.5.a.a.a.a.a.a.a.a.i.i.S.i.S.S.i.i.i.i.F.a.i.i.S.S.F.a.9.9.M.9.5.3.5.G.'._.P.P.P.I.",
"j.I.P.!._.).z.P Q k ~ H rXgX].H Q =.=.=.=.=.=.=.Q Q =.=.-.-.-.-.:.:.4.:.4.:.4.:.:.:.:.:.:.:.:.:.:.,.,.,.-.=.>.>.L a L a b =.=.=.=.Q b k n O v b =.=.=.-.-.=.k k =.=.Q =.=.=.>.,.,.,.,.6.6.8.8.8.4.:.4.:.4.:.4.:.4.:.4.:.:.:.:.:.4.:.:.:.-.-.-.-.-.=.>.x <.a + ,.(.2.P a ;.< h C.=.=.#.#.$.$.>.=.@.=.=.b k k Q Q H G.).P.P._.P.U.!.8.! -.-.P 8.!.J.K.P.P.P.'.E.! b N ! I I.hXiXgX].I ! -.=.>.x =.=.=.=.=.=.b k k =.=.Q # G (.F.2.2.:.:.:.:.:.4.4.4.4.2.2.2.2.2.2.2.2.2.2.2.2.2.2.2.2.2.:.:.:.-.-.-.=.=.=.=.=.=.=.=.=.b b b b b b =.=.=.=.=.=.=.=.=.=.=.=.=.=.>.>.=.=.=.=.=.=.=.=.=.=.=.=.=.=.=.=.=.=.=.=.=.=.=.=.=.=.=.=.=.=.=.=.=.=.=.=.=.=.=.=.=.b =.=.=.=.=.=.Q Q G H.}.J.].I.I.P.G.5.! G Q ! W.P.J.P.P.G.s.d.p.d.5.3.7.9.F.F.a.a.a.i.5.5.i.a.a.a.a.a.a.a.a.F.S.F.n.5.3.9.F.M.F.9.9.F.9.7.7.M.F.S.S.S.F.F.M.M.9.9.9.F.F.9.9.M.F.F.a.F.a.5.d.p.p.p.a.a.a.9.9.3.9.9.F.F.9.9.a.F.a.a.a.a.p.p.a.S.i.S.S.S.i.i.S.F.i.a.a.a.a.i.5.5.F.S.i.i.a.a.a.a.a.5.7.d.a.a.5.5.i.i.a.F.a.i.5.5.a.a.a.a.a.a.a.a.i.i.i.i.S.S.S.i.S.i.F.S.i.i.i.i.F.a.9.9.M.9.5.3.5.G.'._.P.P.P.I.",
"j.I.P.!._.).z.Y ~ k Q H tXgX].I Q =.=.=.=.=.=.=.=.-.-.-.,.,.,.,.8.8.8.4.2.4.2.:.2.:.2.:.2.:.2.:.:.:.:.:.:.,.:.,.-.-.-.=.=.=.=.=.-.Q b k n O v b =.=.=.-.-.=.Q k =.=.=.=.=.>.,.1.1.1.6.6.6.6.6.2.2.:.2.:.2.:.2.:.2.:.2.:.2.:.2.2.4.2.2.2.:.-.-.-.=.-.=.h <.a O >./.2.P y =., k C.=.-.#.#.#.#.=.=.@.=.=.=.=.;.;.! ) G.).P.I.I.P.P.!.8.! -.-.P 2.W.J.K.P.P.P.'.E.! b k W I I.hXiXdX].I P -.=.>.a >.=.=.=.=.Q Q Q Q =.=.Q 3 ! Q.7.2.:.:.:.:.4.4.4.4.2.2.2.2.2.2.2.2.2.2.2.2.2.2.2.2.2.2.2.2.2.2.2.:.-.=.=.=.=.=.=.=.=.=.=.=.b b b b =.=.=.=.=.=.=.=.=.=.=.=.=.=.>.>.=.=.=.=.=.=.=.=.=.=.=.=.=.=.=.=.=.=.=.=.=.=.=.=.=.=.=.=.=.=.=.=.=.b b b b b =.=.b b b =.Q Q Q Q Q Q G F.}.J.].I.I.P.G.5.I P Q ! W.P.P.P.P.G.s.d.p.d.5.3.7.9.a.F.a.a.a.i.5.5.i.a.a.a.a.a.a.a.a.F.S.F.n.5.3.9.F.9.F.M.M.F.9.7.7.M.M.S.S.S.F.F.F.F.9.9.M.F.M.9.7.M.F.F.a.a.a.5.5.p.p.p.a.a.a.9.9.3.9.9.F.F.9.9.a.F.a.a.a.a.p.p.p.S.i.S.S.S.i.i.i.i.i.a.a.a.a.i.5.5.a.i.i.i.a.a.a.a.a.5.7.a.a.a.7.5.i.i.a.F.a.i.5.5.a.a.a.a.a.a.a.a.i.i.F.F.i.i.i.i.S.S.S.S.i.i.i.i.F.a.9.9.M.9.7.3.y.G._._.P.P.I.I.",
"j.I.U.!.W.).z.Y ~ k E H tXgX2XR ! =.=.=.=.=.-.-.-.-.>.,.,.1.1.1.2.2.2.2.2.4.4.8.2.2.2.2.2.2.2.2.4.:.4.:.:.8.8.1.1.1.1.,.>.>.-.=.Q Q =.k N O v b =.=.-.-.-.Q Q h =.=.b =.=.,.1.8.8.8.6.6.6.6.6.2.2.4.4.4.4.4.4.4.2.2.2.4.2.4.8.8.2.2.2.2.2.:.:.:.,.-.=.Q ,.a + ,.~.2.-.r Q , =.Z.L -.#.#.#.-.-.@.-.-.,.;.;.:.1.4.) W.).P.I.I.P.P.!.9.! -.-.P 2.W.U.K.P.P.P.'.E.! b k W I I.hXiXaX2XY P -.=.>.a =.-.-.-.=.Q Q Q Q ,.-.! 3 :.Q.8.2.:.:.:.:.:.:.:.:.2.2.2.2.2.2.2.2.7.7.6.2.2.2.2.2.2.2.2.2.2.2.:.:.-.=.-.=.=.=.=.=.=.=.=.=.=.b =.=.=.=.=.=.=.=.=.=.=.=.=.=.=.=.>.>.=.=.=.=.=.=.=.=.=.=.=.=.=.=.=.=.=.=.=.=.=.=.=.=.=.=.=.=.=.=.=.=.=.b b b b b =.=.b =.=.=.Q Q Q Q Q ! P H.}.P.].I.I.P.P.5.I P ! ! W.P.P.P.P.G.s.d.p.d.5.3.5.9.F.F.a.a.a.i.5.5.i.a.a.a.a.a.a.a.a.F.S.S.S.5.7.9.n.9.F.M.9.F.9.7.7.M.M.S.S.S.F.F.F.F.9.9.M.F.M.9.7.9.F.F.a.a.a.5.5.p.p.a.a.a.a.9.9.3.9.9.F.M.9.9.a.F.a.a.a.a.p.p.p.S.i.S.S.S.i.i.i.i.i.a.a.a.a.i.5.5.a.i.i.i.a.a.a.a.a.5.7.a.a.a.7.5.i.i.a.F.a.i.5.5.a.a.a.a.a.a.a.a.i.i.i.F.S.i.i.i.S.S.i.i.i.i.i.i.F.a.a.a.M.9.7.3.y.G.'._.P.P.P.I.",
"L.I.U.'.G.).z.Y E k E ) rXtXtXS G a Q Q Q -.-.-.:.:.:.:.:.:.4.4.2.2.2.2.2.2.2.2.2.2.2.2.2.2.2.2.4.4.2.:.2.:.:.:.1.1.1.1.1.1.1.1.P Q h b v 6 6 b b @.@.@.-.Q Q Q Q Q =.=.>.,.,.:.:.4.2.2.2.2.2.2.2.2.2.2.2.2.2.2.2.2.2.2.2.2.2.2.2.2.2.2.2.2.2.4.:.,.,.=.>.a + 1.E.-.r :.y , m.B.L P P #.#.-.-.-.6.6.1.,.,.,.:.4.3.G.}._.I.P.P.G.!.8.P P @.P 2.G.G.K.P.P.P.'.F.! =.k E A *XiXfXaXrX_ F -.,.L L @.L L Q Q =.-.-.,.:.:.8.# 9.Q.4.2.2.4.4.4.4.4.2.2.2.2.2.2.2.2.2.2.2.2.3.3.2.2.2.2.2.2.2.2.2.2.2.2.,.,.,.>.-.-.-.=.=.=.=.=.=.b b h h Q Q Q =.=.b b =.=.=.=.>.>.>.>.=.=.=.=.=.=.=.=.=.=.=.=.=.=.=.=.=.=.=.=.=.=.=.=.=.=.=.=.=.=.=.=.m m b b =.=.=.=.a h Q Q =.-.=.=.:.:.8.F.!.P.P.I.P.].G.5.3.2.:.8.W.P.J.P._.J.s.i.i.d.5.5.7.5.a.F.a.a.F.a.9.9.i.a.a.a.a.a.a.a.a.F.i.S.9.5.3.9.F.n.F.F.F.F.9.9.9.F.M.n.S.S.F.F.M.M.9.3.9.F.F.7.7.7.9.F.F.F.a.5.d.a.a.a.a.a.F.a.7.3.9.9.M.F.F.F.F.F.F.F.a.a.a.a.a.F.i.S.S.S.i.i.i.i.a.a.a.a.a.a.5.5.a.i.i.i.a.a.a.a.F.a.5.d.a.a.a.5.5.5.a.a.a.i.5.5.a.a.a.a.a.a.a.a.a.F.F.i.i.i.F.a.S.S.S.i.i.i.S.S.a.a.9.a.F.9.7.3.5.G._.P.P.P.I.I.",
"L.I.U.J.G.).z.Y E ~ E ) rXdXtXA P -.-.-.-.-.,.:.:.:.:.:.4.4.2.2.2.2.2.2.2.2.2.2.2.2.2.2.2.2.2.2.2.4.2.2.2.2.2.4.8.:.6.1.1.1.1.:.:.:.=.;.n 9 9 <.>.=.-.-.-.-.=.=.=.=.=.,.,.:.:.8.4.2.2.2.2.2.2.2.2.2.2.2.2.2.2.2.2.2.2.2.2.2.2.2.2.2.2.2.2.2.2.2.8.:.1.-.,.L e 8.E.P G ,.e 2 B.m.G P P P -.-.:.:.6.6.1.1.,.,.:.4.3.G.]._.I.P.P.G.^.8.-.-.-.P 8.W.P.K.P.P.P.'.F.! =.k E A 2XiXhXaXtX_ F -.=.L =.@.L Q Q -.-.-.:.:.:.:.4.$ 9.Q.4.2.2.4.4.4.4.4.2.2.2.2.2.2.2.2.2.2.2.2.3.2.2.2.2.2.2.2.2.2.2.2.2.2.4.:.:.,.,.,.,.-.L L L =.=.=.=.=.=.=.=.=.=.=.=.=.=.=.=.=.>.>.>.>.=.=.=.=.=.=.=.=.=.=.=.=.=.=.=.=.=.=.=.=.=.=.=.=.=.=.=.=.=.=.=.=.m m b =.=.=.=.Q =.-.=.=.-.,.,.,.:.:.8.F.!.P.P.I.P.].G.3.3.2.:.8.W.P.J.P.P.G.s.i.i.d.5.5.7.5.a.F.a.a.F.a.i.9.i.a.a.a.a.a.a.a.a.F.9.F.n.5.3.9.F.n.F.F.F.F.9.9.9.F.M.n.S.S.F.F.M.M.9.3.9.F.F.9.7.7.9.F.F.F.a.5.d.a.a.a.a.F.F.a.7.3.9.n.M.F.F.F.F.F.F.a.a.a.p.a.a.F.i.S.S.S.i.i.i.i.a.a.a.a.a.a.5.5.F.i.i.i.a.a.a.a.a.i.5.d.a.a.a.5.5.5.a.a.a.i.5.5.a.a.a.a.a.a.a.a.i.i.i.i.S.S.F.i.i.S.S.i.i.i.i.S.a.a.9.a.F.9.7.3.5.G._._.P.P.I.I.",
"L.I.U.J.G.).z.Y ~ ~ E ) tXdXtXU ) -.-.:.:.:.:.4.4.4.2.2.2.2.2.2.2.2.2.2.2.2.2.2.2.2.2.2.2.2.2.2.2.2.2.2.2.2.2.2.2.4.2.4.6.1.6.4.2.4.:.,.;.t p <.<.,.,.,.:.:.:.,.:.,.,.:.:.:.4.4.4.2.2.2.2.2.2.2.2.2.2.2.2.2.2.2.2.2.2.2.2.2.2.2.2.2.2.2.2.2.2.2.8.2.8.-.8.-.i V.V.P P -.+ y Z.:.G P P #.2.2.2.8.6.6.6.1.:.:.:.2.3.G.].).I.P.P.G.!.9.2.8.8.:.7.!.U.P.I.P.P.'.G.P Q h ! U 3XdXhXaXtXy.F ! -.L Q -.-.-.-.-.:.:.:.4.:.4.4.3 M.H.4.2.2.4.2.2.2.2.2.2.2.2.2.2.2.2.2.2.2.2.2.2.2.2.2.2.3.2.2.2.4.4.4.2.8.8.,.,.,.,.:.:.J L L -.-.-.-.-.-.=.=.=.=.=.=.=.=.=.=.=.=.=.>.>.=.=.=.=.=.=.=.=.=.=.=.=.=.=.=.=.=.=.=.=.=.=.=.=.=.=.=.=.=.=.=.=.b b =.=.=.=.=.@.=.-.,.,.:.:.2.:.4.2.8.F.!.P.P.I.P.].G.3.3.2.:.8.W.P.J.P._.J.s.i.a.d.5.5.7.5.a.F.a.a.F.a.i.i.i.a.a.a.a.a.a.a.a.F.9.S.9.3.3.9.F.n.F.F.M.F.9.7.9.F.M.S.S.S.F.F.M.M.9.3.9.F.F.9.7.7.9.F.F.a.i.5.d.p.a.a.a.F.F.a.7.3.9.n.F.F.F.F.F.F.F.F.a.a.p.p.a.F.i.S.S.S.S.S.i.i.a.a.a.a.a.a.5.5.F.S.S.i.a.F.a.a.a.i.5.7.a.a.a.5.5.5.a.a.a.i.5.5.a.a.a.a.a.a.a.a.i.i.S.S.S.S.i.i.i.i.i.i.a.a.S.S.F.a.a.a.F.M.7.3.5.G._._.P.P.I.I.",
"L.I.U.J.G.).x.&.-.;.^ ' tXdXdX{ 3.:.:.:.4.4.4.8.2.2.2.2.2.2.2.2.2.2.2.2.2.2.2.2.2.2.2.2.2.2.2.2.3.3.2.2.2.2.2.2.2.2.2.2.6.6.6.2.2.2.:.,.;.t t <.1.1.6.6.2.2.:.:.4.4.4.4.:.:.4.4.2.2.2.2.2.2.2.2.2.2.2.2.2.2.2.2.2.2.2.2.2.2.2.2.2.2.2.2.2.2.2.2.6.2.8.:.8.-.r V.r.P :.Q + =. X-.P &.&.2.2.2.4.8.6.6.6.1.:.:.4.2.3.s.{.).I.I.P.G.!.9.2.8.8.2.7.!.).P.I.P.P.'.G.P k h ! U qXdXhXiXgXy.F Q Q =.-.-.-.-.:.:.:.4.4.4.2.4.2.3 M.9.4.2.4.4.2.2.2.2.2.2.2.2.2.2.2.2.2.2.2.2.2.2.2.2.2.2.2.2.2.4.4.4.4.2.2.6.6.6.6.6.6.6.-.-.-.-.-.@.P L -.=.=.=.=.=.=.=.=.=.=.=.=.=.>.>.=.=.=.=.=.=.=.=.=.=.=.=.=.=.=.=.=.=.=.=.=.=.=.=.=.=.=.=.=.=.=.=.=.=.=.=.=.@.=.-.-.:.:.4.2.2.2.2.2.2.8.F.!.P.P.I.P.].G._ 3.2.:.8.W.P.J.P._.J.s.i.i.d.5.5.7.5.a.F.a.a.F.a.i.i.i.a.a.a.a.a.a.a.a.F.9.S.9.5.3.9.F.n.F.F.M.F.9.7.9.F.F.S.S.S.F.M.M.M.9.3.9.M.F.9.7.7.9.9.F.a.5.5.a.p.a.a.a.F.F.a.7.3.9.n.F.F.F.F.F.F.a.a.a.a.p.p.a.F.i.S.S.S.S.i.i.i.a.a.a.a.a.a.5.5.F.S.S.S.a.F.F.F.a.5.5.7.a.a.a.5.5.5.a.p.a.i.5.5.a.a.a.a.a.a.a.a.i.i.i.S.S.S.i.i.i.i.i.a.a.a.S.S.a.a.a.a.F.M.9.3.5.F._._.P.P.I.I.",
"L.I.U.!.G.)._.) :.:.^ 5.dXdXdX} 3.:.:.:.4.4.4.4.2.2.2.2.2.2.2.2.2.2.2.2.2.2.2.2.2.2.2.2.2.2.2.2.3.3.2.2.2.2.2.2.2.2.2.2.2.2.2.2.2.2.:.,.>.t t ,.1.8.6.6.2.2.2.4.4.4.4.4.:.2.2.2.2.2.2.2.2.2.2.2.2.2.2.2.2.2.2.2.2.2.2.2.2.2.2.2.3.3.2.2.2.2.2.2.2.2.6.2.8.-.D E.9.-.8.L 2 m. X:.2.2.2.2.2.2.2.2.6.6.6.6.:.:.4.3.3.s.{.`.I.I.P.G.!.7.2.8.8.2.7.!.).P.I.P.P.).E.-.Q h ! A 3XiXfXiXgXp.H ! @.-.:.-.:.:.:.:.2.4.4.8.2.8.! D H.4.4.4.4.2.2.2.2.2.2.2.2.2.2.2.2.2.2.2.3.3.3.3.2.2.2.2.2.4.4.4.4.4.2.2.2.2.2.2.2.2.6.6.6.2.2.-.-.! P P -.=.=.=.b b b b =.=.=.=.=.=.=.>.=.=.=.=.=.=.=.=.=.=.=.=.=.=.=.=.=.=.=.=.=.=.=.=.=.=.=.=.=.=.=.=.=.=.Q =.=.-.-.-.:.:.2.2.2.2.2.2.2.2.3.F.!.P.P.P.P.).s._ 3.3.2.8.W.P.J.P._.J.s.i.a.d.5.5.7.5.a.F.a.a.F.a.i.i.i.a.a.a.a.a.a.a.a.F.S.F.n.5.3.9.F.9.F.M.M.F.9.7.9.F.F.S.n.n.F.F.F.F.9.7.9.M.F.9.7.7.9.9.a.9.5.5.a.F.a.a.a.a.F.9.9.4.9.9.F.F.F.F.F.F.a.a.a.a.p.p.a.F.i.S.S.S.S.S.S.S.a.a.a.a.a.a.5.5.F.i.i.i.a.a.a.a.a.5.7.5.a.a.a.5.5.5.a.a.a.i.5.5.a.a.a.a.a.a.a.a.S.i.i.S.i.i.F.F.S.a.i.i.i.S.S.S.F.a.9.a.F.M.5.` 5.F._._.P.P.I.I.",
"&XI.U.J.G.)._.3.:.:.:.i.dXdXgX..3.:.:.:.2.2.2.2.2.2.2.2.2.2.2.2.2.2.2.2.2.2.2.2.2.2.2.2.2.2.2.2.3.3.3.2.2.2.2.2.2.2.2.2.2.2.2.2.2.3.2.:.;.t p 1.1.8.6.2.2.2.2.2.2.2.2.2.2.2.2.2.2.2.2.2.2.2.2.2.2.2.2.2.2.2.2.2.2.2.2.2.2.2.2.2.3.3.3.2.2.2.2.2.2.2.6.2.7.-.D E.9.:.8.y r C./.4.7.3.3.3.2.2.2.2.6.6.6.6.:.:.2.3.3.s.{._.I.I.I.G.W.7.2.8.8.2.7.W.).L.I.P.P.}.W.-.=.Q ! A 3XiXfXiXgXG.) ! -.,.,.-.4.4.:.:.2.2.8.8.2.8.! H Q.) 4.4.4.2.2.2.2.2.2.2.2.2.2.2.2.2.2.2.3.3.3.2.2.2.2.4.4.4.4.:.4.4.2.2.2.2.2.2.2.2.2.6.2.2.2.2.2.:.-.-.-.=.=.=.=.b b b =.=.=.=.=.=.=.=.=.=.=.=.=.=.=.=.=.=.=.=.=.=.=.=.=.=.=.=.=.=.=.=.=.=.=.=.=.=.=.=.=.=.Q Q -.-.:.:.2.2.2.2.2.2.2.2.2.2.3.F.!.P.P.P.P.U.s._ 3.2.2.7.W.P.P.P._.J.s.i.a.d.5.5.7.5.a.F.a.a.F.a.i.i.i.a.a.a.a.a.a.a.a.F.S.S.n.5.3.9.F.9.F.F.M.F.9.7.9.F.F.S.S.n.F.F.F.F.9.7.9.M.F.7.7.7.9.9.a.9.5.5.a.F.p.a.a.a.F.9.9.4.9.9.F.F.F.F.F.F.a.a.a.a.p.p.a.F.i.S.S.S.S.S.S.S.a.a.a.a.a.a.5.5.F.i.i.i.a.a.a.a.i.5.7.5.a.a.a.5.5.5.a.a.a.i.5.5.a.a.a.a.a.a.a.a.F.F.i.i.i.i.i.F.F.F.i.i.i.i.S.S.a.a.a.a.F.M.5.' _ p._._.P.P.I.I.",
"&XI.U.J.G.)._.3.4.:.4.i.gXdXdXu.3.2.2.2.2.2.2.2.2.2.2.2.2.2.2.2.2.2.2.2.2.2.2.2.2.2.2.2.2.2.2.2.3.3.3.3.2.2.2.2.2.2.2.6.2.2.2.2.3.3.2.:.,.t i ,.1.8.6.7.2.2.3.3.2.2.2.2.2.2.2.2.2.2.2.2.2.2.2.2.2.2.2.2.2.2.2.2.2.2.2.2.2.2.2.4.2.2.2.2.2.2.2.2.2.2.7.2.9.2.D ~.6.8.8.e L /.V.9.2.3.3.3.3.3.2.2.6.6.6.6.:.:.2.3.3.s.{.`.I.I.I.P.W.8.2.8.8.2.7.!.U.L.P.P.P.}.W.2.,.;./ U wXiXfXdXgXP.` 2.:.:.8.:.4.2.2.2.2.2.2.2.) 7.P H Q.! 4.4.4.2.2.2.2.2.2.2.2.2.2.2.2.2.2.2.2.2.2.2.3.4.4.4.4.:.4.4.4.:.:.2.6.2.3.2.2.2.2.2.2.2.2.2.2.2.2.:.,.;.>.=.>.>.=.=.=.=.=.=.=.=.=.=.=.=.=.=.=.=.=.=.=.=.=.=.=.=.=.=.=.=.=.=.=.=.=.=.=.=.=.=.=.=.=.=.=.-.Q -.-.,.8.8.2.2.2.2.2.2.3.2.2.2.3.F.!.P.P.P.P.U.p._ 3.3.2.7.W.P.P.P._.J.s.i.i.i.5.5.7.5.a.F.a.a.F.a.i.i.i.a.a.a.a.a.a.a.a.F.S.F.n.5.3.9.F.9.F.M.M.F.9.7.7.F.F.S.n.n.M.M.F.F.9.3.9.F.F.9.7.7.9.9.9.5.5.5.a.F.a.a.a.a.F.a.9.3.9.9.F.F.F.F.F.F.a.a.a.a.p.p.p.p.i.S.S.S.a.i.S.i.a.a.a.a.a.a.5.5.F.S.i.i.a.a.a.a.5.5.3.5.a.a.a.5.5.5.a.a.a.i.5.5.a.a.a.a.a.a.a.a.S.F.i.i.i.S.i.S.i.S.i.i.i.i.i.i.a.a.a.a.F.9.5._ 3.p.J._.P._.).I.",
"L.I.P.J.P.)._.3.4.:.` i.gXdXdXu.3.2.2.2.2.2.2.2.2.2.2.2.2.2.2.2.2.2.2.2.2.2.2.2.2.2.2.2.2.2.2.2.3.3.2.2.2.2.2.2.2.2.2.2.2.2.2.2.2.2.-.:.=.e e ;.1.8.6.7.7.2.2.2.2.2.2.2.2.2.2.2.2.2.2.2.2.2.2.2.2.2.2.2.2.2.2.2.2.2.2.2.2.2.2.2.2.2.2.2.2.2.2.2.6.6.7.2.9.2.J ~.2.8.:.# -./.8.9.2.3.3.3.3.2.2.2.6.6.6.2.:.:.2.3._ s.)._.I.I.I.P.W.7.-.2.8.2.9.}.P.K.P.P.P.}.!.2.8.:.` U qXfXzXfXhXI.3.2.:.8.8.-.8.4.2.2.2.2.2.2.2.9.P ! Q.P 8.4.4.2.2.2.2.2.2.2.2.2.2.2.2.2.2.2.2.2.2.2.4.4.4.4.4.:.4.4.4.4.2.2.7.7.7.7.6.2.2.2.2.2.2.2.2.2.2.:.:.,.,.,.,.,.>.>.-.-.-.-.=.=.=.=.=.=.=.=.=.=.=.=.=.=.=.=.=.=.=.=.=.=.=.=.=.=.=.=.=.=.=.=.=.=.=.=.-.Q -.! -.:.8.8.2.2.8.7.3.2.2.2.2.2.3.F.!._.P.P.P.).p./ 3.3.2.7.W.P.P.P._.J.s.i.a.d.5.5.7.5.a.F.a.a.F.a.i.i.i.a.a.a.a.a.a.a.a.F.F.F.9.3.3.9.F.9.F.M.M.F.9.7.7.F.F.S.S.n.F.M.F.F.9.3.9.F.F.9.7.7.9.9.9.5.3.5.a.F.a.a.a.a.F.a.7.3.9.9.F.F.F.F.F.F.a.a.a.a.p.p.p.p.i.S.S.S.a.a.a.i.a.a.a.a.a.a.5.5.F.S.i.i.a.a.a.a.5.3.3.7.9.a.a.7.3.9.a.a.a.i.5.5.a.a.a.a.a.a.a.a.i.i.i.i.S.S.i.i.i.S.S.S.i.i.i.a.F.9.a.a.F.9.5._ _ p.W._._.P.).I.",
"I.I.P.P._._.a.2.) 4.` p.uXdXfXo.( 2.3.2.2.2.2.2.2.2.2.2.2.2.2.2.2.2.2.2.2.2.2.2.2.2.2.2.2.2.2.2.2.2.2.2.2.2.2.2.2.2.2.2.2.2.2.2.7.2.8.1.=.t y =.1.8.6.2.2.7.7.2.2.2.2.2.2.2.2.2.2.2.2.2.2.2.2.2.2.2.2.2.2.2.2.2.2.2.2.2.2.2.2.2.2.2.2.2.2.2.2.2.2.-.2.8.2.P 2.E.2.8.G 3 -.E.V.2.2.3.3.3.2.2.2.2.2.2.2.2.2.2.2.3.` p._._._._.)._.'.5.2.2.6.2.7.W._.P.I.P.P.).W.2.:.4._ U wXiXpXfXdXtX} ) 8.,.6.,.2.2.4.2.2.2.2.2.2.8.-.! 8.8.2.4.2.2.2.2.2.2.2.2.2.2.2.2.2.2.2.2.2.2.2.2.2.2.2.2.2.2.2.2.2.2.2.2.2.2.2.2.2.2.2.2.2.2.2.2.2.2.2.2.2.4.4.4.4.4.4.4.:.:.:.-.-.P P P -.-.Q Q Q Q Q Q Q Q Q Q Q Q Q Q Q Q h h Q Q Q Q h h h h Q Q Q Q -.-.:.2.2.4.8.8.2.2.2.2.2.2.2.2.2.2.2.a.W._._.P.P.G.p.3.) 2.2.3._.P.P.P._.J.G.p.a.d.5.3.5.9.F.F.a.F.a.i.5.5.a.F.p.p.a.a.a.a.a.F.F.F.9.7.9.M.F.F.F.9.9.F.M.9.9.F.F.S.i.S.a.F.a.F.5.5.7.9.a.a.5.3.7.9.M.7.3.9.F.S.F.M.F.F.F.9.5.3.a.a.a.F.F.F.F.a.a.a.a.a.a.a.a.i.i.S.S.S.i.i.S.S.i.a.F.F.a.i.5.5.a.i.i.S.F.F.F.F.9.9.7.9.M.F.9.9.9.7.5.a.9.3.7.9.F.F.F.F.p.p.p.p.a.F.F.F.a.a.a.a.a.a.a.a.a.a.a.a.9.9.F.F.9.9.9.3.5.F._._._._.`.I.",
"I.P.I.P._._.a.3.3.3._  .uXaXfXo._ 2.3.2.2.2.2.2.2.2.2.2.2.2.6.2.2.2.2.2.2.2.2.2.2.2.2.2.2.2.2.2.2.2.2.2.2.2.2.2.2.2.2.2.2.2.2.2.7.2.8.1.=.t y =.:.8.2.2.2.6.6.2.2.2.2.2.2.2.2.2.2.2.2.2.2.2.2.2.2.2.2.2.2.2.2.2.2.2.2.2.2.2.2.2.2.2.2.2.2.2.2.2.2.2.2.8.2.P 2.V.4.8.J 3 2./.E.2.2.2.2.2.2.2.2.2.2.2.2.2.2.2.2.3.` p.!._._._.`._._.5.) 2.6.2.7.E._.P.P.P.P.).W.2.:.4._ U wXiXfXpXdXqX} _ 7.6.w.,.6.2.2.2.2.2.2.2.2.8.-.-.8.8.2.4.2.2.2.2.2.2.2.2.2.2.2.2.2.2.2.2.2.2.2.2.2.2.2.2.2.2.2.2.2.2.2.2.2.2.2.2.2.2.2.2.2.2.2.2.2.2.2.2.2.2.2.2.2.2.2.2.2.2.2.2.2.-.-.-.Q Q Q Q Q Q Q Q Q Q Q Q Q Q Q Q Q Q Q h Q Q Q Q h h Q Q Q =.=.=.:.2.2.2.2.2.8.8.2.2.2.2.2.2.2.2.8.2.2.a.W._._.W._.G.d.3.2.2.4.8.W.P.P.P._.J.G.p.p.d.5.3.7.9.a.F.F.F.a.i.5.5.a.F.p.p.a.a.a.a.a.F.a.F.9.7.9.M.F.F.F.9.9.F.M.9.9.F.a.i.i.i.a.a.a.a.5.5.7.a.a.a.5.3.7.9.F.7.3.9.S.S.S.n.9.F.F.M.7.3.a.a.a.F.F.F.F.a.a.p.a.a.a.a.a.i.i.S.S.S.i.i.i.i.i.a.F.F.a.i.5.5.a.i.i.i.F.F.F.F.9.9.7.7.M.M.9.9.9.9.9.9.9.7.7.9.F.F.F.F.p.p.p.p.F.F.F.F.a.a.a.a.a.a.a.a.a.a.a.a.9.i.F.F.9.9.9.3.3.F._._._._.`._.",
"I.P.I.P._._.a.3.3.` _ p.gXaXfX+.) 2.8.8.2.2.2.2.2.2.2.2.2.2.6.2.2.2.2.2.2.2.2.2.2.2.2.2.2.2.2.2.2.2.2.2.2.2.2.2.2.2.2.2.2.2.2.2.7.2.8.1.=.t t Q :.8.2.2.2.6.6.2.2.2.2.2.2.2.2.2.2.2.2.2.2.2.2.2.2.2.2.2.2.2.2.2.2.2.2.2.2.2.2.2.2.2.2.2.2.2.2.2.2.2.2.2.2.-.2.m.:.:.r r 7.^.l.2.2.2.2.2.2.2.2.2.2.2.2.2.2.2.2.3.` p.!._._._.`._._.5.) 2.6.2.7.E._.P.P.P.P.).W.2.:.4._ U wXdXfXpXdXeX} _ 3.2.w.,.6.2.2.4.2.2.2.2.2.8.-.-.8.8.2.2.2.2.2.2.2.2.2.2.2.2.2.2.2.2.2.2.2.2.2.2.2.2.2.2.2.2.2.2.2.2.2.2.2.2.2.2.2.2.2.2.2.2.2.2.2.2.2.2.2.2.2.2.2.2.2.2.8.8.2.2.2.2.2.2.-.=.-.=.-.=.Q =.Q Q Q Q Q Q Q Q ~ ~ Q Q Q Q Q Q Q Q ~ =.=.,.,.:.:.2.2.2.2.2.2.2.2.2.2.2.2.2.2.2.8.2.2.a.W._.W.G.}.G.5.` 2.8.8.7.W.P.P.P._.J.G.p.p.d.5.3.5.9.a.a.a.F.a.i.5.5.a.F.F.a.a.a.a.a.a.F.a.F.9.7.7.M.F.F.F.9.9.F.M.9.9.F.a.i.i.i.a.a.a.a.5.5.7.a.a.a.d.7.7.9.F.9.3.9.S.F.S.n.M.M.F.M.7.4.a.a.a.F.F.F.F.a.a.a.a.a.a.a.a.i.i.S.S.S.i.i.i.i.i.a.F.F.a.i.5.5.a.i.i.i.F.F.F.F.9.7.7.7.9.M.M.9.9.7.9.M.9.7.3.9.a.a.a.a.p.p.S.S.a.F.F.F.a.a.a.a.a.a.a.a.a.a.a.a.9.a.F.F.n.9.9.3.3.F._._._._.`._.",
"I.P.I.P._._.a.3.3.` _ p.gXaXzXg.) 2.8.8.2.2.2.2.2.2.2.2.2.2.6.2.2.2.2.2.2.2.2.2.2.2.2.2.2.2.2.2.2.2.2.2.2.2.2.2.2.2.2.2.2.2.2.2.6.2.6.1.=.t t h ,.4.2.2.2.2.6.2.2.2.2.2.2.2.2.2.2.2.2.2.2.2.2.2.2.2.2.2.2.2.2.2.2.2.2.2.2.2.2.2.2.2.2.2.2.2.2.2.2.2.2.2.2.-.2.9.:.Q r G V.(.9.2.2.2.2.2.2.2.2.2.6.2.2.2.2.2.2.3.` p.!._._._.`._._.5.) 2.6.2.7.E._.P.P.P.P.).W.2.:.4._ U wXdXfXpXiXaX.._ 3.2.w.6.2.2.2.2.2.2.2.2.2.8.-.! 8.8.2.2.2.2.2.2.2.2.2.2.2.2.2.2.2.2.2.2.2.2.2.2.2.2.2.2.2.2.2.2.2.2.2.2.2.2.2.2.2.2.2.2.2.2.2.2.2.2.2.2.2.2.2.2.2.2.2.2.2.2.2.2.2.2.2.2.:.,.:.,.:.,.:.,.:.-.:.-.:.-.:.-.-.-.=.=.=.=.=.=.-.-.-.,.,.:.:.:.2.2.2.2.2.2.2.2.2.2.2.2.2.2.2.2.2.2.2.7.E.W.W.G.}.F.3.` 2.4.8.8.W.P.P.P._.J.G.p.a.d.5.3.5.9.a.F.a.F.a.i.5.5.a.F.F.a.a.a.a.a.a.a.a.F.9.7.7.M.F.F.F.9.9.F.9.9.9.F.a.i.i.i.a.a.a.a.5.5.7.a.a.a.d.7.7.9.F.9.3.9.S.F.S.n.9.M.F.M.7.8.a.a.F.F.F.F.F.a.a.a.a.a.a.a.a.i.i.S.S.S.i.i.i.i.i.a.a.F.a.i.5.5.a.i.i.i.F.F.F.F.9.7.8.7.9.M.M.9.9.7.9.M.9.7.5.a.a.a.a.a.p.i.S.S.a.F.F.F.a.a.a.a.a.a.a.a.a.a.a.a.9.a.F.F.n.9.9.3.3.F._._._._.`._.",
"P.P.I.P._._.a.3.` ` _ p.gXiXzX-X( 2.8.8.2.2.2.2.2.2.2.2.2.2.6.2.2.2.2.2.2.2.2.2.2.2.2.2.2.2.2.2.2.2.2.2.2.2.2.2.2.2.2.2.2.2.2.2.7.2.8.8.=.t t h ,.8.2.-.#.2.6.2.2.2.2.2.2.2.2.2.2.2.2.2.2.2.2.2.2.2.2.2.2.2.2.2.2.2.2.2.2.2.2.2.2.2.2.2.2.2.2.2.2.2.2.2.2.2.2.8.:.L r P /.^.7.2.2.2.2.2.2.2.2.2.6.6.2.2.2.2.2.3.` p.!._._._.`._._.5.) 2.6.2.7.W._.P.P.P.P.}.W.2.:.4._ U tXdXfXpXiXaXu._ 3.2.w.6.2.2.2.2.2.2.2.2.2.8.-.P 8.8.2.2.2.2.2.2.2.2.2.2.2.2.2.2.2.2.2.2.2.2.2.2.2.2.2.2.2.2.2.2.2.2.2.2.2.2.2.2.2.2.2.2.2.2.2.2.2.2.2.2.2.2.2.2.2.2.2.2.2.2.2.2.2.2.2.2.4.:.4.:.4.:.4.:.4.:.4.:.4.4.4.4.:.:.:.:.,.,.,.:.:.:.:.:.:.:.:.:.4.2.2.2.2.2.2.2.2.2.2.2.2.2.2.2.2.2.2.7.F.!.}.W.}.p.` ` 8.4.:.4.W.P.P.P._.J.G.p.p.d.5.5.5.9.a.a.p.F.a.i.5.5.a.F.F.F.a.a.a.a.a.a.a.F.a.5.5.a.F.a.F.9.9.F.a.5.9.F.a.S.i.i.a.a.a.a.5.5.7.a.a.a.a.5.7.9.F.9.3.9.S.S.S.n.9.F.F.9.7.4.a.a.a.F.F.F.F.a.a.F.a.a.F.F.F.S.S.S.S.S.i.S.S.S.i.a.a.a.a.i.5.5.a.i.i.i.F.F.F.F.9.7.8.7.9.M.M.9.7.7.9.M.9.7.5.a.a.a.a.a.p.p.S.S.a.a.a.a.a.a.a.a.a.a.a.a.a.a.a.a.9.a.F.F.n.9.9.3.3.F._._._._.`._.",
"P.P.I.P._._.a.3.` ) _ p.gXiXzX-X( 2.8.8.2.2.2.2.2.2.2.2.2.2.6.2.2.2.2.2.2.2.2.2.2.2.2.2.2.2.2.2.2.2.2.2.2.2.2.2.2.2.2.2.2.2.2.2.7.2.8.1.=.t t a ,.8.2.#.#.2.6.2.2.2.2.2.2.2.2.2.2.2.2.2.2.2.2.2.2.2.2.2.2.2.2.2.2.2.2.2.2.2.2.2.2.2.2.2.2.2.2.2.2.2.2.2.2.2.2.4.:.G 3 -.^.~.2.2.2.2.2.2.2.2.2.2.6.6.2.2.2.2.2.3.` p.!._._._.`._._.5.) 2.6.2.7.W._.P.P.P.P.}.W.2.:.4._ U wXdXfXpXiXaXf.( 3.2.r.6.2.2.2.2.2.2.2.2.2.2.! P 4.4.:.8.2.2.2.2.2.2.2.2.2.2.2.2.2.2.2.2.2.2.2.2.2.2.2.2.2.2.2.2.2.2.2.2.2.2.2.2.2.2.2.2.2.2.2.2.2.2.2.2.2.2.2.2.2.2.2.2.2.2.2.2.2.2.2.2.2.:.2.:.2.:.2.:.2.4.2.4.2.4.2.4.4.4.4.4.4.:.4.4.8.8.4.4.4.:.:.:.2.2.2.2.2.2.2.2.2.2.2.2.2.2.2.2.4.2.2.3.F.!.}.W.W.i.` 4.8.:.-.8.!.P.P.P._.J.G.p.p.d.5.3.5.9.a.a.p.F.a.i.5.5.a.F.a.F.a.a.a.a.a.a.a.F.a.5.5.a.F.a.F.a.a.F.a.5.9.F.a.S.i.i.a.a.F.F.5.5.7.a.a.a.a.7.7.9.F.9.3.9.S.S.S.n.9.F.F.9.7.4.a.a.a.F.F.F.F.a.a.F.a.a.F.F.a.S.i.S.S.S.i.F.S.S.i.a.a.a.a.i.5.5.a.i.i.i.F.F.F.F.9.7.8.7.9.M.M.9.7.7.9.M.9.5.5.a.a.a.a.a.p.p.S.S.a.a.a.a.a.a.a.a.a.a.a.a.a.a.a.a.9.i.F.F.n.9.9.3.3.F._._._._.`._.",
"P.P.I.P._._.a.2.` ) _ D.gXwXzX-X( 2.8.8.2.2.2.2.2.2.2.2.2.6.6.6.2.2.2.2.2.2.2.2.2.2.2.2.2.2.2.2.2.2.2.2.2.2.2.2.2.2.2.2.2.2.2.2.2.2.8.8.=.t t a :.4.2.-.#.2.6.2.2.2.2.2.2.2.2.2.2.2.2.2.2.2.2.2.2.2.2.2.2.2.2.2.2.2.2.2.2.2.2.2.2.2.2.2.2.2.2.2.2.2.2.2.2.2.2.2.:.G r :.^.V.2.2.2.2.2.2.2.2.2.2.6.2.2.2.2.2.2.3.` p.!._._._.`._._.5.) 2.6.2.7.W._.P.P.P.P.}.W.2.:.4._ U tXfXpXpXiXgXL.( 3.2.r.6.2.4.2.2.2.2.2.2.2.4.! P 2.4.:.8.2.2.2.2.2.2.2.2.2.2.2.2.2.2.2.2.2.2.2.2.2.2.2.2.2.2.2.2.2.2.2.2.2.2.2.2.2.2.2.2.2.2.2.2.2.2.2.2.2.2.2.2.2.2.2.2.6.8.2.2.2.2.2.2.2.2.2.2.2.2.2.2.2.2.2.2.2.2.2.2.2.4.2.:.2.:.2.4.2.4.2.4.2.:.2.2.2.2.2.2.2.2.2.2.2.2.2.2.2.2.2.2.8.4.2.2.7.W.W.F.p._ ` 4.4.:.-.9.!.P.J.P._.J.G.p.p.d.5.5.5.9.a.a.a.F.a.i.5.5.a.F.a.a.a.a.a.a.a.a.a.F.9.5.5.a.F.a.F.a.a.F.a.5.9.F.F.S.S.i.a.a.a.F.5.5.7.a.F.F.a.9.7.9.M.7.3.9.S.S.S.n.9.F.F.9.7.3.a.a.a.F.F.F.F.a.a.a.a.a.a.a.a.i.i.S.S.S.a.i.S.S.i.a.a.a.a.i.5.5.a.i.i.i.F.F.F.F.9.7.8.7.M.F.M.9.7.7.7.9.9.5.5.a.a.a.a.a.p.S.S.S.a.a.a.a.a.a.a.a.a.a.a.a.a.a.a.a.9.i.F.F.n.9.9.3.3.F._._._._._._.",
"P.I.I.P._._.a.2.` ) ) D.gXwXzX=X_ 2.8.8.2.2.2.2.2.2.2.2.2.6.6.6.2.2.2.2.2.2.2.2.2.2.2.2.2.2.2.2.2.2.2.2.2.2.2.2.2.2.2.2.2.2.2.2.2.2.8.8.=.t t a :.4.2.#.#.2.8.2.2.2.2.2.2.2.2.2.2.2.2.2.2.2.2.2.2.2.2.2.2.2.2.2.2.2.2.2.2.2.2.2.2.2.2.2.2.2.2.2.2.2.2.2.2.8.2.2.:.y r 4.^.V.2.6.2.2.2.2.2.2.2.2.2.2.2.2.2.2.2.3.` p.!._._._.`._._.5.) 2.6.2.7.W._.P.P.P.P.}.W.2.:.4._ U wXfXpXpXiXhXL.{ 3.3.9.6.2.2.2.2.2.2.2.2.4.4.! P 2.4.:.8.2.2.2.2.2.2.2.2.2.2.2.2.2.2.2.2.2.2.2.2.2.2.2.2.2.2.2.2.2.2.2.2.2.2.2.2.2.2.2.2.2.2.2.2.2.2.2.2.2.2.2.2.2.2.2.2.2.2.2.2.2.2.2.2.2.2.2.2.2.2.2.2.2.2.2.2.2.2.2.2.2.2.2.2.2.2.2.2.:.2.2.2.2.2.2.2.2.2.2.2.2.8.8.8.2.2.2.2.2.2.2.2.4.4.! H 3.a.p.5.3.) ) 4.4.-.:.n.!.P.J.P._.J.G.p.p.d.5.5.5.9.a.a.a.F.a.i.5.5.a.F.a.a.a.a.a.a.a.a.a.F.9.7.5.a.F.a.F.a.a.F.a.5.9.F.F.S.S.S.a.a.a.F.5.5.7.a.F.F.a.9.7.9.M.7.3.9.S.S.S.n.9.F.F.9.7.3.a.a.a.F.F.F.F.a.a.a.a.a.a.a.a.i.i.S.S.S.i.i.S.S.i.a.a.a.a.i.5.5.a.i.i.i.F.F.F.F.9.3.8.7.M.F.M.9.7.7.7.9.9.5.5.a.a.a.a.a.p.p.S.S.a.a.a.a.a.a.a.a.a.a.a.a.a.a.a.a.9.S.F.F.n.9.9.3.3.F._._._._.`._.",
"P.P.I._._._.a.2.3.3.I G.gXiXpX3XY 8.8.2.2.8.2.2.2.2.2.2.2.2.6.2.2.2.2.2.2.2.2.2.2.2.2.2.2.2.2.2.2.2.2.2.2.2.2.2.2.2.2.2.2.2.2.2.2.2.8.1.Q t t t ,.8.8.P P 8.8.:.2.2.2.2.2.2.2.2.2.2.2.2.2.2.2.2.2.2.2.2.2.2.2.2.2.2.2.2.2.2.2.2.2.2.2.2.2.2.2.2.2.2.2.2.2.2.2.2.:.G # 9..X6.2.7.2.2.2.2.2.2.2.2.2.2.2.2.2.2.2.3.) a.W._._._.`.P._.d.) 2.2.2.9.W._.P.P.P.P._.W.3.:.4.3.U dXfXpXpXpXiXT.} Y 3.7.7.6.4.4.2.2.2.2.2.8.2.! P 2.2.2.:.2.2.2.2.2.2.2.2.2.2.2.2.2.2.2.2.2.2.2.2.2.2.2.2.2.2.2.2.2.2.2.2.2.2.2.2.2.2.2.2.2.2.2.2.2.2.2.2.2.2.2.2.2.2.2.2.2.2.2.2.2.2.2.2.2.2.2.2.2.2.2.2.2.2.2.2.2.2.2.2.2.2.2.2.2.2.2.2.2.2.2.2.2.2.2.2.2.2.2.2.2.2.2.2.2.2.2.2.2.2.2.2.-.4.8.2.3.3.3._ / ` 3.2.:.:.8.4.!.P.J.J._.W.G.p.p.d.5.3.7.9.a.a.i.a.F.i.5.5.i.F.a.a.a.a.a.a.a.a.a.F.a.5.7.9.F.a.a.a.F.a.9.9.a.a.F.S.i.i.a.a.a.a.5.5.5.d.a.a.a.7.7.9.9.7.9.M.S.9.F.S.M.M.F.9.7.7.a.a.p.F.F.F.F.a.a.a.a.a.a.a.a.i.i.S.S.S.i.i.S.S.a.a.F.a.a.a.i.5.a.i.i.i.F.F.F.F.9.9.8.7.9.M.M.9.7.7.9.9.9.9.9.a.F.F.F.F.p.p.p.S.a.a.a.a.a.a.a.a.a.a.a.a.a.a.a.a.9.F.F.F.9.9.5.3.d.p.W.)._._._._.",
"P.P.I._._.W.a.2.3.4.I G.gXiXpX3X/ 8.8.2.2.8.2.2.2.2.6.2.2.2.6.2.2.2.2.2.2.2.2.2.2.2.2.2.2.2.2.2.2.2.2.2.2.2.2.2.2.2.2.2.2.2.2.2.2.2.8.1.Q t t t =.8.8.P P :.8.:.2.2.2.2.2.2.2.2.2.2.2.2.2.2.2.2.2.2.2.2.2.2.2.2.2.2.2.2.2.2.2.2.2.2.2.2.2.2.2.2.2.2.2.2.2.2.2.2.:.G # m.(.2.2.7.2.2.2.2.2.2.2.2.2.2.2.2.2.2.2.3.) a.W._._._.`.P._.d.2.2.2.2.9.W._.P.P.P.P._.W.3.:.4._ T dXfXkXpXpXiXY.| ( 7.7.2.2.4.4.2.2.2.2.2.8.:.-.! 2.4.2.:.2.2.2.2.2.2.2.2.2.2.2.2.2.2.2.2.2.2.2.2.2.2.2.2.2.2.2.2.2.2.2.2.2.2.2.2.2.2.2.2.2.2.2.2.2.2.2.2.2.2.2.2.2.2.2.2.2.2.2.2.2.2.2.2.2.2.2.2.2.2.2.2.2.2.2.2.2.2.2.2.2.2.2.2.2.2.2.2.2.2.2.2.2.2.2.2.2.2.2.2.2.2.2.2.2.2.2.2.2.2.2.2.-.4.8.) ) _ _ / / ` 3.) :.:.1.4.!.P.J.J._._.G.i.p.d.5.3.7.9.a.a.i.a.F.i.5.5.i.F.a.a.a.a.a.a.a.a.a.F.a.5.7.9.a.a.a.a.F.a.9.9.a.a.F.S.i.i.a.a.a.a.5.5.5.d.a.a.a.7.7.9.9.7.9.M.S.9.F.S.M.M.F.9.7.7.a.a.p.F.F.F.F.a.a.a.a.a.a.a.a.i.i.S.S.S.i.i.i.i.a.a.F.a.a.a.i.5.a.i.i.i.F.F.F.F.9.9.8.7.9.M.M.9.7.7.9.9.9.9.9.a.F.F.F.F.p.p.p.S.a.a.a.a.a.a.a.a.a.a.a.a.a.a.a.a.9.F.F.F.9.9.5.3.d.p.W._._._._._.",
"P.P.I.I._.W.d.2.` 3.I P.gXaXpXiX_ 8.8.2.2.2.2.2.2.2.2.6.2.2.6.2.2.2.2.2.2.2.2.2.2.2.2.2.2.2.2.2.2.2.2.2.2.2.2.2.2.2.2.2.2.2.2.2.3.2.2.1.Q t t t =.1.1.P G :.1.,.2.2.2.2.2.2.2.2.2.2.2.2.2.2.2.2.2.2.2.2.2.2.2.2.2.2.2.2.2.2.2.2.2.2.2.2.2.2.2.2.2.2.2.2.2.2.2.2.:.G r V.^.2.2.2.2.2.2.2.2.2.2.2.2.2.2.2.2.2.2.3.) a.W._._._.`.P._.d.) 2.2.2.9.E.'.P.P.P.P._.W.3.:.4.3.U dXfXpXpXpXsX*X| T d.7.&.2.4.2.2.2.2.2.2.8.2.-.-.2.2.2.2.2.2.2.2.2.2.2.2.2.2.2.2.2.2.2.2.2.2.2.2.2.2.2.2.2.2.2.2.2.2.2.2.2.2.2.2.2.2.2.2.2.2.2.2.2.2.2.2.2.2.2.2.2.2.2.2.2.2.2.2.2.2.2.2.2.2.2.2.2.2.2.2.2.2.2.2.2.2.2.2.2.2.2.2.2.2.2.2.2.2.2.2.2.2.2.2.2.2.2.2.2.2.2.2.2.2.2.2.2.2.2.2.-.2.2.) 3.5.5.3._ ) ` ) :.:.:.4.!.P.J.J._._.G.i.p.i.5.3.5.9.F.F.i.a.F.i.5.5.i.F.a.a.a.a.a.a.a.a.a.F.a.5.7.9.F.F.a.a.F.a.9.9.a.a.F.S.i.i.a.a.a.a.5.5.5.d.a.a.a.7.7.9.9.3.9.M.F.n.F.S.n.n.F.9.7.7.a.a.a.F.F.F.F.a.a.a.a.a.a.a.a.i.i.S.S.S.i.i.i.i.a.a.F.a.a.a.i.5.a.i.i.i.F.F.F.F.9.9.8.7.9.M.M.9.7.7.9.9.9.9.9.F.F.F.a.F.p.p.S.S.a.a.a.a.a.a.a.a.a.a.a.a.a.a.a.a.9.F.F.F.9.9.5.3.d.p.G._._._._._.",
"P.P.I.I._.W.d.) ` 3.I P.gXiXpXiX_ 4.2.2.2.2.2.2.2.2.2.2.2.2.6.2.2.2.2.2.2.2.2.2.2.2.2.2.2.2.2.2.2.2.2.2.2.2.2.2.2.2.2.2.2.2.2.2.3.2.2.:.Q t t t =.1.8.P J ,.1.,.2.2.2.2.2.2.2.2.2.2.2.2.2.2.2.2.2.2.2.2.2.2.2.2.2.2.2.2.2.2.2.2.2.2.2.2.2.2.2.2.2.2.2.2.2.2.2.2.:.G r V.~.2.2.2.2.2.2.2.2.2.2.2.2.2.2.2.2.2.2.3.) a.W._._._.`.P._.d.) 2.2.2.7.E._.P.P.P.P._.W.3.:.4.3.U dXfXpXpXiXfXwX| U 3.7.&.2.2.2.2.2.2.2.2.8.2.-.:.2.2.2.2.2.2.2.2.2.2.2.2.2.2.2.2.2.2.2.2.2.2.2.2.2.2.2.2.2.2.2.2.2.2.2.2.2.2.2.2.2.2.2.2.2.2.2.2.2.2.2.2.2.2.2.2.2.2.2.2.2.2.2.2.2.2.2.2.2.2.2.2.2.2.2.2.2.2.2.2.2.2.2.2.2.2.2.2.2.2.2.2.2.2.2.2.2.2.2.2.2.2.2.2.2.2.2.2.2.2.2.2.2.2.2.2.-.2.2.7.d.F.W.W.3._ ) ` 2.2.:.8.W.P.J.P._._.G.i.a.i.5.3.5.9.F.F.i.a.F.i.5.5.i.F.a.a.a.a.a.a.a.a.a.F.a.5.3.9.F.F.a.a.F.a.9.9.a.a.F.S.i.i.a.a.a.a.5.5.5.d.a.a.a.9.7.9.9.7.9.F.S.n.F.S.M.n.M.9.7.7.a.a.a.F.F.F.F.a.a.a.a.a.F.a.a.i.i.S.S.S.i.i.i.i.a.a.F.a.a.a.i.5.F.i.i.i.F.F.F.F.9.3.4.7.9.M.M.9.7.9.9.9.9.9.a.F.a.a.a.a.p.p.S.S.a.a.a.a.a.a.a.a.a.a.a.a.a.a.a.a.9.F.F.F.n.9.5.3.d.p.G._._._._._.",
"I.P.I.I._.W.d.) ` 3./ U.gXaXpXiXy.8.2.2.2.2.2.2.2.2.2.2.2.6.6.2.2.2.2.2.2.2.2.2.2.2.2.2.2.2.2.2.2.2.2.2.2.2.2.2.2.2.2.2.2.2.2.2.3.2.6.1.=.t t t =.1.1.L y -.1.:.2.2.2.2.2.2.2.2.2.2.2.2.2.2.2.2.2.2.2.2.2.2.2.2.2.2.2.2.2.2.2.2.2.2.2.2.2.2.2.2.2.2.2.2.2.2.2.2.2.G G V.V.-.7.2.2.2.2.2.2.2.2.2.2.2.2.2.2.2.2.3.) a.W._._._.`.P._.d.2.2.2.2.7.F.'.P.P.P.P._.W.3.:.8.3.U dXfXpXpX,XsXaX..U ( 3.3.2.2.2.2.2.2.2.2.2.2.2.2.2.2.2.2.2.2.2.2.2.2.2.2.2.2.2.2.2.2.2.2.2.2.2.2.2.2.2.2.2.2.2.2.2.2.2.2.2.2.2.2.2.2.2.2.2.2.2.2.2.2.2.2.2.2.2.2.2.2.2.2.2.2.2.2.2.2.2.2.2.2.2.2.2.2.2.2.2.2.2.2.2.2.2.2.2.2.2.2.2.2.2.2.2.2.2.2.2.2.2.2.2.2.2.2.2.2.2.2.2.2.2.2.2.2.2.2.2.2.2.9.E.W.}.}.p.3._ 3.2.2.4.9.W.P.G.P._.W.G.i.p.d.5.5.5.9.a.a.i.a.F.i.5.5.i.F.a.a.a.a.F.F.a.a.a.p.a.5.7.d.p.p.p.p.F.a.9.9.a.p.F.S.i.i.a.a.a.a.5.5.5.a.a.a.a.7.7.7.9.3.9.F.F.S.F.S.9.9.F.9.7.7.a.a.a.F.F.F.F.a.a.F.a.a.F.F.F.S.i.S.S.S.i.i.i.i.a.a.F.a.a.i.i.5.F.S.S.S.F.F.F.F.9.7.8.7.9.M.M.9.9.9.9.9.5.7.a.F.a.a.a.a.S.S.S.S.a.a.a.a.a.a.a.a.a.a.a.a.a.a.a.a.i.F.F.F.9.9.5.3.d.p.G._._._._._.",
"I.P.I.I._.G.5.) ) 3./ U.gXiXpXdXi.8.2.2.8.2.2.2.2.2.2.2.2.2.6.2.2.2.2.2.2.2.2.2.2.2.2.2.2.2.2.2.2.2.2.2.2.2.2.2.2.2.2.2.2.2.2.2.3.2.6.1.=.t t t Q 1.:.L i -.1.:.4.2.2.2.2.2.2.2.2.2.2.2.2.2.2.2.2.2.2.2.2.2.2.2.2.2.2.2.2.2.2.2.2.2.2.2.2.2.2.2.2.2.2.2.2.2.2.2.4.y G Q.9.P 9.2.2.2.2.2.2.2.2.2.2.2.2.2.2.2.2.3.) a.W._._._.`.P._.d.3.2.2.2.7.a._.P.P.P.P._.W.3.:.8.3.T dXfXpXpX;XfXaXI.{ ( 3.3.2.2.2.2.2.2.4.4.2.2.2.2.2.2.2.2.2.2.2.2.2.2.2.2.2.2.2.2.2.2.2.2.2.2.2.2.2.2.2.2.2.2.2.2.2.2.2.2.2.2.2.2.2.2.2.2.2.2.2.2.2.2.2.2.2.2.2.2.2.2.2.2.2.2.2.2.2.2.2.2.2.2.2.2.2.2.2.2.2.2.2.2.2.2.2.2.2.2.2.2.2.2.2.2.2.2.2.2.2.2.2.2.2.2.2.2.2.2.2.2.2.2.2.2.2.2.2.2.8.2.3.a.W.W.W._.s.3._ 3.8.2.2.9.W.P.J.P._.W.G.i.p.d.5.5.5.9.a.a.i.a.F.i.5.5.i.F.a.a.a.a.F.F.a.a.a.p.a.5.3.d.p.p.p.p.F.a.a.a.a.p.F.S.i.i.a.a.a.a.5.5.5.d.a.a.a.7.3.7.9.3.9.F.F.S.S.S.9.9.F.9.7.7.a.a.a.F.F.F.F.a.a.a.a.a.F.F.a.S.i.S.S.S.i.i.i.i.a.a.F.a.a.i.i.5.F.S.i.S.F.F.F.F.9.3.8.7.9.F.M.9.9.9.9.9.5.7.a.F.a.a.a.a.S.p.S.p.a.a.a.a.a.a.a.a.a.a.a.a.a.a.a.a.i.F.F.F.9.9.5.3.d.p.J._._._._._.",
"P.P.I.I._.G.5.Y ) 3./ U.gXiXfXdXp.8.-.2.8.2.2.2.2.2.2.2.2.2.6.6.2.2.2.2.2.2.2.2.2.2.2.2.2.2.2.2.2.2.2.2.2.2.2.2.2.2.2.2.2.2.2.2.3.2.6.1.=.t t t Q 1.1.a i Q ,.:.4.2.2.2.2.2.2.2.2.2.2.2.2.2.2.2.2.2.2.2.2.2.2.2.2.2.2.2.2.2.2.2.2.2.2.2.2.2.2.2.2.2.2.2.2.2.2.2.4.y P /.8.P 9.2.2.2.2.2.2.2.2.2.6.6.2.6.2.2.2.3.) a.W._._._.`.P.P.d.3.2.2.2.2.a._.P.P.P.P._.W.3.:.8.3.T dXdXpXpXpXpXaXqXP.y.3.3.2.2.2.2.2.4.4.4.2.2.4.4.2.2.2.2.2.2.2.2.2.2.2.2.2.2.2.2.2.2.2.2.2.2.2.2.2.2.2.2.2.2.2.2.2.2.2.2.2.2.2.2.2.2.2.2.2.2.2.2.2.2.2.2.2.2.2.2.2.2.2.2.2.2.2.2.2.2.2.2.2.2.2.2.2.2.2.2.2.2.2.2.2.2.2.2.2.2.2.2.2.2.2.2.2.2.2.2.2.2.2.2.2.2.2.2.2.2.2.2.2.2.2.2.2.2.2.2.7.2.3.a.W._.G.G.s.3.Y 3.3.2.2.7.!.P.J.P._.W.G.p.p.d.5.5.5.9.a.a.i.a.F.i.5.5.i.F.a.a.a.a.F.F.F.F.a.p.p.5.7.d.p.p.p.p.p.a.a.d.a.p.a.i.i.i.a.a.a.a.5.5.7.d.a.a.a.7.7.7.9.3.9.F.F.F.F.S.9.9.F.9.7.7.a.a.a.F.F.F.F.a.a.a.a.a.a.a.a.i.S.S.S.S.S.S.i.i.a.a.F.a.a.i.i.5.a.i.i.i.F.F.F.F.9.3.2.7.M.F.F.M.9.9.9.7.7.7.a.F.a.a.a.a.i.i.S.p.a.a.a.a.a.a.a.a.a.a.a.a.a.a.a.a.i.F.F.F.M.9.7.3.5.p.J._._._._._.",
"I.I.I.I._.G.5.) ! 4./ U.uXiXpXdXp.3.) 2.8.2.2.2.2.2.2.2.6.6.6.6.2.2.2.2.2.2.2.2.2.2.2.2.2.2.2.2.2.2.2.2.2.2.2.2.2.2.2.2.2.2.2.2.2.6.6.1.=.i t t b 1.,.a i =.1.:.4.2.2.2.2.2.2.2.2.2.2.2.2.2.2.2.2.2.2.2.2.2.2.2.2.2.2.2.2.2.2.2.2.2.2.2.2.2.2.2.2.2.2.2.2.2.2.2.4.G ! /.6.P r.-.2.2.2.2.2.2.2.2.6.6.6.2.2.2.3.3.) a.W._._.I.I.I.P.d.3.2.2.2.2.a._.P.I.).P.}.^.8.:.4.3.( tXdXpXpXpXpXiXaXqXh.} T _ _ ` 3.3.3.3.3.2.2.2.8.2.2.4.4.2.2.2.2.2.2.2.2.2.2.2.2.2.2.2.2.2.2.2.2.2.2.2.2.2.2.2.2.2.2.2.2.2.2.2.2.2.2.2.2.2.2.2.2.2.2.2.2.2.2.2.2.2.2.2.2.2.2.2.2.2.2.2.2.2.2.2.2.2.2.2.2.2.2.2.2.2.2.2.2.2.4.2.4.2.4.2.4.2.4.2.4.2.4.2.2.2.2.2.2.2.2.2.2.2.2.2.2.2.2.2.2.3.) 3.G.}.}._._.G.3.) 3.4.! :.8.!.P.J.P._._.G.p.p.d.5.3.5.a.a.a.i.a.F.i.5.5.i.F.a.a.a.a.F.F.F.a.a.p.p.5.7.a.p.p.p.p.p.a.a.d.a.p.i.S.i.i.i.i.a.a.5.5.5.a.a.a.a.7.3.9.9.3.9.F.F.F.F.S.a.9.a.9.5.3.i.a.a.F.F.F.F.a.a.a.a.a.a.a.a.i.S.S.S.S.S.S.i.i.a.a.F.a.a.i.i.5.i.S.i.S.F.F.F.F.9.3.4.9.M.F.F.F.9.9.5.5.7.5.a.F.a.a.a.a.i.i.i.p.a.a.a.a.a.a.a.a.a.a.a.a.a.a.a.a.i.p.F.F.S.9.7.3.9.a.J._._._._.I.",
"g.I.I.).G.!.K :.4.` W $XuXaXsX,XqXF._ 3.5.3.3.2.2.2.2.8.8.8.w.6.6.6.6.6.2.2.2.2.6.2.6.2.2.2.2.2.2.2.6.2.6.2.6.2.6.2.6.2.6.2.6.6.6.6.8.1.b p p 9 b <.,.a i @.1.6.6.4.6.:.6.4.6.4.,.:.,.4.,.4.6.6.6.6.6.6.6.6.6.6.6.6.6.6.6.6.6.6.2.2.2.2.2.2.2.2.2.2.2.2.2.2.2.2.8.G 8.9.2.8.2.8.6.6.6.6.2.6.6.6.8.8.4.4.2.8.3.3.` d.J.)._.I.I.)._.p.d.! ^ 4.! F.J.).h.`._.!.(.! 4.) ) _ Y.hXhXiXlXlXlXlXpXpX0X0Xg.f.| X.[ [ T ( _ _ _ ` 3.4.8.8.2.2.2.2.2.2.2.2.4.4.4.4.4.4.4.4.2.6.6.6.2.2.2.2.6.6.6.6.2.2.2.2.6.6.6.6.6.6.6.6.6.6.6.6.6.6.6.6.6.2.6.2.6.2.6.6.6.2.6.2.6.2.6.2.2.2.2.2.2.2.2.2.2.2.2.2.2.2.8.2.4.4.4.4.4.4.4.4.4.4.4.4.4.4.4.4.4.4.4.8.8.8.8.8.4.4.4.4.4.4.4.4.3.) _ P.]._.P.'.H.) ! ^ m.b.E 8.!._.J._.}._.G.s.p.d.7.7.d.d.a.p.a.p.i.i.5.5.i.p.p.p.p.p.p.p.a.p.a.p.p.d.5.a.p.p.d.p.F.p.5.3.5.a.p.p.S.S.S.p.p.p.5.5.d.i.p.F.p.i.5.3.3.3.i.i.S.S.F.S.i.i.a.9.5.3.i.p.i.F.F.p.p.i.a.p.p.p.p.p.S.S.i.i.i.i.S.i.i.i.i.i.i.i.9.9.5.5.S.S.S.S.n.n.n.n.5.3.3.5.9.M.n.n.9.9.5.3.5.5.i.i.F.F.F.F.F.F.F.F.p.p.a.a.a.p.p.p.p.p.p.p.p.p.a.p.p.s.a.p.a.9.7.3.5.S.G._._.P.I.I.",
"g.I.I.).G.!.K -.:.^ / R.uX>XsX<XeXU. .( ( _ 5.a.3.3.2.2.2.,.-.#.8.8.8.8.8.8.8.8.-.2.2.2.2.2.2.2.2.2.2.2.2.2.2.2.2.2.2.2.2.2.2.6.6.,.8.1.a i p 7 v <.1.x i L 6.8.6.4.4.4.4.4.4.4.:.:.:.:.:.4.4.2.6.6.6.6.6.6.6.6.6.6.6.6.6.6.6.6.2.2.2.2.2.2.2.2.2.2.2.2.2.2.2.2.6.G 8.7.2.8.2.8.2.2.2.2.2.2.2.2.2.2.2.2.2.2.2.` ) 3.p.G.P.P.I.I.{.s.5.! ^ ^ G 9.W.).j.`._.W.(.! E ! / _ D.tXgXfXpXpXlXjXjX8X8X8XzXhXdX3XL.f.| } { ( / ) ) ) ) ) 2.) 2.) 2.) 2.) ) ) ) ) 2.) 2.2.2.2.2.2.2.2.2.2.2.2.2.2.2.2.2.2.2.2.2.2.2.2.2.2.2.2.2.2.2.2.2.2.2.2.2.2.2.2.2.2.2.2.2.2.2.2.2.2.2.2.2.2.2.2.2.2.2.2.2.2.2.2.2.2.2.:.:.:.:.:.:.:.:.:.:.:.:.:.:.:.:.:.:.:.:.:.:.:.:.:.:.:.:.:.:.2.' / ' P.]._.P.}.H.4.:.^ b.-.y 4.!._.J._.}._.G.s.p.d.d.7.d.d.a.p.a.p.i.i.5.5.i.p.p.p.i.p.p.p.p.p.a.p.p.d.5.a.p.p.d.p.F.p.d.3.d.a.S.p.S.p.p.p.p.p.5.5.d.i.p.F.p.i.5.5._ 5.i.i.S.S.F.a.i.i.i.i.5.' i.p.i.F.F.p.p.i.a.a.p.p.S.p.S.F.i.i.i.i.i.i.i.i.a.a.i.i.i.9.5.5.S.S.S.S.n.n.n.n.5.' ' 5.9.n.n.n.9.5.5.5.5.5.i.S.i.i.i.i.i.i.i.i.p.p.p.p.a.a.p.p.a.a.a.a.a.a.a.a.s.p.p.p.a.9.7.3.5.i.G.'.P.P.I.I.",
"K.P.P._.G.!.G P :.! ) XXgX,XkXpXgXyXU.( U / _ ) _ ` 3.2.8.9.9.9.4.4.:.:.:.-.! ! 4.4.4.4.4.8.8.8.2.2.2.2.2.2.2.2.2.2.2.2.2.2.2.2.2.-.6.1.a t i 7 h <.v.Q i a -.8.2.2.2.2.2.2.2.2.2.2.2.2.2.2.2.2.2.2.2.2.2.2.2.2.2.2.2.2.2.2.2.2.2.2.2.2.2.2.2.2.2.2.2.2.2.2.2.2.2.K 8.7.2.7.2.2.2.2.2.2.2.2.2.2.6.6.6.6.6.6.2.2.) 3.d.G._.].)._.|.p.7.:.-.E 3 9._.{.j.`._.W.Q.! 3 Q ^ ` y.Y.uXgXhXfXfXhXfXfXfXfXiXiXdXdXgXgXuXuX|.}.W.F.7.3.2.2.8.4.4.4.8.4.8.4.2.2.2.2.4.2.2.2.2.2.2.2.2.3.2.2.2.2.2.2.2.3.2.2.2.2.2.2.2.2.2.2.2.2.2.2.2.2.2.2.2.2.2.2.2.2.2.2.2.2.2.2.2.2.2.2.2.2.2.2.2.2.2.2.2.2.2.2.2.2.2.2.2.2.2.2.2.2.2.2.2.2.2.2.2.2.2.2.2.2.2.2.2.2.2.2.2.2.2.8.2.8.2.4.4.) 5._.].)._.W.a.4.:.:.:.-.y 9.}._.P._.}._.G.p.p.d.7.7.d.a.p.p.a.a.a.i.5.5.i.a.F.F.a.F.F.F.a.a.a.F.F.9.5.a.F.F.a.F.F.a.5.5.5.a.S.S.S.S.i.i.i.a.5.5.9.a.F.F.a.i.5.3.3.3.9.F.F.F.F.F.a.a.F.9.5.3.a.a.a.F.F.F.a.a.a.a.F.F.F.F.F.F.a.F.F.F.F.F.F.F.F.F.a.a.9.9.9.9.F.F.F.F.F.F.F.F.3.3.3.3.9.F.F.F.9.9.5.3.5.9.F.F.a.a.F.M.a.a.a.a.a.a.a.F.a.a.a.a.a.a.a.a.a.a.a.a.p.p.p.a.a.5.7.3.5.S.G._.P.I.I.I.",
"P.P.P._.W.^.J P 8.2./ qXhXpXkXkXaXuXqXK..... .( U I I I / 2.3.3.4.4.4.4.4.4.4.4.) ! ! :.! ! :.:.2.3.2.3.2.3.2.2.2.3.3.3.2.2.2.2.2.2.8.:.a t t e t <.v.~ r r P 2.2.3.2.3.2.3.2.3.3.3.3.3.2.3.3.2.2.2.2.2.2.2.2.2.2.3.2.3.2.2.2.2.2.2.2.2.2.2.2.2.2.2.2.2.2.2.2.2.8.P 7.8.2.7.2.2.2.2.2.2.2.2.2.2.6.6.6.6.6.6.6.2.2.3.5.F.}.|.|.).[.7.4.:.:.h 5 E._.{.j.`._.J.!.W 2 a -.! ` F.].uXtXtXdXdXdXdXtXtXgXgXgXgXuXuXyXrXOX}.}.E.9.8.8.4.2.2.2.4.2.2.2.2.2.2.2.2.2.2.2.2.2.2.2.2.2.2.2.2.2.2.2.2.2.2.2.2.2.2.2.2.2.2.2.2.2.2.2.2.2.2.2.2.8.4.8.4.8.4.8.4.8.3.2.3.8.4.8.8.6.6.6.6.6.6.8.8.6.6.6.6.6.6.8.8.6.6.6.6.6.6.6.6.6.6.6.6.6.6.6.6.2.2.2.2.2.2.2.2.8.2.2.8.8.8.8.4.4.` d.W.}._.W.W.7.:.4.:.:.Q G M.}._.P._._._.G.F.p.a.5.3.5.d.a.a.a.a.a.i.5.5.a.a.F.F.F.F.a.a.a.a.a.F.F.i.5.a.F.a.a.a.F.a.i.5.i.a.S.S.S.S.S.F.a.a.5.5.9.a.F.F.a.9.5.3.3.3.9.F.F.F.F.F.a.a.a.9.5.3.a.a.a.F.F.a.a.a.a.a.a.F.F.F.F.F.a.F.a.F.F.F.F.F.a.F.a.a.a.9.9.9.F.F.F.F.F.F.F.F.3.3.3.3.9.F.F.F.9.9.5.5.5.9.F.F.a.F.F.F.a.F.a.a.F.F.F.F.a.F.a.F.a.a.a.a.a.a.a.F.a.p.a.a.9.9.9.9.5.S.G._.P.I.I.I.",
"G.P.G._.E.^.D J 9.2.Y ].hXlXxXjX;XaXgXeXwXwXqX*XI.I.s.u.u.y.y._ / / / ) ) _ ' ' 3.4.4.3.2.2.4.2.3.3.3.` 3.3.3.3.3.3.3.3.3.3.3.3.4.:.4.:.a t y 4 t ;.v.~ r 2 J 2.3.` 3.` 3.3.3.3.3.` 3.` 3.3.3.3.3.4.2.2.2.2.2.2.4.4.4.4.2.2.4.2.4.4.2.2.2.2.2.2.2.2.4.4.3.2.3.3.8.P 9.4.! 9.2.4.4.4.4.4.4.8.4.2.6.6.6.6.6.6.6.2.2.2.2.7.W.!.W.E.~.6.1.:.;.g r Q.W.{.c.{._.J.!.W r p h E ! 4.H.'.rXrXrXrXrXrXrXOX].{._.G.p.p.d.5.3.3.2.2.2.2.4.8.:.:.:.:.2.:.2.:.2.:.2.:.2.:.2.2.2.) 2.2.:.:.:.:.2.) 2.2.2.2.2.2.2.2.2.) :.) :.! :.) 2.) 2.2.2.2.2.) 2.) 4.) 2.) 2.) 2.) 4.` 2.2.2.6.6.6.6.6.6.6.6.6.6.6.6.6.6.6.6.6.6.6.6.6.6.6.6.6.6.6.6.6.6.2.3.3.3.3.3.3.3.3.3.3.3.3.3.3.3.2.4.4.9.E.W.W.E.F.8.:.8.-.=.L r E.}._.P.P._._.G.F.F.a.5.7.7.9.9.M.a.F.a.9.7.5.9.a.F.F.a.a.a.a.a.a.9.F.F.9.5.9.F.a.a.F.F.F.a.9.9.a.F.F.F.F.F.F.F.F.7.7.7.9.F.F.a.a.5.7.7.7.9.F.F.F.F.F.9.9.F.9.9.3.9.a.a.F.F.F.F.a.a.a.a.F.F.F.F.a.a.F.F.F.F.F.F.F.F.F.F.9.M.M.M.9.F.M.M.M.M.M.M.M.7.4.8.3.9.M.M.M.9.7.9.7.9.9.9.F.M.M.M.M.F.F.F.F.F.F.E.F.E.F.E.F.a.a.a.a.a.a.a.a.a.i.9.9.9.9.4.5.9.i.G._.P.I.I.I.",
"J.J.E.W.E.^.D D 8.7.Y P.tXfXxXjXpXfXfXfXdXfXhXgXhXgXdXtX5X4X4X].D.p.p. .} _ ( ( _ _ 3.) 3.3.2.2.3.3.3.2.3.3.3.2.2.2.3.3.3.3.3.3.4.-.1.-.a t t t t Q :.~ r 2 a :.3.3.3.3.3.3.3.3.3.3.3.3.3.3.3.3.4.4.4.4.4.4.4.4.4.4.4.4.4.4.4.4.4.4.4.4.4.4.4.4.4.4.4.4.4.4.4.2.8.! 9.4.! 8.4.2.4.4.4.4.4.4.4.8.6.6.6.6.6.6.,.,.8.:.2.8.9.E.F.9.r.,.1.;.N t r V.W.).h.{._.P.'.! t p i a L -.4.8.) ) ) ) ) ) ) I I I I I Y ) 2.2.2.2.2.2.4.8.8.8.8.8.8.8.8.8.8.8.1.1.1.1.1.1.1.:.:.:.:.:.:.:.:.:.:.:.:.:.:.:.:.:.:.:.:.:.:.:.:.:.:.:.:.:.:.:.:.:.4.:.4.:.4.:.4.:.4.:.4.:.4.:.4.:.8.1.8.1.8.1.8.1.8.1.8.1.8.1.8.8.8.8.8.8.6.6.6.6.6.6.6.6.6.8.8.6.8.8.8.8.8.8.8.8.8.8.8.8.8.8.4.4.,.:.8.9.l.l.9.8.8.-.,.Q L i r E.}._.P.P._._.G.p.F.9.7.7.7.9.9.9.M.F.a.9.7.7.9.a.F.F.a.a.a.a.a.a.9.F.F.9.5.9.F.a.F.F.F.F.a.a.a.9.F.F.F.F.F.F.F.F.7.7.7.9.E.E.a.9.7.7.7.7.9.F.F.F.F.F.9.9.F.9.9.7.9.a.a.F.F.F.a.a.a.a.a.a.F.F.F.F.F.F.F.F.F.F.M.M.F.F.F.F.F.M.M.9.M.M.M.M.M.M.M.M.7.8.8.7.9.M.M.9.9.9.9.9.7.9.9.9.M.M.M.M.F.F.F.F.a.a.a.a.F.F.a.a.9.9.9.9.9.9.9.9.F.9.9.9.9.9.9.9.9.a.G._.P.I.I.I.",
"W.!.G.W.W.^.D r #.8.2.3.I.3XzX0XzXfXpXpXpX0X0XfXdX9X9X9XdXdXdX5XhXgXuXtXrX].].).y.y.3.3.*.Y &.Y 2.4.:.:.:.:.:.:.:.:.:.:.4.4.4.:.:.-.:.;.t t t 8 t k <.;.t 2 a -.4.4.4.4.4.4.4.4.4.4.4.4.4.4.4.4.:.:.:.:.:.:.:.:.:.:.:.:.:.:.:.:.:.:.:.:.:.:.:.:.:.:.:.:.:.:.:.:.8.-.m.:.-.8.1.,.:.:.:.:.:.:.:.1.6.6.6.,.1.1.1.1.1.,.,.,.:.4.4.:.,.=.<.g t t r m.^._.x.`._.P.'.! t 9 9 i a a L Q 4.4.4.8.4.4.:.:.8.4.8.8.4.:.:.-.8.8.8.1.1.,.,.,.,.,.,.,.,.,.,.,.,.,.,.,.,.,.,.,.,.;.,.;.,.;.,.;.,.;.,.;.,.;.,.;.,.;.,.;.-.;.-.;.-.;.-.;.-.;.,.;.-.:.:.:.:.:.,.:.,.:.,.:.:.:.:.:.,.,.,.,.,.1.,.,.,.,.,.,.,.1.,.,.1.1.1.1.1.1.1.1.1.1.1.1.1.1.1.1.:.:.:.:.:.:.:.:.:.:.:.:.:.:.:.,.;.;.;.,.6.6.:.-.,.a h i i i i E.}._.P.P._._.G.p.F.a.9.8.4.9.9.9.a.F.9.9.7.7.9.a.M.a.a.a.a.9.9.M.9.F.F.9.7.9.F.F.F.F.M.M.F.F.F.9.F.F.M.M.M.M.F.F.7.7.7.9.E.E.l.9.9.7.8.7.9.M.E.E.M.M.M.M.M.9.7.8.9.9.9.E.F.a.a.9.a.a.9.9.F.F.a.a.a.M.M.M.M.M.M.M.M.M.M.M.M.M.M.M.M.M.9.9.9.9.9.9.7.7.8.8.9.9.9.9.9.9.9.9.7.7.7.7.9.9.9.9.9.9.9.9.9.9.9.9.9.9.9.9.9.9.9.9.9.9.7.7.9.9.9.9.4.4.9.9.5.p.G._.P.I.I.I.",
"W.W.G._.W.^.D - r 1.:.! 3._.gXtXfX0XdXhXhXfXdXfXfXfXdXdXdXdXdXtXtXtXtXuXuXuXuXuXuXyXrXOX}.^.^.~.4.:.:.,.:.:.:.:.,.,.:.:.:.:.:.:.1.;.<.;.t 9 t 8 9 g M n p 8 p >.,.,.,.,.,.,.:.,.,.,.,.,.,.,.1.,.,.,.,.,.,.,.,.,.,.,.,.,.,.,.,.,.,.,.,.,.,.,.,.,.,.,.,.,.,.,.1.1.1.>.B.,.=.e.1.,.,.,.,.,.,.,.,.,.=.=.=.=.=.=.=.=.>.=.h a a a a a p x b t 9 t y M.W._.h.).I.P.).) e w 7 p i i i a i y i y y y y y r y a h E a a y i i a a a a a p a a a a a a a a a a a a h a a a h h h h h h h h h h h h h h v h h h h h h h h h h h h h h h h h j k j j k k h h h h h h j j j k h h h h h h h h h h h h h h h h h h h h h h h h h h h h h h h h b b b b b b b b b =.b b b b b b n n b h =.=.-.a a 7 t 7 e i J /.}._.P._.)._.G.p.F.a.9.8.4.9.9.9.M.F.9.9.7.7.9.a.9.9.a.a.F.9.9.M.9.F.F.9.7.9.F.M.M.F.9.9.F.F.F.F.F.F.M.M.M.M.F.F.7.7.9.9.E.E.l.9.9.9.8.9.9.M.E.E.M.M.9.9.M.9.7.8.9.9.9.E.E.a.a.9.a.a.9.9.a.F.a.a.a.M.M.M.M.M.M.M.M.M.M.M.M.M.M.M.9.9.9.9.9.9.9.9.9.7.8.8.7.9.7.7.9.9.9.7.8.8.8.8.7.7.7.9.9.9.7.7.7.7.7.7.7.7.7.7.7.7.7.7.7.7.7.8.n.n.4.4.4.4.9.9.5.p.G._.P.I.I.I.",
"'.G.W._.W.9.#.i e i h =.:.4.3._ } | | } y.u.u.p.u.p.p.p.p.p.p.p.p.p.p.p.d.d.d.7.9.9.9.9.w.w.w.8.8.1.1.1.,.,.,.,.1.1.1.1.,.,.1.,.b n v v p q q q q q 9 9 t g v b <.<.<.<.<.<.;.M ;.;.;.M ;.M ;.<.;.>.>.=.>.=.=.b >.=.b b b a a a x x x x x x x x x x x p p p p p i i u i u i i i i i i i i i i i i i u e e e t 9 9 9 8 t t t t t i i p a p e L 8.^._._.I.I.P.P.!.r 7 7 p a a i e i i i i i e t t t t t t t e e e t t t t i i i e t t t t t t t t t p p t p t p p 9 9 9 9 9 9 9 9 p p p p p p p p p p p p p p p p 9 9 9 9 9 9 9 9 9 9 9 9 9 9 9 8 8 8 t t 9 9 9 9 t t t t 9 t t t t t t t t t t t 8 8 8 8 9 9 9 9 t t 9 9 8 8 8 q 9 9 9 9 9 9 9 9 q q q 9 9 9 9 9 8 8 8 9 t e i t t t t p , e -.E._._._._.)._.G.F.i.9.9.7.8.4.4.8.9.a.F.a.9.9.a.E.a.a.a.a.a.a.a.a.a.a.a.a.a.a.a.a.a.a.a.a.a.a.a.a.a.a.a.a.a.a.a.a.9.9.9.9.9.9.9.9.9.9.9.9.7.7.7.7.7.9.9.9.7.7.7.7.9.9.9.7.7.7.7.7.7.7.7.7.7.7.7.7.7.7.7.7.7.7.7.7.7.7.7.7.7.7.7.7.7.7.7.7.7.7.7.7.7.7.7.7.7.7.7.7.7.7.7.7.7.7.7.7.7.7.7.7.7.7.7.7.9.9.9.9.7.7.7.7.7.7.7.7.7.7.7.7.9.4.4.4.9.9.3.3.5.p.G._._.).I.I.",
"_._._._.^.a.#.r i p g b ;.;.^ ! ! H ! ! ! ! ) ) ! ! -.! #.#.-.! ! H P ! P P P Q -.-.=.=.=.@.x x x x x x a p p p p p p p p p p a p p p p q q q q 9 9 9 w 9 9 p p 9 9 9 9 9 9 9 9 q 9 q q 9 9 9 9 p p i e e u u u i p i p i u e 7 i u u u u u i u u u u u u u u u x z z z x z x z u u u u u u u u i i t t t t t t t t t t t t t t i e e 7 + r -.M.!._._.P.I.I.P.P.8.>.i 7 e e i i i i i t t t t t t t t p p p p p t t t t i i i e t t t t t t t t t t t t t t t p p p p p p p p p p p p p p p p p p p p p p p p p t t p p p p p p p p p p p p p p p p p p p p p p t t t t t t t t t t t t t t 9 8 8 8 8 8 8 8 8 8 8 8 8 8 8 8 8 8 q q q q q q q q 9 9 9 9 9 9 9 9 q 8 8 9 t t t t t t t t e y 8.^._._._._.)._.W.G.p.a.9.9.9.9.9.8.7.7.d.7.7.7.7.9.a.E.l.E.a.F.a.F.a.a.a.a.a.a.a.a.5.5.5.5.5.5.5.5.5.5.5.5.7.9.5.5.5.7.7.7.7.7.7.7.9.9.9.9.7.7.7.7.7.7.7.7.7.7.7.7.7.7.7.7.7.3.3.3.7.7.7.7.7.7.7.7.7.7.7.7.7.7.7.7.7.7.7.7.7.7.7.7.7.7.7.7.7.7.7.7.7.7.7.7.7.7.7.7.7.7.7.7.7.7.7.7.7.7.7.7.7.7.7.7.9.9.9.9.9.9.9.9.a.9.9.9.9.9.9.7.9.4.9.9.9.9.9.9.p.s.G.P.P.P.I.I.",
"P._._._._.z.2.# e 8 8 8 8 8 t 4 t t t t t t t t 7 7 7 7 7 7 7 7 t t e t e 7 7 7 9 9 8 9 9 9 w 9 p p p p p p p p p p p p p p p p p p p p p p p p v v v v z z z z p p q q p p p p p p q q p q p p p i i i p p p p i i p i i i i i p p i i i p p p i p i i p p p p u u u u u u u u p p p p x x x p r r r r r t t t 7 8 t t e t r r r e # 3 r ! M.(.W._.P.P.P.I.I.P.(.m.Q r 2 i a a e e e 2 2 2 2 2 , < < < , , , , e e e r e e r r e e e e e e e e e e e e e e e e e u u 9 u u u u 9 u 9 9 9 9 9 9 p p p p p p p p 7 7 7 7 e 7 7 7 t t t t t t t t 7 7 9 9 9 9 7 7 t t t t t t t t t t t t t t t t t t t d t d t t t t t t t d t t p z z z v v v v z p p p p p p q g g g p a a a h 8 < 7 t y Q 9.^._._._._.)._.W.G.p.p.a.9.9.9.7.7.5.7.d.5.7.5.5.d.d.d.a.d.d.d.d.d.5.5.5.5.5.5.5.5.d.5.d.5.d.5.d.5.d.5.5.5.d.9.d.5.7.7.5.7.7.7.7.7.7.7.5.7.5.7.5.7.5.7.5.7.5.7.5.5.7.7.7.5.5.5.7.7.5.5.5.5.5.5.5.5.5.7.5.7.5.7.5.7.5.7.5.7.5.7.5.7.5.7.5.7.5.7.5.7.5.7.5.7.5.7.5.7.5.7.5.7.5.7.5.7.5.7.5.7.5.7.5.5.7.7.7.7.7.7.7.7.d.7.d.7.d.7.d.7.7.4.9.9.9.5.i.d.G.G.P.P.P.I.I.I.",
"P._._._._._.2.# y t 8 8 8 8 t t 8 d 8 8 8 8 8 8 8 8 q q q q 9 8 8 t t t 8 8 8 8 q q q q q q 0 9 u i i i i i i i i i i i i i i i i i i i i e u u 7 e e e e e 7 7 7 7 7 7 9 9 p p 7 7 7 7 7 7 7 e i i i i i i i i e e e i i i i i i i i i i i i i i i i i a a a a i i i i i i i i i i i i i i i i G G L L L L E h E E E Q Q Q ! ! ! ! ! 8.9.E.!.}.W._.P.P.P.I.I.P.}.Q.n.8.4.2.8.4.8.8.4.4.4.4.4.:.-.-.-.-.-.-.-.-.~ ~ ~ ~ ! ~ ! ~ Q Q Q Q Q Q Q Q Q Q Q Q Q Q Q Q L @.@.x @.@.@.@.a a a a x a a a a a a a a a a a i i i i a i i i y y y y y y y y i i y y y y i r 2 2 2 2 2 2 2 2 r 2 r 2 r 2 r 2 e < 4 < t < e < e 4 e < t < t 8 7 7 7 7 7 7 7 7 7 7 7 7 7 7 7 7 9 7 2 e e 2 r r e 2 4 y ^ 8.E.!._._._._._._._.G.p.p.a.d.5.5.7.3.5.5.7.5.7.5.5.5.3.3.7.3.3.3.3.3.3.3.3.3.3.3.3.3.d.5.d.5.d.5.d.5.d.5.5.5.d.5.d.5.d.7.d.7.5.5.d.5.7.5.7.5.7.5.7.5.5.5.5.5.5.5.5.5.7.d.d.d.d.5.d.5.7.5.7.5.7.3.7.3.5.5.7.5.7.3.7.5.5.5.5.5.5.5.5.5.5.5.7.7.7.5.7.3.5.5.5.5.7.5.7.3.5.3.7.3.7.5.7.5.5.5.5.5.5.5.5.5.5.5.7.5.7.5.7.7.d.7.d.7.d.5.d.5.3.3.7.5.5.a.d.p._._.P.P.I.I.I.I.",
"P.)._.P._._.7.D r e 7 7 7 7 e e 8 8 < < < < 8 8 8 8 8 8 8 8 7 7 7 < < < < 7 7 7 7 7 8 8 8 8 8 e e 3 r r r r r r r r r r r r r r y y r r r r r i i r y J J y y i y y y a a a a J Q Q L L L L Q P P P P P P P -.-.-.-.-.-.-.2.2.2.2.2.2.2.2.8.8.8.8.8.8.8.7.7.9.9.9.9.9.9.9.9.9.9./././././././.Q.H.H.H.H.H.H.M.M.Q.Q.Q.Q.E.E.^.^.E.E.!.!.}.}.G.s._.P.P.P.P.I.I.I.U.!.'.}.!.^.^.^.^.^.^.!.!.!.!.!.(.(.(.(.(.(.(.(.Q.Q.Q.Q.Q.Q.^.Q.Q.Q.Q.Q.Q.Q.Q.Q.H.E.E.E.H.H.H.E.E.E.E.E.E.E.E.V.V.V.V.V.V.V.V.V.V.V.V.V.V.V.V.V.m.m.m.M.M.M.M.m.9.n.n.n.9.9.9.9.9.9.9.9.9.8.8.8.8.8.8.8.8.4.8.8.:.! :.! :.! :.! :.! :.! :.! :.! :.! :.! :.! :.:.! ! ! ! ! ! ! -.Q Q Q Q P Q P Q P L P P P P P P ! :.:.4.F.!.}.)._._.I._.).)._._.s.s.s.a.d.d.d.d.d.d.d.3.d.5.d.d.d.d.d.d.d.5.d.5.p.d.p.d.p.d.p.d.d.d.d.d.d.d.d.d.y.y.y.y.y.d.d.5.d.d.d.d.d.d.d.d.d.i.d.i.d.i.a.i.d.d.d.d.d.5.d.d.d.d.d.d.d.d.d.d.p.p.p.i.p.i.p.i.a.i.d.i.d.i.d.i.p.a.a.a.a.a.p.p.a.i.d.i.d.i.a.i.a.i.d.i.d.i.a.i.a.i.d.i.d.i.a.i.p.a.p.a.a.a.p.p.p.p.a.d.a.a.p.p.p.d.p.d.p.d.p.d.i.i.a.a.p.a.s.s.)._._.I.I.I.I.I.",
"G.U._.P._.).a.2.D y y y i i i y y y y y y y a a a a a a a a J L L E E E E E Q Q Q Q ~ ~ ! ^ ! ! 2.2.2.2.2.8.3.2.7.7.7.7.7.8.7.8.8.8.7.7.9.9.9.9.M.M.E.E.~.E.E.E.E.E.E.E.E.E.E.E.^.^.~.^.^.~.^.^.W.!.^.!.^.!.!.!.W.!.!.!.!.!.^.!.!.!.!.!.!.!.!.!.}.!.}.}.}.}.}.}.!.!.!.!.!.!.!.!.G.G.G.G.G.G.G.G.'.'.'.'.!.!.!.!.!.!.!.!.}.}.}.}.}.}.'.G.P._._.P.P.P.P.P.P.I.I.I.P.P.P.P._.}.}.}.W.W.W.W.J.J.J.J._._._._._._._.W.}.}.}.}.}.}.}.}.}.'.}.}.}.}.}.}.}.'.}.'.}.'.}.}.}.!.!.!.!.!.!.!.!.!.!.!.!.!.!.!.!.!.^.!.}.}.^.!.!.!.!.!.!.!.^.!.!.!.!.!.!.!.!.!.!.!.!.!.!.!.!.!.}.}.}.}.}.}.}.}.^.^.^.^.^.^.^.^.^.^.^.^.^.^.^.^.^.^.^.^.^.^.^.!.!.!.!.!.!.!.!.!.!.!.!.!.!.!.!.^.^.^.^.W.^.W.W.!.H.Q.Q.J.'.].).h.)._.I._.).).)._._._._.W.W.z.s.s.G.G.s.s.G.G.G.G.G.G.G.G.G.G.G.G.W.W.W.W.G.G.G.G.G.G.G.G.G.G.G.G.G.G.G.G.G.G.G.G.G.G.G.G.G.G.G.G.G.G.G.G.G.G.G.G.G.G.G.G.G.G.G.G.G.G.G.G.G.G.J.G.G.G.G.G.G.G.G.G.J.G.G.G.G.G.G.G.G.G.G.G.G.G.G.G.J.J.G.G.G.G.G.G.G.J.G.G.G.G.G.G.J.G.G.G.G.G.G.G.G.G.G.G.G.G.G.G.W.W.W.W.W.W.W.W.G.G.G.G.G.G.G.G.G.G.W.W.W._._._._._._._.I.I.I.I.",
"G.P.P.P._._.W.E.l.V.V.V.V.V.l.l.^.E.E.E.W.^.W.W.W.W.^.^.^.^.^.^.}.}.}.}.}.}.}.}.}.|.|.}.}.}.|.|.}.!.}.!.}.}.}.}.}.}.}.}.}.}.}.}.!.!.}.}.}.}.|.}.W.J.W.!.!.!.!.!.}.}._._._._._._._._._._._._._._._.P._.P._.P._.P.P.P.P.P.P.P._.P.G.G.G.G.D.D.D.D.G.G.G.G.G.D.D.D.P.P.P.P.P.P.P.P.U.U.U.U.U.U.U.U.P.P.P.P.G.J.J.J.G.G.P.P.P.I.I.P.G.P.P.s.h.).].].P.P.P.P.P.I.I.I.L.K.L.f.f.P.P._._._._.P.P.P.P.P._._.`.`.`.`.`._.h.h.h.h.h.h.h.h.P.P.I.P.I.P.I.P.I.P.I.P.I.P.I.P.P.P.P.P.P.P.P.P.P.P.P.P.P.P.P.P.P.P.P.P._.P._.P.P.P._.P._.P._.P.P.P.P.P.P.P.P.P.P.P.P.P.P.P.P.P.P._._._._._._._._._._._._._._._._._._._._._._._._._._._._._._.P.I.I.P.I.I.I.I.I.P.P.P.P.P.P.P.P._.^._._._._._._.W.'.'.J.I.I.I.k.)._.I._._.).)._._._.)._._._._._.}._.P._._.'._._._._._._._._._._._._._._._._._._.}.}.}.}.}.}.}.}.).U.U.).).).).)._.).}.'._._._.}._._._.P.W.W.W.W.'.'.'.'.'.'.'.'.'.).'.).).}.}.}._._._._._._._.W.'._._._.'.'.'._._._._._.W.W.W._._._._._._._._._._._._._._._._._.'._._._.'.'.'.'._._._._.W.W.W.W._._._._._._._._._._._._.W.W.W.W._._._._.).).).)._._._._.I.I.I.I.",
"U.G.P._._._._.|._.W.W.^.^.^.^._._._._._._.).{.{._._._._._._._._._._._._._._.).).I.I.I.I.I.I.I.I.P.J.G.J.G.G.G.G.G.G.G.G.G.G.G.G.'._.P.P.P.J.G.G.P.P.P.P.P.P.P.P.P.P._.I.I.P.P.P._.P._.P._.P._.P.P.P.P.P.P.P.P.P.P.P.P.P.P.P.P.P.U.P.P.P.P.P.P.P.P.P.P.P.P.P.P.P.P.P.P.P.P.P.P.P.P.P.P.P.P.P.P.P.P.P.P.P.P.P.P.P.P.P.P.I.I.I.I.I.P.].].I.h.I.I.P.P.P.P.P.P.P.I.P.L.I.I.I.I.I.P._.I.I.I.I.I.I.I.I.`.`.`.`.`.`.`.`.`.`.`.)._.).I.I.I.I.I.I.I.I.I.I.I.I.I.).).).).I.P.P.P.P.P.P.P.P.I.P.I.P.P.P.P.P.P.P.P.P.P.P.P.P.P.P.P.P.P.P.P.P.P.P.P.P.P.P.P.P.P.I.I.I.I.I.I.I._._._._._._._._._._._._._._._._.`.`.`.`.`.`.`.`.`.`.`.`.`.`.`.I.I.I.I.I.I.I.I.I.I.I.I.I.I.I.I.I.I._._._._._.I.P.P.P.P.h.I.I.&XI.)._.I._._.).).)._._._._.).).).)._.P.G.G.P.P.P.P._.P._.P._.P._._.)._._._._._._._._._._._._._._.P.P.P.P.P.P.P.P.P.P.P.P.P.P.P.P.P._.P.P.P._.P._.P.P.P.P.P.J.P.J.P.P.P.P.P.P.P.P._._._._._._._._.W._.P.P.P.U.U.U.U.P.P.P.P.J.J.J.P.P.P._.P._.P._.P._.P._.P._.P._.P._.P._.P._.P._.P.P.P.P.P.P.P.P.P.P.P._.P._.P._.P._._._.P._.P._._._._._._._._._._.I.I.I.I.I.I.I.I.",
"I.I.I.`.`.`.`._._._._._._._._._.I.P.I.I.I.I.I.I.I.I.I.I.I.I.I.I.I.I.I.I.I.I.I.I.h.h.I.P.I.L.I.I.P.P.P.P.P.P.P.P._.P._.P._.P._._.I.I.I.I.P.P.P.P.P.P.P.I.I.I.I.I.I.I.I.I.P.P.P.P.P.P.P.P.I.I.I.I.P.P.P.P.P.P.P.P.P.P.P.P.P.P.P.P.P.P.I.P.P.P.P.P.P.P.P.P.P.P.P.P.P.P.I.P.I.P.I.P.I.P.I.P.I.P.I.P.P.P.P.P.P.P.P.P.P.P.P.P.P.P.P.P.P.P._.P._.P._.P._.P._.P._.P._.P.P.P.I.P.P.I.I.I._._.P.P.P.P.P.I.I.I.P.P.P.P.P.P._._._._._._._._.I.I.I.I.I.I.I.I.I.I.I.I.I.I.I.P.P.P.P.P.P.P.P.P.I.I.I.I.P.P.P.P.P.P._.P._.P._.P._.I.I.I.).).`.I.P.G.P.K.K.K.L.I.L.L.L.I.I.I.I.I.).).).).).).).).I.I.I.I.I.I.I.I.I.I.I.I.I.I.I.I.I.I.I.I.I.I.I.I.I.I.I.I.I.I.I.I.I.I.I.I.I.I.I.I.I.I.I.I.I.I.I.P.P.P.P.P.I.I.I.I.I._._._._._._._._._._._._._._._.P.P.P.P.P.P.P.P.I.P.P.P.P.I.I.P.P.P.P.P.P.P.P.P.P.P.P.P.P.P.P.P.P.P.P.P.P.P.P.P.P.P.P.P.P.P.P.P.P.P.P.P.P.P.P.P.P.P.P.P.P.P.P.I.I.I.I.P.P.G.G.P.P.I._._._._.W.W.P.I.P.P.P.P.P.P.I.I.I.I.P.P.P.P.P.P.P.P.P.P.P.P.P.P.P.P.P.P.P.P.I.I.I.I.I.I.I.I.I.I.I.I.I.I.I.P.P.P._.P._.I._.I.`.I.`.I.`.I.I.I.I.I.I.I.I.I.I.I.I.I.I.I.I.I.I.I.",
"`.`.`.`._._._._.).).).`.).).).).I.P.P.P.P.P.P.P.I.P.P.P.I.Y.Y.I.P.P.P.P.P.P.P.P.P.P.P.P.P.P.P.P.I.I.P.I.I.I.I.P.P.P.P.P.P.P.P.h.h.j.h.h.I.P.P.P.)._.).).).`.`.`.I.I.I.I.P.P.P.P.P.P.P.P.I.I.I.I.P.P.P.P.P.P.P.P.P.P.P.P.P.P.P.P._._._.`._._._._._._._._._._._.P.P.P.P.P.I.I.I.I.I.I.I.I.I.I.I.I.P.P.P.P.P.P.P.P.P.P.P.P.P.P.P.P._._._._._._._._._._._._._._._.P.P.P.I.I.I.I.P.I.P.P.P.P.P.P.P.P._._._._._._._._.P.P.G.G.G.G.G.G.P.P.P.P.P.P.P.P.I.P.P.P.P.P.P.P.'.'.)._._._.).).`.`.`._._._._._.I.P.P.P.P.I.I.I._.I.I.I._.`.I.P.P.G.P.P.P.P.P.I.I.Y.I.I.I.I.I.I.h.P.P.P.P.K.P.P.).).).I.).I.).P._.P._.P._.P._.P._.P._.P._.P._.I.).I.`.I.`.I.).I.I.I.I.I.I.I.I.I.I.I.P.P.P.P.P.P.P.P.P.P.P.P.P.P._._._._._._._._._._._._._._._._.P.P.P.P.P.P.I.I.P.P.P.P.P.P.P.P._.P.P.P.P.P.P.P.P.P.P.P.P.P.P.P.P.P.P.P.I.P.P.P.I.P.P.P.P.P.P.P.P.P.P.P.P.P.P.P.P.P.P.P.P.P.P.I.L.I.P.P.P.P.U._.I.I.`.`._._.W.W.P.P.P.P.P.P.P.P.P.P.P.P.P.P.P.P.P.I.I.I.P.P.P.P.P.P.I.I.P.P.P.I.I.I.I.I.I.I.I.I.I.I.I.I.I.I.I.P.I.P._.P._.I.`.I.`.I.`.I.`.I.`.I.I.I.I.I.I.I.I.I.I.I.I.I.I.I.I.I.",
"_._._._._._._._._._._._._._._.P.P.P.P.P.P.P.P.P.P.P.P.P.P.P.P.P.P.P.P.P.P.P.P.P.P.P.P.P.P.P.P.P._._._._._._._._._._._._._._._._.).).{.).).).}.)._._._._._.I.`.`.I.I.I.I.P.P.P.P.P.P.P.P.I.I.I.I.P.P.P.P.P.P.P.P.P.P.P.P.P.P.P.P._._.`.`._._._._._._._._._._._.P.P.P.P.P.I.I.I.I.I.I.I.I.I.I.I.I.P.P.P.P.P.P.P.P.P.P.P.P.P.P.P.P._._._._._._._._._._._._._._._.P.P.P.P.P.P.P.P.P.P.P.P.P.P.P.P.P.I.I.P.P.I.P.P.P.}.}.}.}.}.}.}.).P.P.P.P.P.P.P.P.P.P.P.P.P.P.P.P._._._._._._.).)._._._._._._._._._._._._._._._._._._.P.I._.)._.P.P.G.P.P.U.P.P.P.P.P.P.P.I.I.P.P._._._._._.P._.P._.P.P.P.P.P.P.P.P.P.P.P.P.P.P.P.P.P.P.P.P.P.P.P.P.P.P.P.I.I.I.I.P.P.P.P.P.P.P.P.P.P.P.P.P.P.P.P.P.P.P.P.P.P.P.P.P._._._._._._._._._._._._._._.P.P.P.P.P.P.P.P.P._.P._.P._.P._.P._.P._.P._.P._.P._.P._.P._.P._.P.P.P.P.P.P.P.J.J.P.P.G.J.G.J.G.J.P.P.P.P.P.P.P.P.P.P.P.P.P.P.P.P.I.I.P.P.U.'.U._._.`.`.`._._._._.P.P.P.P.P.P.P.P.P.P.P.P.P.P.P.P.P.P.P.P.P.P.P.P.P.P.P.P.P.P.P.P._.I.P.P.P.P.P.P.P.I.I.I._.P._._.P.P._.P._.P._.P._._._._._._._._._.I.I.I.I.I.I.I.h.I.I.I.P.I.I.I.",
"_._._._._._._._._._._._._._._._._.'._._._._._._.P.J.J.J.P.J.P.J._._.P.W.P.W._._.P.J.J.J.J.J._.W.G.W.G.G.G.G.G.G._.W._.W._.W.W._._._._._.W.W.W.W.W.W.W._._._._._.P.I.I.I.P.P.P.P.P.P.P.P.I.I.I.I.P.P.P.P.P.P.P.P.P.P.P.P.P.P.P.P._._._._._._._._._._._._._._._._.P.P.P.P.I.I.I.I.I.I.I.I.I.I.I.I.P.P.P.P.P.P.P.P.P.P.P.P.P.P.P.P._._._._._._._._._._._._._._._._.P.P.P.P.P.P.P.P.P.P.P.P.P.P.P.P.I.P.P.P.P.P.P.P.P.P.P.P.P.P.P.P.P.P.P.P.P.P.P.P.P.P.P.P.P.P.P.P._._._._._._._._.)._._._._._._._._._._._._._._._._._.P.P._._._._.P.P.P.G.P.P.G.G.P.P.P.P._._._._._.W._.W._.W._.W._.W.W.W._.W._.W._._._._._.W._.W.W.W._.W._.W._.W.W.W.W.W._._._._.W._.W.W.W.W.W.W._._._._._._._._._._._._._._._._._._._._._._._._._._._._._._._._._._._._._._._._._.}._.}._._._.}.W.W.W.W.W.!.!.!.W.W.W.W.W.W.W.W.W.W.W.W.W.W.W.W.!.'.!.!.!.!.!.!._._._._._._._._._._._._._._._._.)._._.!.!.!.!.G._._._._._._._._._.J.G.G.G._._._.P.P._.W._.W._._._._._._._._._._._._._._._._._._._._._._._._._._._._._._._._.)._._.!.W.!.W.!._._._._._._.).).).).).)._._._._._._.).)._._._._.)._.",
"!.!.!.!.!.!.!.!.}.}.}.}.^.^.^.^.!.}.}.!.}.}.}.}.}.!.}.!.}.!.}.!.}.}.}.}.}.}.}.}.}.}.}.}.}.}.}.}.!.!.!.!.!.!.!.!.!.!.!.!.!.!.!.!.W._._.W.!.!.!.^.^.!.^.}.}.}.}.}._.P.P.P.P.P.P.P.P.P.P.P.P.P.P.P.P.P.P.P.P.P.P.P.P.P.P.P.P.P.P.P._._.`.`._._._._._._._._._._._._.P.P.P.P.P.P.P.P.P.P.P.P.P.P.P.P.I.I.I.I.I.I.I.I.I.I.I.I.I.I.I.P._._._._._._._._._._._._._._._._.P.P.P.P.P.P.P.P.P.P.P.P.I.P.P.P._._._._._._.P.P._._._._._._._._.P.P.P.U.P.P.P.P.P.P.P.U.P.P.P.U.W.J.P._.P.I.I.I.I.P.P.P.P.J.J.J.G.G.G.G.G.G.G.G.P.G.G.G.P._._._.).P.P.P.J._._.J.'.'.}.}.}.}.}.}.!.!.!.!.!.!.!.!.!.!.!.!.}.!.}.!.}.}.}.!.}.!.}.}.!.!.!.!.!.!.!.!.!.!.!.!.!.!.!.!.!.!.!.!.!.!.!.!.W.W.W.W.W.W.W.W.W.W.W.W.W.W.W.W.W.^.W.^.^.^.^.W.^.^.^.^.W.^.W.^.W.W.W.W.W.W.W.W.W.W.W.W.W.W.W.W.E.E.E.E.E.E.E.E.E.E.E.E.E.E.E.E.H.H.H.H.H.H.H.H.E.E.E.E.E.E.E.W.W.W.W.W.W.W.W.W.W.W.W.W.W.W.W.^._.W.W.^.^.^.!.!._._.`.`.I.P.P._.|.!.W.F.G.W.W.G.G.H.G.H.G.G.G.G.W.W.W.W.W.W.W.W.W.W.W.W.W.W.W.W.W.W.W.W.W.W.W.W.W.W.W.W.W.W.W.W.W.W.^.W.^.W.^.W.^.W.W.W.W.!.W.}.W.W.W.W.W.W.W.W.}.}.}.}.}.}.}.}.",
"9.9.9.9.9.9.9.9.9.9.9.9.9.9.9.9.9.9.9.9.9.9.9.9.9.9.9.9.9.9.9.9.9.9.9.9.9.9.9.9.9.9.9.9.9.9.9.9.E.E.E.E.E.E.E.E.E.E.E.E.E.E.E.E.^.W.^.W.~.E.~.E.~.E.~.E.~.E.~.W._.P.P.P.P.P.P.P.P.P.P.P.P.P.P.P.P.P.P.P.P.P.P.P.P.P.P.P.P.I.P.P._._.`.`._._._._._._._._._._._._.P.P.P.P.P.P.P.P.P.P.P.P.P.P.P.P.I.I.I.I.I.I.I.I.I.I.I.I.I.I.I.I._._._._._._._._._._._._._._._._.P.P.P.P.P.P.P.P.P.P.P.P.P.P.P.P._.I._.P.P.P.G.G._._._._._._._._.G.G.G.G.G.G.G.G.p.p.p.p.p.D.p.D.p.p.p.s.p.p.u.p.s.s.s.s.s.p.p.F.i.i.p.i.p.p.p.p.p.p.p.u.s.G.P.P._.P.P.P._.}.}.!.W.E.E.E.F.F.F.F.E.E.E.E.E.E.E.E.9.9.9.9.9.9.9.9.9.9.9.9.9.9.9.9.7.7.7.7.7.7.7.7.7.9.8.8.8.8.9.9.9.9.8.8.8.8.9.7.8.8.7.8.7.8.7.8.7.8.7.8.7.8.7.8.7.8.7.8.7.8.7.8.7.8.7.8.7.8.7.8.3.2.3.2.3.2.3.2.3.8.3.8.2.8.2.8.2.2.2.2.2.2.2.2.2.2.2.2.2.2.2.2.2.2.2.2.2.2.2.2.2.2.2.2.2.2.2.2.8.8.7.8.7.8.7.8.7.8.7.8.7.8.7.7.7.7.7.9.9.M.E.!._._._.`.I.P.P.W.!.E.9.8.7.8.3.2.3.2.3.2.3.3.3.3.3.2.3.2.2.2.2.2.3.2.3.2.3.2.3.3.7.7.7.7.7.7.7.7.2.2.2.7.7.7.7.8.8.8.8.8.8.8.8.8.8.8.8.7.7.7.7.7.8.8.8.8.7.7.8.8.7.7.7.7.7.7.9.9.",
"-.-.-.-.-.-.-.-.P P P P P P P P P G P G P G P G P G P G P G P G G G P G P G P G ! ! W W W W W W G J G J G J G J P ! P ! P ! P P -.! -.! -.! -.! 4.4.2.4.2.2.2.3._.P.P.P.P.P.I.I.I.I.P.P.P.P.P.P.P.P.P.P.P.P.P.P.P.P.P.P.I.I.I.I.`.`.`.`._._._._._._._._._._._._.P.P.P.P.P.P.P.P.P.P.P.P.P.P.P.P.I.I.I.I.I.I.I.I.I.I.I.I.I.I.I.I._._._._._._._._._._._._._._._._.P.P.P.P.P.G.G.G.P.P.P.P.G.G.G.p.h.h.s.s.s.s.s.p.y.y.y.y.y.y.y.y.u.u.y.y.p.p.p.i. . . .y.y.y.y.y.y.5.y.y.y.y.y.y.y.y.y.y.y.y.i.i.y.y.y.y.y.y.y.y.p.y.y.y.s.G.P._.P.P.P._.}.}.W.F.7.8.8.2.2.! ! ! P Q P ! P ! P ! P P P P P P P P P P P P P P P P P P G G G G G G P P P P P P P P P P P P L P P P P P P P P P P P P P P P P P P P P P P P P P P P P P P P P P P P P G G G G G G G P P P P P P P P L L P L P P P P P P P L P L P P P P P P P P P G G G G G G G G G P P P P P P P P P P P P P P P P P #.-.@.P -.9.E._._._.`.I.P.P.W.F.8.! G P G P G G G G G P G P G G G G G G P G G G G G G G G G G P P P P P P P P G P P P P P P ! P E L E L G P G P G P ! ! ! -.-.P P P P Q Q Q Q G L G G G G G G ",
"=.=.=.=.=.=.=.=.=.=.=.-.=.-.=.-.-.Q -.Q -.Q -.Q Q Q Q Q Q Q Q Q Q Q Q Q Q Q Q Q Q Q Q Q Q Q Q Q -.-.-.-.-.-.-.-.-.Q -.Q -.Q -.Q Q ! Q Q Q Q Q Q P P P P P G P P W.P.P.P.P.P.I.I.I.I.P.P.P.P.P.P.P.P.P.P.P.P.P.P.P.P.P.P.I.I.I.I.`.`.`.`._._._._._._._._._._._._.P.P.P.P.P.P.P.P.P.P.P.P.P.P.P.P.I.I.I.I.I.I.I.I.I.I.I.I.I.I.I.I._._._._._._._._._._._._._._._._.P.P.P.P.G.p.p.p.P.P.P.G.s.p.p.p.P.P.P.s.s.s.s.s.G.G.G.G.G.G.G.G.p.p.p.p.D.S.S.S.i.i.p.p.y.y.y.p.p.i.p.p.u.u.u.u.y.y.y.y.y.5.5.5.i.i.i.i.i.i.d.d.p.y.y.p.s.P.).}.P.I.P._.W.E.7.-.P ! ! Q Q Q Q Q Q Q -.Q -.Q -.Q -.Q -.Q -.Q -.Q -.Q -.Q -.Q -.Q -.-.-.Q -.Q -.Q -.-.=.=.=.Q -.-.-.-.-.-.=.=.=.-.-.-.-.-.-.-.-.-.-.Q -.Q -.Q -.-.-.-.=.-.@.-.-.-.@.-.-.-.-.-.=.-.-.-.-.-.-.-.-.-.-.-.-.-.-.-.-.-.=.=.-.-.-.-.-.-.-.-.=.=.=.=.-.-.-.-.-.-.-.-.-.Q -.=.-.=.-.=.-.=.-.Q -.Q -.Q -.Q -.Q -.Q -.Q -.-.@.-.,.@.a L 8.E.W._._.`.I.P.P.W.n.:.L L L Q -.Q -.Q -.Q Q Q Q Q -.-.-.-.-.-.-.-.-.-.-.-.-.-.-.-.-.Q -.Q -.Q -.Q -.Q =.Q -.-.-.-.Q Q Q Q Q Q Q Q Q Q -.-.-.-.-.,.Q Q =.Q =.Q =.Q >.=.>.=.>.=.>.=.",
"m m =.=.=.=.=.=.=.=.=.=.=.=.=.=.=.Q =.Q =.Q =.Q =.Q =.Q =.Q =.Q =.Q =.Q =.Q =.Q =.Q =.Q =.Q =.=.=.=.=.=.=.=.=.=.=.=.=.=.=.=.=.=.,.=.-.Q -.-.-.Q L -.-.L =.=.>.G 5.).].P._._.I.).I.`._._._._.}.)._._._._._._._._._._._._._._._._._._._._._._._._.P.].P.s._.}.P.P.I.P.P._._._._.P.P.P._._._._._.)._.I.I.I.I.).).)._._._._._._._._._._._._._._._._._._._._._._._._.P._._.G.u.y.s.P.P._.).s.y.G.}.P._._._._._._._._._.P.G.G.G.P._._._._._._.'.'.W.G.F.G.'._._._._.P._.W._._.P._._._.G.G.G.W.!.J.F.S._ 5.i.i.i.i.i.5.p.d.y.y.G.J.P.P.].P.P.}.W.5.P P #.-.-.Q Q Q Q Q =.=.=.=.=.=.=.=.=.=.=.=.=.=.=.=.=.=.=.=.=.=.=.=.=.=.=.=.=.=.=.=.=.=.=.=.=.=.=.=.=.=.=.=.=.=.b b =.=.=.=.=.=.=.=.=.=.=.=.=.=.=.=.=.=.=.=.=.=.=.=.=.=.=.=.=.=.=.=.=.=.=.=.=.=.=.=.=.=.=.=.=.=.=.=.=.=.=.=.=.=.=.=.=.=.=.=.=.=.=.=.=.=.=.=.=.=.=.=.=.=.=.=.=.=.=.=.=.=.=.=.=.=.=.=.>.>.-.Q =.,.>.L @.=.@.@.=.L :.^.W.).`.`.`.I.I.J.:.=.-.Q =.Q Q Q =.Q =.Q =.Q =.=.=.=.=.=.=.=.=.=.=.=.=.=.=.=.=.=.=.=.=.=.=.=.=.=.=.=.=.=.=.=.=.=.=.h >.h B.=.=.Q ,.a ,.L a B.B.a =.=.=.=.=.=.=.=.=.=.=.=.=.=.=.=.",
"b b m b b b b b b b b b b b b b =.=.=.=.=.=.=.=.=.Q =.=.=.=.=.=.=.=.=.=.=.=.=.=.Q Q =.=.=.=.=.=.=.=.=.=.=.=.=.=.=.=.=.=.=.=.=.=.h h =.-.>.>.-.-.L -.-.Q =.=.-.L 7.'.}.P._._.I.).I._._._._._._._._._._._._._._._._._._._._._._._._._._._._._._._.P._.G.u.P.).P.P.I.P.P._._._._.P._._._._._._._._._._.I.I.I._._._._._._._._._._._.P._._._._._._._._._._._._._._._.P._._.G.u.y.s.P.P._.).s.y.G.}.G._._._._._._._._.P.G.s.s.G.G._._._._._._._.J.F.i.F.G.'._._._._.P._._._._.P._._._.P.P.G.W.!.G.F.S.5.F.G.G.G.!.!.G.p.d.y.d.G.J.P.P.P.P.P.}.W.7.P @.-.-.=.Q Q Q Q Q =.=.=.=.=.=.=.=.=.=.=.=.=.=.=.=.=.=.=.=.=.=.=.=.=.=.=.=.=.=.=.=.b b b b b b b b b b b b b b b b b =.=.=.=.=.=.=.=.=.=.=.=.=.=.=.=.=.=.=.=.=.=.=.=.=.=.=.=.=.=.=.=.=.=.=.=.=.=.=.=.=.=.=.=.=.=.=.m m =.=.m m =.=.=.=.=.=.=.m =.=.=.=.b b =.=.=.=.=.b =.=.=.=.=.=.=.=.=.=.=.=.=.=.=.=.=.b =.>.>.@.=.,.>.>.>.L -.~.W.).`.I.`.I.I.J.:.>.=.=.=.=.=.h =.Q =.=.=.=.=.=.=.=.=.=.=.=.=.=.=.=.=.=.=.=.=.=.=.b =.=.=.=.=.=.=.=.=.=.=.=.=.=.b b >.h B.=.=.h ;.a ,.L a B.B.a =.b b b b b b b b b b b b b b b ",
"m m m m m m m m m m m m m m m b =.=.=.b =.=.=.=.Q Q =.=.=.=.=.=.=.=.=.=.=.=.=.=.Q Q =.=.=.=.=.=.=.m m m =.=.=.=.=.=.=.=.=.=.=.=.a a =.>.=.-.-.L L -.,.-.b b h a 3.'.}.P._._.I.`.I._._._.P.G.G.J._._._._._._._._._._._._._._._._.I._._._._._._._.P._.s.y.P._.P._._._.P._._._._._._._._._._._._._._._._._.I.P.h.P._._._._._._._._.P.P._._._._._._._._._._._._._._.P._._.G.p.y.s.G.J.P._.G.y.s.}.P._._._._._._._._.s.s.p.p.s.G.P._._._._._.J.G.i.5.F.G.'._._._._.P._._._._._._._._.P.P.P.W.W.G.F.9.i.G.J.J.!.'.'.!.s.d.y.d.s.G.P.P.P.K.P.'.G.3.P @.=.=.=.=.h h Q =.=.=.=.=.=.=.=.=.=.=.=.=.=.=.=.=.=.=.=.=.=.=.=.=.=.m m m =.=.=.=.m m m m b b b b b b b b m m m m m m m m =.=.=.=.=.=.=.=.=.=.=.=.m m >.=.>.>.=.=.=.m m m =.=.=.=.=.=.=.=.=.=.=.=.=.=.=.=.=.=.=.=.=.m m m m m m m m m m m m m m m b b b b b b b b b b b b b b b b =.m m m =.=.=.=.x b b m >.<.>.x =.=.=.=.>.L -.E.W.).`.I.`.I.I.J.:.=.=.=.=.=.=.h Q Q =.=.=.=.=.=.b m =.m =.=.=.=.=.=.=.=.=.=.=.=.m b m b =.b =.b =.b =.b =.b =.=.=.h >.h B.=.=.=.>.a >.Q -.A.8.a b b b b b b b b b b b b b b b b ",
"m m =.=.=.=.=.=.=.=.=.=.=.=.=.=.=.=.=.=.=.=.=.=.=.=.=.=.=.=.=.=.=.=.=.=.=.=.=.=.=.=.=.=.=.b =.=.b m m m =.=.=.=.=.=.=.=.=.=.=.=.b =.=.=.=.Q L L L -.,.=.b h h Q 3.!.}.P._._.I.`.I.I._._.G.s.F.G._._._._._._._._._._._._._._._._.I.I._._._._._._.P._.u.y.s._.P._._._._._._._._.P.P.P.G.P._._._._._._._._.P.G.s.s._._._._._._._._.s.P._._._._._._._._._._._._._._.P._._.G.p.y.s.G._.P._.G.y.s.}.P._._._._._._._._.s.u.y.p.s.G._._.I._._._._.G.y._ F.G.'._._._.).I._._._._._._._._._._._._.W.G.i.5.i.G.J.J.G.J.J.G.s.d.y.d.s.G.P.P.P.K.P.'.F.2.P L =.@.b =.=.Q Q -.=.=.=.=.=.=.=.=.=.=.=.=.=.=.=.=.=.=.=.=.=.=.=.=.=.=.m m =.=.=.=.=.m m m =.=.=.=.=.=.=.=.=.=.m m =.m m m =.=.=.=.=.=.=.=.=.=.=.=.=.=.>.>.>.>.=.=.m m m m =.=.=.=.=.=.=.=.=.=.=.=.=.=.=.=.=.=.=.=.=.m m m m m m m m m m m m m m m b b b b b b b b b b b b b b b b =.=.m m =.=.=.=.x b m =.>.>.b x a @.a a =.L -.E.W.).).`.`.I.I.J.:.=.=.=.=.=.=.=.=.=.=.=.=.=.=.=.b m m m =.=.=.=.=.=.=.=.=.=.=.=.b b b b b b b b b b b b b b b b =.h >.=.B.=.Q =.>.L ,.L ,.Z.1.a =.b b b b b b b b b b b b b b b ",
"=.=.=.=.=.=.=.=.=.=.=.=.=.=.=.=.=.=.=.=.=.=.=.=.=.=.=.=.=.=.=.=.=.=.=.=.=.=.=.=.=.=.=.=.=.=.=.=.=.=.=.=.=.=.=.=.=.=.=.=.=.=.=.=.=.=.=.Q Q Q -.:.Q Q =.-.=.h Q Q ) W.}.W._.)._.`.`._._._.G.p.a.G._._._._._._._._._._._._._._._._._._._._._._._._.P._.u.} s._.P.)._._._._.).)._._.p.p.p.s._._.)._._._.)._.G.s.p.p._._._._._._._._.s.s.P._._._._._._._._._._._._._._._._.G.p.d.s.W._.W._.G.p.s._._._._._._._._._._.s.u.y.y.s._.'._._._._.)._.G.p.3.p.W.}._._.`.`._._._._._._._.`._._._._._.W.G.i.5.i.G.!.W.J._._.G.s.p.y.p.s.P._.P.P.K.P.U.F.) P =.=.b b >.>.Q Q -.=.=.=.=.=.=.=.=.=.=.=.=.=.=.=.=.=.=.=.=.=.=.=.=.=.=.=.=.=.=.=.=.=.=.=.b =.=.=.=.=.=.=.=.=.=.=.b =.=.=.=.=.=.=.=.=.=.=.=.=.=.=.=.=.=.=.=.=.=.=.=.=.=.=.=.=.=.=.=.=.=.=.=.=.=.=.=.=.=.=.=.=.=.=.=.=.=.m m m m >.>.>.>.m m m m >.=.=.=.=.=.=.=.=.=.=.=.=.=.=.=.=.=.=.=.=.=.=.=.=.=.=.=.=.=.=.b a L -.-.L L -.L ! F.W._.).`.I.I.I.J.-.=.Q Q =.=.=.=.=.=.=.=.=.=.=.=.=.=.=.=.=.=.=.=.=.=.=.=.=.=.=.=.b b b b b b b b b b b b b b b >.=.a =.=.C.~ Q -.=.L =.Q 8.Z.:.L =.b =.b =.b =.b =.b =.b =.b =.b ",
"=.=.=.=.=.=.=.=.=.=.=.=.=.=.=.=.=.=.=.=.=.=.=.=.=.=.=.=.=.=.=.=.=.=.=.=.=.=.=.=.=.=.=.=.=.=.=.=.=.=.=.=.=.=.=.=.=.=.=.=.=.=.=.=.h h Q L Q -.m.Z.:.=.Q Q =.=.=.=.) W.}.W._.{._.`.`._._.).G.d.i.J._._._._._._._._._._._._._._._._.`._._._._._._._.P._.p.y.s._.P._._._._._.).)._.W.u.y.u.p.G._.)._._._._.W.s.p.p.p._._._._._._._._.u.s.P._._._._._._._._._._._._._._._._.G.p.d.s.W._.G._.W.p.s._._._._._._._._._._.G.u.y.y.s._.)._._.`.`._._.W.p.d.p.W._._._.`.`.c.`._._.`.`.`.`.`.)._._._._.G.p.5.3.p.J.J.W.'.'._.s.p.y.p.s.P._.P.P.K.P.U.F.! L -.=.x =.,.1.-.L Q =.=.=.=.=.=.=.=.=.=.=.=.=.=.=.=.=.=.=.=.=.=.=.=.=.=.=.=.=.=.=.=.=.=.=.=.=.=.=.=.-.=.-.=.=.=.=.=.=.=.=.=.=.=.=.=.=.=.=.=.=.=.=.=.=.=.=.=.=.=.=.=.=.=.=.=.=.=.=.=.=.=.=.=.=.=.=.=.=.=.=.=.=.=.=.=.=.>.m >.m m >.>.>.>.m >.m m >.=.=.=.=.=.=.=.=.=.=.=.=.=.=.=.=.=.=.=.=.=.=.=.=.=.=.=.=.>.=.a a -.V.8.,.Q =.L W F.W._.).`.I.I.I.J.! =.h Q =.=.=.=.=.=.=.=.=.=.=.=.=.=.=.=.=.=.=.=.=.=.=.=.=.=.=.=.=.b b b b b b b b b b b b b >.=.=.a =.=.Z.Q L -.-.P -.! V./.-.L =.=.=.=.=.=.=.=.=.=.=.=.=.=.=.=.",
"$.=.=.=.=.=.=.=.=.=.=.=.=.=.=.-.=.=.=.=.=.=.=.Q =.=.=.=.=.=.=.=.Q =.=.=.=.=.=.=.=.=.=.=.-.=.=.=.=.=.=.=.=.=.=.=.=.=.=.=.=.=.=.=.h h h Q Q :.V. Xm.:.E Q =.Q Q Q ) G.}.W._.{._.`.`._._.].G.5.i.W._._._._._._._._._._._._._._._._.`.`.`._._._._._._._.s.y.G._.P._.)._._._._._._.W.p.u.y.p.G._._._._._.}.G.p.d.p.p.W.W.W.W._._._._.p.s.P._._._._._._._._._._._._._._._._.G.p.d.s.W._.G._.W.p.p._._._._._._._._._._.G.u.} y.s._.)._.`.`.`._._.G.p.d.p.W.}._._.`.`.c._.`.`.`.`.I.I.`._.I._._._.G.F.i._ p.G.G.G._._.J.s.p.y.p.s.P._.P.L.K.U.J.F.! P -.=.x >.v.m.=.L Q -.=.=.=.=.=.=.=.=.=.=.=.=.=.=.=.=.=.=.=.=.=.=.=.=.=.=.=.=.=.=.=.=.-.@.-.@.-.-.=.-.=.-.-.-.-.-.-.=.=.=.=.=.=.=.=.=.=.=.=.=.=.=.=.=.=.=.=.=.=.=.=.=.=.=.=.=.=.=.=.=.=.=.=.=.=.=.=.=.=.=.=.=.=.=.=.=.>.>.>.>.>.>.>.>.>.>.>.m >.>.=.=.=.b b =.=.=.=.=.=.b b =.=.=.=.=.=.=.=.=.=.=.=.=.=.=.=.=.=.-.1./.E.:.~ ~ G P a.W._.`.`.I.I.I.W.! =.Q Q =.=.>.=.=.=.=.=.=.=.=.=.=.=.=.=.=.=.=.=.=.=.=.=.=.=.=.=.=.=.=.=.=.=.=.=.b b b =.=.>.>.=.=.a -.-.Q.! G ! ! ! -.P E./.P P -.=.=.=.=.=.=.=.=.=.=.=.=.=.=.=.",
"=.=.=.=.=.=.=.=.=.=.=.=.=.=.=.=.=.=.=.=.=.=.=.=.=.=.=.=.=.=.=.=.=.=.=.=.=.=.=.Q =.=.=.=.=.=.=.=.=.=.=.=.=.=.=.=.=.=.=.=.=.=.=.=.h Q =.=.^ 8.E..XQ.4.Q Q =.=.h L ! G.}.W._._.I.I.`.h._.].G.5.i.'._._._._._._._._._._._._._._._._._.`.`._._._._._._.}.s.y.G._.P.P._._._._._._._.G.p.p.d.p.G._._._._._._.G.a.5.d.p.W._._._._._._._.y.u.P._._._._._._._._._._._._._._._._.G.p.d.p.W._.G._._.p.p.W._._._._._._._._._.G.p._ y.s._._._.{.`._._.P.G.p.5.p.W._._._.`.`.c._._.`.`.`.I.`.`.I.I.P._._.G.F.i.d.G.J._._._._.P.s.p.y.p.s.P._.P.K.K.P.U.F.! L =.b x ,.B.V.-.L Q =.=.=.=.=.=.=.=.=.=.=.=.=.=.=.=.=.=.=.=.=.=.=.=.=.=.=.=.=.=.=.=.=.-.-.-.-.=.=.=.=.=.-.-.-.-.-.-.=.=.=.=.=.=.=.=.=.=.=.=.=.=.=.=.=.=.=.=.=.=.=.=.=.=.=.=.=.=.=.=.=.=.=.=.=.=.=.=.=.=.=.=.=.=.=.=.=.=.>.=.>.m >.=.>.=.>.=.m =.>.=.=.=.b b b =.=.=.=.=.b =.=.=.=.=.=.=.=.=.=.=.=.=.=.a x =.=.L ,.8.(.E.:.Q Q y W F.W._.`.I.I.P.P.W.Q =.Q Q =.-.-.-.Q =.=.=.=.=.=.=.=.=.=.=.=.=.=.=.=.=.=.=.=.=.=.=.=.=.=.=.=.b b =.b b =.=.=.=.=.=.=.a -.,./.! G -.Q ! ! ! /.(.P P -.=.=.=.=.=.=.=.=.=.=.=.=.=.=.=.",
"=.=.=.=.=.=.=.=.=.=.=.=.=.=.=.=.=.=.=.=.=.=.=.=.=.=.=.=.=.=.=.=.=.=.=.=.=.=.=.=.=.=.=.=.=.=.=.=.=.=.=.=.=.=.=.=.=.=.=.=.=.Q Q =.h ;.~ G 8.W.!.!.!.9.G y ;.=.a =.P H.!.J._._.P.P.I.I.P._.s.5.i.G._._._._._._._._._._._._._._._._._._._._._._._._._.P.G.p.p.G._.P.P.I.P.P.P.'.W.a.5.a.d.p._._.G._._._._._.G.i.5.i.P.P._._._._._._.y.u.s.P._._._.P._._._._._._._._._._._.G.p.5.i.G._._._.P.s.p.p._._._._._._._._._.s.p.y.y.s.G._._._._._._._.G.s.y.p.G._.P.P._.).I._._._._._._._._._._.P.P.P.G.p.5.' S.U.P.P.I.).P.P._.p.5.G._.G.P.K.I.K.U.S.G k k N =.@.9.OXP G Q =.=.=.=.=.=.=.=.=.=.=.=.=.=.=.=.=.=.=.=.=.=.=.=.=.=.=.=.=.=.=.=.=.=.=.=.=.=.=.=.=.=.=.=.=.=.=.=.=.=.=.=.=.=.=.=.=.=.=.=.=.=.=.=.=.=.=.=.=.=.=.=.=.=.=.=.=.=.=.=.=.=.=.=.=.=.=.=.=.=.=.=.=.=.=.=.=.=.>.=.=.=.=.=.>.=.>.=.=.=.=.=.=.=.=.=.=.=.=.=.=.=.=.=.=.=.=.=.b =.=.=.=.=.>.=.>.b =.=.Q L 2.^.G.!.7.G =.Q Q M.W._.I.I.I.]._.F.Q h Q ,.G ! V.P Q Q k b =.=.=.=.=.=.=.=.=.=.=.=.=.=.=.=.=.=.=.=.=.,.>.b x m m m p = B.-.>.Q Q Q =.L E Z.V.L -.Q Q Q G 8..XM.G -.-.=.=.=.=.=.=.=.=.=.=.=.=.=.=.=.",
"=.=.=.=.=.=.=.=.=.=.=.=.=.=.=.=.=.=.=.=.=.=.=.=.=.=.=.=.=.=.=.=.=.=.=.=.=.=.=.=.=.=.=.=.=.=.=.=.=.=.=.=.=.=.=.=.=.=.=.=.=.=.Q =.h ;.Q G 5.W._.'.!.9.E y =.=.b =.G H.!.G.U.U.P.P.P.P.P.P.s.5.i.G._._._._._._._._._._._._._._._._._._._._._._._._._.P.G.p.p.G._.P.P.I.P.P.P.'.W.a.5.F.d.p._._.P.P._._._._.G.9.5.i.P.I._.`._._._._.u.p.G.P._._._.P._._._._._._._._._._._.G.p.5.i.G._._.`.I.s.p.F.!._._._._._._._.W.F.i.y.y.p.J._._._._._._._.G.s.y.p.G._.P.P._._.P._._._._._._._._._._.P.J._.G.p.' ' S.U.P.I.I.).P.P.'.p.5.G._.P.P.K.I.K.U.i.G k j j b P a.OXI G Q =.=.=.=.=.=.=.=.=.=.=.=.=.=.=.=.=.=.=.=.=.=.=.=.=.=.=.=.=.=.=.=.=.=.=.=.=.=.=.=.=.=.=.=.=.=.=.=.=.=.=.=.=.=.=.=.=.=.=.=.=.=.=.=.=.=.=.=.=.=.=.=.=.=.=.=.=.=.=.=.=.=.=.=.=.=.=.=.=.=.=.=.=.=.=.=.=.=.=.=.=.=.=.=.=.=.=.=.=.=.=.=.=.=.=.=.=.=.=.=.=.=.=.=.=.=.=.=.b b =.=.=.=.>.>.=.b b =.L G 7.!.G.'.7.G =.=.-.V.W._.I.I.I.).W.F.-.=.Q :.G -.V.G Q Q k k =.=.>.>.=.=.=.=.=.=.=.=.=.=.=.=.=.=.=.=.@.-.=.b b m m x u u A.@.-.Q Q Q =.a E Z.B.Q -.Q Q Q P 8..XM.G -.-.=.=.=.=.=.=.=.=.=.=.=.=.=.=.=.",
"=.=.=.=.=.=.=.=.=.=.=.=.=.=.=.=.=.=.=.=.=.=.=.=.=.=.=.=.=.=.=.=.=.=.=.=.=.=.=.=.=.=.=.=.=.=.=.=.=.=.=.>.=.=.=.=.=.=.=.=.=.=.=.=.h ;.Q G 5.W._.'.J.M.W L ;.=.b =.P H.!.G.U.U.P.P.P.P.P.P.s.5.d.G._._._._._._._._._._._._._._._._._._._._._._._._._._.G.p.p.G._.P.P.I.P.P.P.'.W.a.5.F.d.p._._.P.P.).I._._.G.9.5.i.P.I.I.`._._._._.G.G.P.P._._._._._._._._._._.I.I._._._.G.p.5.i.G._._.).I.s.p.F.W._._._._._._._.W.p.i.y.i.p.G._._._._._._._.G.s.y.p.G._.J.P._._.P._._._._._._._._._._.P.P._.G.p.' ' S.U.P.I.I.).P._.'.p.5.F.W.G.P.K.I.K.P.i.G k j j k P a.yX) E E =.=.=.=.=.=.=.=.=.=.=.=.=.=.=.=.=.=.=.=.=.=.=.=.=.=.=.=.=.=.=.=.=.=.=.=.=.=.=.=.=.=.=.=.=.=.=.=.=.=.=.=.=.=.=.=.=.=.=.=.=.=.=.=.=.=.=.=.=.=.=.=.=.=.=.=.=.=.=.=.=.=.=.=.=.=.=.=.=.=.=.=.=.=.=.=.=.=.=.=.=.=.=.=.=.=.=.=.=.=.=.=.=.=.=.=.=.=.=.=.=.=.=.=.=.=.=.=.b b =.=.=.=.>.>.=.v h Q Q Q 7.!.G.'.7.G =.=.=.9.W._.I.I.I.).W.M.Q =.-.:.P 2.Q.! Q Q k b =.=.=.=.=.=.=.=.=.=.=.=.=.=.=.=.=.=.=.=.-.=.=.b m m b p * x A.@.L ~ =.k =.L Q Z.B.L -.L Q Q -.V.(.9.P ! -.=.=.=.=.=.=.=.=.=.=.=.=.=.=.=.",
"=.=.=.=.=.=.=.=.=.=.=.=.=.=.=.=.=.=.=.=.=.=.=.=.=.=.=.=.=.=.=.=.=.=.=.=.=.=.=.=.=.=.=.=.=.=.=.=.=.=.=.>.=.=.=.=.=.=.=.=.=.=.=.=.k ;.Q P 9.W._.'.J.F.! G =.=.b =.G H.!.G.U.U.P.P.P.P.P.P.s.5.d.G._._._._._._._._._._._._._._._._._._._._._._._._.P._.G.p.p.G._.P.I.I.P.P.P.'.W.a.5.F.d.p._._.P.P.).I._.W.G.9.5.i.P.I._.`._._._._.P.P.P.P.P._._._._._._._._.I.I._._._._.G.p.5.i.G._._.).I.s.p.F.W._._._._._._._.W.p.i.d.i.p.G._._._._._._._.G.s.y.p.G._.J.P._._.P._._._._._._._._._._.P._._.J.p.5.' S.U.P.I.I.).P._.'.p.5.G._.P.P.K.I.K.P.i.G k j n Q P a.yX3.W E =.=.=.=.=.=.=.=.=.=.=.=.=.=.=.=.=.=.=.=.=.=.=.=.=.=.=.=.=.=.=.=.=.=.=.=.=.=.=.=.=.=.=.=.=.=.=.=.=.=.=.=.=.=.=.=.=.=.=.=.=.=.=.=.=.=.=.=.=.=.=.=.=.=.=.=.=.=.=.=.=.=.=.=.=.=.=.=.=.=.=.=.=.=.=.=.=.=.=.=.=.=.=.=.=.=.=.=.=.=.=.=.=.=.=.=.=.=.=.=.=.=.=.=.=.=.=.=.b b =.=.=.=.>.>.b v h Q Q ! 9.!.G.'.7.G =.Q L 9.W._.I.I.I.).W.M.Q =.Q -.P 2.Q.G Q Q k b =.=.=.=.=.=.=.=.=.=.=.=.=.=.=.=.=.=.=.=.=.@.b m m b z 7 @ ,.A.@.a =.=.h Q L Q Z.m.a Q L Q Q 4.Q.(.8.P Q =.=.=.=.=.=.=.=.=.=.=.=.=.=.=.=.",
"=.=.=.=.=.=.=.=.=.=.=.=.=.=.=.=.=.=.=.=.=.=.=.=.=.=.=.=.=.=.=.=.=.=.=.=.=.=.=.=.=.=.=.=.=.=.=.=.>.>.>.>.=.=.=.=.=.=.=.=.=.=.=.=.k n L P a._.J.'.!.H.^ L =.=.b -.P F.!.G.U.U.P.P.P.P.P.P.s.y.d.G._._._._._._._._._._._._._._._._._._._._._._._._.P._.P.s.p.s._._.I.I.P.P.P.'.W.a.5.a.d.p._._.P.P.).I._._.G.9.5.i._._._.`._._._._._._._.P.P._._._._._._._._._.`.`._._._.G.p.5.i.G._._.)._.s.p.F.J._.I._._._.J.J.J.d.i.i.i.s.G.P._._._._._._.G.s.y.p.G._.J.P._._.P._._._._._._._._._.P.P._._.J.p.y.' S.U.P.I.I.).P.P.'.p.5.F._.P.P.P.I.K.P.a.G k j n Q P l.uX7.W E =.=.=.=.=.=.=.=.=.=.=.=.=.=.=.=.=.=.=.=.=.=.=.=.=.=.=.=.=.=.=.=.=.=.=.=.=.=.=.=.=.=.=.=.=.=.=.=.=.=.=.=.=.=.=.=.=.=.=.=.=.=.=.=.=.=.=.=.=.=.=.=.=.=.=.=.=.=.=.=.=.=.=.=.=.=.=.=.=.=.=.=.=.=.=.=.=.=.=.=.=.=.=.=.=.=.=.=.=.=.=.=.=.=.=.=.=.=.=.=.=.=.=.=.=.=.=.=.m m =.=.=.=.$.=.b b h h Q ! 9.!.J.'.7.G -.Q L 9.!._.I.I.I.).W.M.Q b Q -.P 8.Q.G Q Q k k =.=.=.=.=.=.=.=.=.=.=.=.=.=.=.=.=.=.=.=.=.=.b b m b u * @ A.A.#.a -.=.h ~ L Q Z.m.y Q L Q P 8./.Q.4.P P =.=.=.=.=.=.=.=.=.=.=.=.=.=.=.=.",
"=.=.=.=.=.=.=.=.=.=.=.=.=.=.=.=.=.=.=.=.=.=.=.=.=.=.=.=.=.=.=.=.=.=.=.=.=.=.=.=.=.=.=.=.=.=.=.=.>.>.>.>.=.=.=.=.=.=.=.=.=.=.=.=.b n L W F._.J._.!.Q.4.E =.>.b -.P F.!.G.U.U.P.P.P.P.P.P.s.y.d.G._._._._._._._._._._._._._._._._._._._._._._._._.P._._.s.p.s.J._.I.I.P.P.P.'.W.a.5.F.d.p._._.P.P._.I._._.G.9.5.i._._._.`._._._._._._._._._._._._._._._._._._.`.`._._._.G.p.5.i.G._._.)._.s.p.i.J._.I.I._._.W.W.J.y.i.i.p.s.G.P._._._._._._.G.s.y.p.G._.J.P._._.P._._._._._._._._._.P.P._._.J.F.i.' S.U.P.P.I.).P.P.'.p.5.F._.P._.P.U.K.P.a.G k j n Q K z.uXp.! E =.=.=.=.=.=.=.=.=.=.=.=.=.=.=.=.=.=.=.=.=.=.=.=.=.=.=.=.=.=.=.=.=.=.=.=.=.=.=.=.=.=.=.=.=.=.=.=.=.=.=.=.=.=.=.=.=.=.=.=.=.=.=.=.=.=.=.=.=.=.=.=.=.=.=.=.=.=.=.=.=.=.=.=.=.=.=.=.=.=.=.=.=.=.=.=.=.=.=.=.=.=.=.=.=.=.=.=.=.=.=.=.=.=.=.=.=.=.=.=.=.=.=.=.=.=.=.=.m m =.=.=.=.$.=.b b h h Q :.F.!.P.'.7.G -.Q L 9.!._.I.I.I._.W.M.a b L -.P 8./.G Q Q k k =.=.=.=.=.=.=.=.=.=.=.=.=.=.=.=.=.=.=.=.=.=.b b b p 7 * * /.r.-.J -.k h ~ Q =./.m.y Q Q Q P 8. XV.-.! P =.=.=.=.=.=.=.=.=.=.=.=.=.=.=.=.",
"=.=.=.=.=.=.=.=.=.=.=.=.=.=.=.=.=.=.=.=.=.=.=.=.=.=.=.=.=.=.=.=.=.=.=.=.=.=.=.=.=.=.=.=.=.=.=.=.>.>.=.=.=.=.=.=.=.=.=.=.=.=.=.=.b k L ! F._.G._.!.^.4.E Q =.=.-.P F.!.G.U.'.P.P.P.P.P.P.s.y.i.G._._._._._._._._._._._._._._._._._._._._._._._._.P._._.s.p.s.J._.L.I.P.P.U.'.W.F.5.a.d.p._._.P.P._.I._._.G.9.5.i._._._.`.`._._._._._._._._._._._._._._._.`.`._.`.)._._.G.p.5.i.G.P._.)._.s.p.p.J._._._._._._.W.W.5.i.p.p.s.G.G._._._._._._.G.s.y.p.G._.P.P._._.P._._._._._._._._._.P.P._._.J.F.i.' S.U.P.P.I.).P.P.'.p.5.G._.P._.P.U.K._.a.G k j n Q P E.gXG.) E =.=.=.=.=.=.=.=.=.=.=.=.=.=.=.=.=.=.=.=.=.=.=.=.=.=.=.=.=.=.=.=.=.=.=.=.=.=.=.=.=.=.=.=.=.=.=.=.=.=.=.=.=.=.=.=.=.=.=.=.=.=.=.=.=.=.=.=.=.=.=.=.=.=.=.=.=.=.=.=.=.=.=.=.=.=.=.=.=.=.=.=.=.=.=.=.=.=.=.=.=.=.=.=.=.=.=.=.=.=.=.=.=.=.=.=.=.=.=.=.=.=.=.=.=.=.=.=.b m =.=.=.=.$.>.=.b b h Q :.F.W.P.'.9.G -.Q L 9.!._.I.I.I._.W.9.L =.Q -.P 9.(.G Q Q k k =.=.=.=.=.=.=.=.=.=.=.=.=.=.=.=.=.=.=.=.=.b m m b 9 * + i .X6.,.P -.h Q =.Q -. XV.L ! Q -.P B. X8.P Q -.=.=.=.=.=.=.=.=.=.=.=.=.=.=.=.=.",
"=.=.=.=.=.=.=.=.=.=.=.=.=.=.=.=.=.=.=.=.=.=.=.=.=.=.=.=.=.=.=.=.=.=.=.=.=.=.=.=.=.=.=.=.=.=.=.=.>.=.=.=.=.=.=.=.=.=.=.=.=.=.=.=.b k L ! G._.P._.!.!.9.E ~ =.=.-.P F.!.G.U.'.P.P.P.P.P.P.s.y.i.G._._._._._._._._._._._._._._._._._._._._._._._._.P._._.s.p.s.J._.L.I.P.P.U.'.W.a.5.a.d.p._._.P.P._.I._._.H.9.5.i._.I._.`._._._._.P.P._._._._._._._._._._.`.`.`.`.)._._.G.p.5.p.G.P._.)._.s.p.p.J._._._._._.W.W.W.5.i.p.p.s.G.G._._._._._._.G.s.y.p.G._.P.P._._.P._._._._._._._._._.P.P._._.W.F.i.' S.U.P.P.I.).P.P.'.p.5.G._.P._.P.U.P.'.a.G k j n Q P z.gXG.) E =.=.=.=.=.=.=.=.=.=.=.=.=.=.=.=.=.=.=.=.=.=.=.=.=.=.=.=.=.=.=.=.=.=.=.=.=.=.=.=.=.=.=.=.=.=.=.=.=.=.=.=.=.=.=.=.=.=.=.=.=.=.=.=.=.=.=.=.=.=.=.=.=.=.=.=.=.=.=.=.=.=.=.=.=.=.=.=.=.=.=.=.=.=.=.=.=.=.=.=.=.=.=.=.=.=.=.=.=.=.=.=.=.=.=.=.=.=.=.=.=.=.=.=.=.=.=.=.b b =.=.=.=.$.>.>.b b h Q 4.F.G.P.'.9.G -.Q L 9.!._.I.I.I._.G.9.Q >.Q -.P V..XG Q Q k k =.=.=.=.=.=.=.=.=.=.=.=.=.=.=.=.=.=.=.=.=.m b m v w O + @.oX6.,.@.-.a =.~ Q :. XV.L ! Q -.L V. X8.L -.-.=.=.=.=.=.=.=.=.=.=.=.=.=.=.=.=.",
"=.=.=.=.=.=.=.=.=.=.=.=.=.=.=.=.=.=.=.=.=.=.=.=.=.=.=.=.=.=.=.=.=.=.=.=.=.=.=.=.=.=.=.=.=.=.=.=.=.=.=.=.=.=.=.=.=.=.=.=.=.=.=.=.b =.L ! G._.P._.J.!.n.Q Q -.=.-.P 9.!.'.P.P.P.P.P.P.P.P.G.y.i.F._._._._._._._._._._._._._._._._._._._._._._._._._.)._.G.p.p.G.P.L.P.P.P.P.U.G.i.5.F.a.i.J._.P.P._.I.P._.G.S.5.i.P._._.`.)._._.P.P._._._._.P.P._._._._._._._.`.`.)._.P.G.i.5.y.G._.]._.P.P.p.y.G._._.I._._._.G.G.5.y.F.G.y.G.).P._._.P._._.P.G.y.y.G._._.P._._._._._._._._._._._.P._._.J._.'.G.i.5.S.G.P.I.I.)._._.G.i.y.p.G._._.P.P.)._.3.Q k j h Q K |.uXOXH ! =.=.=.=.=.=.=.=.=.=.=.=.=.=.=.=.=.=.=.=.=.=.=.=.=.=.=.=.=.=.=.=.=.=.=.=.=.=.=.=.=.=.=.=.=.=.=.=.=.=.=.=.=.=.=.=.=.=.=.=.=.=.=.=.=.=.=.=.=.=.=.=.=.=.=.=.=.=.=.=.=.=.=.=.=.=.=.=.=.=.=.=.=.=.=.=.=.=.=.=.=.=.=.=.=.=.=.=.=.=.=.=.=.=.=.=.=.=.=.=.=.=.=.=.=.=.=.=.b b =.=.=.=.$.>.m b h ;.Q W ^.W.P.J.F.G L >.-.9.W.P.I.I.I.).W.7.a =.-.J J /..XG Q Q k k =.=.=.=.=.=.=.=.=.=.=.=.=.=.=.=.=.=.=.=.x m <.v q 7 o i 8.~.r.#.-.>.=.=.Q Q n.Q.8.G P ! P Q Z. X,.i -.-.=.=.=.=.=.=.=.=.=.=.=.=.=.=.=.=.",
"=.=.=.=.=.=.=.=.=.=.=.=.=.=.=.=.=.=.=.=.=.=.=.=.=.=.=.=.=.=.=.=.=.=.=.=.=.=.=.=.=.=.=.=.=.=.=.=.=.>.=.=.=.=.=.=.=.=.=.=.=.=.=.=.k =.L ! G._.P._.J.!.M.Q Q -.=.-.P 9.J.'.U.J.P.P.P.P.P.P.G.y.i.F._._._._._._._._._._._._._._._._._._._._._._._._._._._.G.p.p.G.P.I.P.P.P.P.U.G.i.5.F.p.i.J._.P._._.I.P._.G.S.5.i.P._._.`.)._._.P.G.P._._._.P.P._._._._._._.`.`.`.)._.P.J.i.5.y.G._.]._.P._.p.y.G._._.P._._._.G.G.y.y.F.G.y.G.'.P._._.P._._.P.G.y.y.G._._.P._._._._._._._._._._._.P._._.W._.'.G.i.5.S.G.P.I.`.)._.P.G.d.5.p.G._._.U.P.)._.3.Q k j h Q F |.uXOXH W Q =.=.=.=.=.=.=.=.=.=.=.=.=.=.=.=.=.=.=.=.=.=.=.=.=.=.=.=.=.=.=.=.=.=.=.=.=.=.=.=.=.=.=.=.=.=.=.=.=.=.=.=.=.=.=.=.=.=.=.=.=.=.=.=.=.=.=.=.=.=.=.=.=.=.=.=.=.=.=.=.=.=.=.=.=.=.=.=.=.=.=.=.=.=.=.=.=.=.=.=.=.=.=.=.=.=.=.=.=.=.=.=.=.=.=.=.=.=.=.=.=.=.=.=.=.=.=.b b =.=.=.=.$.>.m b h ;.Q W ^.W.U.J.F.G L >.Q 9.!.P.I.I.I._.W.7.a b -.J G /..XG Q Q k k =.=.=.=.=.=.=.=.=.=.=.=.=.=.=.=.=.=.=.=.m m M p 8 w o e e.~.9.P #.=.>.=.Q ! M.Q.8.G P ! P -.Z.Z.-.a -.=.=.=.=.=.=.=.=.=.=.=.=.=.=.=.=.=.",
"=.=.=.=.=.=.=.=.=.=.=.=.=.=.=.=.=.=.=.=.=.=.=.=.=.=.=.=.=.=.=.=.=.=.=.=.=.=.=.=.=.=.=.=.=.=.=.=.>.>.>.>.=.=.=.=.=.=.=.=.=.=.=.=.k =.P ! G._.P._.J.!.M.Q Q =.=.-.G 5.J.!.U.J.P.P.P.P.P.P.G.y.i.F._._._._._._._._._._._._._._._._._._._._._._._._._._._.G.p.p.G.P.I.P.P.P.P.U.G.i.5.F.p.a.J._.P._._.I.P._.G.S.5.i.P._._.`.)._._.P.s.G.P._._.P._._._._._._._._.`.`._._._.J.p.3.y.G._._.I.P._.s.y.G._._.I._._._.G.F.5.y.G.G.y.G.).P._._.P._._.P.G.d.y.G._._.P._._._._._._._._._._._.P._._.P._.'.G.i.5.S.G.P.I.I.)._.G.p.y.5.F.W._._.P.G.)._.3.Q k k h Q F |.uXrXH W Q =.=.=.=.=.=.=.=.=.=.=.=.=.=.=.=.=.=.=.=.=.=.=.=.=.=.=.=.=.=.=.=.=.=.=.=.=.=.=.=.=.=.=.=.=.=.=.=.=.=.=.=.=.=.=.=.=.=.=.=.=.=.=.=.=.=.=.=.=.=.=.=.=.=.=.=.=.=.=.=.=.=.=.=.=.=.=.=.=.=.=.=.=.=.=.=.=.=.=.=.=.=.=.=.=.=.=.=.=.=.=.=.=.=.=.=.=.=.=.=.=.=.=.=.=.=.=.b b =.=.=.>.>.>.m b h ;.E W ^.W.U.P.F.G L >.-.9.!.P.I.I.I._.W.8.Q b -.J G (..XG Q Q b k =.=.=.=.=.=.=.=.=.=.=.=.=.=.=.=.=.=.=.=.m m m w 6 7 o e V./.6.L #.,.=.Q Q ! M.Q.4.G Q ! L 1.C.B.L L ,.=.=.=.=.=.=.=.=.=.=.=.=.=.=.=.=.=.",
"=.=.=.=.=.=.=.=.=.=.=.=.=.=.=.=.=.=.=.=.=.=.=.=.=.=.=.=.=.=.=.=.=.=.=.=.=.=.=.=.=.=.=.=.=.=.=.=.>.>.>.>.=.=.=.=.=.=.=.=.=.=.=.=.k =.P ) E.).P._.J.!.M.Q Q -.=.-.G 3.J.!.P.P.P.P.P.P.P.P.s.y.i.F._._._._._._._._._._._._._._._._._._._._._._._._._._._.G.s.p.s.P.I.P.P.P.P.U.G.i.5.F.p.a.J._.P._._.I.P._.G.S.5.i.P._._.`.)._._.P.u.s.G.P.P.P._._._._._.I.I._.`.`._._._.J.F.5.d.G._._.I.P._.s.y.G._._.I._._._.G.F.5.y.G.G.y.G.'.P._._.P._._._.G.p.y.G._._.P._._._._._._._._._._._.P._._.P._.'.G.i.' S.G.P.I.I.)._.s.p.5.5.F.W.).).U.G.)._.3.Q k k k =.K |.uXrX/ W Q =.=.=.=.=.=.=.=.=.=.=.=.=.=.=.=.=.=.=.=.=.=.=.=.=.=.=.=.=.=.=.=.=.=.=.=.=.=.=.=.=.=.=.=.=.=.=.=.=.=.=.=.=.=.=.=.=.=.=.=.=.=.=.=.=.=.=.=.=.=.=.=.=.=.=.=.=.=.=.=.=.=.=.=.=.=.=.=.=.=.=.=.=.=.=.=.=.=.=.=.=.=.=.=.=.=.=.=.=.=.=.=.=.=.=.=.=.=.=.=.=.=.=.=.=.=.=.b b =.=.=.=.>.>.=.b h ;.Q W ^.W.'.J.F.G L >.=.9.}.P.I.I.I._.W.8.Q b -.J P (..XG Q Q b b =.=.=.=.=.=.=.=.=.=.=.=.=.=.=.=.=.=.=.=.>.m v O 1 7 @ i /./.6.J #.,.=.h Q ! C.Q.4.G Q ! L 8.A.1.a -.,.@.=.=.=.=.=.=.=.=.=.=.=.=.=.=.=.=.",
"=.=.=.=.=.=.=.=.=.=.=.=.=.=.=.=.=.=.=.=.=.=.=.=.=.=.=.=.=.=.=.=.=.=.=.=.=.=.=.=.=.=.=.=.=.=.=.=.=.=.>.>.=.=.=.=.=.=.=.=.=.=.=.=.k =.Q 2.W.).P._.J.!.9.G L -.@.-.G 3.G.!.J.P.P.P.P.P.P.P.s.y.d.F._._._._._._._._._._._._._._._._._._._._._._._._._.P._._.s.p.s.P.I.P.P.P.P.!.G.9.5.F.p.a.J._.P.P._.I.P.W.G.S.5.i.P._._.`.)._._.P.y.u.G.P._._._._._._._._._._.`.`.I.I._.J.F.5.d.G._._.I.P.).G.y.F._._.I._._._.G.F.y.d.G.G.y.G._.P._._.P._._._.G.p.y.G._._.P._._._._._._._._._._._.I._._.P._.'.G.i.' S.D.P.I.I.I.P.s.p.5.y.F.W.).).P.G._._.3.Q k k h =.K {.gXrX/ W Q =.=.=.=.=.=.=.=.=.=.=.=.=.=.=.=.=.=.=.=.=.=.=.=.=.=.=.=.=.=.=.=.=.=.=.=.=.=.=.=.=.=.=.=.=.=.=.=.=.=.=.=.=.=.=.=.=.=.=.=.=.=.=.=.=.=.=.=.=.=.=.=.=.=.=.=.=.=.=.=.=.=.=.=.=.=.=.=.=.=.=.=.=.=.=.=.=.=.=.=.=.=.=.=.=.=.=.=.=.=.=.=.=.=.=.=.=.=.=.=.=.=.=.=.=.=.=.m m =.=.=.=.=.=.=.>.h ;.L W ^.W.'.P.H.P L >.=.9.}.P.I.I.I._.W.8.Q =.-.L P .XoXG Q Q k k b =.=.=.=.=.=.=.=.=.=.=.=.=.=.=.=.=.=.>.M z q   O 7 + L (./.2.J -.,.=.h Q ^ Q.Q.4.G Q ! J B.B.-.a =.<.@.=.=.=.=.=.=.=.=.=.=.=.=.=.=.=.=.",
"=.=.=.=.=.=.=.=.=.=.=.=.=.=.=.=.=.=.=.=.=.=.=.=.=.=.=.=.=.=.=.=.=.=.=.=.=.=.=.=.=.=.=.=.=.=.=.=.=.=.>.>.=.=.=.=.=.=.=.=.=.=.=.=.h =.Q 2.W.}.I._.J.!.M.G L =.@.-.F 3.H.!.J.P.P.P.P.P.P.P.s.y.d.F._._._._._._._._._._._._._._._._._._._._._._._._._.P._._.G.p.p._.I.P.P.P.P.!.G.9.5.F.p.a.J._.P.P._.I.P.W.G.S.5.i.P._._.`.)._._.P.y.u.G._._._._._._._._._._._._._.I.I._.!.F.5.y.G._._.I.P.].G.y.p._._.I._._._.G.F.y.d.G.G.y.G._.G._._.P._._._.G.p.y.G._._.P._._._._._._._._._._._.I._._.P._.'.G.i.' S.D.P.I.I.I.P.s.p.y.y.F.W._._._.G.)._.3.Q b k h -.K {.gXuX/ E Q =.=.=.=.=.=.=.=.=.=.=.=.=.=.=.=.=.=.=.=.=.=.=.=.=.=.=.=.=.=.=.=.=.=.=.=.=.=.=.=.=.=.=.=.=.=.=.=.=.=.=.=.=.=.=.=.=.=.=.=.=.=.=.=.=.=.=.=.=.=.=.=.=.=.=.=.=.=.=.=.=.=.=.=.=.=.=.=.=.=.=.=.=.=.=.=.=.=.=.=.=.=.=.=.=.=.=.=.=.=.=.=.=.=.=.=.=.=.=.=.=.=.=.=.=.=.=.m m =.=.=.=.=.=.=.>.h ;.L ! ^.!.'.J.F.G L >.=.9.}.P.I.I.I._.W.8.Q =.=.P -.oXoXG Q Q k k b =.=.=.=.=.=.=.=.=.=.=.=.=.=.=.=.=.=.m m q w   6 1 + 1.(.~.2.L -.>.x =.Q 4.Q.Q.4.G Q Q L m.8.L L =.=.=.=.=.=.=.=.=.=.=.=.=.=.=.=.=.=.=.",
"=.=.=.=.=.=.=.=.=.=.=.=.=.=.=.=.=.=.=.=.=.=.=.=.=.=.=.=.=.=.=.=.=.=.=.=.=.=.=.=.=.=.=.=.=.=.=.=.=.=.=.=.=.=.=.=.=.=.=.=.=.=.=.=.h Q Q 3.W.}._._.J.}.9.G Q -.@.-.F 3.H.!.J.P.P.P.P.P.P.P.s.y.d.p._._._._._._._._._._._._._._._._._._._._._._._._._.P.P._.G.y.p._.I.P.P.P.U.'.G.9.5.F.p.i.J._.P.P._.I.P._.G.S.5.i.P._._.`.`._._.P.y.p.P._._._._._._._._._._._._._._._._.'.F.5.y.G._._.P.P.].G.y.p._._.P._._._.G.F.y.i.G.G.y.s._.G._._.P._._._.G.p.y.G._._.P._._._._._._._._._._._.P._.P.J._.'.G.i.5.S.D.P.I.I.P.P.s.p.y.i.G.W._.P._.G.)._.3.Q b k j -.I ).gXuX_ E Q =.=.=.=.=.=.=.=.=.=.=.=.=.=.=.=.=.=.=.=.=.=.=.=.=.=.=.=.=.=.=.=.=.=.=.=.=.=.=.=.=.=.=.=.=.=.=.=.=.=.=.=.=.=.=.=.=.=.=.=.=.=.=.=.=.=.=.=.=.=.=.=.=.=.=.=.=.=.=.=.=.=.=.=.=.=.=.=.=.=.=.=.=.=.=.=.=.=.=.=.=.=.=.=.=.=.=.=.=.=.=.=.=.=.=.=.=.=.=.=.=.=.=.=.=.=.=.m m =.=.=.=.=.=.=.>.h ;.Q ! ^.W.P.J.F.G L >.-.9.}.P.I.I.I._.W.3.Q =.=.P -.oXoXG Q Q k k b =.=.=.=.=.=.=.=.=.=.=.=.=.=.=.=.=.=.m m 6 & 6 w 1 , V./.~.2.#.-.-.b =.G 4.Q.(.:.G Q Q L m.1.L =.>.x =.=.=.=.=.=.=.=.=.=.=.=.=.=.=.=.=.",
"=.=.=.=.=.=.=.=.=.=.=.=.=.=.=.=.=.=.=.=.=.=.=.=.=.=.=.=.=.=.=.=.=.=.=.=.=.=.=.=.=.=.=.=.=.=.=.=.=.=.=.=.=.=.=.=.=.=.=.=.=.=.=.=.h Q Q 3._.]._._.W.}.M.G Q -.=.-.F 4.H.!.J.P.P.P.P.I.P.P.G.y.d.p._.I._._._._._._._._._._._._._._._._._._._._._._._.P.P.).G.y.p._.I.P.P.P.U.!.G.9.5.F.p.i.J._.P._._.P.P._.G.i.5.d.P._._._._._._.P.y.s.P._._._._._._._._._._._._._.I._.).'.G.5.i.G._._.P.P.].G.y.p._._.P._._._.G.F.y.i.G.F.y.s._.G._.P.P._._._.G.p.y.G._._.P._._._._._._._._._._._.P.I.P.P._._.G.d.5.S.G.P.I.P._._.s.p.5.i.G.W._.P.P.G._._.3.Q b k k -.I {.gXgX_ E Q =.=.=.=.=.=.=.=.=.=.=.=.=.=.=.=.=.=.=.=.=.=.=.=.=.=.=.=.=.=.=.=.=.=.=.=.=.=.=.=.=.=.=.=.=.=.=.=.=.=.=.=.=.=.=.=.=.=.=.=.=.=.=.=.=.=.=.=.=.=.=.=.=.=.=.=.=.=.=.=.=.=.=.=.=.=.=.=.=.=.=.=.=.=.=.=.=.=.=.=.=.=.=.=.=.=.=.=.=.=.=.=.=.=.=.=.=.=.=.=.=.=.=.=.=.=.=.=.=.=.=.>.>.=.=.=.>.h =.Q ! Q.W.P.J.F.G L >.Q 9.}.P.I.I.I._.W.8.Q =.=.G ) +X+XG Q Q k b b b =.=.=.=.=.=.=.=.=.=.=.=.=.=.=.=.=.m v X X w 7 O 2 /./.E.2.P ,.=.v >.G 4.(.Q.2.G Q Q L 8.,.a <.=.a <.=.=.=.=.=.=.=.=.=.=.=.=.=.=.=.=.",
"=.=.=.=.=.=.=.=.=.=.=.=.=.=.=.-.=.=.=.=.=.=.=.=.=.=.=.=.=.=.=.=.=.b =.b =.=.=.=.=.=.m m =.=.=.=.=.=.=.=.=.=.=.=.=.=.=.=.=.=.=.=.Q Q Q 3.'.).P.P.J.!.H.G :.L >.-.P ! E.W._.}.h.).I.I._._.G.p.i.F.P.P.P.P.P.P.P.P._._._._._._._._._._._._._._._._.I._.P._._.p.y._.P.P.P._.'.W.p.3.5.G.p.d.G.}._.P.P.P._._.W.G.i.3.G.J._._._._._.P._._._._._._._._._._._._._._._.`.)._._._.G.i.i.F.J._._._._._.p._ _._._._._._.G.i.y.i.!.G.5.p.'.J.P.P.P.P.P.U.G.y.p.G._._.)._._.).G._._._.P._._._.I.)._.I._._.P.s.5.i.G._._.)._._.s.d.5.d.F.W._.P.I.K._.W.2.L N n k E I 4XtXtXP.V Q =.=.=.=.=.=.=.b b b b b b b b b b b b b b m m =.=.=.=.>.>.>.>.=.=.=.=.=.=.=.=.=.=.=.=.=.=.=.=.=.=.=.=.=.=.=.=.@.@.=.=.=.=.>.,.:.,.-.Q h h =.b =.=.=.=.=.=.=.=.=.=.=.=.=.=.=.=.=.=.=.=.=.=.=.=.=.=.=.=.=.=.=.=.=.=.=.=.=.=.=.=.=.=.=.=.=.=.=.=.=.=.=.=.=.=.=.=.=.=.=.=.>.>.>.>.=.@.-.-.G 2.E.!._._.E.P L ,.L 8.}.P.I.I.P.}.W.2.h ;.Q D _ OXoXH Q Q b b b =.=.=.=.=.=.=.=.=.=.=.@.=.x x m >.b z X 0 X 6 7 @ -.^.^.^.2.! L b <.b G H.!.9.2.-.P -.-.-.=.=.=.=.=.=.=.=.=.=.=.=.>.>.>.>.>.>.>.>.=.=.",
"b b =.=.=.=.=.=.=.=.=.=.=.=.=.=.=.=.=.=.=.=.=.=.=.=.=.=.=.=.=.b b b b b b b =.=.=.=.m m =.=.=.=.=.=.=.=.=.=.=.=.=.=.=.=.=.=.=.=.Q Q Q 3._.).I.P.P.!.H.G :.L >.-.P ! E.W._.}.h.).I.I._._.G.i.i.F.P.P.P.P.P.P.P.P._._._._._._._._._._._._._._.`.`.I._.P._._.p.y.W._._._._.}.W.a.5.d.G.p.d.G.}._._.P.P._._.W.G.i.3.G.J._.J.G.P.P.P._._._._._._._._._._._._._._._._.)._._._.G.i.i.F.J._._._._._.s._ P._._._._.!.G.i.5.i.!.G.5.p.'.J.P.P.P.P.P.P.G.y.p.G._._.)._._.).P._._._._._._._.I.`._._._.).P.p.d.a.G._.).)._._.s.d.5.d.F.W._.P.I.K.P.W.2.L n N k E R 2XtXuXP.C Q =.=.=.=.=.=.=.=.=.=.=.=.=.b b b b =.=.=.=.m m =.=.=.=.>.>.>.>.=.=.=.=.=.=.=.=.=.=.=.=.=.=.=.=.=.=.>.>.=.=.=.=.@.@.=.=.>.>.,.:.:.:.-.Q Q Q Q b b b =.=.=.-.-.-.=.=.=.=.=.=.=.=.=.=.=.=.=.=.=.=.=.=.=.=.=.=.=.=.=.=.=.=.=.=.=.=.=.=.=.=.=.=.=.=.=.=.=.=.=.=.=.=.=.=.=.=.>.>.=.>.=.@.-.-.G 2.E.!._._.E.P L -.L 8.'.P.I.I.P.}.W.2.h ;.Q V _ OX#XH ! =.b b b =.=.-.=.=.=.=.=.=.=.=.=.=.=.b b b v q ; : X 6 7 + 2.^.^.^.2.! Q h <.b H G.(.9.2.-.@.=.=.=.=.=.=.=.Q =.=.=.=.=.>.>.>.>.>.>.>.>.>.>.=.=.",
"b b b b =.b =.=.=.=.=.=.=.=.=.=.=.=.=.=.=.=.=.=.=.=.=.=.=.=.=.=.b b b b =.=.=.=.=.=.m m =.=.=.=.=.=.=.=.=.=.=.=.=.=.=.=.=.=.=.=.Q Q G 3._._.I.P.P.!.H.G :.L >.-.P ! E.W._.}.h.).I.I.P.P.G.i.i.F.P.P.P.P.P.P.P.P._._._._._._._._._._._._.`.`.`.`.I._.I._._.p.y.J._._._._.}.W.a.5.d.W.p.d.G._._._.P.P._._._.G.i.3.G.W._.G.p.s.P.P._._._._._._._._._._._._._._._._.)._._._.G.i.i.F.J._._.I._._.G.y.P._._._._.!.G.i.5.i.!.G.y.p.'.J.P.P.P.P.P.U.G.y.d.G._._.)._._.)._._._._._._._._.I.`._.I._.).P.p.5.a.G._.).)._._.s.a.5.d.G._._.P.I.K.U._.2.L n N k E R 2XwXgXP.C Q =.=.=.=.=.=.=.=.=.=.=.=.=.=.=.=.=.=.=.=.=.=.=.=.=.=.=.>.>.=.>.=.=.=.=.=.=.=.=.=.=.=.=.=.=.=.=.>.>.>.>.=.=.=.=.=.=.=.=.,.,.1.:.8.:.:.-.=.=.=.k b b =.=.=.=.-.-.=.=.=.=.=.=.=.=.=.=.=.=.>.>.=.=.=.=.=.=.=.=.=.=.=.=.=.=.=.=.=.=.=.=.=.=.=.=.=.=.=.=.=.=.=.=.=.=.=.=.=.=.>.>.=.=.=.@.-.-.G 2.E.!._._.E.P L =.L 8.'.P.I.I.P.}.W.2.h Q Q D ( rXXXH Q =.b b b =.-.-.=.=.=.=.=.=.=.=.=.=.>.=.>.b p w : : X w * # 8.^.W.^.2.! Q h <.k W !.!.9.:.-.-.=.=.=.=.=.=.=.Q =.=.=.=.=.=.>.>.>.=.=.=.=.>.=.=.=.",
"b b b b =.b =.=.=.=.=.=.=.=.=.=.=.=.=.=.=.=.=.=.=.=.=.=.=.=.=.=.=.b =.=.=.=.=.=.=.=.=.=.=.=.=.=.=.=.=.=.=.=.=.=.=.=.=.=.=.=.=.=.Q Q G 3._._.I.P.P.!.H.G :.L >.-.P ! E.W._.}.h.).I.I.P.P.G.i.i.F.P.P.P.P.P.P.P.P._._._._._._._._._._._._.`.`.`.`.I._.P._._.p.y.J._._._._.}.W.a.5.i.G.F.5.s._._._.P._._._._.G.i.3.G.J._.p.y.p.P._._._._._._._._._._._._._._._._._.).`._._.G.i.i.F._._._.I._._.G.y.G._._._._.!.G.i.5.i.J.G.y.p.'.J.P.P.P.P.P.U.G.y.d.G._._.)._._.)._.J.P._._._._._.I.`._.I._.).P.p.5.a.G._.)._._._.s.a.5.d.p.G._.I.I.K.U._.2.L n n k E R 3XtXgXU.H Q =.=.=.=.=.=.=.b b =.b =.b =.b h h Q Q =.=.b b =.=.=.=.>.>.=.=.=.=.=.=.=.=.=.=.=.=.=.=.=.=.=.=.>.>.>.>.=.=.=.=.@.=.=.>.,.1.1.1.8.4.4.:.-.=.Q h =.b =.=.=.=.=.=.=.=.=.=.=.=.=.=.=.=.=.=.>.>.=.=.=.=.=.=.=.=.=.=.=.=.=.=.=.=.=.=.=.=.=.=.=.=.=.=.=.=.=.=.=.=.=.=.=.=.=.=.>.>.=.=.>.@.-.-.G 2.E.!._._.E.! L =.L 8.!.P.I.I.P.}.W.! h Q W H ' yXOXH Q =.b b b =.-.-.=.=.=.=.=.=.=.=.=.>.>.m b v p 6 : : X w + = 9.(.!.E.! ! Q h <.k ! !.(.8.-.-.-.=.=.=.=.=.=.=.=.=.=.=.=.=.=.>.>.>.=.=.=.=.=.=.=.=.",
"b b b b b b =.=.=.Q Q =.=.=.=.=.=.=.=.=.=.=.Q =.Q =.=.=.=.=.=.=.=.=.=.=.=.=.=.=.=.=.=.=.=.=.b b =.=.=.=.=.=.=.=.=.=.=.=.=.=.=.=.Q Q G 3._._.I.P.P.!.H.G :.L =.-.P ! E.W._.}.h.).I.I.P.P.G.i.i.F.P.P.P.P.P.P.P.P._._._._._._._._._._._._.`._.`.I.I._.P._.}.s.y.G._._.W._.}.W.p.5.a.W.F.5.s._._._.P.P._._._.G.i.3.F.W._.p.y.y.P._._._._._._._._._._._._._._._._._.)._._._.G.i.i.S._._._.P._.).G.p.G.P._._._.!.G.i.y.S.!.G.y.p._.J.P.P.P.P.P.'.G.p.d.G._._._._._.)._.G.G._._._.I.).I.`.`.I._.).P.u.5.a.G._.{._._._.G.a.5.5.p.G._.I.P.K.P._.2.@.b N k E R qXtXgXU.H Q =.=.=.=.=.=.=.L L a L Q h Q h Q h Q Q L L @.@.=.=.=.=.=.=.=.=.=.=.=.=.=.=.=.=.=.=.=.=.=.=.=.=.>.>.=.=.=.=.=.=.@.=.-.,.:.1.1.4.2.2.2.4.:.-.Q Q =.=.=.h b =.=.=.=.=.Q Q =.=.=.=.=.=.=.=.>.>.>.>.=.=.=.=.=.=.=.=.=.=.=.=.=.=.=.=.=.=.=.=.=.=.=.=.=.=.=.=.=.=.=.=.=.=.=.=.=.m =.=.>.Q -.Q L :.Q.!._._.E.! P -.L 8.!.P.I.I.P.}.W.! Q =.! H  .yXOXH W Q b b b =.-.-.=.=.b =.-.-.-.-.=.=.=.b b g 7   0 : ; w + e E.^.!.E.P ! -.h <.h :.Q.Q.4.! Q Q =.=.=.=.=.=.=.=.=.=.=.=.=.=.=.=.=.=.=.=.=.=.=.=.=.",
"b b b b b b =.=.=.=.=.Q =.=.=.=.=.=.=.=.=.=.=.b =.=.=.=.=.=.b =.=.=.=.=.=.=.=.=.=.=.=.b =.=.b =.=.=.=.=.=.=.=.=.=.=.=.=.=.=.=.=.Q Q G 3._._.P.P.P.!.H.G :.L =.-.P ! E.W._.}.h.).I.I.P.P.G.i.i.F.P.P.P.P.P.P.P.P._._._._._._._._._.I._._.`.`.I.I._._.P._.].s.y.G._._.W._.}.W.p.5.p.W.F.3.s._._._.P.P._._._.G.p.3.G.W._.G.u.p.P.P._._._._._._._._._._._._._._._._.)._._.W.G.i.i.S._._._.I._.).G.p.s.P._._._.'.G.i.y.p.!.G.y.p._.J.P.P.P.P.P.'.G.p.d.G.P._._._._.)._.s.p.P._._.I.).I.`.`.I._.).P.u.5.a.G._.{._._._.G.a.5.d.p.G._.P.P.D.P._.2.@.b N k E I 3XdXgXY.H Q =.=.=.=.=.=.=.=.=.=.=.=.=.=.=.Q Q Q Q @.=.=.=.=.=.=.=.=.=.=.=.=.=.=.=.=.=.=.=.=.=.=.=.=.=.=.=.=.>.=.=.=.=.=.=.@.=.,.,.:.1.1.4.2.2.2.2.:.:.=.-.=.=.=.=.=.=.=.=.=.=.=.=.=.=.=.=.=.=.=.=.>.>.>.>.=.=.=.=.=.=.=.=.=.=.=.=.=.=.=.=.=.=.=.=.=.=.=.=.=.=.=.=.=.=.=.=.=.=.=.=.m m m b >.h -.Q L :.C.!._._.E.! P -.L 8.!.P.I.I.P.}.E.! Q =.! H p.uXOXH W Q b b b =.-.Q =.b b b =.-.-.-.L =.=.b v h 7   0 ; ; 9 + i /.^.}.F.P W -.h ;.h 4.Q.Q.2.Q Q =.>.m m b b b =.=.=.=.=.=.=.=.=.=.=.=.=.=.=.=.=.=.=.",
"b b b b =.=.=.=.=.=.=.=.=.=.=.=.=.=.=.=.=.=.=.Q Q Q =.=.=.=.=.=.=.=.=.=.=.=.=.=.=.=.=.b =.=.=.=.=.=.=.=.=.=.=.=.=.=.=.=.=.=.=.=.Q Q G 3._.}.I._.P.!.H.G :.L =.-.P ! E.W._.}.h.).I.I.P.P.G.i.5.F.P.P.P.P.P.P.P.P._._._._._._._._._._._._._._.`.`._._.h._.}.s.y.G._._.W._.}.W.p.5.p.W.F.3.s._._._.P.P._._._.G.p.y.G.J._.G.G.P.I.P._._._._._._._._._._._._._._._._.)._._._.G.i.i.S._._._.P._._.J.p.s.P._._._.'.G.i.i.S.!.G.y.p._.P.P.I.P.P.P.'.G.p.y.G.P._._._._.).G.p.y.G.)._.I.).I.`._._._.).P.u.5.a.G._.{._._._.G.a.d.d.p.G._.P.U.D.P._.2.@.b N k E I tXdXgX].I ! -.=.=.=.=.-.-.-.-.-.-.-.-.-.-.-.-.Q -.-.-.-.-.=.-.=.=.=.=.=.=.=.=.=.=.=.=.=.=.=.=.=.=.=.=.=.=.=.=.=.=.=.=.-.=.=.>.:.1.8.8.4.2.2.2.2.2.2.:.:.,.=.=.=.=.b b b =.=.=.=.=.=.=.=.=.=.=.=.=.=.=.>.=.=.=.=.=.=.=.=.=.=.=.=.=.=.=.=.=.=.=.=.=.=.=.=.=.=.=.=.=.=.=.=.=.=.=.=.=.b b b b >.h =.Q L :.C.Q._._.F.P P -.L 8.!.P.I.I.P._.E.P Q =.W H p.uXrXH W Q b m b =.-.Q =.b b b =.=.-.=.=.=.=.b b v t 6 w X 6 p @ r (.E.}.F.F ! =.a >.h 4.Q.Q.! L Q Q >.m m m b b b b =.=.=.=.=.=.=.=.=.=.=.=.=.=.=.=.=.",
"=.b =.=.=.=.=.=.=.=.=.=.=.=.-.=.=.=.=.=.=.=.=.Q =.=.=.=.=.=.=.=.=.=.=.=.=.=.=.=.=.=.=.b =.=.=.=.=.=.=.=.=.=.=.=.=.=.=.=.=.=.=.=.=.Q G 3._.}.I.P.P.!.H.G :.L =.-.P ! E.W._.}.h.).I.I.P.P.G.y.5.F.P.P.P.P.P.P.P.P._._._._._._._._._._._._._._.`.`._.I.h._.].G.y.G._._.W._.}.W.p.5.F.!.F.3.s._._._.I.I.P._._.G.p.y.G.J._._._._._.P._._._._._._._._._._._._._._._._.)._._._.G.i.i.S._._._.P._._.J.p.s.P._._._.'.G.i.i.S.!.G.y.p._.P.P.I.P.P.P.'.G.p.y.G.P._._._._.).G.y.y.G.)._.I.)._.`._._._.).P.u.5.a.G._.{._._._.G.a.d.d.p.W._.P.U.D.P.W.2.@.n N k ! I 4XdXhX].I W =.=.=.=.=.-.-.=.-.=.-.-.-.-.,.-.-.-.-.-.-.-.=.=.-.=.=.=.=.=.=.=.=.=.=.=.=.=.=.=.=.=.=.=.=.=.=.=.=.=.=.=.=.-.=.,.,.1.8.8.8.8.2.2.3.2.2.2.4.8.8.-.=.=.=.b b b b =.=.=.=.=.=.=.=.=.=.=.=.=.=.=.=.=.=.=.=.=.=.=.=.=.=.=.=.=.=.=.=.=.=.=.=.=.=.=.=.=.=.=.=.=.=.=.=.=.=.=.=.b b b b >.h Q Q L ^ V.Q._._.F.P L -.L 8.!.P.I.I.P._.F.P Q Q W H p.uXrXH P Q b m b =.-.Q =.b b b =.=.=.=.=.=.=.b b b p 7 6 X & p @ r (.F.}.F.F P -.a >.Q 4.Q.E.^ L Q Q >.m m m b b b b b =.=.=.=.=.=.=.=.=.=.=.=.=.=.=.=.",
"Q Q Q h h Q Q -.Q -.-.=.=.-.,.,.=.=.=.=.=.=.=.=.Q Q Q Q Q Q Q Q -.-.=.=.=.=.Q Q =.=.=.=.=.=.=.=.=.=.=.=.=.=.=.=.h h =.=.=.=.=.h =.Q ! 3._._.h.P.P.}.M.G L Q @.@.! P E.!.W.}.I.I.I.I.P.P.G.y.5.5.P.P.P.I.I.I.P.P._._._._._._._._._._._._._._.`.`._.I.I._._.J.p.y._._._._.W.G.i.5.G.W.G.i.p.W.)._._._._._._.J.p.y.s.J._._.P._._._._._._._._._._._._._._._._._._._._.I.P._.W.F.9.i.G._._._.P.P.G.p.p.s._._._.W.G.i.5.G.J.S.y.y.G.'.P.I.P.P.P.P.G.p.p.s.P.'.)._._._._.p.y.G._._.I.).`.I.I.I._._.P.G.d.a.s._._._._._.s.d.5.5.p.W._.P.U.D.P.G.2.-.m v b G _ 4XdXdXtX/ G Q =.=.Q Q L L -.:.:.8.8.8.8.:.:.:.:.:.:.:.,.1.-.-.-.-.=.=.=.=.=.=.=.=.=.=.=.=.=.=.=.=.=.=.=.=.>.>.=.=.>.>.=.a 1.,.4.4.2.2.2.2.2.2.2.2.2.2.2.4.1.,.=.Q b b b >.=.=.=.=.=.=.=.=.=.=.=.=.=.=.=.>.=.=.=.=.=.=.=.=.=.=.=.=.=.=.=.=.=.=.=.=.=.=.=.=.=.=.=.=.=.=.=.=.>.=.>.>.b b b b >.a Q ~ G :.H.^._._.5.P Q Q Q 8.!.P.I.I.P._.F.P =.Q ! C ).uXrXH ! Q b b b b @.L =.b =.=.=.=.-.=.=.Q Q =.=.h a p 9 w q p e ! E.W.}.F.) P P L Q Q 4.H.n.Q Q =.-.>.=.b b b b b b b =.=.=.=.=.=.=.=.b b b =.=.=.=.=.",
"Q Q Q Q -.=.-.,.-.-.-.,.:.:.:.:.,.,.,.,.,.,.,.,.-.-.-.=.-.Q Q Q -.-.-.=.=.=.-.=.=.=.=.=.=.=.=.=.=.=.=.=.=.=.=.=.=.=.=.=.=.=.Q h h Q G 4._._.I.P.P.!.n.Q P -.=.-.! P E.!.W.).I.I.I.I.P.P.G.y.5.y.P.P.P.P.I.P.P.P._._._._._._._._._._._._._.I.`.`._.I.I._._.J.p.y._._._._.W.G.i.5.G.W.G.i.p.W.)._._.I.I._._.P.s.y.s.G._._.P._._._._._._._._._._._._._._._._._._._._.I.P._.W.F.9.i.G._._._.P._.G.p.p.s._._._.W.G.i.5.G.J.F.y.d.G.'.P.P.P.P.P.P.G.p.p.s.P._.)._._._._.p.y.G._._.I.).`.I.I.I._._.P.G.d.a.s._._.)._._.s.i.5.5.p.W._.P.U.D.P.G.2.-.m N b G _ 4XfXdXtX( G Q Q Q Q Q Q -.-.:.:.8.8.8.8.4.2.:.2.:.:.:.,.,.-.,.=.-.=.=.=.=.=.=.=.=.=.=.=.=.=.=.=.=.=.=.=.=.>.>.=.=.>.>.Q L 1.,.4.4.2.2.2.2.2.2.2.2.2.2.2.2.6.:.,.-.=.b =.>.=.=.=.=.=.=.=.=.=.=.=.=.=.=.>.>.=.=.=.=.=.=.=.=.=.=.=.=.=.=.=.=.=.=.=.=.=.=.=.=.=.=.=.=.=.=.=.=.=.=.=.=.>.b >.>.=.L Q ~ G 4.Q.^._._.7.-.-.Q Q 8.!.P.I.I.P._.F.P =.Q ! V ).uXrXH P Q b b b =.-.-.=.b =.=.=.=.@.@.-.=.-.=.>.>.=.v 9 9 q p e ! E.W.!.a.) ! ! Q Q Q 9.H.9.Q Q -.=.=.=.b b b b b b =.=.=.=.=.=.=.=.=.=.=.=.=.=.=.=.=.",
"L E Q =.-.:.:.:.:.:.:.:.4.8.8.8.4.:.4.:.4.:.4.:.4.:.:.:.:.-.-.-.@.@.-.-.-.=.=.=.=.=.=.=.=.=.b =.=.=.=.=.=.=.=.=.=.=.=.Q b h =.k h h L 3._._.I.P.P.}.M.Q Q -.-.-.! P E.!.W.}.I.I.I.I.P.P.G.i.5.y.P.P.P.P.P.P.P.P._._._._._._._._._._._._.I.I.`.`._.I.I._._.J.p.y._._._._.J.G.i.5.G.W.G.a.p.W.)._._.I.I._._.P.p.y.s.G._._.P._.).I._._._._._._._._._._._._._._._._._.I.P.'.W.F.i.i.G._._._.P._.G.s.p.s._._._.W.F.i.5.G.J.F.5.y.G.'.P.P.P.P.P.U.J.D.d.p.G._.)._._._._.p.y.G._._.I.).`.I.I.I._._.P.G.d.a.s._._._._._.G.i.5.d.p.W._.P.U.D.P.G.2.-.M N k G _ 4XfXfXtX_ G Q Q Q Q Q -.:.-.:.4.4.8.8.2.2.2.2.2.2.2.:.:.:.:.,.-.-.=.@.=.=.=.=.=.=.=.=.=.=.=.=.=.=.=.=.=.=.>.=.=.=.-.=.=.Q :.:.4.2.2.2.2.2.2.2.2.2.2.2.2.2.6.,.:.,.>.=.=.=.=.=.=.=.=.=.=.=.=.=.=.=.>.>.>.>.=.=.=.=.=.=.=.=.=.=.=.=.=.=.=.=.=.=.=.=.=.=.=.=.=.=.=.=.=.=.=.=.=.Q =.=.=.b =.=.=.L Q ! G ) H.!.).}.a.-.-.Q Q 8.!.P.I.I.P._.E.P =.Q ! C '.uXOXR P Q b b >.-.-.-.-.=.=.=.=.=.-.@.-.-.-.,.1.1.,.<.q 9 p u i :.E.!.G.5.` 3.8.:.-.Q 9.H.9.P Q -.Q =.=.b b b b =.b =.=.=.=.=.=.=.=.=.=.=.=.=.=.=.=.=.",
"P Q -.:.4.4.4.4.2.2.2.2.6.6.6.8.:.2.:.:.:.:.2.2.8.4.4.4.:.:.:.:.-.-.-.-.-.-.L L =.=.=.=.=.=.b b =.=.=.=.=.=.=.=.=.=.Q h b =.=.=.Q Q Q 4._._.I.P.P.}.M.Q Q Q =.-.! P E.!.W.}.I.I.I.I.P.P.G.i.5.i.P.I.P.P.P.P.P.P._._._._._._._._._._._._.I.I.`.`._.I.I._._.J.p.y.G._._._.W.p.d.5.G.W.G.i.p.W.)._._.I.I._._.P.p.y.s.G._._.I._.)._._._._._._._._._._._._._._._._._._.I.P.'.W.F.i.i.G._._._.P._.J.G.y.s.P._._.J.F.5.y.G.!.F.5.y.G.P.P.P.P.P.P.U.J.p.y.p.G._._._._._._.p.y.G._._.I.).`._.I.I._._.P.G.d.a.s._._._._._.G.a.5.d.p.W._.P.U.D.P.G.2.-.>.N k G } 5XfXfXdX} F E Q =.-.-.:.4.:.:.2.2.2.2.2.2.2.2.2.2.2.2.2.2.6.,.,.-.=.@.=.=.=.=.=.=.=.=.=.=.=.=.=.=.=.=.=.=.=.=.=.=.=.=.-.-.:.2.2.2.2.2.2.2.2.2.2.2.2.2.2.2.6.6.6.:.,.>.=.b =.=.=.=.=.=.=.=.=.=.=.=.>.>.>.>.=.=.=.=.=.=.=.=.=.=.=.=.=.=.=.=.=.=.=.=.=.=.=.=.=.=.=.=.=.=.=.=.-.-.-.=.=.b @.@.=.a Q W G ) F.G.).}.a.-.-.Q Q 4.!.P.I.I.P._.E.P ~ Q ! H |.uXrXI P Q b b b =.#.Q =.=.=.-.-.-.-.-.-.-.-.:.8.8.1.,.z q p i i :.E.!.G.5._ 3.8.4.-.-.M.H.7.W ! -.L =.=.=.b m b b h h =.=.=.=.=.=.=.=.=.=.=.=.=.=.=.=.",
"-.:.:.4.4.4.2.2.2.2.2.2.2.2.2.2.2.2.2.2.2.2.2.2.2.2.2.2.2.2.2.2.2.:.:.-.-.Q Q Q Q Q Q Q Q k k k Q Q Q Q Q Q Q Q Q Q Q Q =.=.;.<.<.-.^ 3.'.).h.P.P.}.M.Q Q Q L L ! P E.!.W.}.P.I.I.I.P.P.G.i.5.i.P.I.P.P.P.P.P.I._._._._._._._._._._._._._._.`.`._.P.I._._.P.p.y.s._._._.G.p.d.5.F.W.G.a.p.W.)._._.I.I._._.P.p.y.s.G._._.I._.).I._._._._._._._._._._._._._._._._.I.I.P.'.!.F.i.i.G._._.I.P._._.G.y.s.P._._.J.G.y.y.G.J.F.5.y.G.P.P.P.P.P.P.'.J.D.y.p.G._._._._._._.p.y.G._._.I.)._._.I.I._._.P.G.5.i.s._._._._._.G.p.d.d.F._.)._.U.D.P.G.2.-.>.N Q H } 5XfXfXgXy.D E =.,.:.:.:.4.2.2.2.2.2.2.2.2.2.2.2.2.2.2.2.4.8.:.,.,.-.-.=.=.=.=.=.=.=.=.=.=.=.=.=.=.=.=.=.=.=.=.=.=.=.=.=.-.4.4.2.2.2.2.2.2.2.2.2.2.2.2.2.2.6.6.6.8.,.,.=.=.=.=.=.=.=.=.=.=.=.=.=.=.>.=.=.=.=.=.=.=.=.=.=.=.=.=.=.=.=.=.=.=.=.=.=.=.=.=.=.=.=.=.=.=.=.=.=.=.-.Q -.-.-.=.=.=.,.Q -.! H ` F.G._._.d.-.-.Q Q 4.!.P.I.I.P._.F.P ~ E ! H ].uXrXI P Q =.m b Q P P Q Q Q =.-.:.:.2.2.2.2.2.8.8.4.,.b p p i r :.!.!.G.5.) ` 8.4.:.2.M.H.7.! -.-.L =.=.=.=.=.b b h h =.=.=.=.=.=.=.=.=.=.=.=.=.Q Q Q ",
"2.2.2.2.2.2.2.2.2.2.2.2.2.2.2.2.2.8.2.8.2.2.2.2.2.2.2.2.2.2.6.6.8.8.4.:.-.-.Q Q Q Q Q Q Q k k k Q Q Q Q Q Q Q Q h Q Q Q =.;.1.1.v.:.:.3.}.).h.P.P.}.M.W ! Q L L ! P E.!.W.}.P.I.I.I.P.P.G.i.i.i.P.I.P.P._._.P.I._._._._._._._._._._._._._._.`.`._._.I._._.P.p.y.s._._._.G.p.d.5.G.W.G.a.p.W.)._._._.I._._.P.p.y.s.P._._.I._.).I._._._._._._._._._._._._._._._._.I.I.P.'.!.F.i.i.J._._.I.P._._.G.y.s.P.P.P.J.F.5.i.G.J.F.5.y.G.P.P.P.P.P.P.'.J.D.y.p.G._._._._._._.p.y.G._._.I.)._._.I.I._._.P.G.5.d.s._.).)._._.G.p.d.d.F._._.P.U.D.P.G.2.-.>.N Q H } 5XfXfXgXp.D Q ,.1.8.:.:.:.2.2.2.2.2.2.2.2.3.2.2.2.2.2.6.8.4.:.:.,.>.-.=.=.=.=.=.=.=.=.=.=.=.=.=.=.=.=.=.=.b =.=.=.=.=.-.:.4.4.2.2.2.2.2.2.2.2.2.2.2.2.2.2.6.6.6.6.6.,.,.=.=.=.=.=.=.=.=.=.=.=.=.=.>.=.=.=.=.=.=.=.=.=.=.=.=.=.=.=.=.=.=.=.=.=.=.=.=.=.=.=.=.=.=.=.=.=.=.=.L P P -.,.,.,.1.1.:.4.8./ 3.H.J._._.a.-.-.-.Q 8.!.P.I.I.P._.F.P -.E ! I OXuXrXI P Q =.m =.L P P Q Q =.-.:.2.8.8.8.2.2.2.2.2.2.,.>.z p i r 2.E.!.G.5./ ` 3.8.2.2.F.F.7.! 2.:.-.,.=.=.=.=.=.=.Q Q =.=.=.=.=.=.=.=.Q Q =.=.=.=.=.=.",
"2.2.2.2.2.2.2.2.2.2.2.2.3.3.3.2.2.2.2.2.2.2.2.2.2.2.2.2.2.2.2.2.8.8.8.4.:.:.-.-.Q Q Q Q Q k k k Q Q Q Q Q Q Q Q Q Q =.;.,.:.:.1.:.:.! 3._._.I.P.G.}.F.^ -.,.>.,.! P E.!.W.}.I.I.I.I.P.P.G.i.i.p.P.P.P.P.)._.P.I._._._._._._._._._._._._._._.`.`._.P.P._._._.p.y.s._.}._.G.i.5.5.G.W.G.i.p.W.)._._._.I._._.P.p.y.s.P._._.I._.`.I._._._._._._._._._._._._._._._._.I.I.P.'.!.F.i.i.J._._.I.I._._.G.y.s.P.P.J.J.F.5.i.G.!.F.5.y.G.P.P.P.P.P.P.'.J.G.y.p.G._._._._._._.p.y.G._._.I.)._._.I.I._._.P.G.3.d.s._.).)._._.G.F.d.d.F.W._.P.U.D.P.G.2.-.>.N h H } 5XfXfXgXp.P =.:.1.:.:.:.:.4.2.2.2.2.2.2.2.3.3.2.2.2.2.6.8.:.:.,.1.,.,.-.=.=.=.=.=.=.=.=.=.=.=.=.=.=.=.=.=.b b =.=.=.-.,.1.4.4.2.2.2.2.2.2.2.4.2.2.2.2.2.2.6.6.6.6.6.,.,.,.Q =.=.=.=.=.=.=.=.=.=.=.=.=.=.=.=.=.=.=.=.=.=.=.=.=.=.=.=.=.=.=.=.=.=.=.=.=.=.=.=.=.=.=.=.=.=.=.-.-.-.,.,.1.8.8.8.:.8.8.) 3.H.!._._.a.2.:.-.-.9.!.P.I.I.P._.F.P Q a W I rXuXrXI P Q =.>.>.=.-.:.-.-.,.:.:.2.6.6.6.2.2.2.2.2.2.:.q.b x i r :.E.W.G.5.) ` 3.8.2.2.F.F.8.) 6.:.-.,.,.,.,.<.>.>.-.-.=.=.=.=.=.=.=.=.=.=.=.=.>.;.;.;.",
"2.2.2.2.2.2.2.7.2.2.2.2.3.3.3.3.2.2.2.2.2.2.2.2.7.8.7.2.2.2.2.2.2.2.2.2.4.4.:.:.Q Q Q Q Q Q Q Q Q Q Q Q Q Q Q Q ~ =.,.,.1.:.,.:.,.-.W 3.W._.P._.G.'.F.) :.8.1.:.! P E.!.G.}.I.I.I.I.P.P.G.p.i.p.G.P.P._.)._._._._._._._._._._._._._._._._._.`.`._.P.P._._._.p.y.s.W.}._.G.d.d.5.G.W.G.p.p.W._.P._.I.I._._.P.p.y.s.P._._.I.`.`.I.`._._._._._._._._._._._._._._._.I.P.P.'.J.S.i.d.J._._.P.I._._.P.y.s.G.P.J.J.F.5.i.G.!.F.5.5.G.P.P.P.P.P.P.'.P.G.y.p.G._._._.I.P._.p.y.G._._.I.)._._.I.I._._.P.G.3.d.s._.).)._._.W.F.i.i.F.W._.P.U.D.P.G.2.-.;.N Q P } wXfXfXhXp.! -.:.:.4.:.4.4.6.2.2.2.2.2.2.2.3.3.2.2.2.2.2.2.:.:.:.1.:.,.-.Q =.=.=.=.=.=.=.=.=.=.=.=.=.=.=.=.h Q =.Q =.-.,.8.4.4.2.2.2.2.2.2.2.4.2.2.2.2.2.2.2.2.6.6.6.6.6.1.Q Q Q Q =.=.=.=.=.=.=.=.=.=.=.=.=.=.=.=.>.=.=.=.=.=.=.=.=.=.=.=.=.=.=.=.=.=.=.=.=.=.=.=.=.=.=.-.1.2.:.,.,.:.:.:.4.-.2.4.) 3.F.G.P.).F.8.8.:.4.M.!.P.I.I.P._.F.P Q L ! I rXuXrXT F P =.>.>.:.4.4.4.4.:.4.2.2.2.2.6.2.2.2.2.6.6.6.0.=.p i r 2.E.W.G.5.` ` 8.2.2.2.E.F.3.2.8.2.-.8.8.1.1.,.,.,.,.-.-.Q -.Q =.Q =.Q -.=.=.-.,.:.1.:.",
"2.2.2.2.2.2.2.2.2.2.2.2.2.2.2.2.2.2.2.2.2.2.2.2.2.2.2.2.2.2.2.2.2.2.2.2.2.2.2.2.2.:.:.:.-.! ! Q L L Q Q Q -.-.-.:.:.:.:.:.:.:.:.-.4.4.3.G.}.P.I.P._.d.) 3.4.:.4.3.3.F.'.J.P.].P.I.P.P.P.G.i.5.a.s.P._._._._._._._._._._._._._._._._._._._._._._.I._._._._._.s.y.y.W.'._._.p.y.a.W._.G.d.p.G.'.P.P.P.P.P.P.P.p.} u.G._._._._.`.`.`._._._._._._._._._._._._._._._._._._._._.G.s.y.G.P._._._._.`._.p.d._.W.W.}.i.i.p.G.W.G.d.5.F.'.P.I.P.P.P.J.J.J.y.p.G.P.P.P.P.P.U.p.y.s._._._._.I._._._._._._.P.p.5.p._._._.).W.W.d.i.a.i.G.}.P.P.G.!.H.-.Q b h ! C y.tXaXdXiXY.) :.4.4.8.4.2.2.6.2.6.2.2.2.2.2.2.2.2.2.2.2.2.2.4.4.4.4.4.4.:.:.L =.=.=.=.=.=.=.b b b b b b b b Q Q =.Q Q Q -.8.4.4.2.2.2.2.2.2.2.2.2.2.2.2.2.2.2.2.2.2.2.2.2.2.4.:.^ Q L L Q -.-.=.=.b m m >.>.x x x x x >.>.>.=.=.>.>.>.>.>.=.=.=.=.=.=.=.=.=.=.=.=.=.a =.>.1.2.2.2.2.2.2.2.2.2.2.2.2.` 3.F.J.U.'.i.3.2.2.2.9.W.P.I.L.P._.a.2.:.:.) } uXuXtX( 3.4.1.,.1.:.2.2.2.2.2.2.2.2.2.2.2.2.2.2.2.2.2.2.1.1.L r 3 ! (.F.F.7.` 3.8.2.2.2.E.7.2.2.8.6.2.2.2.2.2.4.2.2.2.2.4.4.4.4.4.4.4.4.4.4.4.4.4.4.4.4.",
"2.2.2.2.2.2.2.2.2.2.2.2.2.2.2.2.2.2.2.2.2.2.2.2.2.2.2.2.2.2.2.2.2.2.2.2.2.2.2.2.2.2.2.2.2.-.-.-.-.-.-.:.:.:.:.:.:.:.:.:.:.:.:.:.:.4.` 3.G.}.P.I.P._.p.) 3.2.:.4.3.3.F.'.J.P.Y.P.P.P.P.J.G.i.5.a.s._._._._._._._._._._._._._._._._._._._._._._._._._._._._._.s.y.y.J.'._._.p.7.p.W._.G.d.p.G.'.P.P.P.P.P.P.P.p.} u.G._._._._.`.`._._._._._._._._._._._._._._._._._._._._._.P.s.y.P.P._._._._.`.).p.d.W.W.W.}.d.i.p.G.W.G.d.5.G.'.K.L.P.P.P.J.J.J.y.p.G.P.P.K.P.P.U.F.y.s._._._._.I._._._._._._.J.p.5.p._._._.).W.W.i.i.a.i.G.}.P._.P.!.H.-.Q =.Q ! D y.tXaXdXpX*X_ ^ 4.4.2.2.6.6.6.6.6.6.2.2.2.2.2.2.2.2.2.2.2.2.4.4.4.4.` ` ` :.>.>.-.=.=.=.=.=.=.b b b b b b h Q Q Q Q Q =.:.8.4.4.2.2.2.2.2.2.2.2.2.2.2.2.2.2.2.2.2.2.2.2.2.2.4.` ! W Q Q Q Q -.=.=.b m m m m >.>.>.>.=.>.>.=.=.>.>.>.>.>.>.=.=.=.=.=.=.=.=.=.=.=.=.=.=.=.,.1.2.2.2.2.2.2.2.2.2.2.2.2.3.3.F.J.U.U.i.) 2.2.2.a.P.P.P.K.P._.a.2.4.2./ } gXdXtX{ 3.4.:.,.:.:.2.3.2.2.2.2.2.2.2.2.2.2.2.2.2.2.2.2.8.8.P G 3 ! !.H.F.7.3.3.8.8.2.2.E.8.-.2.6.6.2.2.2.2.2.2.2.2.2.2.2.2.2.2.2.2.2.2.2.2.2.2.2.2.2.2.",
"2.2.2.2.2.2.2.2.2.2.2.2.2.2.2.2.2.2.2.2.2.2.2.2.2.2.2.2.2.2.2.2.2.2.2.2.2.2.2.2.2.2.2.2.2.2.2.2.:.4.4.4.4.8.8.8.:.4.4.4.4.4.:.:.:.4.` 3.G.'.P.P.P._.p.) 3.2.:.2.3.3.F.'.J.P.].P.P.P.P.J.G.9.5.a.s._._._._._._._._._._._._._._._._._._._._._._._._._._.I._._.P.y.y.J._.J.W.p.7.p.^._.G.d.y.G.'.P.P.P.P.P.P.P.G.} u.G._._._._.`.`._._._._._._._._._._._._._._._._._._._._._.P.s.y.P.P._._._._.`.).p.d.W.W.W.}.d.i.p.G.W.G.d.d.F.'.K.L.P.P.P.J.J.J.y.p.G.P.P.K.I.P.U.F.y.s._._._._.I._._._._._._.J.p.5.p._._._.).W.W.i.i.a.i.G.}.I.I.P.!.H.:.=.;.~ -.F u.tXdXdXpX*X_ 4.4.4.2.2.6.6.6.6.6.6.2.2.2.2.2.2.2.2.2.2.4.4.4.4.4.4.` ` ` :.1.,.=.=.@.@.-.=.=.=.=.=.b b b h =.Q E Q ~ ,.:.4.4.4.2.2.2.2.2.2.2.2.2.2.2.2.2.2.2.2.2.2.2.2.2.2.4.4.:.! ^ ^ -.-.Q =.b b m m m m =.=.m m m x x m =.=.=.=.>.>.=.=.=.=.=.=.=.=.=.=.=.=.@.=.=.,.,.,.2.2.2.2.2.6.6.2.2.2.6.2.3.3.F.J.U.U.i.) 2.2.2.a.P.P.P.K.P._.a.2.4.4._ u.gXdXtX{ 3.2.:.,.:.:.2.3.2.2.2.2.2.2.2.2.2.2.2.2.2.2.2.2.:.8.! G 3 H !.!.F.3.3.3.8.2.2.2.V.8.2.2.8.8.2.2.2.2.2.2.2.2.2.2.2.2.2.2.2.2.2.2.2.2.2.2.2.2.2.2.",
"2.2.2.2.2.2.2.2.2.2.2.2.2.2.2.2.2.2.2.2.2.2.2.2.2.2.2.2.2.2.2.2.2.2.2.2.2.2.2.2.2.2.2.2.2.2.2.4.2.:.4.4.4.4.8.8.4.4.4.4.4.4.4.4.:.4.) ` G.'.P.P.P._.p.) 3.8.:.4.3.3.F.'.J.P.Y.P.P.P.P.P.G.i.5.i.s._._._._._._._._._._._._._._._._._._._._._._._._._._.P._._.P.u.} G._.J.W.p.d.a.^._.G.d.y.G.'.P.P.P.P.P.P.P.G.y.u.G._._._._.`.`._._._._._._._._._._._._._._._._._._._._._.P.s.y.G.P._._._._.`.).s.5.G.W.!.'.d.i.p.G.W.G.d.d.F.'.K.K.P.P.P.J.J.J.y.p.G.P.P.P.I.P.U.p.y.s._._._._.I._._._._._._.J.p.5.p._._._.).W.W.i.i.a.i.G.}.I.I.P.'.E.4.-.1.-.2.F s.tXdXfXsX=X_ ` 4.4.2.2.6.6.6.6.6.6.2.2.2.2.2.2.2.2.2.2.4.4.4.4.4.4.` ` ` 4.8.,.,.-.-.-.@.-.-.-.-.=.=.=.=.=.=.Q E Q -.:.8.:.4.2.2.2.2.2.2.2.2.2.2.2.2.2.2.2.2.2.2.2.2.2.2.2.4.4.4.4.:.:.-.-.=.=.=.b =.=.>.>.x x x =.>.=.=.>.=.=.=.=.>.>.>.m =.=.=.=.=.=.=.=.>.=.@.-.,.8.,.:.2.2.2.2.2.6.6.2.2.2.6.2.3.3.F.J.U.U.i.) 2.2.2.a.U.P.P.K.P._.a.2.8.4._ p.gXdXtX} 3.2.:.1.:.:.2.2.2.2.2.2.2.2.2.2.2.2.2.2.2.2.2.2.:.8.:.! 3 D E.^.a.3.3.3.2.2.2.6.V.8.2.2.8.2.2.2.2.2.2.2.2.2.2.2.2.2.2.2.2.2.2.2.2.2.2.2.2.2.2.2.",
"2.2.2.2.2.2.2.2.2.2.2.2.2.2.2.2.2.2.2.2.2.2.2.2.2.2.2.2.2.2.2.2.2.2.2.2.2.2.2.2.2.2.2.2.2.2.2.2.2.:.:.4.4.4.4.4.4.4.4.4.4.4.:.4.:.4.) ` G.'.P.P.P._.p.) 2.8.:.2.` ` F.'.J.P.].P.P.P.P.U.G.i.5.i.s._._._._.).)._._._._._._._.`._._._._._._._._._._._._.P._._.P.u.} G._.G.W.p.d.a.W._.W.d.y.G.U.J.P.P.P.P.P.).G.y.p.G._._.c.`.`.`.`._._._._._._._._._._._._._._._._._._._._.P.s.y.P.P._._._._.`.`.G.5.G.W.!.}.y.i.p.W.!.G.d.5.p._.P.P.P.P.P.J.J.J.y.p.G.P.P.P.I.P.U.p.y.s._._._._.I._._._._._._.J.p.3.p._._._.).W.W.d.i.a.i.G.).I.I.I._.W.4.,.1.:.2.I h.dXdXfXsXwX_ ) 2.2.2.2.6.6.6.6.6.6.2.2.2.2.2.2.6.6.2.2.2.2.4.4.4.4.4.4.4.4.4.8.6.1.:.-.-.P -.-.-.=.=.=.=.-.-.Q Q -.:.1.8.4.2.2.2.2.2.2.2.2.2.2.2.2.2.2.2.2.2.2.2.2.2.2.2.2.2.4.4.4.4.:.:.-.-.=.=.b =.=.=.>.>.m =.<.<.=.=.>.b =.=.>.>.=.=.b =.b b =.=.=.=.=.-.-.-.-.6.8.6.2.2.2.2.2.2.2.2.2.2.2.2.2.3.3.F.J.U.U.i.) 2.2.2.a.U.U.P.P.P._.a.2.8.2._ D.gXeXtX .3.4.:.1.:.:.2.2.2.2.2.2.2.2.2.2.2.2.2.2.2.2.2.2.:.8.:.:.D B F.!.9.3.3.3.2.2.2.8.9.2.2.2.8.2.2.2.2.2.2.2.2.2.2.2.2.2.2.2.2.2.2.2.2.2.2.2.2.2.2.2.",
"2.2.2.2.2.2.2.2.2.2.2.2.2.2.2.2.2.2.2.2.2.2.2.2.2.2.2.2.2.2.2.2.2.2.2.2.2.2.2.2.2.2.2.2.2.2.2.2.4.4.4.4.4.4.4.4.4.4.4.4.4.4.:.4.:.4.) ` F.'.P._.P._.d.) 2.2.:.2.3._ F.'.J.P.].P.P.P.P.U.G.i.5.i.s._._._._.).)._._._._._._._.`._._._._._._._._._._._._.P._._.P.s._ G.J.G.W.p.d.a._._.W.d.y.G.U.J.P.P.P.P.P.).G.y.p.G._._.c.`.`.`.`._._._._._._._._._._._._._._._._._._._._.P.s.y.P.P._._._._.`.`.W.5.G.W.}.!.5.i.p.W.!.G.d.5.p.P.P.P.P.P.P.J.J.J.y.p.G.J.P.P.I.P.U.p.y.s._._._._.I._._._._._._.J.p.5.p._._._.).W.W.i.i.a.i.G.).I.I.I._.W.8.,.8.:.2.Y h.dXdXfXpXwX_ ` 3.2.2.2.6.6.6.6.6.6.2.2.2.2.2.4.2.2.2.2.2.2.4.4.4.4.4.4.4.4.2.6.8.8.6.:.-.#.#.-.-.-.-.-.-.Q Q Q -.-.:.4.4.4.2.2.2.2.2.2.2.2.2.2.2.2.2.2.2.2.2.2.2.2.2.2.2.2.2.4.4.8.4.4.:.:.,.,.>.=.=.=.=.=.>.b b >.=.p i p b =.=.>.>.=.=.b b b b b =.=.=.=.-.-.-.:.6.6.6.2.2.2.2.2.2.2.2.2.2.2.2.3.3.3.F.J.U.U.i.) 2.2.2.a.J.P.P.P.P._.a.2.8.2._ P.hXeXtXu.3.2.:.1.:.4.2.3.2.2.2.2.2.2.2.2.2.2.2.2.2.2.2.2.4.8.:.4.F 3 a.!.7.3.3.3.2.2.2.8.7.2.2.2.8.2.2.2.2.2.2.2.2.2.2.2.2.2.2.2.2.2.2.2.2.2.2.2.2.2.2.2.",
"2.2.2.2.2.2.2.2.2.2.2.2.2.2.2.2.2.2.2.2.2.2.2.2.2.2.2.2.2.2.2.2.2.2.2.2.2.2.2.2.2.2.2.2.2.2.2.2.4.4.4.4.4.4.4.4.2.2.2.2.2.2.2.4.:.4.) / F.!.J._.W._.d.) 2.2.:.2.3.3.F.'.J.P.].P.P.P.P.'.G.i.5.5.s._._._._.).)._._._._._._.`.`._._._._._._._._._._._._.P._.]._.s._ G.J.G.W.p.d.a._._.W.p.y.G.P.J.P.P.P.P.).).G.p.u.G._._.c._.{.`._._._._._._._._._._._._._._._._._._._._._.G.s.y.P.P._._._.`.`.)._.5.F.W.}.!.3.p.F.J.!.G.d.5.p.P.P.P.P.P.P.P.J.J.y.p.G.P.P.P.I.P.'.p.y.p._._._._.I._._._._._._.J.p.3.p._._._.}.W.W.i.i.a.a.G.).P.I.I._.W.8.:.8.:.3.I I.dXdXpXkXiX_ 3.3.2.2.2.6.6.6.6.6.6.2.2.2.2.4.:.4.4.8.8.4.:.4.4.4.4.4.4.4.4.2.6.6.6.6.6.2.2.#.#.#.-.-.-.-.Q P -.:.:.:.:.4.4.2.2.2.2.2.2.2.2.2.2.2.2.2.2.2.2.2.2.2.2.2.2.2.2.2.4.4.4.4.4.:.:.:.:.,.=.-.=.-.=.>.a a =.a e 7 e b b =.>.=.=.=.b b b b b =.=.=.=.-.-.6.6.6.6.6.2.2.2.2.2.2.2.2.2.2.2.2.2.3.3.F.J.U.U.i.) 2.2.2.a.J.P.P.K.P._.a.2.4.) _ P.hXwXwXu._ 3.:.1.:.4.2.3.2.2.2.2.2.2.2.2.2.2.2.2.2.2.2.2.8.:.:.8.G 3 9.^.3.3.3.3.2.2.2.8.8.2.2.2.8.2.2.2.2.2.2.2.2.2.2.2.2.2.2.2.2.2.2.2.2.2.2.2.2.2.2.2.",
"2.2.2.2.2.2.2.2.2.2.2.2.2.2.2.2.2.2.2.2.2.2.2.2.2.2.2.2.2.2.2.2.2.2.2.2.2.2.2.2.2.2.2.2.2.2.2.2.2.2.2.2.2.:.:.:.2.2.2.2.2.2.2.2.:.8.) ) F.!.J.W.W.W.a.) 2.2.:.2.3.3.F.'.J.P.].P.I.P.P.'.G.i.5.5.s._._._._.).)._._._._._.`.`.`._._._._._._._._._._._._.P._.]._.s.( G.J.G.W.p.d.a._.}.W.p.y.G.P.G.P.P.P.P.).).G.y.u.G._._.c._.`.`._._._._._._._._._._._._._._._._._._._._._.G.s.y.P.P._._.`.`.`.)._.3.p.G.}.!.3.p.F.W.!.G.d.5.F.P.P.I.P.P.P.P.J.J.y.p.G.J.P.P.I.P.U.p.y.s._._._._.P._._._._._._.J.p.3.p._._._.).W.W.9.i.a.a.G.}.I.I.I._.W.2.:.8.2.3.I h.dXdXpXkXiX} 3.3.` 2.2.6.8.6.6.6.6.2.2.2.2.:.:.:.:.1.8.4.4.4.4.4.4.4.4.4.2.2.6.6.6.6.6.6.8.#.#.#.#.-.-.#.! P -.:.4.:.:.:.4.2.2.2.2.2.2.2.2.2.2.2.2.2.2.2.2.2.2.2.2.2.2.2.2.2.2.2.4.4.2.4.4.8.8.:.,.-.-.-.-.<.b b >.>.i e i b =.=.=.=.=.=.b b b b =.=.=.=.-.@.-.8.9.6.6.6.2.2.2.2.2.2.2.2.2.2.2.2.2.3.3.F.J.U.U.i.) 2.2.2.a.J.P.P.K.P._.a.2.2.) _ P.hXwXtXu._ 3.:.1.:.2.2.3.2.2.2.2.2.2.2.2.2.2.2.2.2.2.2.2.8.:.:.8.P 3 9.^.3.` 3.3.2.2.2.8.8.2.2.2.8.2.2.2.2.2.2.2.2.2.2.2.2.2.2.2.2.2.2.2.2.2.2.2.2.2.2.2.",
"2.2.2.2.2.2.2.2.2.2.2.2.2.2.2.2.2.2.2.2.2.2.2.2.2.2.2.2.2.2.2.2.2.2.2.2.2.2.2.2.2.2.2.2.2.2.2.2.2.2.2.2.2.2.2.2.2.2.2.2.2.2.2.2.2.4.2.` i.}.}.G.}.F.3.) 2.8.2.2.` ) p.'.U.P.U.P.P.P.P.U.J.F.i.i.p._.).)._.).).)._._._._.`.`.`._._._._._._._._._._._._._._._._._.} p.G.'.G.y.d.W.W.W.G.p.y.s.J.P.P.P.P.P.P.).G.y.y.G._._._._.`.`._._._._._._._._._._._._._._._._._.I.P._._.P.p.y.G.P._._.`.I.j._.G.i.d.J.'.G.d.d.G.W.W.G.i.d.p.J.P.P.P.P.P.P.W.W.s.y.D.).P.P.P.P.U.F.y.s._._._._._._._._._._._._.W.5.p.)._._.)._.W.i.5.i.d.G.).I.I.I._.a.2.:.8.2.2.*.I.dXfXpXpXfXp./ 7.3.2.7.6.8.-.:.6.8.2.2.2.2.8.8.:.-.-.:.8.:.4.4.2.4.4.4.2.2.2.2.2.2.2.2.2.2.2.2.2.6.2.2.2.:.4.:.:.:.2.2.2.2.2.2.2.2.2.2.2.2.2.2.2.2.2.2.2.2.2.2.2.2.2.2.2.2.2.2.4.4.4.4.2.4.4.4.4.:.:.:.:.1.=.=.=.=.=.=.=.=.=.=.=.=.=.=.=.=.b k h h h Q Q -.4.2.2.2.2.2.7.3.2.2.2.2.2.2.2.2.2.2.2.3.3.3.p.J.G.U.i.3.7.2.3.i.'.P.P.P._.G.d.2.9.) _ ].tXdXdX} 3.2.4.1.:.2.2.3.2.2.2.2.2.2.2.2.2.2.2.2.2.2.2.2.4.:.4.:.2.% 9.^.` ` 3.3.2.2.2.2.2.2.2.2.2.2.2.2.2.2.2.2.2.2.2.2.2.2.2.2.2.2.2.2.2.2.2.2.2.2.2.2.",
"2.2.2.2.2.2.2.2.2.2.2.2.2.2.2.2.2.2.2.2.2.2.2.2.2.2.2.2.2.2.2.2.2.2.2.2.2.2.2.2.2.2.2.2.2.2.2.2.2.2.2.2.2.2.2.2.2.2.2.2.2.2.2.2.4.4.3.) 3.G.!.F.}.F.3.2.2.8.6.2.3.) i.'.P.P.U.P.P.P.P.U.J.F.i.i.p.W.).)._.).).)._._._._.`.`.`._._._._._._._._._._._._._._._._._.y.p.G.'.G.3.d.W.W.W.s.p.y.s.J.P.P.P.P.P.P.).G.y.y.G._._._._.`.`._._._._._._._._._._._._._._._._._.I.P._._.P.p.y.G.P._._._.I.j._.W.p.i.J.!.F.d.5.G.W.W.G.d.d.p.J.P.P.P.P.P.P._._.s.y.D.).P.P.P.P.U.F.y.p._._._._._._._._._._._._.W.5.p._._._.)._.W.i.5.i.d.G.).I.I.I._.F.2.:.8.2.2.*._.dXfXpXpXfXP.) 5.3.2.8.,.8.,.1.8.6.2.2.2.8.-.-.L a L ,.8.:.4.4.2.2.4.4.2.2.2.2.2.2.2.2.6.6.2.2.2.6.2.2.2.2.2.4.2.2.2.2.2.2.2.2.2.2.2.2.2.2.2.2.2.2.2.2.2.2.2.2.2.2.2.2.2.2.2.2.4.4.4.4.2.2.2.4.2.4.2.:.:.:.=.>.=.=.-.=.=.h Q h Q Q =.Q =.Q h h Q Q -.=.-.:.4.2.2.2.2.2.7.3.2.2.2.2.2.2.2.2.2.2.2.3.3.3.a.J.G.U.i.3.2.2.3.a.'.P.P.P._.G.d.2.9.) _ ].dXdXdX} 3.2.2.1.2.2.2.3.2.2.2.2.2.2.2.2.2.2.2.2.2.2.2.2.4.:.4.:.2.% 9.!.` ` 3.3.2.2.2.2.2.2.2.2.2.2.2.2.2.2.2.2.2.2.2.2.2.2.2.2.2.2.2.2.2.2.2.2.2.2.2.2.",
"2.2.2.2.2.2.2.2.2.2.2.2.2.2.2.2.2.2.2.2.2.2.2.2.2.2.2.2.2.2.2.2.2.2.2.2.2.2.2.2.2.2.2.2.2.2.2.2.2.2.2.2.2.2.2.2.2.2.2.2.2.2.2.2.4.8.3.! ` F.G.G.W.a.3.2.2.6.6.2.3.) p.'.P.P.U.P.P.P.P.U.J.F.i.i.p.W.).)._._.).)._._._._.`._.`._._._._._._._._._._._._._._._._._.y.p.G._.G.y.d.W.^.W.s.p.y.s.J.P.P.P.P.P.P.).J.p.y.G._._._._.`.`.`._._._._._._._._._._._._._._._._.I.P._._.P.p.y.G.P._._._.I.j._._.p.i.G.W.F.d.d.G.W.W.G.d.5.p.J.P.P.P.P.P.P.P.P.s.y.D.).P.P.P.P.U.F.y.p._.)._._._._._._._._._._.W.5.p._._._.)._.W.i.5.i.d.G.).I.I.I._.G.2.:.8.2.2.*.I.dXfXpXpXfXP._ 3.3.2.8.,.8.8.1.1.,.2.2.2.2.a i y i a >.1.8.4.4.2.2.2.2.2.2.2.2.2.2.2.2.2.2.2.2.2.2.2.2.2.2.2.2.2.2.2.2.2.2.2.2.2.2.2.2.2.2.2.2.2.2.2.2.2.2.2.2.2.2.2.2.2.2.2.2.2.2.2.2.2.2.2.4.2.4.2.4.2.:.:.,.,.=.=.Q Q Q Q Q Q Q Q Q Q Q L h Q =.-.:.:.4.2.2.2.2.2.2.2.2.2.2.2.2.2.2.6.2.6.2.2.3.3.3.a.J.U.U.i.` 2.2.3.i.'.P.P.P.P.G.a.3.8.) _ rXdXdXdX| _ 2.4.1.2.2.2.3.2.2.2.2.2.2.2.2.2.2.2.2.2.2.2.2.4.:.4.:.2.$ 9.!.` 3.3.3.2.2.2.2.2.2.2.2.2.2.2.2.2.2.2.2.2.2.2.2.2.2.2.2.2.2.2.2.2.2.2.2.2.2.2.2.",
"2.2.2.2.2.2.2.2.2.2.2.2.2.2.2.2.2.2.2.2.2.2.2.2.2.2.2.2.2.2.2.2.2.2.2.2.2.2.2.2.2.2.2.2.2.2.2.2.2.2.2.2.2.2.2.2.2.2.2.2.2.2.2.2.2.8.8.) ` 9.!.!.F.9.3.2.2.6.6.2.3.) p.'.P.P.U.P.P.P.P.U.J.F.i.i.p.G.).)._.).).)._._._._._._.`._._._._._._._._._._._._._._._._._.y.p.G._.G.d.d.W.^.W.s.p.y.s.J.P.P.P.P.P.P.).J.p.y.G._._._._.`.`.`._._._._._._._._._._._._._._._._.I.P._._.P.p.y.G.P._._._.I.j._._.p.d.G.J.p.5.5.W.W.W.F.5.3.p._.P.P.P.P.P.P.P.P.G.y.D.).P.P.P.P.U.F.y.p._.)._._._._._._._._._._.W.5.p._._._.)._.W.i.5.i.5.G.).P.I.I.).G.2.:.8.2.2.3._.gXfXpXpXfX]._ 3.3.2.8.:.1.1.1.1.1.8.2.2.-.i i i i a ,.1.8.:.4.2.2.2.2.2.2.2.2.2.2.2.2.2.2.2.2.2.2.2.2.2.2.2.2.2.2.2.2.2.2.2.2.2.2.2.2.2.2.2.2.2.2.2.2.2.2.2.2.2.2.2.2.2.2.2.2.2.2.2.2.2.2.2.2.2.2.2.2.2.4.4.:.:.,.-.-.-.-.Q Q Q Q Q Q Q Q E Q -.-.:.4.4.4.2.2.2.2.2.2.2.2.2.2.2.2.2.2.6.6.8.2.2.3.3.3.a.J.U.U.i.) 2.2.3.a.'.P.P.P.P.G.a.2.8.) y.rXdXgXdX| 3.2.4.1.2.2.2.3.2.2.2.2.2.2.2.2.2.2.2.2.2.2.2.2.8.:.4.:.2.$ 9.!.` ` 3.3.2.2.2.2.2.2.2.2.2.2.2.2.2.2.2.2.2.2.2.2.2.2.2.2.2.2.2.2.2.2.2.2.2.2.2.2.",
"2.2.2.2.2.2.2.2.2.2.2.2.2.2.2.2.2.2.2.2.2.2.2.2.2.2.2.2.2.2.2.2.2.2.2.2.2.2.2.2.2.2.2.2.2.2.2.2.2.2.2.2.2.2.2.2.2.2.2.2.2.2.2.2.2.4.4.) ) 7.H.^.a.7.2.2.2.6.6.2.3.) i.'.P.P.P.I.P.P.P.U.J.F.9.i.p.W.).)._.).).)._._._._._._._._._._._._._._._._._._._._._._._._.p.p.G.J.G.d.d.W.^.W.s.p.y.s.J.P.P.P.P.P.P.).P.p.y.G._._._.`.`.`.`._.I._._._._._._._._._._._._._._.I.P._._.P.p.y.G.P._._._.I.I._.}.p.d.G.G.p.d.5.W.!.W.F.5.3.p.J.P.P.P.P.P.P.P.P.G.y.G.).P.P.P.P.U.p.y.s._._._._._._._._._._._.W.W.5.p._._._.)._.W.i.5.d.5.G.).P.I.I._.F.2.:.8.:.2.3._.dXfXpXpXfX4X3.3.2.2.8.-.,.-.-.,.1.8.2.P G i i i i a ,.1.1.:.4.2.2.2.2.2.2.2.2.2.2.2.2.2.2.2.2.2.2.2.4.4.2.2.2.2.2.2.2.2.2.2.2.2.2.2.2.2.2.2.2.2.2.2.2.2.2.2.2.2.2.2.2.2.2.2.2.2.2.2.2.2.2.2.2.2.2.2.2.3.2.4.:.:.:.:.:.:.:.-.-.-.-.-.-.-.-.-.-.:.:.4.4.:.2.2.2.2.2.2.2.2.2.2.2.2.2.2.2.2.2.8.2.2.3.3.3.a.J.P.P.y.) 2.2.3.F.'.P.P.P._.G.d.2.8.) y.tXdXdXdXu.3.2.2.1.4.2.2.3.2.2.2.2.2.2.2.2.2.2.2.2.2.2.2.2.8.:.4.:.4.3 9.E.3.3.3.3.2.2.2.2.2.2.2.2.2.2.2.2.2.2.2.2.2.2.2.2.2.2.2.2.2.2.2.2.2.2.2.2.2.2.2.2.",
"2.2.2.2.2.2.2.2.2.2.2.2.2.2.2.2.2.2.2.2.2.2.2.2.2.2.2.2.2.2.2.2.2.2.2.2.2.2.2.2.2.2.2.2.2.2.2.2.2.2.2.2.2.2.2.2.2.2.2.2.2.2.2.2.2.2.4.2.! ) 3.9.7.7.2.2.2.6.6.2.3.) i.'.P.P.P.I.P.P.P.U.J.F.9.i.p._.).)._.).).)._._._._._._._._._._._._._._._._._._._._._._._._.p.p.p.J.G.d.p.W.^.W.s.p.y.s.J.P.P.P.P.P.P.).P.p.y.G._._._.`.`.`._._.I._._._._._._._._._._._._._._.P.P._._.P.s.y.G.P._._._.I.I._.}.p.d.p.G.p.d.i.J.!.!.G.d.3.p.J.P.P.P.P.P.P.P.J.s.y.G.).P.P.P.P.U.p.y.s._._._._._._._._._._._.W.W.5.p._._._.)._.W.i.5.i.5.G.).P.I.I._.F.:.-.8.:.2.3._.dXfXpXpXfXtX3.3.3.2.4.P L i a -.,.8.8.P D i i i i a >.,.,.:.:.2.2.2.2.2.2.2.2.2.2.2.2.2.2.2.2.2.2.4.4.4.2.2.2.2.2.2.2.2.2.2.2.2.2.2.2.2.2.2.2.2.2.2.2.2.2.2.2.2.2.2.2.2.2.2.2.2.2.2.2.2.2.2.2.2.3.2.2.3.2.2.:.2.4.2.4.4.4.2.:.2.:.2.:.2.:.:.4.4.4.2.2.2.2.2.2.2.2.2.2.2.2.2.2.2.2.2.2.2.2.8.2.2.3.3.3.a.J.P.G.y.) 2.2.3.F.'.P.P.P._.G.d.2.2.) p.tXdXdXgXu.3.2.2.1.2.2.2.3.2.2.2.2.2.2.2.2.2.2.2.2.2.2.2.2.8.:.:.:.8.3 9.H.3.3.3.3.2.2.2.2.2.2.2.2.2.2.2.2.2.2.2.2.2.2.2.2.2.2.2.2.2.2.2.2.2.2.2.2.2.2.2.2.",
"2.2.2.2.2.2.2.2.2.2.2.2.2.2.2.2.2.2.2.2.2.2.2.2.2.2.2.2.2.2.2.2.2.2.2.2.2.2.2.2.2.2.2.2.2.2.2.2.2.2.2.2.2.2.2.2.2.2.2.2.2.2.2.2.2.2.2.2.2.) ` 3.7.3.2.2.2.6.6.2.3.) i.'.P.P.P.I.P.P.P.U.J.p.i.i.p._.).)._.).).)._._._._._._._._._._._._._._._._._._._._._._._._.p.p.p.G.G.d.p.W.^.W.G.p.y.p.J.P.P.P.P.P.P.).P.p.y.G._._._.`.`.`._._._._._._._._._._._._._._._._._.I.P._._._.s.y.G.P._._._.I.I._._.a.5.p.G.p.d.p.G.!.}.G.d.3.i.G.P.P.P.P.P.P._.P.s.y.G.).P.P.P.P.U.F.y.s._._._._._._._._.P._._.W.W.5.p._._._.)._.W.i.5.5.d.G.).P.I.I.P.9.! -.8.:.2.3._.dXfXpXpXpXtXy.3.3.2.2.a i e i L ,.8.8.-.J e t i a =.,.,.,.:.:.2.2.2.2.2.2.2.2.2.2.2.2.2.2.2.2.4.4.4.4.:.4.2.2.2.2.2.2.2.2.2.2.2.2.2.2.2.2.2.2.2.2.2.2.2.2.2.2.2.2.2.2.2.2.2.2.2.2.2.2.3.3.3.3.3.3.3.3.` 2.2.4.2.4.2.4.8.4.2.4.2.4.2.4.2.4.4.4.2.2.2.2.2.2.2.2.2.2.2.2.2.2.2.2.2.2.2.2.2.2.8.2.2.3.3.` i.J.P.G.y.) 3.8.7.F.'.P.P.P._.G.d.2.2.) p.tXgXdXgXp.3.2.2.1.2.2.2.3.2.2.2.2.2.2.2.2.2.2.2.2.2.2.2.2.8.:.:.:.8.3 7.H.3.3.3.3.2.2.2.2.2.2.2.2.2.2.2.2.2.2.2.2.2.2.2.2.2.2.2.2.2.2.2.2.2.2.2.2.2.2.2.2.",
"2.2.2.2.2.2.2.2.2.2.2.2.2.2.2.2.2.2.2.2.2.2.2.2.2.2.2.2.2.2.2.2.2.2.2.2.2.2.2.2.2.2.2.2.2.2.2.2.2.2.2.2.2.2.2.2.2.2.2.2.2.2.2.2.2.2.2.8.7.7.3.3.3.3.2.2.2.6.6.2.3.) a.'._.P.P.P.P.P.P.U.J.p.9.i.p.W.}.)._.).).)._._._._._._._._._._._._._._._._._._._._._._._._.s.p.p.G.G.d.p.G.W.W.G.p.y.s.J.P.P.P.P.P.P.).P.p.y.G._._._.`.`.`._._._._._._._._._._._._._._._._._.I.P._._.W.p.y.G.P._._._.I.I._._.p.3.a.F.a.d.p.G.W.}.G.d.5.i.G.P.P.P.P.P.P._.J.s.y.G.).P.P.P.P.U.F.y.s._._._._._._._._._._._.W.W.5.p._._._.)._.W.i.5.9.d.G.).P.`.I.G.5.G -.1.4.2.3._.dXfXpXpXdXuX3._ 3.8.:.r r r r i -.8.8.:.P e i a @.>.1.1.,.:.:.4.2.2.2.2.2.2.2.2.2.2.2.2.2.2.2.4.4.4.4.4.4.2.2.2.2.2.2.2.2.2.2.2.2.2.2.2.2.2.2.2.2.2.2.2.2.2.2.2.2.2.2.2.2.2.2.2.2.2.2.3.3.2.3.3.3.3.2.3.2.3.4.4.2.2.2.2.2.2.2.2.2.2.2.2.2.2.2.2.2.2.2.2.8.2.2.2.2.2.2.2.2.2.2.2.2.2.2.2.2.8.6.2.2.2.3.i.W.P.J.5.) 2.2.7.F.'.P.P.P._.G.d.2.2.) u.tXhXfXhXf._ 3.4.:.4.2.3.3.2.2.2.2.2.2.2.2.2.2.2.2.2.2.2.2.8.:.:.2.8.3 8.E.3.2.3.2.2.2.2.2.2.2.2.2.2.2.2.2.2.2.2.2.2.2.2.2.2.2.2.2.2.2.2.2.2.2.2.2.2.2.2.2.",
"2.2.2.2.2.2.2.2.2.2.2.2.2.2.2.2.2.2.2.2.2.2.2.2.2.2.2.2.2.2.2.2.2.2.2.2.2.2.2.2.2.2.2.2.2.2.2.2.2.2.2.2.2.2.2.2.2.2.2.2.2.2.2.2.:.8.8.2.2.3.3.3.7.) ! 2.8.8.1.8.2.` a.!.G.P.I.I.P.K.P.P.G.S.5.5.5.G.'._._._._._._._._._._._._._._._._._._._._._._._._._._._._._.G.a.a.F.p.5.p._.}.}.G.p.d.s._._._.P._._._._.P.P.y.G._._.P._._._._._._._._._._._._._._._._._._._.I._._.P.P._.s.y.s.G._._.P._._._._.W.i.5.H.F.9.i.W._.W.G.5.5.9.H._.P.P._._._._._.s.y.s.}._.P._.G.J.G.5.y._.).P._._._._._._._._.W.G.a.p._.{._._.}.W.i.7.9.5.G.}._.`._.}.5.3 G b.:.) _ I.gXhXpXpXiXyXF.) ) 4.:.~ Q t y h =.;.,.,.,.8.1.,.,.,.,.,.;.a L -.:.6.7.2.2.2.2.2.2.2.2.2.2.2.2.2.2.2.2.2.2.2.2.2.2.2.2.2.2.2.2.2.2.2.2.2.2.2.2.2.2.2.2.2.2.2.2.2.2.2.2.2.2.2.2.2.2.2.2.2.2.2.2.2.2.2.2.2.2.2.2.2.2.2.2.2.2.2.2.2.2.2.2.2.2.2.2.2.2.2.2.2.2.2.2.2.2.2.2.2.2.7.2.2.2.2.2.2.2.6.6.2.7.6.2.l.^.W.J.5.! 8.8.8.a.P.I.I.I.].G.8.4.3./ K.iXpXfXiXO.U ) :.1.8.2.3.7.2.2.2.2.2.2.2.2.2.2.2.2.4.4.4.4.4.-.8.2.8.F 8.E.2.2.2.2.2.2.2.2.2.2.2.2.2.2.2.2.2.2.2.2.2.2.2.2.2.2.2.2.2.2.2.2.2.2.2.2.2.2.2.2.",
"2.2.2.2.2.2.2.2.2.2.2.2.2.2.2.2.2.2.2.2.2.2.2.2.2.2.2.2.2.2.2.2.2.2.2.2.2.2.2.2.2.2.2.2.2.2.2.2.2.2.2.2.2.2.2.2.2.2.2.2.2.2.2.2.4.4.4.) 3.5.a.F.a.7.2.2.8.1.1.1.4.3.a.!._.P.).I.P.K.P.P.G.n.5.5.5.G.'._._._._.I._._._._._._._._._._._._._._._._._._._._._._._._.G.p.a.F.p.5.p._.}._.G.p.u.s._._._._._._._._.P.P.y.G._._.P._._._._._._._._._._._._._._._._._._._.I._._.P._._.s.y.s.J._._.P._._.I._._.i.5.F.M.5.i.W._._.G.5.7.M.H._._._._._._._._.s.y.s.)._._._.G.J.G.5.y.W.'.P._._._._._._._._._.W.p.p._.{._._._.W.9.7.9.9.G.}._.`.c.[.5.3 y 8.:.) ( P.gXfXpXkXfXuXG./ / 4.4.:.b.-.-.:.1.1.1.1.1.8.8.8.8.1.,.>.=.e i L :.2.7.7.2.2.2.2.2.2.2.2.2.2.2.2.2.2.2.2.2.2.2.2.2.2.2.2.2.2.2.2.2.2.2.2.2.2.2.2.2.2.2.2.2.2.2.2.2.2.2.2.2.2.2.2.2.2.2.2.2.2.2.2.2.2.2.2.2.2.2.2.2.2.2.2.2.2.2.2.2.2.2.2.2.2.2.2.2.2.2.2.2.2.2.2.2.2.2.2.2.2.2.2.2.2.2.6.6.2.2.2.6.2.2.9.^.W.W.7.-.8.8.8.a.P.I.I.I.).G.8.4.4./ L.iXpXkXiXO.( ` :.1.1.6.7.7.2.2.2.2.2.2.2.2.2.2.2.2.4.4.4.4.2.-.7.2.8.D 8.E.2.2.2.2.2.2.2.2.2.2.2.2.2.2.2.2.2.2.2.2.2.2.2.2.2.2.2.2.2.2.2.2.2.2.2.2.2.2.2.2.",
"2.2.2.2.2.2.2.2.2.2.2.2.2.2.2.2.2.2.2.2.2.2.2.2.2.2.2.2.2.2.2.2.2.2.2.2.2.2.2.2.2.2.2.2.2.2.2.2.2.2.2.2.2.2.2.2.2.2.2.2.2.2.2.2.4.4.2.! 3.a.!.}.W.a.3.2.8.:.1.8.8.) 9.!._.P._.I.P.K.P.U.G.S.5.5.5.F.'._.P._._.I._._._._._._._._.P._._._._._._._._._._._._._._._.G.a.i.F.p.d.p._.}._.G.p.d.s._._._._._._._._.P.P.y.s._._.P._._._._._._._._._._._._._._._._._._._.I._._.P._._.G.y.s.G._._.P._._.I._._.i.5.F.n.3.5.W._._.G.d.5.M.H._._._._._._._._.s.y.s._._._._.G.J.G.y.y._.).P._._._._._._._._._.W.p.p._.{._._._.W.9.3.9.9.G.}._.`.c.[.7.3 y :.:.! ( P.gXfXpXkXfXuXP._ U / / ) ` ! ! 2.2.2.2.2.2.2.2.6.8.1.=.a t r y Q :.6.7.3.2.2.2.2.2.2.2.2.2.2.2.2.2.2.2.2.2.2.2.2.2.2.2.2.2.2.2.2.2.2.2.2.2.2.2.2.2.2.2.2.2.2.2.2.2.2.2.2.2.2.2.2.2.2.2.2.2.2.2.2.2.2.2.2.2.2.2.2.2.2.2.2.2.2.2.2.2.2.2.2.2.2.2.2.2.2.2.2.2.2.2.2.2.2.2.2.2.2.2.2.2.2.2.2.2.7.2.2.2.2.6.l.!._.G.7.-.8.8.2.a.P.I.I.I.).G.8.4.4./ P.gXfXfXiXO._ 4.1.1.,.6.6.7.6.2.2.2.2.2.2.4.4.4.4.4.2.2.2.2.2.-.7.2.8.G 8.V.2.2.2.2.2.2.2.2.2.2.2.2.2.2.2.2.2.2.2.2.2.2.2.2.2.2.2.2.2.2.2.2.2.2.2.2.2.2.2.2.",
"2.2.2.2.2.2.2.2.2.2.2.2.2.2.2.2.2.2.2.2.2.2.2.2.2.2.2.2.2.2.2.2.2.2.2.2.2.2.2.2.2.2.2.2.2.2.2.2.2.2.2.2.2.2.2.2.2.2.2.2.2.2.2.2.2.2.) ) 3.G.}.}.!.p.3.2.2.:.:.8.8.! 5.!._.P._.I.P.P.P.U.J.S.5.n.' G.P.P.P._._.I._._._._._._._._._._._._._._._._._._._._._._._._.G.a.d.p.p.i.p._._.}.G.p.y.p._._._._._._._._.P.P.y.s._._.P._._._._._._._._._._._._._._._._._._._.I._._.P._._.G.p.s.G._._._._.).I._._.p.5.n.9.' 5.W._._.G.d.5.M.H._._._._._._._._.s.y.s._._._._.G.J.G.y.y._.).P._._._._._._._._._.W.p.p.P.)._._._.W.9.3.9.5.G.}._.`.h.}.9.3 r :.4.) _ ].gXhXpXkXfXgX2Xf. .( U I / _ _ _ _ 3.5.5.d.3.2.2.8.4.:.Q a L Q :.8.8.7.3.2.2.2.2.2.2.2.2.2.2.2.2.2.2.2.2.2.2.2.2.2.2.2.2.2.2.2.2.2.2.2.2.2.2.2.2.2.2.2.2.2.2.2.2.2.2.2.2.2.2.2.2.2.2.2.2.2.2.2.2.2.2.2.2.2.2.2.2.2.2.2.2.2.2.2.2.2.2.2.2.2.2.2.2.2.2.2.2.2.2.2.2.2.2.2.2.2.:.:.4.4.4.2.2.2.8.8.2.2.2.7.E.!._.G.3.2.8.8.2.a.P.I.I.I.).G.4.:.2.) _.gXfXfX3X..( 2.:.,.1.6.6.6.2.2.2.2.2.2.2.2.2.4.2.4.2.2.2.2.2.-.7.-.8.K 8.V.2.2.2.2.2.2.2.2.2.2.2.2.2.2.2.2.2.2.2.2.2.2.2.2.2.2.2.2.2.2.2.2.2.2.2.2.2.2.2.2.",
"2.2.2.2.2.2.2.2.2.2.2.2.2.2.2.2.2.2.2.2.2.2.2.2.2.2.2.2.2.2.2.2.2.2.2.2.2.2.2.2.2.2.2.2.2.2.2.2.2.2.2.2.2.2.2.2.2.2.2.2.2.2.2.2.2.2.2.` d.G.}._._.p.3.3.2.2.:.8.8.H 3.!.}.P.P.I.I.I.P.U.J.S.5.9._ p._._.P._.).I.`.`._._._._._._._._._._._._._._._._.`.`.`.`._._.W.a.5.a.p.d.p.W._._.G.p.y.p.G._._._._._._._.I.P.u.h._._.I._._._._._._._._._._._._._._._._._.`._.I._._.I._._.P.p.s.P._._.I.`.`.I._._.p.5.9.9.` i.W._._.s.d.5.n.H._._._._._._._._.h.u.s._.I.I._.G.J.G.y.y._._.P._._._._._._._._._.W.a.p.P.{._._._.W.9.7.9.5.G.}._.`.P._.9.3 3 :.4.2.3.{.gXhXfXpXpXhXaXqX2XY.K.u...{ { ( T T T } } 7.3.3.7.7.8.4.:.-.:.2.6.8.6.3.2.2.2.2.2.2.2.2.2.2.2.2.2.2.2.2.2.2.2.2.2.2.2.2.2.2.2.2.2.2.2.2.2.2.2.2.2.2.2.2.2.2.2.2.2.2.2.2.2.2.2.2.2.2.2.2.2.2.2.2.2.2.2.2.2.2.2.2.2.2.2.2.2.2.2.2.2.2.2.2.2.2.2.2.2.2.2.2.2.2.2.2.2.2.2.2.2.:.:.:.:.:.:.:.! ) ) ) ) 3.9.F.W._.G.3.2.8.:.2.a.P.).I.I.).F.2.:.2.2.].gXdXdXwXf.I ! ,.,.1.8.6.2.2.4.4.4.4.4.4.4.2.2.2.2.2.2.2.2.2.2.7.-.8.P 8.9.2.2.2.2.2.2.2.2.2.2.2.2.2.2.2.2.2.2.2.2.2.2.2.2.2.2.2.2.2.2.2.2.2.2.2.2.2.2.2.2.",
"2.2.2.2.2.2.2.2.2.2.2.2.2.2.2.2.2.2.2.2.2.2.2.2.2.2.2.2.2.2.2.2.2.2.2.2.2.2.2.2.2.2.2.2.2.2.2.2.2.2.2.2.2.2.2.2.2.2.2.2.2.2.2.2.) ` ` 3.p.J._.G._.i._ ) 3.2.2.8.8.P 3.!.}.P.P.I.I.I.P.U.J.S.9.9._ p.P.P.P._._.I.`.`._._._._._._.`.`._._._._._._._._.`.`.`.`._._._.a.5.i.p.i.p.W._._.G.p.y.p.G._._._._._._._.I.P.u.h._._.I._._._._._._._._.I._._._._._._._._._._.I.`._.I._._.P.u.s.P._._.I.).`._._._.p.5.9.9.3.a.W._._.s.d.5.n.H._._._._._._._._.P.u.s.).P.I._.P.J.G.y.y._._.I._._._._._._._._._.W.i.d.G.{.)._._.W.9.5.9.5.G.}._._.P.}.9.3 2 ,.8.8._ P.tXhXfXfXiXiXiXdXdXaXeXqX3XI.I.f.u.| { ] ] _ _ / / ) ) ! ! -.2.2.2.6.6.6.6.2.2.2.2.2.2.2.2.2.2.2.2.2.2.2.2.2.2.2.2.2.2.2.2.2.2.2.2.2.2.2.2.2.2.2.2.2.2.2.2.2.2.2.2.2.2.2.2.2.2.2.2.2.2.2.2.2.2.2.2.2.2.2.2.2.2.2.2.2.2.2.2.2.2.2.2.2.2.2.2.2.2.2.2.2.2.2.2.2.2.2.2.2.2.2.2.:.:.:.:.:.4.4.4.3.3.3.5.i.G.J.J.'.G.3.2.8.:.2.F.P.`.I.I.).F.2.:.2.3.].gXaXdXiXI.U ) :.,.8.8.6.2.2.:.4.4.4.4.4.4.2.2.2.2.2.2.2.2.2.-.7.-.8.P 7.7.2.2.2.2.2.2.2.2.2.2.2.2.2.2.2.2.2.2.2.2.2.2.2.2.2.2.2.2.2.2.2.2.2.2.2.2.2.2.2.2.",
"2.2.2.2.2.2.2.2.2.2.2.2.2.2.2.2.2.2.2.2.2.2.2.2.2.2.2.2.2.2.2.2.2.2.2.2.2.2.2.2.2.2.2.2.2.2.2.2.2.2.2.2.2.2.2.2.2.2.2.2.2.2.2.2.3.3.` 3.p.P._.G.P.p.3.3.2.2.2.2.8.H ` !.}.P.P.P.I.P.P.U.J.S.9.S._ p.G.P.P._.).I.`.`._._._._._._.`.`.`.`._._._._._._.`.`.I.I.I._._.a.3.d.p.i.F.W.!.!.G.y.3.p.G._._._._._._._.I.P.u.h._._.I._._._.`.`.`.`.I.I.`.`.`.`.`.`.`.`.`.`.h.`._.I._._.P.u.s.P._._.I.).`.I._._.p.5.9.9.7.F.W._._.G.d.5.n.H._._._._._._._._.I.u.h._.P.P._.P.G.G.y.y._._.I.).`._._._._._._._.W.i.y.G.{.{._._.W.9.7.9.d.G.)._._.s.!.M.3 2 =.8.8.Y u.2XwXdXhXdXiXiXiXaXhXhXgXgXhXgXgXtXtX3X3X2XP.s.p.i.5.7.4.2.8.8.6.2.6.6.6.6.2.2.2.2.2.2.2.2.2.2.2.2.2.2.2.2.2.2.2.2.2.2.2.2.2.2.2.2.2.2.2.2.2.2.2.2.2.2.2.2.2.2.2.2.2.2.2.2.2.2.2.2.2.2.2.2.2.2.2.2.2.2.2.2.2.2.2.2.2.2.2.2.2.2.2.2.2.2.2.2.2.2.2.2.2.2.2.2.2.2.2.2.2.2.2.2.4.:.:.:.4.9.M.F.F.G.G.G.G.U.U.P.'.F.3.2.8.:.2.F.P.).I.I.'.F.2.:.3.3.|.gXdXfXfX*X} _ 2.2.2.6.2.2.2.:.:.:.4.4.4.4.2.2.6.6.6.6.6.2.2.-.9.-.8.-.7.8.2.2.2.2.2.2.2.2.2.2.2.2.2.2.2.2.2.2.2.2.2.2.2.2.2.2.2.2.2.2.2.2.2.2.2.2.2.2.2.2.",
"2.2.2.2.2.2.2.2.2.2.2.2.2.2.2.2.2.2.2.2.2.2.2.2.2.2.2.2.2.2.2.2.2.2.2.2.2.2.2.2.2.2.2.2.2.2.2.2.2.2.2.2.2.2.2.2.2.2.2.2.2.2.2.2.3.3.` 3.p._.}.P._.p.3.3.2.2.2.2.4.H ) !.}.P.P.P.I.P.P.U.J.S.9.i._ p.G.P.P._._.I.`.`._._._._._._._._.`._.`._._._._._.`._.I._._._.}.a.3.d.a.a.F.W.!.!.G.d.3.p.G._._._._._._._.I.P.u.h._._.I._._._.`.`.`.`.I.I.`.`.`.`.`.`.`._.`.`.h.`._._._.].P.u.s.P._._.I.).`.I._._.p.5.9.9.9.G.W._._.G.d.5.n.H._._._._._._._._.I.u.h._.P.P._.P.G.G.y.y._.).I.).`._._._._._._._.W.d.y.s.].)._._.W.i.5.9.d.G.)._._.G.!.M.3 2 -.1.7.K T h.4XdXhXgXhXhXaXaXaXgXgXgXgXgXgXgXgXgXgXuXgXuXyXyXOX+X(.(.E.V.9.7.7.6.6.6.2.2.2.2.2.2.2.2.2.2.2.2.2.2.2.2.2.2.2.2.2.2.2.2.2.2.2.2.2.2.2.2.2.2.2.2.2.2.2.2.2.2.2.2.2.2.2.2.2.2.2.2.2.2.2.2.2.2.2.2.2.2.2.2.2.2.2.2.2.2.2.2.2.2.2.2.2.2.2.2.2.2.2.2.2.2.2.2.2.2.2.2.2.2.2.2.2.2.2.2.7.F.W.}.G._.'.P.P.U.P.D.'.F.3.2.8.,.2.F.P.Y.I.h.U.F.:.:.3.y.|.gXdXfXfX=Xf.u._ Y ) 3.3.3.2.2.2.2.2.2.2.2.2.2.6.6.6.6.6.6.2.2.9.-.8.-.9.8.2.2.2.2.2.2.2.2.2.2.2.2.2.2.2.2.2.2.2.2.2.2.2.2.2.2.2.2.2.2.2.2.2.2.2.2.2.2.2.2.",
"2.2.2.2.2.2.2.2.2.2.2.2.2.2.2.2.2.2.2.2.2.2.2.2.4.4.4.4.4.4.4.4.2.2.2.2.2.2.2.2.2.2.2.2.2.2.2.2.2.2.2.2.2.2.2.2.2.2.2.2.2.2.2.2.3.3.` _ p._.}._.W.p._ ) 2.8.8.4.:.3 4.!.}.P.p.P.I.I.P.P.J.S.5.i.5.i.s.G._._._._.`.`._._._._._._._._._._._._._._.P.P.P.P.I.P.I.P.W.F.i.i.d.i.F.W.W.W.W.p.d.d.G._.P.I.I.I.I.I.P.P.u.s.P._._._.I.P.I.I.I.I.I.I.I.I.).).).).).).).).I.`.)._._._.G.u.p.G._._.I.I.I.I._.P.G.F.9.9.S.F.W._._.G.d.5.M.H._._._._._._._._.P.P.I.I.P.P.P.P._.s.y.p.P._.{._._._._._._._._._.W.F.p.G._.)._._.G.F.9.5.a.G._.{.G._.!.4.3 r ,.:.-.2.3.y.p.2XtXtXqXqXqXqX2X2X2X2XY.Y.Y.Y.P.P.P.P.p.p.p.p.F.F.F.H.9.9.9.9.9.8.6.6.6.2.2.2.2.2.2.2.2.2.2.2.2.2.2.2.2.2.2.2.2.2.2.2.2.2.2.2.2.2.2.2.8.8.8.8.8.8.8.8.2.2.2.2.2.2.2.2.2.2.2.2.2.2.2.2.2.2.2.2.2.2.2.2.4.4.4.4.4.4.4.8.2.2.2.2.2.2.2.2.2.2.2.2.2.2.2.2.2.2.2.2.2.2.2.2.8.2.2.7.E.E.W._._._.P.P.I.I.I.I.).5.2.:.8.:.G F.}.P.`.P.'.F.G ! _ s.].wXaXsXsXiXhXwXI.u.T U ( _ 3.2.! ! -.2.8.7.8.6.6.6.8.8.6.6.6.2.2.2.2.2.2.2.2.2.2.2.2.2.2.2.2.2.2.2.2.2.2.2.2.2.2.2.2.2.2.2.2.2.2.2.2.2.2.2.2.2.2.2.2.2.2.2.",
"2.2.2.2.2.2.2.2.2.2.2.2.2.2.2.2.2.2.2.2.2.2.2.2.2.2.2.2.2.2.2.2.2.2.2.2.2.2.2.2.2.2.2.2.2.2.2.2.2.2.2.2.2.2.2.2.2.2.2.2.2.2.2.2.2.2.3.3.a.W.}.W.G.a.3.3.2.8.8.:.! 3 4.!.}.P.s.P.I.I.P.P.J.S.5.9.i.p.G.G.P.P.P.P.I.I.I.P.P.P.P.P.P.P.P.P.P.P.P.P._._._._._._._._.W.F.i.5.d.i.F.!.W.W.G.i.y.d.s._._._._._._._._._.s.G.I._.)._._._._._.)._.)._.)._.)._.)._.)._.).)._.).)._._._.G.p.u.P.)._.P._.)._._.G.F.i.3.5.9.F.W.W.W.s.5.3.9.F._._._._._._._._._._._._.)._._._.J.p.y.y.s._._.I._._._._._._._.'.W.F.a.G.).]._._.G.p.5.5.p.G._._.P.U.!.4.3 y ,.:.8.9.3.*._ u.u.} ( ( ( ( ( ( ( ( ( ( ( ( ( / / / / / / / / ) ` ) 2.2.2.2.6.6.6.6.2.2.2.2.2.2.2.2.2.2.2.2.2.2.2.2.2.2.2.2.2.2.2.2.2.2.2.2.2.2.2.2.2.2.2.2.2.2.2.2.2.2.2.2.2.2.2.2.2.2.2.2.2.2.2.2.2.2.2.2.2.2.2.2.2.2.2.2.2.2.2.2.2.2.2.2.2.2.2.2.2.2.2.2.2.2.2.2.2.2.2.2.2.2.2.2.2.2.3.a.W.W._._._.P.P.I.I.L.L.L.).5.3.:.8.,.G F.'.P.I.I.'.H.G ! ) p.qXhXsX,X<XzXpXiXwX2XI...{ A I ) 7.9.9.7.2.P -.-.-.2.6.8.8.6.6.2.2.2.2.2.2.2.2.2.2.2.2.2.2.2.2.2.2.2.2.2.2.2.2.2.2.2.2.2.2.2.2.2.2.2.2.2.2.2.2.2.2.2.2.2.2.2.",
"2.2.2.2.2.2.2.2.2.2.2.2.2.2.2.2.2.4.4.4.:.:.:.4.8.8.4.4.4.4.4.8.2.2.2.2.2.2.2.2.2.4.2.4.2.4.2.4.2.2.2.2.2.2.2.2.2.4.2.4.2.4.2.4.4.4.8.8.9.W.!.W.a.5.3.3.8.8.1.,.G 3 4.!.W.U.s.P.I.I.P.P.J.S.9.9.i.p.F.J.J._.P.P._.P.P._._._._._._._._._._._._._.P.J.P.P.P.P.P.J.W.F.i.5.i.i.G.!.W.W.G.i.5.d.G._.P.P.P.P._._.P.P.P.P.P.P._._.P.P.I.P.I.P._.P.P.P.I.P.P.P.I.I.I.I.P._._.P.P.P.s.y.y.G._.P.P.P._.P._.P.G.i.3.3.9.F.W.W.W.G.d.3.9.M.J.P.P.P.P.P.P.P.P.P._._._._.P.P.J.F.y.y.s.P._.P._._._._._.P.P.P.!.F.d.G.}.|.).W.F.i.5.5.p.G._._.P.U.!.4.3 y ;.,.1.8.2.&.) _ _ I ) / ) ) ) _ _ _ _ _ _ _ _ ` ` ` ) ) ) ) ) ) ) 2.2.2.2.2.6.6.6.6.2.2.2.2.2.2.2.2.2.4.2.4.2.4.2.4.2.4.2.4.6.4.2.4.8.8.8.8.8.8.8.8.2.4.2.4.2.8.2.4.2.2.2.2.2.2.2.2.2.2.2.2.2.2.2.2.2.2.2.2.2.2.2.2.2.4.4.4.4.4.4.4.4.:.4.4.:.4.:.2.2.2.2.2.2.2.2.2.2.2.2.2.2.2.2.2.2.2.3.E.}.}._._._._._.I.I.I.I.P.'.5.3.:.1.-.G E.G.f.I.P.'.H.G ^ `  .Y.gXhX,X,XzX:XpXfXhXgXqX*XK.y.3.3.3.3.3.3.2.8.8.2.2.8.8.6.:.8.2.2.2.2.2.2.2.2.2.2.2.2.2.2.2.2.2.2.2.2.2.2.2.2.2.2.2.2.2.2.2.2.2.2.2.2.2.2.2.2.2.2.2.2.2.2.2.",
"2.2.2.2.2.2.2.2.2.2.2.2.2.2.2.2.2.4.4.4.:.:.:.:.4.8.4.4.4.4.4.4.4.4.4.4.4.4.4.4.2.4.2.4.2.4.2.4.2.4.2.4.2.4.2.4.2.4.2.4.2.4.2.4.:.4.4.4.7.M.F.9.3.3.2.2.8.1.,.=.y 3 4.!.W.U.P.P.I.I.P.P.J.S.5.9.5.9.F.G.W.'.).)._._._._._._._._.'.'._._._._._._._.W._._._._.P.J.W.F.i.5.i.i.G.!.!.W.G.p.d.p.G.}._._._._._._._._._.P.P.P.P.P.P._._._._._._._._._._._._._._._._._.P._._.P.G.J.G.d.p.G._.P.P._._._.)._.G.a.9.9.F.F.!._._.G.i.9.M.F.J.P.P.P.P.P.P.P.G.G.P.P.P.P.P.J.!.G.i.i.G.P._._._._._._._.P.P.J.!.F.5.s.).).P.s.p.d.5.d.p.G._._.P.P.!.4.3 t k =.>.,.:.2.2.8.4.4.` ^ 4.` 4.4.4.4.) ) ` ` ` ` 4.4.4.4.8.8.8.8.8.8.2.4.2.4.6.8.6.8.2.:.2.:.2.:.2.:.2.4.2.4.2.4.2.:.2.4.2.4.2.4.2.4.2.4.2.4.2.4.2.4.4.4.4.4.8.4.4.4.4.4.4.4.4.4.4.4.2.2.2.2.2.2.2.2.2.2.2.2.2.2.2.2.4.4.4.4.8.4.4.4.4.4.4.4.:.4.:.:.2.2.2.2.2.2.2.2.2.2.2.2.2.2.2.2.3.2.7.F.W.E.F.s.W._._.P.P.P.P.P.G._ 3.4.1.=.J E.G.G.I.P.'.H.G G 9.3.i.R.eXaX<X<X:X8XpXfXhXhXaXuXrX).p.T Y Y 3.7.7.2.2.2.8.8.8.:.4.2.2.2.2.2.2.2.2.2.2.2.2.2.2.2.2.2.2.2.2.2.2.2.2.2.2.2.2.2.2.2.2.2.2.2.2.2.2.2.2.2.2.2.2.2.2.2.",
"2.2.2.2.2.2.2.2.2.2.2.2.2.2.2.2.2.4.4.4.4.4.4.4.:.:.:.:.:.2.2.:.:.:.:.:.:.:.:.:.:.:.:.:.:.:.:.:.:.:.:.:.:.:.:.:.:.:.:.:.:.:.:.:.,.:.:.:.2.4.2.2.4.2.2.:.>.=.x a r 3 4.!.W.U.P.P.P.P.P.P.P.p.i.9.3.5.i.F.G.G.J._.G.G.G.G.G.G.G.G.G.G.G.G.G.G.G.G._.!._.!._.!._.!.G.F.9.9.i.i.F.W.W.G.F.i.i.a.G.W._._._._._._._._._._.P.J.P.J._._._._._._._._._._.).'.).'.).).).)._.)._.P._.'.J.F.F.J.'._._.}.]._._._.G.a.9.9.F.F.W.W.G.G.p.9.n.F.'.'.'.'.'.'.'.'._._._._._.'._.!.!.H.S.p.G.J.P.J._._._._._.!.!.!.!.F.5.p.P.P.u.d.d.d.5.d.s.G._.I._.P.!.9.5 2 p t >.>.,.8.8.:.:.:.-.;.-.-.:.:.4.4.:.:.:.:.:.,.:.:.-.,.,.:.:.:.:.:.1.1.8.:.8.1.:.:.:.:.:.:.:.:.:.:.:.:.:.:.:.:.:.:.:.:.:.:.:.:.:.:.:.:.:.:.:.:.:.:.:.:.:.:.2.:.:.:.:.:.:.:.:.:.:.:.:.2.2.2.2.2.2.2.2.2.2.2.2.2.2.2.8.4.8.8.8.8.8.8.4.4.4.4.4.4.4.4.2.2.2.2.2.2.2.2.2.2.2.2.2.2.2.2.8.) 2.9.9.9.9.9.5.5.d.d.d.d.d.d.y.) 8.8.1.Q G E.J.P.I.P.J.H.G y 4.8.` ' U.uXhXiXpXfX0X0X0XiXaXuXgXuXrX|._.s.3.Y ) Y ! -.4.8.8.8.4.2.2.2.2.2.2.2.2.2.2.2.2.2.2.2.2.2.2.2.2.2.2.2.2.2.2.2.2.2.2.2.2.2.2.2.2.2.2.2.2.2.2.2.2.2.2.2.",
"2.2.2.2.2.2.2.2.2.2.2.2.2.2.2.2.4.4.4.4.4.4.4.4.8.8.8.8.8.4.4.4.8.1.8.1.8.1.8.1.8.1.8.1.4.:.8.:.8.8.8.8.8.8.8.8.8.8.8.8.8.8.8.1.1.1.1.:.:.4.4.:.4.:.:.-.a p p 7 r 3 9.Q.W.'.P.P.P.I.I.P.P.p.i.9.5.5.9.9.i.i.i.i.i.i.i.i.i.i.i.i.i.i.p.p.p.p.p.p.F.F.F.F.F.F.F.F.F.9.9.9.i.i.a.G.F.p.i.5.d.i.p.F.s.s.s.s.s.s.s.s.s.s.p.p.p.s.s.s.s.s.s.s.s.s.s.s.G.G.G.G.G.G.G.G.s.G.G.s.F.G.F.i.i.F.G.F.G.G.G.s.s.s.p.5.3.3.9.a.F.s.s.p.i.9.9.9.F.G.G.G.G.G.G.G.G.G.G.G.G.G.G.F.F.F.9.i.p.F.s.s.s.s.s.s.F.F.F.F.H.9.5.p.s.u.y.y.d.d.5.a.G._._.I.).P.J.n.y < t 7 p p b -.=.Q Q ~ <.;.1.1.,.1.1.1.8.1.8.1.1.1.v.v.=.=.,.,.,.,.,.,.1.8.8.8.8.8.:.:.4.:.4.:.4.:.4.:.8.8.8.8.8.1.8.1.8.1.8.8.8.8.8.8.8.1.8.1.8.1.8.1.4.:.4.:.4.:.4.:.8.1.8.1.8.1.8.8.2.2.2.2.2.2.2.2.2.2.2.2.2.2.2.4.4.4.4.4.4.4.4.4.4.4.4.4.4.4.4.:.2.2.2.2.2.2.2.2.2.2.2.2.2.2.2.2.8.4.! 4.4.! ) 4.) ) 2.) 2.2.3.` _ / 8.8.,.L G Q.J.P.].P.'.E.D r i 1.4./ ( R.gXaXfXlXlXfXfXdXgXuXgXgXgXgXgXuXOX}.a.9.7.8.8.8.1.8.4.2.2.2.2.2.2.2.2.2.2.2.2.2.2.2.2.2.2.2.2.2.2.2.2.2.2.2.2.2.2.2.2.2.2.2.2.2.2.2.2.2.2.2.2.2.2.2.",
"2.2.2.2.2.2.2.2.2.2.2.2.2.2.2.2.4.:.:.:.:.:.:.:.8.8.8.8.8.8.8.8.:.:.:.:.:.:.:.:.:.,.:.,.:.,.:.,.:.,.:.,.:.,.:.,.-.-.,.,.,.,.,.,.=.;.;.=.-.-.-.! -.Q L a i p p p r 3 M.!.W.'.P.P.I.I.I.P.P.p.i.9.5.n.9.5.5.5.y.5.y.y.5.5.5.5.5.5.9.9.i.9.i.i.i.i.5.5.5.5.5.5.5.5.i.9.5.9.9.9.9.F.i.9.d.d.d.d.i.i.y.y.5.y.5.5.5.5.3.5.5.5.5.5.5.5.y.y.y.y.y.y.y.y.y.y.y.y.y.y.y.y.y.y.y.3.y.i.i.5.5.5.y.5.5.p.p.y.u.p.i.5.7.9.9.a.p.p.p.p.i.9.9.9.5.y.y.y.y.y.5.5.y.y.d.d.d.d.y.i.9.5.9.5.i.i.y.y.y.y.y.5.5.5.5.3.F.7.5.d.u.y.y.y.d.d.d.p.G._._._.P.P.!.H.E t t 7 7 7 i a h t g k p z z x a a a a @.@.@.@.b b b b b b >.=.=.=.=.-.>.>.-.-.-.-.-.-.-.-.-.-.-.-.-.-.,.,.,.,.,.,.,.,.,.-.,.,.,.,.,.,.:.:.:.:.:.:.:.:.:.,.:.,.:.,.:.,.:.:.:.:.:.:.:.:.4.2.2.2.2.2.2.2.2.2.2.2.2.2.2.4.:.:.:.:.:.:.:.:.:.:.:.:.:.:.:.:.2.2.2.2.2.2.2.2.2.2.2.2.2.2.2.4.4.^ ^ ^ ^ ! ^ 4.:.:.:.:.:.:.:.4.` ) 8.:.=.y G (.G.P.].P.'.!.G r u m ;.^ / i.I.1X6X6X6X6X5X4X4X4X1X&X&X1X2XrXrXOXW.H.9.4.4.:.-.-.4.2.2.2.2.2.2.2.2.2.2.2.2.2.2.2.2.2.2.2.2.2.2.2.2.2.2.2.2.2.2.2.2.2.2.2.2.2.2.2.2.2.2.2.2.2.2.2.",
":.:.:.:.:.:.:.:.:.:.:.4.4.4.4.:.:.,.:.:.:.:.:.:.=.=.=.=.=.=.=.=.Q Q Q Q Q Q Q Q a a a a a a a a y y y y y y y y y y y y y y y y e t i i r y y i y y i i e p p b r B F.!.J.}.P.P.P.P.I.P.J.p.i.i.5.n.n.n.i.S.i.i.i.i.i.9.9.9.9.9.i.i.i.i.i.i.i.i.i.i.i.i.i.i.i.i.5.5.5.a.a.5.5.a.i.d.d.i.p.p.i.d.i.i.i.i.i.i.i.i.y.5.y.i.i.i.d.d.p.p.p.p.p.p.p.p.p.p.p.p.p.p.p.p.y.p.p.y.i.F.F.i.i.i.i.y.y.p.p.y.u.p.p.i.i.9.a.a.p.p.p.p.p.F.i.9.y.y.y.y.y.y.d.d.y.y.y.y.y.y.y.y.5.5.i.i.i.y.y._ p.p.p.p.y.y.y.i.5.5.5.p.p.y.u.s.d.d.d.p.G._._._.P.G.'.H.^ y t t i i p h p 7 8 8 p p p p u u u u i i i i u p p p t t t t t p i t i e i i i i a a t t t t t t t t y y y y y y y y y y y y y y y y a a a a a a a a h h h h h h h h h h h h h h h h Q -.-.-.-.-.-.-.-.-.-.-.-.-.-.Q -.-.,.,.,.>.,.>.,.,.:.,.:.,.,.,.:.:.4.:.4.:.4.:.4.:.4.:.4.:.4.:.:.^ -.:.:.^ -.:.:.,.,.,.,.,.,.:.4.! 8.-.L y F oXG.P.Y.P.'.!.G r x p p Q :.) ( T t.t.t.t.*.T 3._ T [ [ } _ _ Y I 7.3.:.:.:.-.,.:.8.4.4.:.:.4.4.4.4.4.4.4.4.4.4.4.4.4.4.4.4.4.4.4.4.4.4.4.4.4.4.4.:.:.:.:.:.:.:.:.:.:.:.:.:.:.:.:.",
"b b v v h p a p i i i i p i i p t i t t t t t t 7 7 7 7 e e t t e e e e e e e e e e e e i e r e r r r t y t y y y t i r r r r e r r r t r r r r r r e e i i t y ) p.}.}._.G.P._.P.P.P.P.P.s.p.y.5.5.5.5.5.5.5.5.i.9.i.9.5.5.5.5.i.i.i.i.9.i.9.9.i.i.i.i.i.i.i.i.i.i.i.i.i.i.i.i.i.i.i.i.i.i.i.i.i.i.i.i.i.i.i.i.i.i.i.i.i.i.i.i.i.p.p.p.p.p.p.p.y.y.y.y.y.y.y.y.d.d.d.d.d.d.y.y.y.y.y.y.y.y.y.y.p.p.d.d.d.d.d.d.p.p.p.p.p.p.d.d.p.y.p.y.y.p.p.p.y.y.p.y.y.y.p.p.p.p.p.p.p.p.p.u.s.s.s.s.s.G.G.G.P.P.P.P.P.P.P.P._._._._._._._._.P.P.J.J.H.4.y + r e i p p p q 9 q p p p p p p p p p p p p i p p p p p p p p p p p p p p p p p p p p p p p p p p p p p p p p p u u e u u u u u 9 9 9 u p p p p p 9 9 9 8 9 8 9 8 9 8 9 8 9 9 9 9 9 9 9 9 9 9 9 9 9 9 9 9 9 9 9 9 t t t p p p p t p p p p p t t t p p p p p p p p i i p p p a x a a a a a a a a a h h h h h h h a y G L y $ $ 3.}._._._.P.'.!.5.D i u 7 e a =.,.:.:.2.6.6.6.:.:.:.8.2.2.2.2.4.8.8.8.1.1.1.1.1.1.1.1.:.1.1.,.,.,.,.,.,.,.,.,.,.,.,.,.,.,.,.,.,.,.,.,.,.,.,.,.=.>.=.=.=.=.Q Q Q Q k h h h h h h h h ",
"w w 7 7 7 7 7 7 e e e i i i i i e e e e 7 7 e 7 t t t t i p p p e e e e e e e e e e e e e e e e 2 2 2 2 e r r r e e r r r r r r a a a a a a a y -.Q Q ~ =.=.-.:.p.P.).).P.P.P.)._._._._.P.G.p.p.i.9.i.9.i.9.i.9.5.5.5.5.5.5.5.5.5.5.5.5.5.5.5.5.5.5.d.5.d.5.d.d.y.y.y.y.d.d.d.d.d.d.i.i.y.y.d.d.5.5.5.5.5.5.5.5.5.5.d.5.5.5.5.5.y.y.y.y.y.y.y.y.p.p.p.p.p.p.p.p.s.s.s.s.s.s.s.s.s.s.s.s.s.s.s.s.p.p.p.p.p.p.s.p.G.G.G.G.G.G.s.s.G.G.G.G.G.G.G.G.P.P.P.P.P.P.P.P.P.P.P.P.P.P.P.P.I.P.I.P.I.P.I.P.I._._._._._._._._._._._._._._._.P.P.P.U.J.F.4.! y y t t u 9 9 9 p p p p i i i i i p p i i i i p t t t t t t t t p t t t t t t t p p p p p p p p p p p p p p p p p p p p p p p p p p p p p p p p p p p p p p p p p p p p p p p p q t t t p p p p p p t t t p p p p t i t p p p p t t p p p p p p i i i i i e i e e e e e i i p i 2 2 2 2 2 2 2 2 e e e 2 e 2 e 2 , 2 3 3 D F d.}._.)._.P.P.'.D.) # e a a i a b <.1.1.1.1.1.1.,.,.,.,.,.,.,.,.,.,.=.=.=.=.=.=.=.-.Q Q Q Q =.Q =.Q h h h h h h h h i y i y y y y y t t t t t r i r t t t t t t t t t t t t t t t t ",
"e e i i i y i i e e r r r r r r i i i i i i r i e e r r r r i i -.-.-.-.-.-.-.-.:.:.:.:.2.2.2.2.8.8.9.9.9.m.9.m.9.n.9.m.m.M.V.M.E.Q.E.Q.Q.Q.E.Q./.Q./.Q././.(.(.}.).)._.P.P._.)._._._._.P.P.G.s.i.5.i.5.i.i.i.i.i.9.i.9.i.i.i.i.d.d.i.d.d.d.d.d.i.i.i.i.i.i.i.i.p.p.p.p.p.p.p.p.p.p.p.p.p.p.p.p.F.F.F.F.F.F.F.F.F.F.F.F.F.F.F.F.G.G.G.G.G.G.G.G.G.G.G.G.G.G.G.J.J.J.J.J.J.J.J.J.J.J.J.J.J.J.J.J.G.W.W.W.G.G.G.G._.W._.W._.W.W.W._.P.P.P.P.P.U.U.P.U.U.U.U.U.U.P.P.P.P.P.P.P.P.P.P.P.P.P.P.P.P.P._._._._._._._._._._._._._._._.P.P.P.P.P.'.'.!.E.! G y y i t i a t y y y y y y y i i y y r i i r r e r e e e r r r r e e e e e e e e e e e e e e e e e e e e e e e e e e e e e e e e e e i i i i e e e e e e e e e e e e e e e e e e e e e e e e e e e e e e e i i i e r e r e e e r e r i i i r e 3 r 3 r 3 r 3 r r r r r r r y J J J G L G J G P G P G Q ! ! ! :.! ! 4.9.p.G._._._._.P.P.).U.F.r i i i e r i a i y y i i r e e i r i i i r r r i i i i i i i i 2 2 e 2 e r r r e 2 e 2 e 2 e e i r i r r r r r r r i r r r i r i r r y y y y y r r r 3 r 3 r 3 ",
"4.4.4.8.8.8.8.7.7.9.9.9.9.9.9.9.E.E.E.E.E.E.E.E.^.^.(.(.(.(.(.(.~.~.~.~.~.~.~.~.^.^.^.^.^.^.^.^.!.^.!.!.!.!.!.^.}.^.^.!.!.^.^.^.^.^.^.^.^.^.^.^.^.^.^.W.^.^.^.!.|.}._.P._._._._._._._._._._.P.G.p.S.p.i.p.S.p.S.p.F.p.F.p.S.p.p.G.G.G.G.G.G.G.G.G.G.G.G.G.G.G.G.J.J.G.J.G.G.G.G.G.J.G.J.G.G.G.G._.!._.!._.!._.!._.!._.'._.!._._.'.'.).'.).).).)._._._._._._._._._.!.!.!.!.W.!.!.W.W.W.W.W.W.!.W.W.W.W.W.W.W.W.W.W.W.W.W.W.W.W.W.P.P.P.P.P.P.P.P.P.P.P.P.P.P.P.P.P.P.P.P.P.P.P.P.P.P.P.P.P.P.P.P._._._._._._._._._._._._._._._.P.].P.I.P.P.U.'.!.!.^.E.M.V.V.V.Z.m.m.M.m.M.m.M.m.M.m.m.m.m.m.m.m.m.m.m.m.m.m.m.m.m.m.m.m.8.8.8.8.8.8.8.8.8.8.8.8.8.4.8.4.8.8.8.4.8.8.8.8.8.4.8.8.8.8.8.8.8.8.8.8.8.8.8.8.8.8.8.8.8.8.8.8.8.8.8.8.8.8.8.8.8.8.8.8.8.8.8.8.8.8.8.8.8.8.8.8.8.8.8.2.8.8.8.8.7.7.9.9.9.9.9.9.9.9.9.9.9.9.F.M.F.M.F.F.F.F.E.F.F.F.F.F.E.E.E.E.~.E.^.E.Q.Q.Q.!.}.}._._.h._._.P.P.'.'.!.V.-.2 + # r r # r y y i r i i r $ $ $ # $ $ $ $ r r r r r r r r 3 3 r 3 r r D D D D D D D D D D r r r r r r r r r r D D D G D D D D F D F D F F 2.) 2.) 2.) 2.) ",
"^.^.^.W.W.!.!.!.!.}.}.}.}.}.}.}.}.}.}.}.}.}.}.}.W.W.W.W.W.W.W.W.}.}.}.}.}.}.}.}._._._.).).).).)._.W._._._._._._._._._.W._.G.G.G._._._._._._._._.W.W.W.G.z.W._._.)._.P._._.)._.P._._._._._._._._.W.W.W.W.P.J.P.J.J.G.J.G.J.J.J.J.J.J.G.J.G.J.G.J.P.J.P.J.P.J.P.P.'.'._._._._.)._._._._._.)._._._.P.P.P.J.P.J.P.J.P.P.P.J.P.J.P.P._._._._._._._._._._._._._._._._.U.P.U.U.P.P.P.P.J.J.J.J.J.J.J.J._._._.'._._._._.J.J.J.J.J.J.J.J.J.G.G.G.G.G.G.G.U.U.P.U.P.P.P.P.P.U.P.P.P.P.P.P.P.P.P.P.P.P.P.P.P.P.P.P.P.P._.P.P.P.P.P.P.P.P.P.I.I.I.I.I.P.P.P.}.|.}.!.!.!.!.!.!.!.}.!.}.!.}.!.}.!.}.!.}.!.}.!.!.!.!.!.!.(.!.(.!.!.!.!.!.(.!.!.!.!.(.(.(.(.(.(.!.^.!.^.!.^.^.^.^.(.^.!.^.!.(.!.!.!.(.!.(.(.(.}.}.}.}.}.}.}.}.}.}.}.}.}.}.}.}.}.}.}.}.}.}.}.}.}.}.}.}.}.}.}.}.}.}.}.}.}.}.}.}.}.W.W.W.W.}._.}.}.}.'.'.'.'.'.'.'.'.'.'.'._.'.}.}.}.}.[.}.}.}.[.}.W.W._._._._._.}.J.J.J.G.J.P.P.P.h.P.).P.P._._.!..Xm.P D K ! P D r r r r D D D D -.#.#.P P P &.#.2.2.2.2.2.2.2.3.3.3.2.3.3.7.7.7.9.9.9.9.9.9.9.9.~.E.~.E.~.Q.~.E.~.^.^.^.^.^.^.^.W.W.W.!.}.}.}.}.W.W.W.W.W.W.W.W.",
"}.}._._._._._._.s.s.P.P.P.P.P.P.P.P.P.P.P.P.P.P._._._._._._._._.P.P.P.P.P.P._.P.P.P.I.I.I.I.I.I.).).).).).).).).P.P.I.).).).).].{.{.{.{.{.{.{.{.{.{.{.{.{.{.{.{.P.P.P._.).)._.P._._._._._._._._._._._._._._._._._._._._._._._._.P.P.P.P.P.P.P.P._._._._._._._._._._._._._._._._._._._._._._._._.P.P.P.J.P.J.P.J.P.P.P.P.P.J.P.P.P.P.I.P.I.P.I.P._._._._._._._._.J.J.P.P.P.P.P.P.P.P.P.P.P.P.P.P._._._._._._._._._._._._._._._.P.P.P.P.P.P.P.P.P.P.P.P.P.P.P.P.P.P.P.P.P.P.P.P.P.P.P.P.P.P.P.P.P.P.P.P.P.P.P.P.P.P.P.P.P.P.P.P.P.I.I.I.I.I.I.I.I.p.s.G.G.G.G.G.G.G.G.G.G.G.G.G.G.G.G.G.G.G.G.G.G.G.G.G.G.G.G.G.G.G.G.G.G.G.G.G.G.J.J.J.J.J.J.J.J.G.G.G.G.G.G.G.G.G.G.G.G.G.G.J.J.G.G.J.J.J.J.J.P._._._._._._._._._._._._._._._._._._._._._._._._._._._._._._._._._._._._.P._.P.P.P.P.P.P._._._._.G.P.P.P.P.P.G.G.s.s.s.P.h.h.P.G._._._._._._._._.h.P.P._._._._._.D.J.J.D.D.P.I.I.h.I._._._.P.J.G.W.^.^.E.a.9.a.F.E.E.E.E.^.^.^.^.W.W.E.E.E.E.W.W.W.W.^.W.^.^.^.W.W.W.W.W.W.!.}.!.}.}.}.}.}.!.}.!.W.W.W.W.W.W.W.W.G.G.G.G.E.W.E.E.G.G.P.G.P.P.P.P.).).).).).).).).",
"P.P.P.P.P.P.P.P.I.P.P._.P.P.P.I.).`.I.I.I.I.I.I.I.I.I.I.I.I.I.P.P.P.P.P.I.P.I.I.I.I.I.I.P.P.I.I.I.I.I.I.I.I.I.I.g.I.I.I.I.I.I.I.h.h.h.h.h.h.h.h.I.h.h.h.h.h.h.I.P.P._._._._._._._._._._._._._._.P.G.P.G.P.G.P.G._._._._._._._._.P.P.P.P.P.P.P.P._._._._._._._._._._._._._._._._._._._._._._._._.P.P.P.P.P.P.P.P.P.P.P.P.P.P.P.P._._.)._.)._.)._.`._._._._._._._.P.P.P.P.P.P.P.P.P.P.P.P.P.P.P.P.P.P.P.P.P.P.P.P.P.P.P.P.P.P.P.P.P.P.P.P.P.P.P.P.P.P.P.P.P.P.P.P.P.P.P.P.I.I.I.I.P.P.P.P.P.P.P.P.P.P.P.P.P.P.P.P.P.P.P.P.P.P.P.I.I.I.I.I.I.I.I.I.I.I.I.I.).).).).I.I.I.I.I.I.I.I.I.I.I.I.I.I.I.I.P.P.P.P.P.P.P.P.I.I.P.P.P.P.P.P.P.P.P.P.P.P.P.P.P.P.P.P.P.P.P.P.P.P.P.P.P.P.P.P.P.P.P.P.P.P.P.P._._._._._._.P.P._._._._._._._._.).).).).).).).).).).).).).).).).I.I.I.I.I.I.).).).).).).`.`.`.`.I.I.I.I.I.I.I.I.I.).).).).).).).I.`.`.`.`.`._.`.`.`.`.`.`.`.).I.U.U.I.K.K.I.I.I.I.I.P.P._._.J.J.G.!.|.|.!.W.W.}.W.W.W.W.W.!.}.}.}._._._._._._._._._._._._._._.}._._._._._._._._._._._._._._._._.).}.}.}.}.}.}.}.).}.).}.)._.)._._.)._._._._._._.P.P.P.P.P.P.P.P.",
"P.P.P.P.P.P.P.P.P.P.P.P.I.I.P.I.I.I.I.I.I.I.I.I.I.I.I.I.I.I.I.I.I.P.P.P.P.P.P.P.I.I.I.I.I.L.L.L.I.I.I.I.I.I.I.I.I.I.I.I.I.I.I.I.I.).).).).).).).).).).I.I.I.).)._._._._.P.P._.)._._._.P.P.P._._.P.P.P.P.P.P.P.P.P.P.P.P.P.P.P.P._._._._._._._._._._._._._._._._._._._._._._._._._._._._._._._.P.I.P.I.P.I.P.P.P.I.P.I.P.I.P.P.I.).).).).).).).).`.`._._._._._._.P.P.P.P.P.P.P.P.P.P.P.P.P.P.P.P.P.P.P.P.P.P.P.P.P.P.P._._._.P.P.I.I.I.I.I.P.P.P.I.I.I.I.I.I.I.I.P.P.I.P.I.I.I.I.I.I.I.I.I.I.I.I.I.I.I.I.I.I.I.I.I.I.I.I.I.I.I.I.I.I.I.I.j.j.I.I.I.I.I.I.I.I.I.I.I.I.I.I.I.I.I.I.I.I.I.I.I.I.I.I.I.I.I.I.I.I.I.I.I.I.I.I.I.L.I.I.I.I.I.I.I.I.I.I.I.I.I.I.I.I.I.I.I.I.I.I.I.I.I.I.L.I.I.I.I.I.I.I.I.I.`.I.`.I.I.I.`.I.I.I.I.I.`.I.I.I.I.I.I.I.I.I.I.I.I.I.I.I.I.I.h.I.I.I.I.I.I.I.I.I.I.I.I.I.I.I.I.I.I.I.I.I.I.I.I.I.I.I.I.I.I.I.I.I.I.I.I.I.I.I.I.I.I.I.I.I.I.I.K.K.K.K.P.].Y.L.I.I.I.I._._._.'._.G.s.G._.)._._._._._._._.P._.P._.P._.P._.P._._._.P._.P._.P._.P.P.I.I.I.P.P.P.P.P.P.P.P.P.P.P.P.h.h.P.P.P.P.P.P._._._.I.I.P.P.P.I.I.I.I.I.I.I.P.).).I.).I.I.I.I.",
"P.P.P.P.P.P.P.P.P.P.P.P.P.P.P.P.P.I.P.I.I.I.I.P.P.P.P.I.P.I.I.P.P.P.K.K.K.K.L.L.P.P.P.L.L.L.L.L.P.L.L.L.I.I.I.I.P.P.P.P.P.P.P.P.I.I.I.P.I.I.I.I.I.P.P.I.I.I.I.P._._._._._._._._._._._._._._._._._._._._._._._._._._._._._._._._.P.P.I.I.I.P.I.P.I.P.I.P.I.P.I.P._._._._.I.I._._._._._.I.I.I._.P.P.P.I.P.I.P.I.P.I.P.I.P.I.P.I.I.I.`.`.`.`.`.`.I.`.`.`.`.`.).`.).).).I.I.I.I.I.I.I.I.).).I.I.I.I.)._._._.`.`.`.`.`.`.`.`.`.`.`.I.I.I.I.I.I.I.I.I.I.I.I.I.I.I.I.I.I.I.I.I.I.I.I.I.I.I.I.I.I.I.I.I.j.h.j.h.I.I.I.I.I.I.I.I.I.I.I.I.I.I.`.I.I.I.I.I.I.I.I.I.I.I.L.I.I.I.I.I.I.I.I.I.I.I.I.I.I.I.I.I.I.I.I.I.I.I.I.I.I.I.I.I.I.I.I.I.I.I.I.I.I.I.I.I.I.I.I.I.I.I.I.I.I.I.I.I.I.I.I.I.I.I.I.I.I.I.I.I.P.L.f.L.I.I.I.L.I.P.I.P.I.P.I.P.P.P.I.P.I.P.I.P.I.I.I.I.I.I.I.I.P.P.P.I.I.I.I.I.I.I.I.I.I.I.I.I._._._._._._._._._._._._._._._.I.I.I.I.I.I.I.I.I.I.I.I.I.I.I.I.I.P.L.L.L.I.I.I.I.I.I.I.P._._._._._.P._.P._.P._.P._.P._.P._.P._.P._.P._.P._.P._.P._.P._.P._.P._.P.I.I.I.I.I.I.I.I.I.I.I.I.I.I.I.I.I.I.I.I.I.I.I.I.I.I.I.I.I.I.I.I.I.P.P.P.P.P.P.P.P.P.P.P.P.P.P.P.",
"P.P.P.P.P.P.P.P.P.G.G.G.P.P.P.P.P.P.P.P.P.P.P.P.P.P.L.L.P.P.P.P.U.U.U.U.U.U.I.I.P.P.P.P.P.P.K.L.P.P.P.P.P.P.P.P.P.P.P.P.P.P.P.P.P.P.P.P.P.P.P.P.P.P.P.P.P.P.P.P._._._._._._._._._._._._._._._._._._._._._._._._._._._._._._._._.I.I.I.I.I.I.I.I.I.I.I.I.I.I.I.I._._._._.I.I._._._._._._.I._._._.I.I.I.I.I.I.I.I.I.I.I.I.I.I.I.I.`.`.`.`.`.`.`.`.`.`.`.`.`.`.).`.).I.I.I.).).).I.).).).).).).).).I.I._.I._.I.c.I.c.I._.I._.I.c.I.).).).).).).).).).).`.`.).).).).).).).).).).).).).).).).`.`.`.`.).).).).).`.).`.{.`.{.`.{.`.{.{.)._.{.).).).).).I.I.I.I.I.I.I.I.h.f.I.I.I.I.I.I.I.I.I.I.I.I.I.I.I.P.I.P.I.P.I.P.I.P.I.P.I.P.I.P.I.P.I.P.I.P.I.P.I.I.I.P.I.I.I.I.I.P.I.P.P.P.P.P.h.P.f.K.I.P.I.P.P.P.K.P.P.P.P.P.P.P.P.P.P.P.P.P.P.P.P.P.P.P.P.P.P.P.P.P.P.P.P.P.P.P.I.I.I.I.I.I.I.I.I.I.P.P.P.I._.)._.).).).).).).).).).).).).)._.P.P.P.P.P.P.P.I.I.P.P.P.P.P.P.P.P.I.I.I.I.I.I.I.I.P.P._._._._.P.P.P.P.P.P.P.P.P.P.P.P.P.P.P.P.P.P.P.P.P.P.P.P.P.P.P.P.P.P.P.I.I.I.I.I.I.I.I.I.I.I.I.I.I.I.I.I.I.I.I.I.I.I.I.I.I.I.I.I.I.I.I.I.P.P.P.P.P.P.P.P.P.P.P.P.P.P.P.P.",
"P.P.P.P.P.P.P.J.U.U.U.U.J.J.J.J.P.P.P.P.U.U.P.P.U.U.U.U.U.U.U.U.J.J.J.J.U.U.P.P.P.P.P.P.P.P.K.K.I.I.P.I.P.P.P.P.P.P.P.P.P.P.P.P.P.P.P.P.P.P.P.P.P.P.P.P.P.P.P.P._._._._._._._._._._._._._._._._._._._._._._._._._._._._._._._._.I.I.I.I.I.I.I.I.I.I.I.I.I.I.I.I._._._._.I.I.I.I._._._._._._._._.I.I.I.I.I.I.I.I.I.I.I.I.I.I.I.I.`.`.).).).).`.`._._._._.).).).).P.P._._.).)._._.h.h.h.h.h.h.h.h._._._._._._._._._._._._._._._._.h.h.h.h.h.h.h.h.h.h.h.h.h.h.h.h.h.h.h.h.h.h.h.h.h.h.P.P.h.h.h.h.h.P.P.P.P.h.P.h.P.P.P.P.h.h.P.P.s.G.s.s.s.s.s.G.P.P.P.P.P.P.P.P.P.P.P.P.P.P._.).P.P.P.P.P.P.P.P.P.G.P.G.P.G.P.G.P.P.P.P.P.P.P.P.P.P.P.P.P.P.P.P.).'.).'.).).).).).).).).).).).).P.P._.'.).).).).U.P.P.P.P.P.P.P.U.U.I.I.P.P.P.P.P.P.P.P.P.P.P.P.P.P.P.P.P.P.P.P.P.P.P.P.P.P.P.P.P.P.P.P.P.P.P.P._._._._.)._._._._._._._._._._._.P.P.P.P.P.P.P.P.P.P.P.P.P.P.P.P.P.I.I.I.I.I.I.I.I.I.P.P._._._._.P.P.I.P.I.P.I.P.I.P.I.P.I.P.I.I.I.I.I.I.I.I.I.I.I.I.I.I.I.I.I.I.I.I.I.I.I.I.I.I.I.I.I.I.I.I.I.I.I.I.I.I.I.I.I.I.I.I.I.I.I.I.I.I.P.P.P.P.P.P.P.P.P.P.P.P.P.P.P.P.",
"P.J.P.P._.U.J.J.J.J.J.J.J.J.J.J.U.U.U.U.U.U.U.U.U.U.U.U.J.J.J.J.J.J.J.J.J.J.J.J.P.J.P.P.P.P.P.P.U.U.U.U.P.P._._.P.P.P.P.P.P.P.P.P.P.U.U.U.U.P.P.G.G.P.P.P.P.P._._._._._._._._._._._._._._._._._._._._._._._._._._._._._._._._._.I.I.I.I.I.I.I.I.I.I.I.I.I.P.I.P._.I._.P._._.I.P.I.I._._._._._._.I.I.I.I.I.I.I.I.I.I.I.I.I.I.I.I.).).).).).).).).I._._.).).)._._._.W.W.W._._._._.}.}.}.}.}.}.}.}.}.}.}.}.}.}.}.}.}.}.}.}.}.}.}.}.[.}.[.}.[.}.[.}.[.).[.).).}.[.}.[.}.[.}.[.).[.).}.}.}.}.}.}.[.}.).}.).}.}.}.}.}._._._._._._._._.}.!.!.!.}.}.}.}.}.}.}.}.}.}.}.}.W.!.!.!.'.'.'.}.W.W.W.W.W.W.W.W.!.!.!.!.!.!.!.!.W.W.W.W.W.W.W.W.W.W.W.W.W.W.W.W.W.W.W.W.W.W.W.W.W.W.W.W.!.W.W.W.G.G.W.W.W.!.!.!.G.P.P.P.P.P.P.P.P.P.P.P.P.P.P.P.P.P.P.P.G.P.P.P.P.P.P.P.G.P.P.G.P.P.P.P.P.P.P.P.P.P.P.P.P.P.P.P._._._._._._._._.^.W.^.W._._._.W.P.P.P.P.P.P.P.P.P.P.P.P.P.P.P.P.P.P.I.I.I.I.I.I.I.I.P.P._._._.P.P.I.I.I.I.I.I.I.I.I.I.I.I.I.I.I.I.I.I.I.I.I.I.I.I.I.I.I.I.I.I.I.I.I.I.I.I.I.I.I.).I.I.I.I.I.I.I.I.I.I.I.I.I.I.I.I.I.I.I.I.I.I.P.P.P.P.P.P.P.P.P.P.P.P.P.P.P.P.P.",
"P.P.P._._._.G.G.G.G.G.G.G.G.G.G.J.J.J.J.J.J.J.J.G.G.G.G.G.G.G.G.J.J.J.J.J.J.J.J.J.J.J.J.J.J.J.P.J.J.J.J._._._.W.G.G.G.G.G.G.G.G.G.G.P.P.P.P.P.P.P.P.'.P.J.J.P.)._._.I.I._._._.`.I.I._._._._._._._._._._._._._._._._._._._._._._.P.P.P.P.P.P.P.P.P.P.P.P.P.P.P.P._.P.P.P._._.P.s.P.P._._._._._._._._._._._._._._._._._._._._._._._._._._._._._._.I._._._._._.I._.!.E.F.F.F.H.E.E.E.H.E.H.E.H.E.E.E.E.E.F.E.H.E.E.E.E.E.F.E.F.E.E.E.F.E.F.E.F.E.F.E.F.E.F.E.F.E.F.E.F.E.F.E.E.E.E.E.F.E.F.E.F.E.F.F.F.F.F.F.F.F.F.9.9.9.9.9.9.9.9.M.M.M.M.9.M.M.M.9.9.9.9.9.9.9.9.7.7.7.7.7.7.9.9.8.8.7.7.7.7.7.7.7.9.9.9.8.9.8.9.8.8.8.8.8.8.8.8.8.8.8.8.8.8.8.8.8.8.8.8.8.8.8.8.) ) ) ) ) ) ) ) ! ! ) ) 2.2.2.3.p.D.J.U.U.U.P.P.U.U.U.U.U.P.P.P.U.P.P.P.U.P.P.P.P.P.U.J.J.G.J.P._._._._._._._._.P.P.P.P._._._._._._._._._._._._._._._._._._.}.}._._._._._._._.P._.P.P.P.P.P.)._._._._._.I.I.I.I._._._._.I.I.I.P.P.P.P.P.P.P.P.P.P.P.P.P.P.P.P.P.P.P.P.P.P.P.P.P.P.P.P.P.P.P.P.P._._._._._._._._._._.P.I._._._.P._._._._._._._._._._._._._._._.P.P.P.P.P.P.P.P.P.P.P.P.P.P.P.P.P.",
"_._._._.)._.G.p.p.p.p.p.a.a.a.a.F.S.S.S.S.F.S.F.i.i.i.i.i.i.i.i.F.F.p.p.S.S.S.p.p.p.p.p.p.p.p.p.p.p.s.s.s.s.s.p.s.s.s.s.s.s.s.s.s.G.G.G.G.G.G.G.P.U.).P.G.G.J.P._._._.I._._.`.`.I.I._._.`._._._._._._._._._._._._._._._._._._.P.P.P.P.P.P.P.P.P.P.P.P.P.P.P.P.P._.P.P.P._._.P.s.P.P._._._._._._._._._._._._._._._._._._._._._._._._.I.P.P._._._.I.P._._._._.I.G.9.4.:.^ ! :.4.4.W W W W W W W W :.:.:.:.:.:.:.:.:.:.:.:.:.:.:.:.P P P P P P P P P P P P P P P P P G P G P G P P P G P G P G P G G G W W Q Q Q Q G G G G G G G G G G G G G G G L J J J J J J J J P P P P Q Q Q -.Q Q P P P P P P J L L L L L a a L L L L L L L L L L L L L L L L Q Q Q Q Q Q Q Q L L L L L L L L L L L L L L L P _ y.G.P.'.U._.J.'.U.'.U._.P.J.J.J.J.J.J.J.J.J.J._.P._.U.P.J.P.P._._._._._._._._._._._._._._._._._._._._._._._._._._._._.P.P._.P.P.P.P.P.P.P.P.P.P.P.P.P.P.P.P._._._._._._._._._._._._._.I.I.I.I.P.P.P.P.P.P.P.P.P.P.P.P.P.P.P.P.P.P.P.P.P.P.P.P.P.P.P.P.P.P.P.P._._._._._._._._._.P.s.P._._._.P._._._._._._._._._._._._._._._._.P.P.P.P.P.P.P.P.P.P.P.P.P.P.P.P.",
"{.)._._.[._.s.d.p.p.p.d.d.d.d.i.d.5.5.5.d.d.d.d.i.i.d.i.d.d.i.i.d.d.d.d.d.y.y.y.y.d.d.u.u.u.u.u.p.p.p.p.s.p.p.p.z.s.z.s.z.s.W.G.G.P.P.P.P.G.p.p.P.).P.P.p.u.s.P._._.I.I.`.`.`.`.`.I.`.`.`.`._._._._._._._._._._._._._._._._._.P.P.P.P.P.P.P.P.P.P.P.P.P.P.P.P.P._.P.P.P._._.G.p.G.P._._.)._._._._._._._._._._._._._._._._._._._._._.P.P.P.P._._.P.P._._._.I.P.G.Q E y y E E L a ~ ~ ~ ~ ~ ~ ~ ~ Q Q Q Q E E E E Q Q Q Q E E E Q Q Q -.Q -.Q Q Q -.-.-.Q Q Q -.Q -.Q =.Q =.Q =.=.=.Q =.Q =.Q =.Q Q Q ~ Q Q Q Q Q Q Q Q Q Q Q Q Q Q Q Q Q Q Q Q =.-.=.-.=.>.>.=.>.@.@.=.=.=.=.=.=.=.=.=.=.=.=.=.=.>.>.>.>.>.>.>.>.b b b b b b b b h h h h h h h h Q Q Q Q Q Q Q Q =.=.Q =.Q Q =.=.=.=.Q Q Q Q =.-.F ( p.J._._._.P.G.G.G.G.s.s.s.s.s.s.s.s.s.s.s.s.s.s.s.G.s.s.s.s.s.s.z.G.z.s.z.s.s.s.s.s.s.s.s.s.G.G.G.G.K.D.D.D.p.p.p.p.p.p.p.p.s.s.h.s.h.s.h.s.p.G.P.P.P.P.h.s._._._._._._._._._._._._.I.I.I.I.P.P.P.P.P.P.P.P.P.P.P.P.P.P.P.P.P.P.P.P.P.P.P.P.P.P.P.P.P.P.P.P._._._._._._._._._.G.s.G._.}._.W._._._._._._._._._._._._._._._._.P.P.P.P.P.P.P.P.P.P.P.P.P.P.P.P.",
"]._._._.)._.s.d.p.p.p.p.a.a.a.a.5.5.5.5.d.d.d.d.i.i.i.p.p.p.p.p.p.s.s.p.p.p.p.p.s.G.s.s.s.s.P._.)._._.).)._._._._._._._._._._._._._._.).P.G.D.p.P.P.P.G.u.y.p.G._._._.`.`.`.`.`.`.`.`.`.`.`._._._._._._._._._._._._._._._._._._.P.P.P.P.P.P.P.P.P.P.P.P.P.P.P.P._.P.P.P._._.G.p.G.P._._.)._._._._._._._._._._._._._._._._._._._._.P.P.G.G.P.P._.P.P._._._.P.P.G.G h Q Q ;.;.=.h Q Q Q Q Q Q Q Q =.=.=.Q Q Q Q =.=.=.=.=.Q Q Q Q =.=.=.=.=.=.=.=.=.=.=.=.=.=.=.=.=.b =.b =.b =.b =.b =.b =.b =.b h k h k k k k k Q k Q k Q k Q k =.=.=.=.=.=.=.=.b b b b b b b b m m =.=.=.>.>.>.>.>.>.>.>.>.>.>.=.b =.b =.b =.b =.b =.b =.b =.b =.b =.b =.b =.b =.b =.b =.b =.b b b b b b b b =.=.=.=.b b b b Q D I d.W._._.P.G.p.p.d.d.d.d.y.y.y.y.y.y.y.5.y.y.y.y.d.d.d.y.y.y.u.u.p.p.u.u.u.u.d.d.d.d.d.d.d.d.y.y.y.y... . . .p.p.p.p.p.p.p.p.P.P.P.P.P.P.P.P.} u.P._._.P.u.y._._._._._._._._._._._._._.I._.I.P.P.P.P.P.P.P.P.P.P.P.P.P.P.P.P.P.P.P.P.P.P.P.P.P.P.P.P.P.P._._._._._._._._._._.G.s.s.s._.)._._._._._._._._._._._._._._._._._._._.P._.P._.P._.P._.P._.P._.P._.P.",
"P.P._.P._._.G.d.d.d.d.p.d.3. .p.i.y.5.y.p.s.s.p.G.G.G.h.s.s.s.s._.P._._.`._._._.G.G.S.i.p.G._.P._.)._._._.'.J.p.W.W._.}._.P._.{.h.`.P._.).G. .D.P.P.P.P.s.y.5.S.P.I._._._._._._._._._._._._._._._._._.P.P._._._._._._.P.s.p.J.}._.P._.P._.P.J.G.J.G.s.J.'.P.J.P.P._._.P._.'.G.p.p.G._._._._.).I._._._._._._._._._._._._._._._._.P.P.P.J.S.i.D.P._.P._.I.P.}.W.` L h Q Q h h h =.=.=.=.=.=.=.=.=.=.=.=.=.=.=.=.=.=.=.=.=.=.=.=.=.=.=.=.=.=.=.=.=.=.=.=.=.=.=.=.=.=.=.=.=.=.=.=.=.=.=.=.=.=.=.=.=.=.=.=.=.=.=.=.=.=.=.=.=.=.=.=.=.=.=.=.=.=.=.=.=.=.=.=.=.=.=.=.=.=.=.=.=.=.=.=.=.=.=.=.=.=.=.=.=.=.=.=.=.=.=.=.=.=.=.=.=.=.=.=.=.=.=.=.=.=.=.=.=.=.=.=.=.=.=.=.=.b b b b =.=.=.@.@.=.=.>.=.b h Q ! H i.'.U.P.U.G.G.F.9.9.a.p.i.y.i._ _ 5.i.9.i.i.5.5.5.y.p.p.p.u.y.y.y.p.u.p.u.p.s.s.s.G.p.i.F.W.P.P.P.P.P.P.P.P.].'.P.P.).).P.G._._.P.P._._._.P.y.s.P.P.P.P.s.y.p.s.W._.)._._._._._._._._._._._.P.).}._._._._.P._._.j.h.P.P.J.J.J.U.U.P.I.I.I.P.P.J.G.J.W._._.P._._._._._._._._.'.y.y.G._._._._._._._._._._._._._._._._._._._._.G.P._.P._._.G.y.s.P.)._._._._.I.",
"P.P.P.J.!.!.G.5.9.d.p.G.G.p.D.G._.G.p.i.G.J._._.P.P.I._.I.I.I.I._.P._.I.`.`.`._.P.G.S.i.i.G._.P._._._.P._.'.G.p.p.p.G.'._.P._.{.c.`.P.P.).G. .D.P.P.P.P.s.y.9.F.P.I._._._._._._._._._._._._._._.P.P.P.P.P._._._.P._._.G.p.p.G._._._._._._._.J.G.F.i.i.G._.'._._.P._._.P._.'.G.p.p.G._._.I._.`.I._._._._._._._._._._._._._._._.I.I.P.P.G.S.i.S.U._.P.).I.P.}.W.) L Q -.-.h h b =.=.=.=.=.=.=.=.=.=.=.=.=.=.=.=.=.=.=.=.=.=.=.=.=.=.=.=.=.=.=.=.=.=.=.=.=.=.=.=.=.=.=.=.=.=.=.=.=.=.=.=.=.=.=.=.=.=.=.=.=.=.=.=.=.=.=.=.=.=.=.=.=.=.=.=.=.=.=.=.=.=.=.=.=.=.=.=.=.=.=.=.=.=.=.=.=.=.=.=.=.=.=.=.=.=.=.=.=.=.=.=.=.=.=.=.=.=.=.=.=.=.=.=.=.=.=.=.=.=.=.=.=.=.=.=.=.b b =.=.-.=.@.@.#.=.>.>.=.b h =.Q P 9.'.U.P.U.G.S.9.7.9.9.a.i.y.i.5.5.i.S.n.n.F.F.F.F.G.G.G.P.G.G.G.G.P.P.P.P.P.P.P.G.J.G.p.F.!.P.P.P._._._._._._.G.G.G._._.W.G._._.P.P._._._.P.y.s.G.P.P.G.s.y.d.s.W._._._._._.`.`._._._._._._.P.).}.W.J.W._.P._.`.`.I.P.P.G.G.G.J.P.P.I.I.).P.P.G.F.F.G.W.W._._._._._._._._._._.y.y.J._._.)._._._._._._._._._._._._._._._._._.P._._.W._._.G.d.s.W.)._._._.`.c.",
"P.P.P.J.!.!.F.5.d.d.F.J.U.J.P.).}.G.d.5.p.G._.)._._._._.`.).)._._._.I.I.c.`.`._._.G.F.5.i.G._._.P._._._._.'.G.y.5.y.p._._.P._.{.c.`.P.P.'.G. .D.P.P.P.P.G.5.9.F.P.I._._._._._._._._._._._._._._.P.G.s.P.I._._._.P._.P.s.y.y.p.J._._._._._._.J.G.d.3.5.F.W._._.'.P._._.J._.'.G.p.p.G._._.P._.`.I._._._._._._._._._._._._._._._.I.I.P.P.J.S.i.S.U._.P.).I._.}.W.) L Q -.Q Q Q =.=.=.=.=.=.=.=.=.=.=.=.=.=.=.=.=.=.=.=.=.=.=.=.=.=.=.=.=.=.=.=.=.=.=.=.=.=.=.=.=.=.=.=.=.=.=.=.=.=.=.=.=.=.=.=.=.=.=.=.=.=.=.=.=.=.=.=.=.=.=.=.=.=.=.=.=.=.=.=.=.=.=.=.=.=.=.=.=.=.=.=.=.=.=.=.=.=.=.=.=.=.=.=.=.=.=.=.=.=.=.=.=.=.=.=.=.=.=.=.=.=.=.=.=.=.=.=.=.=.=.=.=.=.=.=.=.=.b b =.=.-.-.@.@.@.-.=.=.Q h b =.Q P 9.'.U.P.I.D.S.9.7.9.a.F.F.p.F.F.F.H.F.9.S.H.J.J.W._._._._.P.P.P.P.P.)._.).)._._._._.G.p.F.W.P.P._._._._._._.s.p.p.p.G._.W.G._._.P.P._._.P.P.y.s.P.P.P.P.s.y.d.s.W._._._._._.`.`._._._._._._.P._._.G.G.G._._.I.`.`.`.I.G.p.i.F.G.P.P.I.`.).I.P.G.p.i.p.G.J._._._._._._._._.W._.y.p.P._._.)._._._._._._._._._._._._._._._._._.P._._.W._._.G.d.G.W.)._._._.`.c.",
"P.P.P.J.!.!.F.d.5.5.p.J.'.P.P.U.P.F.3._ y.s.G._._._._._._._._._._._._.I.c.`.`._._.J.F.5.5.G._._.P._._._.).'.G.y.3.5.p.W.)._.P._.c.{.P.P.'.G.i.D.P.P.P.P.G.5.9.F.P.I._._._._._._._._._._._._._._.P.p.u.s.I._._._.I._.P.s.y.y.i.G._._._._._._.J.G.y._ 3.p.J._._.'.P._._.J._._.G.y.s.J._._.P._.`.I._._._._._._._._._._._._._._._.I.I.P.P.J.S.i.S.U._.P.).I._.}.W.) L Q -.Q Q Q =.b =.=.=.=.=.=.=.=.=.=.=.=.=.=.=.=.=.=.=.=.=.=.=.=.=.=.=.=.=.=.=.=.=.=.=.=.=.=.=.=.=.=.=.=.=.=.=.=.=.=.=.=.=.=.=.=.=.=.=.=.=.=.=.=.=.=.=.=.=.=.=.=.=.=.=.=.=.=.=.=.=.=.=.=.=.=.=.=.=.=.=.=.=.=.=.=.=.=.=.=.=.=.=.=.=.=.=.=.=.=.=.=.=.=.=.=.=.=.=.=.=.=.=.=.=.=.=.=.=.=.=.=.=.=.=.=.h =.=.=.-.P P #.L @.@.L a =.=.=.Q P 9.'.U.K.I.D.F.a.5.9.F.W.J.J.G.G.!.!.F.5.i.G.!.!._._._._._.P.J.G.G.P.P.P.P.P._.P.P.J.s.d.d.F._._._._._._._._.p.y.y.p.G.J.J.J._._.P._._._.P.P.y.s.P._._.P.s.y.d.s.W._.)._._._.`.`._.`._._._._._._.P.s.p.G.G.P.I.`.`.`.I.s.i.5.S.G.P.P.I.I.).P._.G.i.5.i.F.J._._._._._._._.W.W.J.y.p._._._._._._._._._._._._._._._._._._._._._._._._.W._._.G.y.G.W.)._._._.`.c.",
"P.P.P.J.!.!.G.d.5.5.i.J.U.P.P.P._.G.d.5.p.G.P._.P.P.I.I.I.I.I.I._._._.`.c.`.`._._.J.F.5.5.p._._.P._._._._.'.F.3.y.y.s._.}._.P.I.`.{.P.P.'.G. .D.P.P.P.P.G.i.9.F.P.I._._._._._._._._._._._._._._.P.p.y.s.I.I.I._._._._.s.y.y.p.G._._._._._._.J.G.i.5.y.G._._._._._._._.J._._.G.y.s.J._.P.I._.`.I._._._._._._._._._._._._._._._.P.I.P.P.J.S.i.S.U._.P.).I.P.}.W.) L =.=.Q Q =.=.Q =.=.=.=.=.=.=.=.=.=.=.=.=.=.=.=.=.=.=.=.=.=.=.=.=.=.=.=.=.=.=.=.=.=.=.=.=.=.=.=.=.=.=.=.=.=.=.=.=.=.=.=.=.=.=.=.=.=.=.=.=.=.=.=.=.=.=.=.=.=.=.=.=.=.=.=.=.=.=.=.=.=.=.=.=.=.=.=.=.=.=.=.=.=.=.=.=.=.=.=.=.=.=.=.=.=.=.=.=.=.=.=.=.=.=.=.=.=.=.=.=.=.=.=.=.=.=.=.=.=.=.=.=.=.=.=.h h Q Q P P -.2.2.8.:.P L Q =.=.Q P 9.'.P.P.I.D.G.a.9.9.E.!.'.'.J.W.'.!.i.' i.G.J.P._._._._.I.I.P.P.P.P.P._._._.P.P.P.J.s.5.3.i._._._._._._._._.s.p.y.d.s.J.J.J._._._._._._.P.P.y.s.P._._.P.s.y.d.s.W._.)._.`.`.`.`._.`._._._._._._.P.p.d.G.J._.I.`.`.).P.s.i.' i.G.P.P.I.I.).P._.G.i.5.d.F.W._._._._._._._.W.W.J.y.p._._.I.)._._._._._._._._._._._._._._._._._._._._.W._._.G.y.G.W.)._._._.`.c.",
"P.P.P.J.'.!.G.5.a.d.p.J.'.P.P.P.P.G.i.d.s.G.P.P._._._._._._._._._._._.`.c.`.`._._.!.F.5.5.p.P._.P._._.P._._.G.5.p.i.s._.}._.P.I.`.`.P.P.U.D. .D.P.P.P.P.G.i.9.F.P.I._._._._._._._._._._._._._._.P.p.y.s._.I.P._._._._.G.p.y.p.G._._._._._._.J.G.p.y.y.G._._.P._._._._.J._._.G.y.G._._.P.P._.`._._._._._._._._._._._._._._._._.P.I.P.P.J.S.i.S.U._.P._.P.P.}.W.) L =.=.h Q ;.>.L =.=.=.=.=.=.=.=.=.=.=.=.=.=.=.=.=.=.=.=.=.=.=.=.=.=.=.=.=.=.=.=.=.=.=.=.=.=.=.=.=.=.=.=.=.=.=.=.=.=.=.=.=.=.=.=.=.=.=.=.=.=.=.=.=.=.=.=.=.=.=.=.=.=.=.=.=.=.=.=.=.=.=.=.=.=.=.=.=.=.=.=.=.=.=.=.=.=.=.=.=.=.=.=.=.=.=.=.=.=.=.=.=.=.=.=.=.=.=.=.=.=.=.=.=.=.=.=.=.=.=.=.=.=.=.=.h Q Q L P -.2.9.~./.V.:.L -.=.Q Q P 9.'.P.P.I.D.p.d.7.5.a.W._.P.P._._.J.p.' y.G._._._._._._.`.I.P.P.P.P.P.P.P.P._._._._.s.5.5.i._._._._._._.J.P.s.p.y.p.s.J.J.J._._._._._._.P.G.p.s._._._._.s.p.d.s.W._._._.`.`.`.`.`.`._._._._._._.P.p.p.s.J._.I.`.`.`.P.s.i.' i.G.U.P.I.I.I.P._.G.i.5.d.F.W._._._._._._._.J.W.G.y.p.)._.P._._._._._._._._._._._._._._._._._._._._._.W._._.s.y.G.W.)._._._.`.c.",
"P.P.P.P._.!.G.d.p.d.y.G.P.P.P.P._.F.y.y.p.G.P.P._._._._.`.`.`._._._._.`.I.I.`._._.!.G.i.5.p.P._._._._.G.P.J.G.5.p.i.p.J.)._._._.`.`.P.G.U.G. .D.P.P.P.P.G.y.9.F.P.I._._._._._._._._._._._._._._._.u.y.s._.I.P._._._._.s.y.y.p.J._._._._._._.J.G.p.y.y.G._._._._._._._.J._._.G.y.G._._.P.P._.`._._._._._._._._._._._._._._._._.P.I.P.P.G.S.i.S.U._.P.).I.P.).W.) E =.=.h Q ,.,.L -.=.=.=.=.=.=.=.=.=.=.=.=.=.=.=.=.=.=.=.=.=.=.=.=.=.=.=.=.=.=.=.=.=.=.=.=.=.=.=.=.=.=.=.=.=.=.=.=.=.=.=.=.=.=.=.=.=.=.=.=.=.=.=.=.=.=.=.=.=.=.=.=.=.=.=.=.=.=.=.=.=.=.=.=.=.=.=.=.=.=.=.=.=.=.=.=.=.=.=.=.=.=.=.=.=.=.=.=.=.=.=.=.=.=.=.=.=.=.=.=.=.=.=.=.=.=.=.=.=.=.=.=.=.=.=.=.Q Q Q P 2.a.^.^.(.E.2.Q ~ =.L Q P 9.'.P.K.I.D.p.d.7.5.a.G._.P._.P._.J.p.5.y.G.'._._._.).`.`.I.I.P.P.P.P.P.P.P._._._._.G.d.5.i._._._._._.P.J.P.s.p.y.d.s.J.W.W._._._._._._.P.G.p.G._._._._.G.p.d.s.W._.)._._._.`.`._._._._._._._._.P.p.p.G.J._._.`.`.`.P.G.i.5.i.G.U.P.I.I.I.I._.G.i.5.d.F.J._._._._._._._.P.P.G.y.s.}._.P._._._._._._._._._._._._._._._._._._._._._._._._.s.y.s.W.)._._._.`._.",
"P.P.P.P._._.G.d.d.3.} p.J.P.P.U.}.G.i.y.p.G._.}.P.P.I.I.I.I.I.I._._._.`.`.I.I._.P.!.G.i.5.p.G._._._._.G.G.J.G.y.p.y.p.G._._._.).`.{.P.G.U.G. .D.P.P.P.P.s.y.9.F.P.I._._._._._._._._._._._._._._._.u.y.s.).I.h.I.I._.P.s.y.y.p.J._._._._._._.J.G.d.' 5.F._._._._._._._.J._.W.G.y.G._.).P.P._.`._._._._._._._._._._._._._._._._.P.I.P.P.G.S.i.S.U._.P._.P.P.).W.) L =.=.h Q ,.,.a -.-.=.=.=.=.=.=.=.=.=.=.=.=.=.=.=.=.=.=.=.=.=.=.=.=.=.=.=.=.=.=.=.=.=.=.=.=.=.=.=.=.=.=.=.=.=.=.=.=.=.=.=.=.=.=.=.=.=.=.=.=.=.=.=.=.=.=.=.=.=.=.=.=.=.=.=.=.=.=.=.=.=.=.=.=.=.=.=.=.=.=.=.=.=.=.=.=.=.=.=.=.=.=.=.=.=.=.=.=.=.=.=.=.=.=.=.=.=.=.=.=.=.=.=.=.=.=.=.=.=.=.=.=.=.=.=.=.Q Q P 2.W.oXW.!.E.2.G ~ =.Q Q P 9.!.P.P.I.D.G.d.5.d.a.W._._._.J.J.G.s.y.d.s._._._._.I.I.j.I._.U.U.U.)._._._.I.P._._.s.d.3.d._._._._.P.P.P.J.p.p.y.y.s.J.!._._._._._._._.P.G.p.G._._._._.G.p.d.s.W._.)._._._.`.`._._._._._._._._.P.s.p.G.J._.).).`.).P.G.i.5.i.G.U.P.h.I.I.P._.G.i.5.d.p.G._._._._._._._._._.G.y.s.}._.P._._._._._._._._._._._._._._._._._._._._._._._._.s.3.s.W.)._._._.`._.",
"P.P.P.P._._.G.d.i.G.W._.P.P.P.P.'.F.y.5.p.G.P.P._._._._._._.`._._._._.`.`.`.`._._.J.F.5.y.G.P._._._._.J._.'.G.y.F.d.y.G.).)._.I.h.`._._.G.p.S.G.P.P.P.P.G.i.9.F._._._._._._._._._._._._._._._._._._._._._._._._._._._.s.p.y.p.J._.I.I.P._.W.J.G.i.F.y.5.P.}.G.G._._._._._.J.s.y._.W._._._._.`.`.`._._._._._._._._._._._._._._.I.I.P.P.D.S.5.S.'.P._.I._._._.}.) Q h =.Q Q ,.1.=.=.-.=.=.=.=.=.=.=.=.=.=.=.=.=.=.=.=.=.=.=.=.=.=.=.=.=.=.=.=.=.=.=.=.=.=.=.=.=.=.=.=.=.=.=.=.=.=.=.=.=.=.=.=.=.=.=.=.=.=.=.=.=.=.=.=.=.=.=.=.=.=.=.=.=.=.=.=.=.=.=.=.=.=.=.=.=.=.=.=.=.=.=.=.=.=.=.=.=.=.=.=.=.=.=.=.=.=.=.=.=.=.=.=.=.=.=.=.=.=.=.=.=.=.=.=.=.=.=.=.=.=.=.=.=.=.=.Q Q P P 9.!.G.W.}.^.2.L Q =.=.-.G H.!.D.I.K.U.G.p.5.5.a._._.P._._._.P.s.y.p.G._._.P._.`.`.c.I.P.P.P.P.P.P.I.P._._._._.G.p.d.s._._._._._._._._.G.y.y.p.p.G.}.W._._._.P._._.P.p.p.G.J.J.J.G.s.y.d.s.W._._._._.`.`.`._._._._._._.).I.s.s.s.G.G._.`.`.`._.P.G.i.' S.D.P.P.I.I.I.P._.p.5.i.p.d.G.)._._._._.P.P.P._.p.p.s.G._._.)._._._._._._._._._._._._._._._._._._._._._._.W.p.y.s.W.)._._._.`._.",
"P.P.P.P._._.G.d.i.G._._.P.P.P.P.'.G.y.5.p.G.P.P._._._._._._.`._._._._.`.`.`.I._._.J.F.5.y.G.P._._._._.J._._.G.y.F.d.y.G.).)._.I.c.`._._.G.p.S.G.P.P.P.P.G.i.9.F._._._._._._._._._._._._._._._._._._._._._._._._._._._.s.p.y.p.J._.I.I.P._.W.J.G.i.F.y.5.J.).G.G._._._._._.J.s.y.W.W._._._._.`._.`._._._._._._._._._._._._._._.I.I.P.P.G.S.5.S.U.P._.I._._._.}.) Q h =.Q Q :.1.=.=.=.-.=.=.=.b b =.=.=.=.=.=.=.=.=.=.=.=.=.=.=.=.=.=.=.=.=.=.=.=.=.=.=.=.=.=.=.=.=.=.=.=.=.=.=.=.=.=.=.=.=.=.=.=.=.=.=.=.=.=.=.=.=.=.=.=.=.=.=.=.=.=.=.=.=.=.=.=.=.=.=.=.=.=.=.=.=.=.=.=.=.=.=.=.=.=.=.=.=.=.=.=.=.=.=.=.=.=.=.=.=.=.=.=.=.=.=.=.=.=.=.=.=.=.=.=.=.=.=.=.=.=.=.=.=.h =.Q P a.}.W.G.!.E.2.G Q =.=.-.G H.!.D.I.K.U.G.p.d.d.z._._.I._._._.P.s.y.p.G._._.I._.`.`.c.I.P.P.P.P.P.P.I.I._._._._.G.p.d.s._._._._._._._._.G.y.d.p.p.G.}.W._._._.P._._.P.u.u.G.J._.P.P.s.y.d.s.G._._._._.`.`.`._._._._._._.)._.P.G.G.G._._._.`.`._.P.G.i.' n.D.P.P.I.I.I.P._.p.5.i.p.i.G.)._._._._.P.P.P.P.p.p.G.G._._.)._._._._._._._._._._._._._._._._._._._._._._.W.p.y.s.W.)._._._.`._.",
"P.P.P.P._._.G.d.p.G._._.P.P.P.P.'.G.y.5.p.G.P.P._._._._._._._._._._._.`.c.`.`._._.J.F.5.y.G.P._._._._.J._.'.G.y.F.i.y.G.).)._.I.c.c._._.G.p.S.G.P.P.P.P.s.i.9.F._._._._._._._._._._._._._._._._._._._._._._._._._._._.s.p.y.p.J._.I.I.P._.W.J.G.i.F.y.5.J.).G.G._._._._._.J.p.y._._._._._._.`._._._._._._._._._._._._._._._._.I.I.P.P.G.p.5.p.U.P._.I._._._.}.) Q k =.Q Q 1.8.P @.-.-.=.=.=.b b =.=.=.=.=.=.=.=.=.=.=.=.=.=.=.=.=.=.=.=.=.=.=.=.=.=.=.=.=.=.=.=.=.=.=.=.=.=.=.=.=.=.=.=.=.=.=.=.=.=.=.=.=.=.=.=.=.=.=.=.=.=.=.=.=.=.=.=.=.=.=.=.=.=.=.=.=.=.=.=.=.=.=.=.=.=.=.=.=.=.=.=.=.=.=.=.=.=.=.=.=.=.=.=.=.=.=.=.=.=.=.=.=.=.=.=.=.=.=.=.=.=.=.=.=.=.=.=.b b =.Q ! F.}.W.F.W.F.2.P =.=.b -.L H.!.D.I.K.I.G.p.d.a.^.).).I._._._.P.p.y.d.G._._._._.`.`.c.I.P.P.P.P.I.I.I.I._.I._._.G.p.d.s._._._._._._._._.G.y.d.p.p.G.'._._._._.P._._.P.u.u.G._._.P.P.s.y.y.s.G._._._._.`.`.`._._._._._._.).)._._._._._._._.`._._.P.G.i.' n.D.P.P.I.I.I.P._.F.5.i.a.d.G.)._._._._._._.W.W.d.p.G.J._._._._._._._._._._._._._._._._._._._._._._._._._.W.p.d.s.W.)._._._.`._.",
"P.P.P.P._._.G.d.p.G._._.P.P.P.P.'.G.y.5.p.G.P.P._._._._._._._._._._._.`.c.`.`._._.J.F.5.y.G.P._._._._.J._.'.G.y.F.y.y.G._._._.P.c.c._._.G.i.S.G.P.P.P.P.G.i.9.F._._._._._._._._._._._._._._._._._._._._._._._._._._._.s.p.y.p.J._.I.I.P._.W.J.G.i.G.y.5.G.'.P.P._._._._._.J.p.y._._._._._._.`._._._._._._._._._._._._._._._._.I.I.P.P.G.S.5.S.U.P._.I._._._.}.) Q k ;.Q Q 8.8.P @.-.-.=.=.b b b =.=.=.=.=.=.=.=.=.=.=.=.=.=.=.=.=.=.=.=.=.=.=.=.=.=.=.=.=.=.=.=.=.=.=.=.=.=.=.=.=.=.=.=.=.=.=.=.=.=.=.=.=.=.=.=.=.=.=.=.=.=.=.=.=.=.=.=.=.=.=.=.=.=.=.=.=.=.=.=.=.=.=.=.=.=.=.=.=.=.=.=.=.=.=.=.=.=.=.=.=.=.=.=.=.=.=.=.=.=.=.=.=.=.=.=.=.=.=.=.=.=.=.=.=.=.=.=.m b >.-.P 9.}.W.W.W.a.-.P =.=.m -.G H.!.D.I.K.U.G.p.p.E.[.).).I._._._.J.p.y.d.G._._._._._.`.`.I.P.P.P.P.I.I.I.I._.I._._.s.p.d.s._._._._._._._._.G.p.p.p.y.G.'.J._._._.I._._.G.p.u.G._._._.P.s.y.y.s.G._._._._.`.`.`._._._._._._.`.`._._._._._._._.`._._.P.G.n.' n.D.P.P.I.I.I.P._.F.5.i.a.d.s.)._._._._._._.W.W.y.p.G.W._._._._._._._._._._._._._._._._._._._._._._._._._.W.p.d.s.W.)._._._.`._.",
"P.P.P.P._._.G.d.p.G._._.P.P.P.P._.F.y.5.p.G.P._._._._._.`._._._._._._.`.`.`.`._._.J.F.5.y.G.P._._._._.P._.'.G.y.F.y.y.s._._._.P.`.`._._.G.i.S.J.P.P.P.P.s.y.9.F._._._._._._._._._._._._._._._._._._._._._._._._.I._.P.s.p.y.p.J._.P.I.P._._.G.G.y.G.y.5.G._.P._._._._._._.G.p.y._._._._.P.P.`._._._._._._._._._._._._._._._._.P.I.P.P.G.S.5.p.J.P._.I.{._._.}.) Q k =.h Q m.B.P #.@.-.=.=.b b b =.=.=.=.=.=.=.=.=.=.=.=.=.=.=.=.=.=.=.=.=.=.=.=.=.=.=.=.=.=.=.=.=.=.=.=.=.=.=.=.=.=.=.=.=.=.=.=.=.=.=.=.=.=.=.=.=.=.=.=.=.=.=.=.=.=.=.=.=.=.=.=.=.=.=.=.=.=.=.=.=.=.=.=.=.=.=.=.=.=.=.=.=.=.=.=.=.=.=.=.=.=.=.=.=.=.=.=.=.=.=.=.=.=.=.=.=.=.=.=.=.=.=.=.=.=.=.=.m m >.-.P 9.}.W.}.W.7.-.L x m m =.G H.!.D.I.K.U.G.p.p.W.}.{.`.I._._._.J.p.5.d.G._._._._._.`.`.I.P.P.P.P.I.I.I.I._.I._._.s.p.d.s._._._._._._._._.G.p.p.p.y.s.!.J._._._.P._._.G.y.p.G._._._.P.s.y.d.s.W._._._._.`.`.`._._._._._._.I.`.)._._._._.P._.`._._.J.F.n.` 9.G.P.P.I.I.I.P._.F.i.i.a.d.p._._._._._._._.W.W.y.p.G._._._._._._._._._._._._._._._._._._._._._._._._._._.W.p.y.s.W.)._._._.`.c.",
"P.P.P.P._._.G.d.p.G._._.P.P.P.P._.F.y.5.p.G.P._._._._._.`.`.`._._._._.`.`.`.`._._.J.F.5.y.G.P._._._._.P._.'.G.y.F.y.y.p.P._.P._.`.`._._.G.i.S.U.P.P.P.P.s.y.9.F._._._._._._._._._._._._._._._._._._._._._._._._._._.P.s.p.y.p.J._.P.I.P._._.G.G.d.F.d.5.G._.P.'._._._._._.G.p.y._._._._.I.P.`._._._._._._._._._._._._._._._._.P.I.P.P.G.S.5.i.J.P._.I._._._.}.) Q n =.h Q m.V.L @.@.-.=.=.b m m =.=.=.=.=.=.=.=.=.=.=.=.=.=.=.=.=.=.=.=.=.=.=.=.=.=.=.=.=.=.=.=.=.=.=.=.=.=.=.=.=.=.=.=.=.=.=.=.=.=.=.=.=.=.=.=.=.=.=.=.=.=.=.=.=.=.=.=.=.=.=.=.=.=.=.=.=.=.=.=.=.=.=.=.=.=.=.=.=.=.=.=.=.=.=.=.=.=.=.=.=.=.=.=.=.=.=.=.=.=.=.=.=.=.=.=.=.=.=.=.=.=.=.=.=.=.=.=.b b >.-.-.E.}.W.}.E.2.P L m m m =.L H.!.D.I.K.U.P.p.d.W.}.).I.I._._._.J.p.5.d.G._._._._._._.`.I.P.P.P.P.I.I.I.I._.I._._.s.p.d.s._._._._._._._._.s.p.p.p.y.p.W.J.P._._.P._._.s.y.s.P._._._.P.s.y.d.s.W._._._._.`.`.`._._._._._._.I.`._._._._._.P._.`._._.J.F.n.` i.G.P.P.I.I.I.P.).F.i.i.a.d.p._._._._._._._._._.y.p.J._._._._._._._._._._._._._._._._._._._._._._._._._._.W.p.y.s.W.)._._._.`.c.",
"I.P.P.P._._.G.p.p.G._._.P.P.P.P._.F.y.5.p.G.P._._._._._._._._._._._._.`.`.I.`._._.J.F.5.y.G.P._._._._.P._.'.G.y.F.y.y.p.P._.P._.`.`._.P.D.i.S.U.P.P.P.P.s.y.9.F._._._._._._._._._._._._._._._._._._._._._._._._._._._.s.p.d.p.J._.P.P.P._._.J.G.d.G.i.5.G.J.P.)._._._._._.G.p.y.W.W._._.I._._._.`._._._._._._._._._._._._._._.P.I.P.P.J.S.5.p.G.P._.I.{._._.}.) k k =.h Q V.A.L #.@.@.=.=.b n b =.=.=.=.=.=.=.=.=.=.=.=.=.=.=.=.=.=.=.=.=.=.=.=.=.=.=.=.=.=.=.=.=.=.=.=.=.=.=.=.=.=.=.=.=.=.=.=.=.=.=.=.=.=.=.=.=.=.=.=.=.=.=.=.=.=.=.=.=.=.=.=.=.=.=.=.=.=.=.=.=.=.=.=.=.=.=.=.=.=.=.=.=.=.=.=.=.=.=.=.=.=.=.=.=.=.=.=.=.=.=.=.=.=.=.=.=.=.=.=.=.=.=.=.=.=.=.=.m m >.@.L 7.^.F.a.3.P P =.>.M m =.G H.!.D.I.K.P.P.p.d.W.[._.j.).P.J.!.J.p.5.i.F.W.W._._._._.`.I.P.P.P.P.I.I.I.I._.I._._.s.p.d.s._._._._._._._._.s.p.p.s.y.p.J.J.P._._._._._.s.} s.P.)._._.P.s.y.d.s.W._._._._.`.`.`._._._._._._.`.`.`._._._._._._.`.)._.P.F.n.` i.G.P.P.I.I.I.P.).F.i.S.a.d.p._._._._._._._._._._ p.P._._.P._._._._._._._._._._._._._._._._._._._._._._.}.W.p.y.s.W.)._._._.`._.",
"I.P.P.P._._.G.d.p.G._._.P.P.I.P._.F.y.5.p.G.P._._._._._.`.`._._._._._.`.`.I.I.I._.J.F.5.y.G.P._._.P._.P._._.G.y.F.y.y.p.P._.P._.`._.P.P.D.p.D.P.P.P.P.P.s.y.9.F._._._._._._._._._._._._._._._._._._._._._._._._._._._.s.p.d.p.G._.I.P.P._._.J.G.d.G.i.5.G.J.P.}._._._._._.G.p.y.W.W._._._._._._.`._._._._._._._._._._._._._._.P.I.P.P.J.S.5.i.G.P._.I._._._.}.) k n b a Q V.V.J @.-.-.=.=.m n m =.=.=.=.=.=.=.=.=.=.=.=.=.=.=.=.=.=.=.=.=.=.=.=.=.=.=.=.=.=.=.=.=.=.=.=.=.=.=.=.=.=.=.=.=.=.=.=.=.=.=.=.=.=.=.=.=.=.=.=.=.=.=.=.=.=.=.=.=.=.=.=.=.=.=.=.=.=.=.=.=.=.=.=.=.=.=.=.=.=.=.=.=.=.=.=.=.=.=.=.=.=.=.=.=.=.=.=.=.=.=.=.=.=.=.=.=.=.=.=.=.=.=.=.=.=.=.=.M m m a r -.9.3.3.P G L >.>.M m -.L F.!.G.P.P.P.P.d.d.s.)._.I.).P.J.!.J.S.5.i.F.W.W._._._._.`._.P.P.P.P.I.I.I.I._.I._._.s.p.d.s._._._._._._._._.s.p.s.s.y.d.J.J.P._._._._._.s.} s.P.)._._.P.s.y.d.s.W._._._._.`.`.`._._._._._._.`.`._._._._._._._._.`._.P.G.n.3.i.G.P.P.I.I.I.P.).G.i.p.a.5.p._._._._._._._._._._ p.P.)._.P._._._._._._._._._._._._._._._._._._._._._._.}.W.p.y.s.W.)._._._.`._.",
"I.P.P.P._.!.F.5.p.F.J._.P.P.I.P._.G.y.y.s.J._._._._._._._._._._.P.P._._.`.`.`._.P.G.S.5.d.G.P.I.P.P.P.J.P.P.D.' G.p.p.p._.)._.P._.G._._.p.p.P.P._.P._.P.p.y.i.G._._._._._._._._._._._._._._._._.s.u.y.s.).}._.W._._._.G.p.d.F._.I.I.I._._._.J.G.i.F.p.5.d.J.'.G.P._._._.).p.3.G._._._._._._.`._.`._._._._._._._._._._._._._._.I.I.P.U.J.S.5.p.G.P._.I.)._._.}.) h n Q Q G M.(.G Q Q Q Q b b b b =.=.=.=.=.=.=.=.=.=.=.=.=.=.=.=.=.=.=.=.=.=.=.=.=.=.=.=.=.=.=.=.=.=.=.=.=.=.=.=.=.=.=.=.=.=.=.=.=.=.=.=.=.=.=.=.=.=.=.=.=.=.=.=.=.=.=.=.=.=.=.=.=.=.=.=.=.=.=.=.=.=.=.=.=.=.=.=.=.=.=.=.m m =.=.=.=.=.=.=.=.=.=.=.=.=.=.=.=.=.=.=.=.=.=.=.=.=.=.=.=.=.=.=.=.=.=.N N M >.Q G P P G L Q >.>.b b >.Q G F.!.J._.G.P.D.p.i.G._.)._.P._.J.W.J.p.5.i.G.W.W._._._._.`.`._.P._.I.`.`.`.`._.P.P._.G.i.5.p._._._._._._._._.G.p.p.G.i.i.G.J._._.P._._.J.s.y.P._._.I.I._.s.y.y.G._._.P._.)._.`.`._._._._._._._._._.P.P._.)._._._._._.P.G.i.5.F.J._._.P._._.P._.s.s.G.i.5.i.W.P._._.P._.)._.G.y.G._._.P._._._._._._._._._._._._._._._._._._._.)._._._._.W.G.p.p.W.)._._._.{.`.",
"I.P.P.P.W.!.F.5.a.F.G.P.P.P.I.P._.G.y.y.s.J._._._._._._.I._.I._._.P._._.`.`.I._.P.G.S.5.d.G._.P.P.P.P.G.P.P.D.' G.p.d.p.G._._.P._.G.'._.p.u.P.P._.P._.G.p.y.i.G._._._._._._._._._._._._._._._._._.p.u.s._.)._.W._._.W.G.p.d.F._.I.I.I._._._.G.G.i.F.p.5.i.G.'.G.P._._._._.p.y.G._._._._._._.`._.`._._._._._._._._._._._._._._.I.I.P.U.J.S.5.p.G.P._.I.)._._.}.) h ;.Q Q P M.(.D Q E Q k b b =.=.=.=.=.=.=.=.=.=.=.=.=.=.=.=.=.=.=.=.=.=.=.=.=.=.=.=.=.=.=.=.=.=.=.=.=.=.=.=.=.=.=.=.=.=.=.=.=.=.=.=.=.=.=.=.=.=.=.=.=.=.=.=.=.=.=.=.=.=.=.=.=.=.=.=.=.=.=.=.=.=.=.=.=.=.=.=.=.=.=.=.=.=.m m =.=.=.=.=.=.=.=.=.=.=.=.=.=.=.=.=.=.=.=.=.=.=.=.=.=.=.=.=.=.=.=.=.=.N N N k L G G G Q h h b b b m >.Q G F.!.W._.G.P.D.i.i.S.J.)._.P._.J.W.J.p.5.i.G._.W._.P._._.I._._._._._.`.`.`._._.P.P.W.G.i.5.p._._._._._._._._.G.p.p.G.i.i.G.J._._.P.W.!.G.s.y.P._.`.I.I._.s.3.y.G._._.P._.)._.`.`._._._._._._.P._.P.s.s.h._._._._._._.P.G.p.5.F.J._._.P._._.P._.s.s.G.p.5.i.G.P._._.P._.'.W.G.y.G._._.P._._._._._._._._._._._._._._._._._._._.)._._._._.W.G.d.p.W.)._._._.{.`.",
"I.P.P.P._.!.G.i.i.a.G.G.P.P.I.P._.F.y.5.s.J._._._._._._.`._.`._._._._._.`.`.`._.P.J.F.5.d.G.P.P.P.P.P.G.P.P.S.' G.p.y.p.s._._._._.G._._.p.u.P._._.P._.G.p.y.i.G._._._._._._._._._._._._._._._._.].s.u.s._.)._.W._._._.G.p.p.F._._.I.I._._._.G.G.d.F.F.5.d.G.'.J.P._._._._.p.y.J._._._._.I._.`._.I.I._._._._._._._._._._._._._.I.I.P.P.G.S.5.p.G.P._.I._._._.}.) h ;.Q Q P M.(.F Q Q Q k b b =.=.=.=.=.=.=.=.=.=.=.=.=.=.=.=.=.=.=.=.=.=.=.=.=.=.=.=.=.=.=.=.=.=.=.=.=.=.=.=.=.=.=.=.=.=.=.=.=.=.=.=.=.=.=.=.=.=.=.=.=.=.=.=.=.=.=.=.=.=.=.=.=.=.=.=.=.=.=.=.=.=.=.=.=.=.=.=.=.=.=.=.=.=.m m =.=.=.=.=.=.=.=.=.=.=.=.=.=.=.=.=.=.=.=.=.=.=.=.=.=.=.=.=.=.=.=.=.=.N v v h Q W ) 4.:.Q a b b m m >.Q J F.!.W._.P.P.D.i.5.i.G._._._._.J.W.J.p.5.i.G._._._._._._.`._._._._._._._.`._._.P._.W.G.i.y.p._._._._._._._._.s.d.F.G.i.i.G.J._._.P._.'.G.s.y.P._.`.I._._.G.5.y.G._._.I._.)._.`.`._._._._._._.G._._.s.u.s.I._._._._._.P.G.p.5.F.J._._.P._._.P._.s.p.F.p.5.i.G.P._._.P._._.W.G.y.G._._.P._._._._._._._._._._._._._._._._._._._.)._._._._._.G.d.p.G.)._._._.`.`.",
"I.P.P.P._.!.G.i.5.5.p.G.P.P.I.P._.F.y.5.p.J._._._._._._.`.`.`._._._._._.`.`.`._.P.J.F.5.d.G.P.P.P.P.P.G.P.P.S.' J.F.y.y.s._._._._.J._.J.p.p.P._._.P._.G.p.y.i.G._._._._._._._._._._._._._._._._.].s.u.s._._._._._._._.G.p.p.G._._.`.I._._._.G.F.y.F.F.5.y.G.'.J.P._.P._._.p.y.J._._._._._._.`._._.I._._._._._._._._._._._._._.I.I.P.P.G.S.5.p.G.P._.I.)._._.}.) Q ;.h Q P M.(.F Q Q Q k b b =.=.=.=.=.=.=.=.=.=.=.=.=.=.=.=.=.=.=.=.=.=.=.=.=.=.=.=.=.=.=.=.=.=.=.=.=.=.=.=.=.=.=.=.=.=.=.=.=.=.=.=.=.=.=.=.=.=.=.=.=.=.=.=.=.=.=.=.=.=.=.=.=.=.=.=.=.=.=.=.=.=.=.=.=.=.=.=.=.=.=.=.=.=.=.=.=.=.=.=.=.=.=.=.=.=.=.=.=.=.=.=.=.=.=.=.=.=.=.=.=.=.=.=.=.=.=.=.=.b n v h Q :.9.F.E.m.-.E a =.>.m =.Q G F.!.W._.P.P.G.i.' ' p.G._._._.J.W.J.p.5.i.G.W.W._._._._.`._._._.I._._._.`._._.P._.W.G.i.y.p._._._._._._._._.s.p.F.G.y.5.G.W._._.P._.'.G.s.y.P._.`.I._._.G.5.y.G._._.I._.)._.`.`._._._._._._.P.)._.s.u.p._.]._._._._.J.G.i.5.F.J._.W.P._._.P._.s.p.F.p.5.i.G.P._._.P._._.J.G.y.G._._.P._._._._._._._._._._._._._._._._._._._.)._._._._._.G.d.p.G.)._._._.`.`.",
"I.P.P.P.W.!.G.i.5.5.i.G.P._.I.P._.F.y.5.s.J._._._._._._._._.`._._._._._.`.`._._.P.G.F.5.d.G._.P.P.P.P.G.P.U.S.' W.F.y.d.s._.)._.'.J._.J.y.u._._._.P._.G.p.y.i.G._._._._._._._._._._._._._._._._._.s.p.s._._._._._._._.G.p.p.G._._._._._._._.G.G.y.F.F.i.y.G._.P.P._.P._._.p.y.W._.W._._._._.`._._._._._._._._._._._._._._._._.P.I.P.P.G.S.5.p.G.P._.I.{._._.}.) Q ;.h Q P M..XP Q Q Q k b b =.=.=.=.=.=.=.=.=.=.=.=.=.=.=.=.=.=.=.=.=.=.=.=.=.=.=.=.=.=.=.=.=.=.=.=.=.=.=.=.=.=.=.=.=.=.=.=.=.=.=.=.=.=.=.=.=.=.=.=.=.=.=.=.=.=.=.=.=.=.=.=.=.=.=.=.=.=.=.=.=.=.=.=.=.=.=.=.=.=.=.=.=.=.=.=.=.=.=.=.=.=.=.=.Q =.=.=.=.=.=.=.=.b =.=.=.=.=.=.=.=.=.=.=.=.=.=.=.b n v h Q 8.E.!.!.Q.4.Q h =.=.x x -.J F.!.W.).P.P.G.i.' ' i.G._._._.J.W.J.i.5.i.G._._._._._._.`._._._._._._._._._._.P._._.G.i.y.p._._._._._._._._.s.y.G.G.y.5.G._._._.P._.!.G.s.y.P._.`.I._._.G.5.y.G._._.P._.`._.`.`.I.I._._._._.P.}.].s.u.p.I.]._._._.P.J.G.p.5.F.G._.W.P._._.P.P.p.p.F.F.5.i.G.P._._._._._.G.p.y.G._._.P._._._._._._._._._._._._._._._._._._._.)._._._._.W.G.p.p.W.)._._.).{.`.",
"I.P.I.P.J.!.G.i.5.5.i.G.P._.I.P._.G.y.5.s.J._._._._._._._._.`._._._._._.`.`.`._._.G.F.5.d.G._.P.P.P.P.G.P.U.S.' J.F.y.d.s._.)._.'.J._.J.y.u._._._.P._.G.p.y.i.G._._._._._._._._._._._._._._._._._.p.p.s._._._._._._._.G.p.p.F._._.)._._._.P.G.F.y.F.F.y.y.G.'._.P._.P.P._.p.y._.W.W._._._._.`.`._._._._._._._._._._._._._._._.P.I.P.P.G.S.5.p.G.P._.I.)._._.}.) Q ;.Q G P F..XP W Q Q k b =.=.=.=.=.=.=.=.=.=.=.=.=.=.=.=.=.=.=.=.=.=.=.=.=.=.=.=.=.=.=.=.=.=.=.=.=.=.=.=.=.=.=.=.=.=.=.=.=.=.=.=.=.=.=.=.=.=.=.=.=.=.=.=.=.=.=.=.=.=.=.=.=.=.=.=.=.=.=.=.=.=.=.=.=.=.=.=.=.=.=.=.=.=.=.=.=.=.=.=.=.=.b =.=.h =.Q =.=.=.=.=.b b =.b =.=.=.=.=.=.=.=.=.=.=.b =.b M k a -.9.W.W.W.(.n.^ Q =.=.x @.-.J F.!.W._.P.P.G.S.' ' p.G._._._.J.W.J.i.5.i.G._._._.P._._.`._._._._._._._._._._.P._._.G.i.y.p._._._._._._._._.p.y.G.G.5.5.G.'._._.P._.!.G.p.y.P._.`.I._._.G.5.y.G._._.P._.`._.`.`.I.I._._._._.P._._.s.u.p.P._._._._.P.J.G.i.5.F.J._.W.P._._.P.P.p.p.F.F.9.i.F.P._._._._._.G.p.y.G._._.P._._._._._._._._._._._._._._._._._._._.)._._._._.W.G.p.p.G.)._._.).{.`.",
"I.P.I.P.J.!.G.a.i.i.i.G.P.].I.P._.G.y.y.s.J._._._._._._._._._._._._._._.I.`.`._._.G.F.5.d.G._.P.P.P.P.G.P.U.S.' J.p.d.p.s._.)._.'.J.'.G.y.u._._._.P._.G.p.y.i.G._._._._._._._._._._._._._._._._._.s.s._._._._._._._.W.G.p.d.F.W._.)._._._.P.G.F.5.F.G.i.y.G._._.P._.P._._.p.p.'.J.J._._._._.`._._._._._._._._._._._._._._._._.P.I.P.U.J.S.5.p.G.P._.I.)._._.}.) Q ;.Q G P F.oXP W Q Q Q =.=.=.=.=.=.=.=.=.=.=.=.=.=.=.=.=.=.=.=.=.=.=.=.=.=.=.=.=.=.=.=.=.=.=.=.=.=.=.=.=.=.=.=.=.=.=.=.=.=.=.=.=.=.=.=.=.=.=.=.=.=.=.=.=.=.=.=.=.=.=.=.=.=.=.=.=.=.=.=.=.=.=.=.=.b b b b b b b b =.=.=.=.=.=.=.=.=.=.=.=.=.=.=.Q =.=.=.=.=.=.=.b b =.=.=.=.b b b b b b b b b b M h L -.a.W._.G.}.M.:.Q =.=.=.=.-.J F.!.W.).P._.G.S.5.' p.G._._._.J.W.G.i.5.i.G.W.W._.P._._.`._._._._._._._._._._.P._._.G.i.5.F._._._._._._._._.p.p.G.J.5.5.G.'._._.P._.!.G.p.y.P._._.I._._.s.5.y.G._._.P._.)._.`.`.I._._._._._.P._._.s.s.h.I.I._._.P.P.P.G.p.3.F.J.'._.P._._.P.P.p.y.p.F.i.5.p.P._._._._._.G.d.y.G._._.P._._._._._._._._._._._._._._._._._._._._._._._._.W.G.p.p.W.).)._.).{.`.",
"I.I.I.P.W.!.W.a.a.i.p.G._.].I.P._.G.y.y.s.J._._._._._._._._.`._._._._._.I.I.`._._.G.F.5.d.G._.P.P.P.P.G.P.U.S.' J.p.d.p.s._.)._.'.J.'.J.y.u._._._.P._.G.p.y.i.G._._._._._._._._._._._._._._._._.)._.G._.)._.W._._._.W.G.p.d.F.W._.)._._._.P.G.F.5.F.G.i.y.G._._._._.G.G._.p.p.'.P.W._._._._.`._._._._._._._._._._._._._._._._.P.I.P.U.J.S.5.p.G.P._.I.)._._.}.) Q ;.Q G P F.oXH W Q Q Q =.=.=.=.=.=.=.=.=.=.=.=.=.=.=.=.=.=.=.=.=.=.=.=.=.=.=.=.=.=.=.=.=.=.=.=.=.=.=.=.=.=.=.=.=.=.=.=.=.=.=.=.=.=.=.=.=.=.=.=.=.=.=.=.=.=.=.=.=.=.=.=.=.=.=.=.=.=.=.=.=.=.=.=.=.b b b b b =.b b =.=.=.=.=.=.=.=.=.=.=.=.=.=.=.=.Q =.=.=.=.=.=.=.b =.=.=.=.=.b b b b b b b b b b a L 2.E.|.}.W.W.a.2.-.-.=.=.<.-.J F.!.W.).P._.P.S.5.5.p.G._._._.J.W.G.i.5.i.G.W.W._.P._._.`._._._._._._._._._._.P._._.G.i.i.F._._._._._._._._.p.p.G.J.5.5.G.'._._.P._.!.G.p.y.P._._.I._._.s.5.y.G._._.P._.)._.`.`._._._._._._.).].).P.P._._.I._._._._.P.G.p.3.F.J._._.P._._.P.P.p.y.p.G.i.5.p.P._._._._._.G.d.y.G._._.P._._._._._._._._._._._._._._._._._._._._._._._._.W.G.p.p.W.).)._.).{.`.",
"I.P.P.P._.!.W.F.i.5.i.G.P.P.I.P._.G.y.y.s.J._._._._.I._.`.`.`._.G._._._.I.`.`.P._.G.p.5.y.s.P.I.P.P.P.P.P.P.S.' F.G.p.y.s.).].P._.'.J.s.u.s.P._._._._.G.s.y.p.J._._._._._._._._._._._._._._._._.).)._._._.s.p.3.W._._.G.d.d.F._.h._._.P.P._.G.p.y.F.F.i.5.p.J._._.G.P.'.G.d.p.'._._._.P.I.I._._.`._._._._._._._._._._._._._._.I.P.P.P.J.S.5.p.G._.P.)._.P.}.W.! h h a G F F.OXH W Q Q Q =.=.=.=.=.=.=.=.=.=.=.=.=.=.=.=.=.=.=.=.=.=.=.=.=.=.=.=.=.=.=.=.=.=.=.=.=.=.=.=.=.=.=.=.=.=.=.=.=.=.=.=.=.=.=.=.=.=.=.=.=.=.=.=.=.=.=.=.=.=.=.=.=.=.=.=.=.=.=.=.=.=.=.=.>.b b b =.=.=.=.h h Q =.=.-.-.=.,.,.,.,.,.,.,.,.=.=.Q Q Q Q L L =.=.=.=.=.h h h b b b b b b b b ;.a P 9._.)._._.W.W.4.G -.<.@.=.Q P E.!.W.}.P.P.G. .5.i.y.G.}._._.P.J.J.F.y.p.J._._._._._._.`._._._._._._._.`._._._._._.s.y.i.G._._._._._._._._.s.y.F.W.i.5.G._.I.).P.J.}.G.p.s._._.I.)._._.G.d.d.G.'._.P.P.I.I.`.`._._._._._._._._._._._._._._.s.s.P._._.s.d.y.G.!.'.P.P._.)._._.p.y.i.G.i.i.i.P._._._._.J.G.y.p.G.J._._._.I.I._._._._._._._._._._._._._._._._._._._._._.W.p.d.p.G.)._._._.`.`.",
"I.P.P.P._.!.W.F.i.5.i.G.P.P.I.P._.G.y.y.s.J._._._._._._.`.`.`._.P._._._._.`.`.P._.G.p.5.5.s.P.P.P.P.P.P.P.P.S.' G.G.p.y.p.).}.P.W.!.J.s.u.s.P._._._._.G.s.y.p.J._._._._._._._._._._._._._._._._.).)._._._.s.p.d.W._._.G.d.d.F._.h._._.P.P._.G.p.y.F.F.i.5.p.J._._.P.P._.G.d.p.'.W.W._._.I.I._._.`._._._._._._._._._._._._._._.I.P.P.P.J.S.5.p.G._.P.)._.P._.G.) Q h Q ! F F.@X) P Q Q Q b =.=.=.=.=.=.=.=.=.=.=.=.=.=.=.=.=.=.=.=.=.=.=.=.=.=.=.=.=.=.=.=.=.=.=.=.=.=.=.=.=.=.=.=.=.=.=.=.=.=.=.=.=.=.=.=.=.=.=.=.=.=.=.=.=.=.=.=.=.=.=.=.=.=.=.=.=.=.=.=.=.=.=.>.=.b =.=.=.=.=.=.-.-.-.>.,.,.,.:.,.:.,.:.,.:.:.-.-.-.=.-.-.-.Q -.=.=.=.=.=.=.=.h h h k b b b b >.a P 9._._._._.W.W.3.G -.>.@.=.Q P E.!.W.}.P.P.G. .5.i.y.G.)._._.W.W.J.F.y.p.J._._._._._._.`._._._._._._._._._._._._._.s.y.i.G._._._._._._._._.s.y.F.W.i.5.G.P.I.).P.J.'.G.p.s._._.I.)._._.G.d.d.G._._.P.P._.I.`.`._._._._._._._._._._._._._._.u.u.s._.P.s.d.d.G.!.'.P.P._._._._.p.y.p.G.i.i.i.P._._._._.P.G.y.p.G.J._._._.I._._._._._._._._._._._._._._._._._._._._._._.W.p.d.p.G.)._._._.`.`.",
"I.P.P.P._.!.G.F.i.5.i.G.P.P.I.P._.F.y.5.s.J._._._._._._._._.`._._._._.).`.`.I.P._.G.F.5.y.G.P.P.P.P.P.P.P.P.S.' J.J.s.y.p._.)._.W.!.J.p.u.s.P._._._._.G.s.y.p.J._._._._._._._._._._._._._._._._._._._._._.s.s.p.W._._.G.d.d.F._.h._._.P.P._.G.p.y.F.F.i.5.i.G._._.P.P._.G.p.p.'.W.W._._.I._.`._._._._._._._._._._._._._._._._.I.I.P.P.J.S.5.p.G._.P.)._.P.}.W.) Q h Q ! K E.@X3.P Q Q Q Q Q =.=.=.=.=.=.=.=.=.=.=.=.=.=.=.=.=.=.=.=.=.=.=.=.=.=.=.=.=.=.=.=.=.=.=.=.=.=.=.=.=.=.=.=.=.=.=.=.=.=.=.=.=.=.=.=.=.=.=.=.=.=.=.=.=.=.=.=.=.=.=.=.=.=.=.=.=.=.=.=.=.=.>.=.=.Q Q =.-.-.,.,.,.,.:.:.,.,.:.:.:.:.:.:.4.:.:.:.:.:.:.-.:.,.-.-.-.-.=.=.=.=.h h h k b b b b =.a ! 9._._._.)._.W.8.G -.>.b =.Q G E.!.W.}.P.P.G. . .i.y.G.)._._._.!.G.F.y.p.J._._._._._._.`._.P.P._._.`.`.I.I._._._._.s.y.i.G._._._._._._._._.s.y.F.W.p.5.F.J.P.).P.J.'.G.y.s._._.I.)._.P.G.d.d.G.'._.P._._.I.I.`.I.`._._._._._._._._._._._._.y.y.s.P.P.s.d.y.G.!.'._.P._._._._.p.y.p.G.i.i.i.P._._._._.P.G.y.s.G.P._._._._._._._._._._._._._._._._._._._._._._._._._._.W.p.d.p.G.)._._._.`.`.",
"I.P.P.P._.!.W.F.i.5.i.G.P.P.I.P._.F.y.5.p.J._._._._.I._._._.`._.)._._.).).`.I.I._.G.F.5.i.G.P.P.P.P.P.P.P.P.S.' J.W.s.y.u._.)._.W.!.J.p.u.s.P._._._._.G.s.y.p.J._._._._._._._._._._._._._._._._._._._._._._.G.s.W._._.G.d.d.F._.h._._.P.P._.G.p.5.F.G.i.5.i.G._._.P._._.s.p.s.'.W.W._._._._._._._._._._._._._._._._._._._._._.I.I.P.P.G.S.5.p.J._.P.)._.P.}.W.) Q h Q ! K E.@X7.W Q Q Q =.=.=.=.=.=.=.=.=.=.=.=.=.=.=.=.=.=.=.=.=.=.=.=.=.=.=.=.=.=.=.=.=.=.=.=.=.=.=.=.=.=.=.=.=.=.=.=.=.=.=.=.=.=.=.=.=.=.=.=.=.=.=.=.=.=.=.=.=.=.=.=.=.=.=.=.=.=.=.=.=.=.=.=.=.=.=.=.=.-.,.,.1.,.6.6.6.6.6.8.4.4.4.4.4.4.4.4.4.4.4.4.:.4.:.:.-.-.-.-.-.=.Q Q L h h h h b b b b a -.a.)._._.)._.W.7.P -.>.b =.Q G E.!.W.}.P.P.G.i.' i.y.G.)._._.W.!.G.F.5.p.J._._._._._._.`.`.P.P._._.).).`.I._._._.W.s.y.i.G._._._._._._._._.s.y.G.!.p.5.F.J.P.).P.J.'.F.y.s._._.I.)._.P.G.y.d.G.'._.P._._.I.I.I.I.`._._._._._._._._._._._._.y.y.s._._.s.d.y.G.!.'.W.P._._._._.p.y.F.G.F.i.i.P._._._._.P.G.y.s.G._._._._._._._._._._._._._._._._._._._._._._._._._._._.W.p.d.p.G.)._._._.`.`.",
"I.P.P.P._.!.W.F.i.5.i.G.P.P.I.P._.F.y.5.s.J._._._._._._._._._._._.G.P.).{.`.I.P._.G.F.i.i.G.P.P.P.P.P.P.P.P.S.' J.W.s.y.u.G._._._.'.J.p.u.s.P._._._._.G.s.y.p.J._._._._._._._._._._._._._._._._._._._._._._.W.G.W._._.G.d.d.F._.P._._.P.P._.G.p.3.F.G.S.y.i.G._.P._._.G.s.p.G.'._.W._._._._.`._._._._._._._._._._._._._._._._.P.I.P.P.G.S.5.p.J._.P.)._.P.}.W.) Q h Q ! D F.yX7.W Q Q Q =.=.=.=.=.=.=.=.=.=.=.=.=.=.=.=.=.=.=.=.=.=.=.=.=.=.=.=.=.=.=.=.=.=.=.=.=.=.=.=.=.=.=.=.=.=.=.=.=.=.=.=.=.=.=.=.=.=.=.=.=.=.=.=.=.=.=.=.=.=.=.=.=.=.=.=.=.=.=.=.=.=.=.=.h Q Q Q =.-.:.:.2.2.2.6.2.6.6.6.2.4.4.4.8.8.8.8.4.4.4.2.2.2.2.2.2.:.:.:.-.Q L Q Q Q h h h Q Q k k h -.a.)._._.{.P.W.7.G -.=.v >.Q G E.!.W.}.P.P.G.i.5.i.y.G.)._._._.!.J.F.y.i.G._.W._._._._.`._.P.P._._.).).)._._._._._.s.y.i.G._._._._._._._._.p.y.G.!.p.5.F.G.P.)._._.'.F.y.s._._.I.)._.P.G.i.p.G._._.P._._.I.`.`._.`._._._._._._._._._._._._.s.s.P.'._.G.y.y.G.!.'.W.P._._._._.p.y.G.G.F.i.i.P._._._._.P.G.y.G.G._._._.P._._._._._._._._._._._._._._._._._._._._._._._.W.p.d.p.G.)._._._.`.`.",
"I.P.P.P._.!.W.F.i.5.i.G.P.P.I.P._.G.y.5.s.J._._._._._._._._._._._.s.s._.{.`.h._._.J.F.i.p.G.P.P.P.P.P.P.P.P.S.' G.W.G.y.u.G._._._.'.J.s.u.s.P._._._._.G.s.y.p.J._._._._._._._._._._._._._._._._._._._._._._.W.G.W._._.G.d.y.F._.P._._.P.P._.G.p._ F.J.F.y.d.G.P.P._._.G.p.p.G.'._._._._._._.`._._._._._._._._._._._._._._._._.P.I.P.P.G.S.5.p.J._.P.)._.P.}.W.) E h Q ! F F.yX9.H G E Q h h @.@.=.=.=.=.=.=.=.=.=.=.=.=.=.=.=.=.=.=.=.=.=.=.=.=.=.=.=.=.=.=.=.=.=.=.=.=.=.=.=.=.=.=.=.=.=.=.=.=.=.=.=.=.=.=.=.=.=.=.=.=.=.=.=.=.=.=.=.=.=.=.=.=.=.=.=.=.=.=.=.=.Q Q -.=.,.:.8.8.2.2.2.2.2.2.2.2.2.2.2.2.2.2.2.2.2.2.2.2.2.2.2.2.8.8.2.2.-.-.Q Q Q Q Q Q Q Q Q Q h h :.F.).`.j.{.P.!.9.Q Q =.v >.Q G E.!.G.).P.P.G.i.5.i.y.G.)._._._.!.J.F.y.p.G.W.W._._._._.`._.I.P.P.I.I._.)._._._._.W.s.y.i.G._._._._._._._._.p.y.G.!.p.' p.G.h.)._._.'.F.y.G._._.I.)._._.G.y.p.G._._.P._._.I.`.`.`.`._._._._._._._._._._._._.P.P._.'._.G.y.y.G.!.'.W.P._._._._.p.y.G.J.F.i.i.P._._._._.J.G.y.G.J._._._.P._._._._._._._._._._._._._._._._._._._._._._._.W.p.d.p.G.)._._._.`.`.",
"I.P.P.P._.!.W.F.i.5.i.G.P.P.I.P._.G.y.y.s.J._._._._._._._._._._.G.p.u.I.{.I.h._._.J.F.i.p.G.P.P.P.P.P.P.P.P.S._ G.J.G.p.p.G._._._.'.J.s.u.s.P._._._._.G.s.y.p.J._._._._._._._._._._._._._._._._._._._._._._._.W.W._._.G.p.y.F._.P._._.P.P._.G.p._ G.J.F.y.y.G.P.P._._.G.p.p.G.'._._._._.I.I.`._.`._._._._._._._._._._._._._._.P.I.P.P.G.S.5.p.J._.P.)._.P.}.W.) E Q Q ! F F.yXM.P Q Q Q =.=.=.=.=.=.=.=.=.=.=.=.=.=.=.=.=.=.=.=.=.=.=.=.=.=.=.=.=.=.=.=.=.=.=.=.=.=.=.=.=.=.=.=.=.=.=.=.=.=.=.=.=.=.=.=.=.=.=.=.=.=.=.=.=.=.=.=.=.=.=.=.=.=.=.=.=.=.=.=.=.=.=.=.=.=.,.:.4.4.4.2.2.2.2.2.2.2.2.2.2.2.2.2.2.2.2.2.2.2.2.2.2.2.2.2.6.6.6.2.2.:.:.-.-.=.=.=.=.Q Q h h h :.E.)._.c.).I.}.9.! Q h v >.=.! E.!.G.).P.P.G. .5.i.y.G.)._._.W.!.G.F.y.p.J.J.J._._._._._._.P.h.h.h.h.I._._._._._._.s.y.i.G._._._._._._.P.P.p.y.G.'.S.5.i.s.h.)._._.!.p.y.G._._.I.)._._.G.d.p.G._._._._._.I.`.`._._._._._._._._._._._._._._._.P.P.'.J.p.i.i.G.!.'._.P._._._._.p.y.G.J.F.i.i.P._._._._.J.G.y.J.J._._._.P._._._._._._._._._._._._._._._._._._._._._._._.W.p.d.p.G.)._._._.`.`.",
"I.P.P.P._.'.W.F.i.5.i.G.P.P.I.P._.G.y.y.s.P._._._._._._._._._._.G.y.y.P.{.I.P._._.J.G.p.p.G._.P.I.P.P.P.P.P.S._ p.G.G.p.p.G._._._.'.J.s.u.s.P._._._._.G.s.y.p.J._._._._._._._._._._._._._._._._.)._._._._._._._._._._.G.p.y.G._.P.I._.P.P._.G.p._ G.!.G.y.y.s.J.P._._.G.p.p.G.'._._._._._.I.`.`._._._._._._._._._._._._._._._._.P.P.P.J.S.5.p.J._.P.)._.P.}.W.) Q Q -.2.F G.yXF.) ! -.-.=.>.,.,.=.=.=.=.=.=.=.=.=.=.=.=.=.=.=.=.=.=.=.=.=.=.=.=.=.=.=.=.=.=.=.=.=.=.=.=.=.=.=.=.=.=.=.=.=.=.=.=.=.=.=.=.=.=.=.=.=.=.=.=.=.=.=.=.=.=.=.=.=.=.=.=.=.=.=.=.=.=.=.-.-.,.:.8.8.8.2.:.2.2.2.2.2.2.2.2.2.2.2.2.2.2.2.2.2.2.2.2.2.2.2.2.2.2.2.2.2.2.2.4.:.:.-.-.-.Q Q Q h Q 2.F.)._.I.`.P.'.M.! Q Q v >.-.! E.!.G.).P.P.G. .5.i.y.G.)._._._._.G.F.5.p.J.P.W._._._._.`._.h.s.s.p.p.h.I._._._._._.s.y.i.G._.P._._.P.P.P.P.p.y.G.!.S.5.i.F.G._._._.!.p.y.G._._.I.)._._.G.d.d.G._._.P._._.I._._._._._._._._._._._._._._._._._.I.P._.G.p.p.i.G.!.'._.P._._._._.u.p.G.W.F.i.i.G._._._._.J.s.y.G._._._.P.I._._._._._._._._._._._._._._._._._._._._._._._.W.p.d.p.G.)._._._.`.`.",
"P.P.P.I.P._.W.F.9.5.n.G.J.P.I.I.).G.y.y.s._._._._._._._._._._._.G.y.p._.P.P._.P.P.}.s._ p._._._._.I.P._._.J.p.5.G.!.J.y.y.s._._.J.}.G.p.s.P.P._._._._.G.s.y.p.J._._._._._._._._._._._._._._._._._._._._._._._._.P.P._.s.} p.P.P.P.I.P.P.P.P.G.p.i.F.J.G.d.5.p._._.G._.G.y.s.)._._._._._._._._._._._._._._._._._._._._._._._._._.).P.G.G.i.5.i.G._.h._.).P._.J.3.:.:.:.3._ _.uX'./ ` ) :.1.1.8.8.,.,.,.,.=.=.=.=.=.=.b >.;.b b b =.=.=.=.=.=.=.=.=.=.=.=.=.=.=.=.=.=.=.=.=.=.=.=.=.=.=.=.=.=.=.=.b b b b b b b b b b b b b =.=.=.h k k k k b =.=.h L L Q Q =.,.:.4.2.2.2.2.2.2.2.2.2.2.2.2.2.2.2.2.2.2.2.2.2.2.2.2.2.2.2.2.2.2.2.2.2.2.2.2.2.2.2.2.2.2.:.:.-.P P ~ E 2.G.P.I.I.I.P.'.M.Q ~ =.=.=.P P ^._.s._.P.P.P.p.i.i.d.G.)._.P._._.P.p.y.p._._.W._.P.I.I._._.P._.P.u.u.P._.I._.P._._.s.y.p._.P.P.P.P.P.P.P.P.p.p.F.J.F.5.5.G.'.W.W._.G.p.p.G._.P.P._._.P.s.y.p.G._._.P._._._._._._._._._._._._._._._._._.`.`.`.I.I._.P.p.y.p.J.W._._._._._._.).s.y.s.J.G.i.5.p._.J.J.}.P.p.p._._._._._._._._._._._._._._._._._._._._._._._._._._._._._.G.p.d.d.G.)._._._.`.`.",
"P.P.I.I._._._.F.9.5.n.H.J.P.I.I.).G.y.y.s._._._._._._._._._._._.G.3.d._.J.J._.J.P.}.s.} p._._._._.I.I._._.J.p.5.G.W.G.5._ p.P.J.J.}.G.y.s.P.P._._._._.G.s.y.p.J._._._._._._._._._._._._._._._._.`.`.`._._.I._._.P.P._.s.} u._.P.P.P.P.P.P.P.G.i.i.F.J.G.i.5.p.W._.G._.G.y.s.)._._._._._._._._._._._._._._._._._._._._._._._._._._.P.G.G.i.5.i.G._.h.`.).P._.J.3.:.:.2.3._ P.uX).( / ) 4.4.8.8.8.1.,.,.,.,.>.>.=.=.=.b b b n b b =.=.=.=.=.=.=.=.=.=.=.=.=.=.=.=.=.=.=.=.=.=.=.=.=.=.=.=.=.=.=.=.b b b b b b b b b b b b =.=.=.=.k k k k k k Q Q Q Q Q -.-.:.:.4.2.2.2.2.2.2.2.2.2.2.2.2.2.2.2.2.2.2.2.2.2.2.2.2.2.2.2.2.2.2.2.2.2.2.2.2.2.2.2.2.2.2.2.2.2.2.-.! ^ E 4.G.P.I.I.I.P.'.n.W Q =.=.=.P ! !._.s.{._.P.P.p.i.i.d.G.)._.P._._._.p.y.p._.W.W._.P.I.I._._.P.'.G.p.u.P._.I._.P._._.s.y.p.P.P.P.P.P.P.P.P.P.p.p.F.J.G.5.5.F.!.!.W.!.G.p.u.P._.P.P._._.P.s.y.u.G._._.P._._._._._._._._._._._._._._._._._.`.`.`.I.I._.P.p.p.p.J.W._._._._._._.).s.y.s.J.G.i.5.F.W.J.J.}.J.u.u.P._._._._._._._._._._._._._._._._._._._._._._._._._._._._.G.p.d.d.G.)._._._.`.`.",
"P.P.I.I._._.W.F.9.5.n.F.J.P.I.I._.F.y.y.s._._.I._._._._._._._._.G.3.y.P.J.J._.J.P.}.s.} p._._._._.I.I._._.J.p.5.F.J.G.y._ p.G.J.J.}.s.y.s.P.P._._._._.G.s.y.p.J._._._._._._._._._._._._._._._._._._.`._._._._._.P.P._.G.} u._.P.P.P.P.P.P.U.G.i.5.F.!.G.i.5.p.W._.G._.G.y.s.)._._._._._._._._._._._._._._._._._._._._._._._._._._.P.G.G.S.5.i.G._.h.`.).P._.J.3.:.:.2.3._ P.uX).( / ) 4.4.8.8.8.8.8.4.1.:.:.,.,.Q Q Q k k k k b =.=.=.=.=.=.=.=.=.=.=.=.=.=.=.=.=.=.=.=.=.=.=.=.=.=.=.=.=.=.=.=.b b b b b b b b >.>.=.=.=.=.=.=.k k k k k Q Q Q =.-.-.:.:.:.:.:.2.2.2.2.2.2.2.2.2.2.2.2.2.2.2.2.2.2.2.2.2.2.2.2.2.2.2.2.2.2.2.2.2.2.2.2.2.2.2.2.2.2.2.2.2.2.2.2.-.W 7.J.P.I.I.L.P.'.M.W Q >.=.=.! ! !.}.h.]._.P.P.i.i.i.d.G.)._.P._._.P.p.y.p.W.W.W._._.I._.`._.P.'.G.p.u.P._._._.P._._.s.y.p.P.P.P.P.P.P.P.P.P.p.y.p.J.G.d.5.F.!.G.!.!.G.p.p.P._.P.P._._.P.s.y.u.G._._.P._._._._._._._.`.`._._._._._._._._.`.`._.P.I._.P.p.y.y.J.J._._._._._._._.s.y.p.J.G.i.5.p.W.J.J.}.G.y.u.P._._._.`._._._._._._._._._._._._._._._._._._._._._._._._.G.p.d.d.G._._._._.`.`.",
"P.P.I.I._._._.F.9.5.n.F.J.P.I.I._.F.y.y.s._._.I._._._._._._._._.G.3.y.P.J.J._.P.P.}.s.} p._._._._.I.I._._.J.p.5.F.J.G.y.y.p.G.J._.'.s.y.G._.P._._._._.G.s.y.p.J._._._._._._._._._._._._._._._._._._._._._._._._._.P._.G.y.u._.P.P.P.P.P.P.U.G.i.5.F.!.G.a.5.p.W._.G._.G.y.s.)._._._._._._._._._._._._._._._._._._._._._._._._._._.P.G.G.i.5.i.G._.P.`.).P._.J.5.:.:.2.3._ P.uX].( _ ` 4.4.8.8.8.6.:.6.8.4.4.:.:.-.=.=.h h h Q =.=.=.=.=.=.=.=.=.=.=.=.=.=.=.=.=.=.=.=.=.=.=.=.=.=.=.=.=.=.=.=.=.b b b b b b b =.b b =.=.=.=.=.Q Q Q Q Q Q =.=.-.-.,.:.4.4.4.2.2.2.2.2.2.2.2.2.2.2.2.2.2.2.2.2.2.2.2.2.2.2.2.2.2.2.2.2.2.2.2.2.2.2.2.2.2.2.2.2.2.2.2.2.2.2.2.2.4.-.! 9.W.P.I.I.K.P.}.M.! ~ ,.>.>.! 2.!.}.h.]._.P.P.i.i.i.d.G.)._.P.P._.P.p.y.p.W.W.W._._._._.`._.P.'.G.p.u.P._._._.P._._.s.y.p.P.P.P.P.P.P.P.P.P.p.y.p.J.G.d.5.p.G.G.!.!.G.p.p.P._.P.P._._.P.s.y.u.G._._.P._._._._._._._.`.`.`._._._._._._._.`.`._.P.I._.P.p.y.y.J.J._._._._._._._.s.y.p.P.G.p.5.p.W.W.J.}.G.y.u.P.P.I._.`._._._._._._._._._._._._._._._._._._._._._._._._.W.p.d.d.G._._._._.`.`.",
"P.P.I.I._._._.G.9.9.9.F.J.P.I.I._.F.y.y.s._._.P._._._._._._._._.G.3.p.P.J.J._.P.P.}.s.} p._._._._.I.I._._.J.p.5.G.W.J.i.y.s.J.J._.'.p.y.G._.P._._._._.G.s.y.p.J._._._._._._._._._._._._._._._._._._.`.`._._._._._.P.).G.y.p._.I.P.P.P.P.P.P.G.i.5.F.!.G.a.5.p.W._.G._.G.y.s.)._._._._._._._._._._._._._._._._._._._._._._._._._._.P.G.G.i.3.i.G._.P.`.).P._._.5.:.4.2.5.T P.gX].( _ 3.4.4.8.6.6.6.2.2.2.2.4.4.4.,.=.=.Q Q Q Q =.=.=.=.=.=.=.=.=.=.=.=.=.=.=.=.=.=.=.=.=.=.=.=.=.=.=.=.b b b =.=.b b b =.=.=.=.=.h h Q L Q Q Q Q Q Q Q =.=.-.-.:.:.:.4.4.4.2.2.-.2.2.2.2.2.2.2.2.2.2.2.2.2.2.2.2.2.2.2.2.2.2.2.2.2.2.2.2.2.2.2.2.2.2.2.2.2.2.2.2.2.2.2.2.2.2.2.4.:.! M.'.P.I.I.L.P.'.M.W Q >.-.>.-.! !._.s.{.I.P.U.i.i.i.i.G.)._.P._._.P.p.y.p.W.W._._._.I._.`._.P.'.G.p.u.P._.P._.P.P._.s.y.p.P.P.P.P.P.P.P.P.P.p.y.p.J.W.i.5.a.G.G.'.'.G.p.s._._.P.P._._.P.s.y.u.G.)._.P._._._._._._._.`.`.`._._._._._._._.I.I._.P.I._._.s.d.p.J.P._._._._._._._.p.y.p.J.J.p.5.p.W.!.!.'.G.y.p._._._._.`.`.`._._._._._._._._._._._._._._._._._._._._._._.G.p.d.d.G._._._._.`.`.",
"P.P.I.I._._._.F.9.9.9.F.J.P.I.I._.F.y.y.G._._.P._._._._._._._._.G.3.p._.J.J._.P.P.).s.} p._._._._.I.I._._.J.p.5.G.W.J.p.y.G.J.J._.'.p.y.G._.P._._._._.G.s.y.p.J._._._._._._._._._._._._._._._._.`.`._.`._._._._._.P.).G.y.u._.I.P.P.P.P.P.P.G.i.5.F.!.!.p.d.p.G._.G._.G.y.s.)._._._._._._._._._._._._._._._._._._._._._._._._._._.P.G.G.i.3.i.G._.P.`.).P._._.5.:.4.2.5.T P.gX|.( _ 3.8.4.4.6.2.2.2.2.2.2.2.2.4.:.,.,.=.-.Q Q Q =.=.=.=.=.=.=.=.=.=.=.b =.=.=.=.=.=.=.=.=.=.=.=.=.=.=.=.b b =.=.=.=.=.=.=.=.=.=.h L L Q =.-.-.Q -.=.=.=.-.:.:.4.4.2.2.2.2.2.2.2.2.2.2.2.2.2.2.2.2.2.2.2.2.2.2.2.2.2.2.2.2.2.2.2.2.2.2.2.2.2.2.2.2.2.2.2.2.2.2.2.2.2.2.2.2.2.2.2.4.! F.'.P.I.I.P.D.J.9.G Q -.=.-.! ! !._.s.).P.P.P.i.i.i.i.G.)._.P._._.P.p.y.p.W._._._._.I._.`._.P.'.G.p.u.P._.I._.P.P._.s.y.p.P.P.P.P.P.P.P.P.P.p.y.i.J.W.a.5.i.G.G.'.'.G.p.s._._.P.P._._.P.s.y.u.G.)._.P._._._._._._._.`.`._._._._._._._.I.I.I._.P.I._._.s.d.d.J.P._._._._._._._.u.y.s.J.J.i.5.i.W.!.!.'.G.y.p._._._._.`.`.`._._._._._._._._._._._._._._._._._._._._._._.G.p.d.d.G._._._._.`.`.",
"P.P.I.I._._._.F.9.9.9.H.J.P.I.I._.F.y.p.G._._.P._._._._._._._._.G.3.d.W.J.J._.P.P.}.s.} p._._._._.I.I._._.J.p.5.p.J.J.i.y.s.G.G.W.!.p._ P.)._._._._._.G.s.y.p.J._._._._._._._._._._._._._._._._._.`._.`._._._._._._.).G.y.u._.P.P.P.P.P.P.P.G.i.5.F.!.J.a.d.p.G._.G._.G.y.s.)._._._._._._._._._._._._._._._._._._._._._._._._._._.P.G.G.i.3.i.F._.P.`.).I._._.9.:.4.8.5.T h.gXrX( _ ` 8.4.2.6.2.6.2.2.2.2.2.2.2.2.4.:.:.-.-.Q Q =.=.=.=.=.b b b =.=.b b =.=.=.=.=.=.b b =.b =.=.=.=.=.=.b =.=.=.=.=.=.=.=.=.=.=.L @.=.-.-.,.,.-.,.,.,.,.:.:.4.2.4.2.2.2.2.2.2.2.2.2.2.2.2.2.2.2.2.2.2.2.2.2.2.2.2.2.2.2.2.2.2.2.2.2.2.2.2.2.2.2.2.2.2.2.2.2.2.2.2.2.2.2.2.2.2.2.4.) F.}.P.I.I.P.D.J.9.Q Q ,.-.-.-.2.}._.h.{._.P.P.p.i.i.i.G.)._.P._._.P.p.y.p._._._._._._._.`._.P.'.G.p.u.P._.P._.P.P._.s.y.p.P.P.P.P.P.P.P.P.P.p.y.i.J.W.p.5.d.F.G.'.'.s.p.s._._.P.P._._.P.s.y.u.G.)._.P._._._._._._._._._.I.I._._._._._._.`.`._.P.I._._.s.d.p.J.P._._._._._._._.p.y.p.J.G.p.y.d.W.'.!.'.G.y.p._._._._.I._._._._._._._._._._._._._._._._._._._._._._._._.W.p.d.d.G.).)._._.`.`.",
"P.P.I.I._._._.F.9.9.9.H.J.P.I.P._.F.y.p.G._._.P._._._._._._._._.G.3.d.W.J.J._.P.P.}.s.} p.P._._._.I.I._._.J.p.5.p.J.G.d.y.s.G.G.W.!.p.3.P.}._._._._._.G.s.y.p.J._._._._._._._._._._._._._._._._.`._._._._._._._._._.).G.y.u._.P.P.P.P.P.P.P.G.i.5.F.!.J.a.d.p.G._.G._.G.y.s.)._._._._._._._._._._._._._._._._._._._._._._._._._._.P.G.G.i.3.i.F._.P.).).I._._.9.:.4.2.3.T h.gXrX( _ 3.8.2.2.6.2.6.8.8.2.2.2.2.2.2.4.4.4.:.-.! Q =.=.=.=.=.b b b =.=.b b b =.=.=.=.=.b b b =.=.=.=.=.=.=.=.=.=.=.Q =.=.=.=.=.-.-.@.-.-.-.,.,.,.:.8.4.8.4.4.2.2.2.8.6.2.2.2.2.2.8.2.2.2.2.2.2.2.2.2.2.2.2.2.2.2.2.2.2.2.2.2.2.2.2.2.2.2.2.2.2.2.2.2.2.2.2.2.2.2.2.2.2.2.2.2.2.2.2.4.) F.}.P.I.I.P.P.'.M.! -.,.,.,.:.2.}.}._.]._.P.P.p.i.i.y.G.)._.P._._.J.p.y.p._._._._._._._.`._.P.'.G.p.u.P._.P._.P.P._.s.y.p.P.P.P.P.P.P.P.P.P.p.y.i.J.W.p.5.d.F.G.'.'.s.p.s._._.P.P._._.P.s.y.u.G.)._.P._._._._._._._._._.I.I._._._._._._.`.`._.P.I._._.s.d.p.P.P._._._._._._._.p.y.p.J.G.p.y.d.W.'.'.'.G.y.p._._._._.I._._._._._._._._._._._._._._._._._._._._._._._._.G.p.d.d.G.).)._._.`.`.",
"P.P.I.I._._.W.G.9.9.9.F.J.P.I.I._.J.y.y.P._.P._._._._._._._._._.G.3.p.J.J.G._._._.).s.y.G._.P._._._._._._.G.p.5.p.J.J.p.y.y.s.G.J.!.p.y.P.|._.P._.P.P.G.s.p.p._._._._._._._._._._._._._._._._._.I.I._._._._._._._.P._.G.y.s._.P.P.P.P.P.P.P.G.i.y.S.J.!.F.5.d.G._.'.G.p.p.J._.G._._._._._._._._._._._._._._._._._._._._._._._._._._._.G.i.5.i.p._.P.`.).P._.'.9.:.:.3._ T _.uXuX} I 5.3.-.8.6.2.2.2.2.2.2.2.2.2.2.2.2.2.2.2.2.:.=.=.=.=.=.=.=.=.=.=.=.=.=.=.=.=.=.=.=.=.=.=.=.=.a h h h =.=.=.=.a a L Q Q =.-.-.:.:.:.:.:.:.4.4.4.4.4.4.2.2.2.2.2.2.2.2.2.2.2.2.2.2.2.2.2.2.2.2.2.2.2.2.2.2.2.2.2.2.2.2.2.2.2.2.2.2.2.2.2.2.2.2.2.2.2.2.2.2.2.2.2.2.2.2.2.2.2.2.! 4.F.P.P.I.I.P.G.J.n.^ 4.8.1.8.8.2.}.W.).I._.I.U.D.i.5.d.s.P._._._._.G.p.y.p.'.W.W._._._._.`._._.'.G.p.u.P._._._._._._.s.p.s.P.P.P.P.P.P.P.P.P.y.y.d.G.W.F.5.3.F.G.!.W.s.p.s._._.P.P._._.P.s.y.s.P._._.P._._.P._._._._._.`._._._._._._._._.`.`._._.I.P.).G.y.s._._._._.P._._._.J.p.d.p.J.W.s.y.i.p.J.}._.p.p.G._._._._._._._._._._._._._._._._._._._._._._._._._._._._._.J.s.d.d.G._._._._.`.`.",
"P.P.I.I._._.W.G.9.9.9.F.J.P.I.I._.J.y.y.P._.P._._._._._._._._._.J.5.p.J.J.J._._._.).s.y.G._.P._._._._._._.G.p.5.p.J.W.p.y.p.s.J.J.!.p.y.P.]._._._.P.P.G.s.p.p._._._._._._._._._._._._._._._._._.I.I._._._._._._._.P._.G.y.s.).P.P.P.P.P.P.P.G.i.y.i.G.!.F.5.d.G._.'.G.p.p.P._.G._._._._._._._._._._._._._._._._._._._._._._._._._._._.G.i.5.i.p._.P.`.).P._.'.i.2.:.3._ T _.uXuXy.I 5.3.-.8.6.2.2.2.2.2.2.2.2.2.2.2.2.2.2.2.2.:.=.=.=.=.=.=.=.=.=.=.Q Q Q h Q Q Q h Q h Q h Q h a h L h =.=.=.-.Q Q Q -.-.-.,.:.:.:.4.4.4.4.2.2.4.4.2.2.2.2.2.2.2.2.2.2.2.2.2.2.2.2.2.2.2.2.2.2.2.2.2.2.2.2.2.2.2.2.2.2.2.2.2.2.2.2.2.2.2.2.2.2.2.2.2.2.2.2.2.2.2.2.2.2.2.2.2.2.! 3.F.P.P.I.I.P.G.J.n.2.8.8.,.8.8.2.}.W.).I._.P.U.D.i.5.d.s._._._._._.G.p.y.p.'.W.W._._._._.`._._.'.G.p.u.P._.I._._._._.s.p.s.P.P.P.P.P.P.P.P.P.p.y.p.J.!.G.d.3.F.G.'.J.s.p.s._._.P.P._._.P.s.y.s.P._._.P._._.P._._._._._._.`._._._._._._._.`.`.I._.I.P.).G.y.s._._._._.P.P._._.J.p.y.p.J._.G.y.i.p.G.}._.p.p.G._._._._._._._._._._._._._._._._._._._._._._._._._._._._._.J.s.d.d.G._._._._.`.`.",
"P.P.I.I._._.W.G.9.9.9.S.J.P.I.I._.J.y.y.P._.P._._._._._._._._._.J.y.y.J.J.G._._._.).s.y.G._.P._._._._._._.G.p.5.p.J.!.G.y.p.G.J.J.W.p.y._.]._._._.P.P.G.s.d.p._._._._._._._._._._._._._._._._._._._._._._._._._._.P._.G.y.s._.I.P.P.P.P.P.P.G.i.y.i.G.J.F.5.d.G._._.G.p.p.P._.P._._._._._._._._._._._._._._._._._._._._._._._._._._.W.F.i.5.i.p._.P.`.).P._.'.i.2.2.2._ T _.tXuXu.I 3.3.-.8.6.2.2.2.2.2.2.2.2.2.2.2.2.2.2.2.2.:.-.>.,.,.,.,.,.,.-.=.=.=.-.=.-.=.=.=.=.=.Q =.=.Q -.=.-.=.-.>.>.,.,.-.:.:.:.:.:.:.4.4.2.2.2.2.2.2.2.2.2.2.2.2.2.2.2.2.2.2.2.2.2.2.2.2.2.2.2.2.2.2.2.2.2.2.2.2.2.2.2.2.2.2.2.2.2.2.2.2.2.2.2.2.2.2.2.2.2.2.2.2.2.2.2.2.2.2.2.2.2.2.! 3.G._.P.I.I.P.G.J.9.2.8.8.,.8.8.! }.W.).I._.P.P.D.i.5.d.s.P._._._._.G.p.y.p.'._._._._._._.`._.P.'.G.p.u.P._.I._._._._.s.p.s.P.P.P.P.P.P.P.P.P.p.y.p.J.!.G.i.5.F.J.'.J.p.p.s.P._.P.P._._.P.s.y.s.P._._.P._._.P._._._._.`.`.`._._._._._._._.`.`.I._.I.P.).G.y.s._._._._.P.P.P.W.J.p.y.i.J._.G.y.i.i.J.}._.p.p.G._._._._.`.`._._._._._._._._._._._._._._._._._._._._._._._.J.p.d.d.G._._._._.`.`.",
"P.P.I.I._._.W.G.9.9.5.S.J.P.I.I._.J.y.y.P._.P._._._._._._._._._.J.5.p.J.J.G._._._.).s.y.G._.P._.`._._._._.G.p.5.p.J.'.G.d.p.G.J._.J.p.y._.}.P._._.P.P.G.s.p.p._._._._._._._._._._._._._._._._._._._._._._._._._._.P._.G.y.s._.I.P.P.P.P.P.P.G.i.y.i.G.J.F.d.d.F._._.G.p.p.J._.P._._._._._._._._._._._._._._._._._._._._._._._._._._.W.G.i.5.i.F._.P.`.).P._.'.i.2.2.2._ T I.tXuXp.I 3.3.2.8.6.6.2.2.2.2.2.2.2.2.2.2.2.2.2.2.2.2.:.1.:.:.:.:.1.1.,.,.,.,.,.,.,.,.,.,.,.,.,.,.,.,.,.,.:.:.1.1.1.1.4.4.:.:.:.4.4.4.2.2.2.2.2.2.2.2.2.2.2.2.2.2.2.2.2.2.2.2.2.2.2.2.2.2.2.2.2.2.2.2.2.2.2.2.2.2.2.2.2.2.2.2.2.2.2.2.2.2.2.2.2.2.2.2.2.2.2.2.2.2.2.2.2.2.2.2.2.2.2.2.2.7.G._.P.I.I.P.G.J.9.2.8.8.6.8.2.P }.W.).I._.P.P.D.i.5.d.s._._._._._.G.p.y.p.'._._._._._._.`._.P.'.G.p.u.P._._._._._._.s.p.s.P.P.P.P.P.P.P.P.P.p.y.p.J.!.G.d.3.F.!.'.J.p.p.s.P._.P.P._._.P.s.y.s.P._._._._._.P._._._._.`.`.`._._._._._._._.`.`._._.I.P.).s.y.s._._._._.P.P.P.W.J.p.y.i.J._.G.p.p.i.G.}.J.p.p.G._._._._.`.`.`._._._._._._._._._._._._._._._._._._._._._._.G.p.d.d.G._._._._.`.`.",
"P.P.I.I._._.W.G.9.9.5.S.G.P.P.I._.G.y.3.P._.P._._._._._._._._._.G.3.p.J.J.J._._._.).s.y.G._.P._._._._._._.G.p.5.p.J.!.G.p.p.G.J._.G.y.y._.).P._._.P.P.G.s.d.F.W._._._._._._._._._._._._._._._._._._._._._._._._._.P._.G.y.s._.I.P.P.P.P.P.J.G.i.i.i.G.!.G.d.d.p._._.G.p.p._.).P._._._._._._._._._._._._._._._._._._._._._._._._._._.W.F.i.5.i.F._.P.`.).P._.'.i.2.2.3._ T _.tXuXG.Y 3.3.2.8.6.6.2.4.2.4.4.4.2.2.2.2.2.2.2.2.2.2.4.4.4.4.8.8.8.8.:.:.:.:.:.:.:.:.:.:.:.:.:.:.:.:.8.8.8.8.8.8.8.8.4.4.4.:.:.2.2.2.2.2.2.2.2.2.2.2.2.2.2.2.2.2.2.2.2.2.2.2.2.2.2.2.2.2.2.2.2.2.2.2.2.2.2.2.2.2.2.2.2.2.2.2.2.2.2.2.2.2.2.2.2.2.2.2.2.2.2.2.2.2.2.2.2.2.2.2.2.2.2.2.2.5.G._.I.I.I.P.G.J.9.2.8.8.6.6.2.P }.W.).I._.P.P.D.i.' d.s._._._._._.G.p.y.s.'._._._._._._.`._.P.'.G.p.u.P._.I._._._._.s.p.G.U.P.P.P.P.P.P.P.P.p.y.i.G.W.F.d.3.S.!.'.G.p.p.P.P._.P.P._._.P.s.y.s.P._._.P._._.P._._._._.`.I._._._._._._._._._._._._._._.).s.y.s._._._._._._._.W.J.F.y.p.J._.P.p.y.i.G.'.J.p.u.P._._._._.`.`.`._._._._._._._._._._._._._._._._._._._._._._.W.p.d.d.G._._._._.`.`.",
"P.P.I.I._._.W.G.9.5.5.S.G.P.P.I._.G.y.3.P._.P._._._._._._._._._.G.3.p.J.J.J._._._.).s.y.s._.P._._._._._._.G.p.5.i.G.!.G.p.p.s.G._.G.y.p._._.P._._.P.P.G.s.d.F.W._._._._._._._._._._._._._._._._.`.`.`.`.I.I._._._.P._.G.y.s._.I.P.P.P.P.P.U.G.i.y.i.G.J.G.i.d.p.J._.G.p.p._.).P._._._._._._._._._._._._._._._._._._._._._._._._._._._.F.i.5.i.p._.P.`.).P._.'.i.2.2.3._ T _.tXuX)./ 3.3.2.8.6.6.2.4.4.4.4.4.2.2.8.8.8.8.8.8.8.8.4.4.4.4.8.8.8.8.2.4.2.4.2.4.2.:.2.4.2.4.2.4.2.:.2.4.2.4.2.4.2.4.4.4.:.:.2.2.2.2.2.2.2.2.2.2.2.2.2.2.2.2.2.2.2.2.2.2.2.2.2.2.2.2.2.2.2.2.2.2.2.2.2.2.2.2.2.2.2.2.2.2.2.2.2.2.2.2.2.2.2.2.2.2.2.2.2.2.2.2.2.2.2.2.2.2.2.2.2.2.2.2.2.5.W._.I.I.I.P.G.J.9.2.8.8.6.6.2.P }.W.).I._.P.P.D.i.' d.s._._._._._.G.p.y.s.'._._._._._._.`._.P.'.G.p.u.P._.I._._._._.s.p.s.U.P.P.P.P.P.P.P.P.y.y.d.G.W.F.5.3.i.!.}.G.p.s.P.P._.P.P._._.P.s.y.s.P._._.P._._.P._._._._._._.I.I._._._._._._._._._._.I._.).s.y.s._._._._._._.W.W.!.F.y.i.G._.P.p.p.d.G.!.J.p.u.P._._._._.`.`.I._._._._._._._._._._._._._._._._._._._._._._.W.p.d.d.G._._._._.`.`.",
"P.P.I.I._._.W.G.9.5.5.S.G.P.P.P._.J.y.3.P._.P._._._._._._._._._.G.3.d.J.J.J._._._.).s.y.G._.P._._._._._._.G.p.5.i.G.!.G.y.p.s.G._.G.y.p._._.P._._.P.P.G.p.y.F.W._._._._._._._._._._._._._._._._.`.`.`.`.I._._._._.P._.G.y.s._.I.P.P.P.P.P.J.G.i.y.i.F.J.W.a.d.i.J._.G.p.p._.).P._._._._._._._._._._._._._._._._._._._._._._._._._._._.G.i.5.i.p._.P.`.).P._.'.i.2.2.3._ T `.tXuX].( _ 3.2.8.2.6.2.4.4.4.4.4.4.4.4.4.8.8.8.8.8.8.6.8.2.4.6.8.6.8.6.8.6.8.6.8.2.4.2.2.2.2.2.2.2.2.2.2.2.2.2.2.2.2.2.2.2.2.2.2.2.2.2.2.2.2.2.2.2.2.2.2.2.2.2.2.2.2.2.2.2.4.4.:.:.2.2.2.2.2.2.2.2.2.2.2.2.2.2.2.2.2.2.2.2.2.2.2.2.2.2.2.2.2.2.2.2.2.2.2.2.2.2.2.2.2.2.2.2.2.2.2.2.2.3.i.W.).).P.I.P.G.J.9.2.8.8.6.6.2.P }.W.)._._.P.U.G.i.5.d.s._._._._._.G.p.y.s.'.W.W._._.I._._._.P.'.G.p.u.P._.I._._._._.s.p.s.P.P.P.P.P.P.P.P.P.p.y.i.G.W.G.d.3.i.!.}.G.p.s.P.P._.P.P._._.P.s.y.s.P._._.P._._.P._._._._._._._._._._._._._._.`.`.I._.I.P.).s.y.s._._._._._._.W.!.!.F.y.i.G.).P.s.p.d.F.!.G.p.u.P._._._._._._.I.I._._._._._._._._._._._._._._._._._._._._._.W.p.d.d.G._._._._.`.`.",
"P.P.P.P._._.W.G.9.5.5.S.G.P.I.P.P.J.y.y.P._.P._._._._._._._._._.J.y.p.J.J.J._._._.).s.y.G._.P._._._._._._.G.p.5.d.G.W.G.y.p.s.G.!.G.3.p._._.s._._.P.P.P.p.y.p._._._._._._._._._._._._._._._._._.`.`.`.`.I._._._._.P._.G.y.s._.I.P.P.P.P.J.J.G.i.y.i.F.!.W.a.d.d.J._.G.p.p._.}.P._._._._._._._._._._._._._._._._._._._._._._._._._._._.G.i.5.i.p._.h.`.)._._.}.a.2.2.3.3.T _.tXuX].( _ 3.2.6.-.6.2.4.4.4.4.4.2.2.4.4.2.2.2.2.2.2.6.2.6.2.6.2.6.2.8.8.8.8.8.8.8.8.6.2.2.2.2.2.2.2.6.2.6.2.6.2.6.2.2.2.2.2.2.4.2.2.2.2.2.2.2.2.2.2.2.2.2.2.2.2.2.2.2.2.2.4.2.:.2.2.2.2.2.2.2.2.2.2.2.2.2.2.2.2.2.2.2.2.2.2.2.2.2.2.2.2.2.2.2.2.2.2.2.2.2.2.2.2.2.2.2.2.2.2.2.2.2.2.3.i.W._.I.I.I.P.G.!.9.2.8.8.6.6.-.P }.W.)._.P.P.U.G.i.5.d.s._._._._._.P.p.y.s.)._._._._._._._._.P.'.G.p.u.P._.I._._._._.s.p.s.P.P.P.P.P.P.P.P.P.p.y.i.G.}.G.d.5.i.!.}.G.y.s.P.P._.P.P._._.P.s.y.s.P._._.P._._.P._._._._._._._._._._._._._._.`.`.I._.I.P.).s.y.s._._._._._._._.W.!.F.5.i.J.).P.s.y.i.F.W.G.p.p.P._._._._._._.I.I._._._._._._._._._._._._._._._._._._._._._.W.p.d.d.G._._._._.`.`.",
"_.P.P._._._.P.G.5.5.5.F.J._.).I.P.G.y.} P._.P.I._._._._._._._._.G.p.y.G._._.P._._._.u.y.P._._._.h.)._.J.}.G.5.5.p._._.G.G.d.5.G.G.i.5.p.P.P.P._._._._.P.s.p.s.)._._._._._._._._._._._._._._._._.`.`.`._._._._._._.P._.P.y.s._.P.P.P.P.P.P.P.G.i.i.5.J.G.G.W.y.d.W.!.F.d.G._._._._._._._._._._._._._._._._._._._._._._._._._._._.P.P.J.F.i.3.y.p._._.`._.x.)._.7.2.8.2.3._ P.gXtX2Xy.T 3.3.8.8.:.2.2.2.2.2.2.2.2.6.6.6.6.6.6.6.6.6.6.6.6.6.,.6.,.6.6.6.,.6.,.6.6.2.2.2.2.2.2.2.2.2.2.2.2.2.2.2.2.2.2.2.2.2.2.2.2.2.2.2.2.2.2.2.2.2.2.2.2.2.2.2.2.2.2.2.2.2.2.2.2.2.2.2.2.2.2.2.2.2.2.2.2.2.2.2.2.2.2.2.2.2.2.2.2.2.2.2.2.2.2.2.2.2.2.2.2.2.2.2.2.2.2.2.2.2.2.2.2.) a.W._._.).).P._.F.7.8.4.6.6.8.G 8.G.W._.)._.P.P.G.i.5.d.s._.).).P._._.p.p.P.P._._._._._.`._._._.'.J.p.p.P._._._._._._.s.p.s.P.P.P.P.P.P.P.U.J.p.y.i.G.}._.G.a.i.!.!.p.p.s.P.P.P._._.P._._.s.y.s.P._._.P._._.P._._._._._._._._._._._._._._.`.`._.).P.P._.s.y.G._._._._._._._._.J.F.5.9.G._.G.p.5.5.F.!.G.y.p._._._._._._._._._._._._._._._._._._._._._._._._._._.P.P._.J.F.i.i.y.F.G._._._.`.`.",
"W.J.P._._._.P.G.y.5.5.F.J._.).I.P.G. .} P._.I.I.`._._._._._._._.P.p.y.G._._.P._._._.u.y.P._._._.h.)._.J.}.H.5.5.p._._.G.G.d.5.H.G.9.3.F.P.G.P._._.P.P.P.s.u.s.)._._._._._._._._._._._._._._._._.`._.`.`._._._._._.P._.G.y.s._.P.P.P.P.P.P.J.G.i.i.5.J.G.G.W.y.d.W.!.F.d.G._._._._._._._._._._._._._._._._._._._._._._._._._._._.P.P.J.F.i.3.y.p._._.`.`.x.)._.7.-.8.2.2._ P.gXtX4X| T 3.3.8.8.:.2.2.2.2.2.2.2.2.6.6.6.6.6.6.6.6.6.6.6.6.6.6.6.6.6.6.6.6.6.6.6.2.2.2.2.2.2.2.2.2.2.2.2.2.2.2.2.2.2.2.2.2.2.2.2.2.2.2.2.2.2.2.2.2.2.2.2.2.2.2.2.2.2.2.2.2.2.2.2.2.2.2.2.2.2.2.2.2.2.2.2.2.2.2.2.2.2.2.2.2.2.2.2.2.2.2.2.2.2.2.2.2.2.2.2.2.2.2.2.2.2.2.2.2.2.2.2.2.) 9.W._._.).).P._.F.8.8.8.2.6.8.F 4.G.W.P.)._.P.P.G.i.5.d.s._.).).P._._.p.p.P.P._._._._._.`._._._.'.J.p.p.P._._._._._._.s.p.F.U.I.P.P.P.P.P.U.J.i.5.d.G.}.W.s.p.i.G.!.p.p.s.P.P.P._._.P._._.s.y.s.P._._.P._._.P._._._._._._._._._._._._._._.`.`._.).P.P._.s.y.G.W._._._._.`._._.P.F.5.9.G._.P.s.5.5.F.!.G.y.p.)._._._._._._._._._._._._._._._._._._._._._._._._._.P.P._.J.F.i.i.5.F.G._._._.`.`.",
"W.J.P._._._.P.G.y.5.5.F.J._.).I.P.G. .} P._.I.I.`.`._._._._._._.P.p.y.G._._.P._._._.u.y.P._._._.h.)._.W.}.G.5.5.p._._.G.G.d.5.H.G.9.5.F._.P.P._._.P._.P.s.u.s.)._._._._._._._._._._._._._._._._._.`._.`._._._._._.P._.G.y.s.).P.P.P.P.P.P.J.G.i.i.5.G.G.G.W.y.d.G.!.p.d.G._._._._._._._._._._._._._._._._._._._._._._._._._._._.P.P.J.F.i.3.y.p._._.`._.h.)._.7.-.8.2.3._ P.gXtXrXu.T 3.3.8.8.:.4.2.2.2.2.2.2.2.2.2.2.6.6.6.6.2.2.2.2.2.2.2.2.2.2.2.2.2.2.2.2.2.2.2.2.2.2.2.2.2.2.2.2.2.2.2.2.2.2.2.2.2.2.2.2.2.2.2.2.2.2.2.2.2.2.2.2.2.2.2.2.2.2.2.2.2.2.2.2.2.2.2.2.2.2.2.2.2.2.2.2.2.2.2.2.2.2.2.2.2.2.2.2.2.2.2.2.2.2.2.2.2.2.2.2.2.2.2.2.2.2.2.2.2.2.2.2.2.) 9.W._.`.).).P._.F.8.4.8.2.6.6.D 4.W.W.P.)._.P.P.G.i.5.d.s._.).).P._._.p.p.P.P._._._._._._.I._._.!.J.d.p.P._._._._._._.s.p.F.U.I.P.P.P.P.P.P.J.p.y.y.G.}.W.s.p.i.G.W.p.p.s.P.P.P._._.P._._.s.y.s.P._._.P._._.P._._._._._._._._._._._._._._.`.`.`.).P.P._.s.y.G.W._._._._._._._.J.i.5.9.G.'.P.s.5.5.F.J.F.y.p._._._._._._._._._._._._._._._._._._._._._._._._._._.P.P._.J.F.i.5.5.F.G._._.I.`.`.",
"W.J.P._._._.P.G.y.5.5.F.J._.).I.P.G. .} P._.I.I.`.`._._._._._._.P.p.y.G._._.P._._._.u.y.P._._._.h.)._.J.}.G.5.d.p._.).P.G.d.5.H.G.9.5.F._.P.P._._.P.P.P.s.u.s.)._._._._._._._._._._._._._._._._._.`._._._._._._._.P._.G.y.s._.P.P.P.P.P.J.J.G.i.i.5.J.G.W.W.d.d.F.W.p.d.G._._._.`._._._._._._._._._._._._._._._._._._._._._._._.P.P.J.F.i.3.y.p._._.`._.h.)._.7.P 8.2.3._ h.gXtXtXu.T 3.3.8.8.:.2.) 3.3.2.2.2.2.2.2.2.2.2.2.2.2.2.3.3.3.2.2.2.3.3.3.3.3.3.3.3.2.2.2.2.2.2.2.2.2.2.2.2.2.2.2.2.2.2.2.2.2.2.2.2.2.2.2.2.2.2.2.2.2.2.2.2.2.2.2.2.2.2.2.2.2.2.2.2.2.2.2.2.2.2.2.2.2.2.2.2.2.2.2.2.2.2.2.2.2.2.2.2.2.2.2.2.2.2.2.2.2.2.2.2.2.2.2.2.2.2.2.2.2.2.2.2.2.) 9.W._.`.).).P._.a.2.4.8.4.6.6.D 4.W._.P._._.P.P.G.i.5.i.s._.).).P._._.p.p.P.P._._._._._._.I._._.!.J.d.p.P._._._._._._.s.p.F.U.I.P.P.P.P.P.P.J.i.5.y.G._.W.s.p.i.H.G.p.p.s.P.P.P._._.P._._.s.y.s.P._._.P._._.P._._._._._._._._._._._._.`._.`.`.`.).I.P._.s.y.G.W._._._._._._._.J.i.5.9.G.'.P.s.5.5.F.J.F.y.p._._._._._._._._._._._._._._._._._._._._._._._._._._.P.P._.J.F.i.5.5.F.G._._.I.`.`.",
"W.J.P._._.P.P.G.y.5.5.S.J._.).I.P.G. . .P.P.I.I.`.`._._._._._._.G.p.y.G._._.P._._._.u.y.P.)._._.h.{._.W.}.G.5.d.p._.)._.G.i.5.H.G.i.y.G._._.P._._.P.P.P.s.u.G.)._._._._._._._._._._._._._._._._._.I._._._._._._._.P._.G.y.s._.P.P.P.P.P.P.J.G.i.y.5.!.J.W.!.y.d.F.W.p.d.G._._._.`.`._._._._._._._._._._._._._._._._._._._._._._.P.P.J.F.9.3.5.p._._.`._.x.)._.7.P 8.3.3.T G.gXtXtXp.( 3.3.4.8.:.2.` 3.3.3.3.3.3.3.2.2.2.2.2.2.2.3.3.` ` ` ` 3.3.` ` ` ` 3.3.3.2.2.2.2.2.2.2.2.2.2.2.2.2.2.2.2.2.2.2.2.2.2.2.2.2.2.2.2.2.2.2.2.2.2.2.2.2.2.2.2.2.2.2.2.2.2.2.2.2.2.2.2.2.2.2.2.2.2.2.2.2.2.2.2.2.2.2.2.2.2.2.2.2.2.2.2.2.2.2.2.2.2.2.2.2.2.2.2.2.2.2.2.2.2.2.2.2.) 9.W._.`.).).P._.a.2.2.8.8.6.6.r 3.W._.P._._.P.U.G.i.5.d.s._._.).P._._.p.u.P.P._._._._._._._._._.!.J.d.p.P._.P._._._._.s.p.F.U.P.P.P.P.P.P.J.J.i.5.5.G._.W.s.d.5.F.G.p.p.G._.P.P._._.P._._.s.y.s.P._._.P._._.P._._._._._._._._._._._.I.I.I.I.`._.).P.P._.s.y.G.W._._._._._._._.J.i.' i.G.'.P.s.5.5.F.G.F.y.p._._._._._._._._._._._._._._._._._._._._._._._._._._.P.P._.W.G.i.5.5.F.G._._._.`.`.",
"W.J.P._._.P.P.G.y.5.5.S.J._.).I.P.G. . .P._.I.I.`.`._._._._._._.G.p.y.G._._.P._._._.u.y.P.)._._.h.{._.W.}.G.5.y.p._.)._.J.i.3.F.G.i.y.G.)._.P._._.P.P.P.s.u.s.)._._._._._._._._._._._._._._._._.I.I._._._._._._._.P._.G.y.s._.P.P.P.P.P.P.J.G.i.y.5.!.J.!.!.d.d.p.W.p.d.W._._._.`.`._._._._._._._._._._._._._._._._._._._._._._.P.P.J.F.9.3.5.p._._.`._.h.)._.5.F 4.4.` ( D.uXtXuXf.( 3.3.4.8.:.2.` 3.2.3.3.3.3.3.2.2.2.2.2.2.2.3.) 3.) ` ) 3.` ` ` ` ) 3.) 3.2.2.2.2.2.2.2.2.2.2.2.2.2.2.2.2.2.2.2.2.2.2.2.2.2.2.2.2.2.2.2.2.2.2.2.2.2.2.2.2.2.2.2.2.2.2.2.2.2.2.2.2.2.2.2.2.2.2.2.2.2.2.2.2.2.2.2.2.2.2.2.2.2.2.2.2.2.2.2.2.2.2.2.2.2.2.2.2.2.2.2.2.2.2.2.2.2.) 9.W._.`.).).I.}.9.2.:.8.8.6.2.3 3.W.}._._._.P.U.G.i.5.d.s._._.).P._._.p.u.P.P._._._._._.`._._.P.!.J.p.p.P._._._._._._.s.p.F.U.P.P.P.P.P.P.P.J.i.y.y.G.}.W.s.p.5.F.G.i.p.G._.P.P._._.P._._.s.y.s.P._._.P._._.P._._._._._._._._._._._._.I.I.`.`._.).P.P._.s.y.G.W._._._._._._._.J.i.5.i.G.'.P.s.5.5.S.G.S.y.p.)._._._._._._._._._._._._._._._._._._._._._._._._._.P.P._.W.F.i.y.5.F.G._._._.`.`.",
"W.J.P._._.P.P.G.i.5.5.F.J._.).I.P.G. .} P._.I.I.`.`._._._._._._.G.p.y.G._._.P._._._.u.y.P.)._._.h.{._.W.}.G.5.5.d._.)._.J.i.3.H.G.i.y.G.}._.P._._.P.P.P.s.u.s.)._._._._._._._._._._._._._._._._._._._._._._._._._.P._.G.y.s._.P.P.P.P.P.P.J.G.i.y.5.!.!.!.}.y.d.p.G.p.d.W._.P._.`.`.`._._._._._._._._._._._._._._._._._._._._._.P.P.J.F.i.3.5.p._._.`._.h.)._.5.F 4.4._ ( p.uXtXgXK.{ _ ) 2.8.:.2.) 2.2.3.2.2.2.2.2.2.2.2.2.2.2.2.2.2.2.3.) 3.2.3.) 2.) 2.2.2.2.2.6.2.2.2.2.2.2.2.2.2.2.6.6.6.2.2.2.2.2.2.2.2.2.2.2.2.2.2.2.2.2.2.2.2.2.2.2.2.2.2.2.2.2.2.2.2.2.2.2.2.2.2.2.2.2.2.2.2.2.2.2.2.2.2.2.2.2.2.2.2.2.2.2.2.2.2.2.2.2.2.2.2.2.2.2.2.2.2.2.2.2.2.2.2.2.) 9.W._._.).).P.}.9.2.2.8.8.6.-.3 ) W.}._._._.P.).G.i.5.d.s.W._.).P._._.p.u.P.P._._._._.`.`.`._._.'.J.p.p.P._._._._._._.s.p.F.U.P.P.P.P.P.P.J.J.p.5.d.G.}._.s.p.5.F.F.d.p.G._.P.P._._.P._._.s.y.s.P._._._._._._._._._._._._._._._._._._._._.`.`._.).P.P._.s.y.G.W.W.P.I.I.I.I.P.G.i.5.i.G.'._.G.5.5.F.G.S.y.p.)._._._._._._._._._._._._._._._._._._._._._._._._._.P.P._.W.F.i.5.5.S.G.P._._.`.`.",
"W.J.P._._._.P.G.i.5.5.F.J._.`.I.P.G. .} P.P.I.I.`.`._._._._._._.G.p.y.G._._.P._._._.u.y.P.)._._.h.{._.W.!.G.5.5.d._.)._.J.i.3.H.G.i.y.G.}._.P._._.P.P.P.s.u.s.)._._._._._._._._._._._._._._._._.`._._._._._._._._.P._.G.y.s._.P.P.P.P.P.P.J.G.i.y.5.!.!.!.}.y.d.a.G.p.d.W._.P.P.`.`.`.`._._._._._._._._._._._._._._._._._._._._.P.P.J.S.i.3.i.p._._.`._.h.)._.5.D 4.4._ ( D.gXtXgXI.{ ( _ ` 8.4.4.4.2.4.2.4.2.2.2.2.2.2.2.2.6.2.2.4.4.4.4.4.4.4.4.4.4.4.4.4.4.4.6.6.2.2.2.2.2.2.2.2.2.2.6.6.2.2.2.2.2.2.2.2.2.2.2.2.2.2.2.2.2.2.2.2.2.2.2.2.2.2.2.2.2.2.2.2.2.2.2.2.2.2.2.2.2.2.2.2.2.2.2.2.2.2.2.2.2.2.2.2.2.2.2.2.2.2.2.2.2.2.2.2.2.2.2.2.2.2.2.2.2.2.2.2.2.2.) 9.W._._.).).P.}.9.2.:.8.8.,.-.$ ) W.}._._.).P.).G.i.5.d.s.W._.).P._._.p.u.P.P._._._._.`.`.`.P.P.'.J.y.p.P._._._._._._.s.p.F.U.I.P.P.P.P.P.P.J.p.y.i.G.}.'.s.p.5.F.p.y.p.G._.P.P._._.P._._.s.y.s.P._._._._._.P._._._._._._._._._._._._._._.`.`._.).P.P._.s.y.G.W._.P.I.I.I.I.P.G.i.5.i.G.'._.G.5.5.S.F.S.y.p.)._._._._._._._._._._._._._._._._._._._._._._._._._.P.P._.W.F.i.5.5.S.G._._._.`.`.",
"J._._._._.P.P.G.i.y.5.F.J._._.P.P.G. .y.P.P.h.I.`.`._.I._._._._.P.p.y.G._._.P._.P._.p.y.P._.I._._.).W.W.}.G.d.p.p._._._.W.p.3.9.i.9.p.J._.P.P._._.G._._.u.p.G._._._._._._._._._._._._._._._._._._._._._._.I.I.I._.P._.P.p.s._.P.P.P.P.G.P.J.G.y.i.p.G.!.!.G.p.3.d.a.d.p._.}._._.`.`._._._._._._._._._._._._._._._._._._._._._._.I.P.G.i.5.9.S.p._._._._._.).W.a.3 ^ 9.` I P.uXeXgXeXI. .( / 3.9.2.:.2.:.2.4.8.8.4.6.6.6.6.6.6.6.4.4.4.4.4.8.8.8.:.:.:.:.:.:.:.:.4.2.6.2.2.8.8.8.2.2.2.2.2.2.6.6.2.2.2.2.2.2.2.2.2.2.2.2.2.2.2.2.2.2.2.2.2.2.2.2.2.2.2.2.2.2.2.2.2.2.2.2.2.2.2.2.2.2.2.2.2.2.2.2.2.2.2.2.2.2.2.2.2.2.2.2.2.2.2.2.2.2.2.2.2.2.2.2.2.2.2.2.2.2.2.2.) 7.F._._.)._._.W.3.2.4.8.8.6.G $ 3.!.G.P._.I.P.).G.i.5.d.s.W._.).G._._.p.u.P._._._._._.`.`._.P.G.'.J.p.y.G._._._._._._.s.p.F.U.P.P.P.P.P.J.J.G.y.d.p.G.}._.G.p.5.i.p.p.p.G._._._.P.P._._.P.s.y.P.P._._.P.P.P._._._._._._._._._._._._._._._.`.`.I._.I.P._.s.d.G.W.W.P.P.P._._._.G.i.5.i.G._._._.i.` 9.F.5.d.G.P._._._._._._._._._._._._._._._._._._._._._._._._._.P._._.J.F.9.i.5.F.G._._._.`.`.",
"J._._._._.P.P.G.i.5.5.F.J._._.P.P.G. .y.P.P.h.).`.`._._._._._._.G.p.y.G._._.P._.P._.s.y.P._.I._._.).W.W.}.G.d.p.p._._._.W.p.3.9.i.9.F.J._.P._._._.G._._.u.p.G._._._._._._._._._._._._._._._._._.`._._.`._.I._._.P.P._.P.y.s._.P.P.P.P.G.P.J.G.y.i.p.G.J.!.G.p.3.d.a.d.p.'.}._._.`.`._._._._._._._._._._._._._._._._._._._._._._.I.P.G.i.5.9.S.p._._._._._.).W.9.3 ! 9.` I P.uXeXgXgXtXI. .( / ` 2.4.4.2.2.2.2.2.8.4.6.8.8.8.8.8.8.8.8.8.8.8.8.8.8.8.8.8.8.8.8.8.2.2.2.2.2.2.2.2.2.2.2.2.2.2.-.-.2.2.2.2.2.2.2.2.2.2.2.2.2.2.2.2.2.2.2.2.2.2.2.2.2.2.2.2.2.2.2.2.2.2.2.2.2.2.2.2.2.2.2.2.2.2.2.2.2.2.2.2.2.2.2.2.2.2.2.2.2.2.2.2.2.2.2.2.2.2.2.2.2.2.2.2.2.2.2.2.) 9.G._._._._._.W.3.:.:.:.8.,.J $ 9.!.G.P._.P.P.).G.i.5.d.s.W._._.G._._.p.u.P._._._._._._.`._._.G.'.J.p.y.G._._._._._._.s.p.F.U.P.P.P.P.P.P.J.G.y.d.p.G.}._.G.p.5.i.p.p.p.G._._._.P.P._._.P.s.y.P.P._._.P.P.P._._._._._._._._._._._._._._._.`.`.I._.I.P._.s.d.G.W.W.P.P._._._._.G.i.5.i.G._._._.S.` 9.F.5.d.G.P._._._._._._._._._._._._._._._._._._._._._._._._._.P._._.W.F.9.i.5.F.G._._._.`.`.",
"J._._._._.P.P.G.i.5.5.S.J._.I.P.P.G.} y.P.P.h.I.`.`._._._._._._.G.p.y.G._._.P._.P._.s.y.P._.P._._.).W.W.}.G.d.p.p._._._.W.p.3.9.i.9.p.J._.P.P._._.P._._.u.p.G._._._._._._._._._._._._._._._._._.`.`.`.`._._._._.P.P._.G.y.s._.P.P.P.P.P.P.J.G.5.i.S.G.!.!.G.p.3.d.a.i.a.'.}.P._.`.`._._._._._._._._._._._._._._._._._._._._._._.P.P.G.i.5.9.p.p._._._._.).).W.a.3 L 8.` T P.tXdXiXdXhXqXL.| U / ) 2.2.2.8.8.7.7.2.2.6.6.6.6.8.8.2.:.:.:.2.:.2.:.8.2.2.:.:.:.-.-.8.8.8.8.7.7.7.7.7.8.8.8.8.2.2.2.2.2.2.2.2.2.2.2.2.2.2.2.2.2.2.2.2.2.2.2.2.2.2.2.2.2.2.2.2.2.2.2.2.2.2.2.2.2.2.2.2.2.2.2.2.2.2.2.2.2.2.2.2.2.2.2.2.2.2.2.2.2.2.2.2.2.2.2.2.2.2.2.2.2.2.2.2.2.2.2.! 9.G.}._.P._.).F.3.:.:.:.1.,.i $ 9.!.W.P._.I.P.).G.i.5.d.s._._._.P._._.p.u.P._._._._._._._._._.G.'.J.p.y.G._._._._._._.s.p.F.U.P.P.P.P.P.P.J.G.d.i.p.G._._.G.p.5.i.p.i.p.G._._._.P.P._._.P.s.y.h.P._._.P.P._._._._._._._._._._._._._._.I.I.`.`.I._.I.P._.s.p.G.W._._._.`._._._.G.i.5.i.G._._._.S.` 9.F.i.p.G.P._._._._._._._._._._._._._._._._._._._._._._._._._.P.P._.J.F.9.i.5.S.G._._._.I.`.",
"J._._._._.P.P.G.i.5.5.S.J._.I.P.P.G.} y.P.P.h.I.`.`._._._._._._.G.p.y.G._._.P._.P._.s.y.P._.I._._.).W.W.}.G.d.p.p._._._.W.p.7.9.i.9.F.J._.P.P._._.P._._.u.p.G._._._._._._._._._._._._._._._._._.`.`.`.`._._._._.P.P._.G.y.s._.P.P.P.P.P.P.J.G.5.i.S.G.!.}.W.p.5.d.F.i.a.'.}.P._.`.`._._._._._._._._._._._._._._._._._._._._._._.P.P.G.i.5.9.p.p._._._._._.).W.a.r a :.3.T p.tXdX7XfXhXaXwXL.f.p.( ( _ _ ) ) ) ) _ _ ) _ ) ) &.2.2.2.2.8.8.7.7.7.9.7.7.7.8.8.6.2.2.) 3.2.3.3.2.3.2.) 2.) 2.) 2.2.2.2.2.2.2.2.2.2.2.2.2.2.2.2.2.2.2.2.2.2.2.2.2.2.2.2.2.2.2.2.2.2.2.2.2.2.2.2.2.2.2.2.2.2.2.2.2.2.2.2.2.2.2.2.2.2.2.2.2.2.2.2.2.2.2.2.2.2.2.2.2.2.2.2.2.2.2.2.2.2.! 9.G.}._._._._.p.) :.:.,.,.-.r $ 9.!.W._._.I.P.).G.i.5.d.s._._._.P._._.p.u.P._._._._._._._._._.G.'.J.p.y.G._._._._._._.s.p.F.U.P.I.I.P.P.P.J.G.y.y.i.G._._.G.p.5.i.p.i.p.G._._._.P.P._._.P.s.y.h.P._._.P._._._._._._._._._._._._._._._.I.`.`.`.I._.I.P._.s.p.G.W._._._.`._._._.G.i.5.i.G._._._.F.3.9.F.i.p.G.P._._._._._._._._._._._._._._._._._._._._._._._._._.P.P._.J.F.9.i.y.S.G._._._.`.`.",
"J._._._._.P.P.G.d.5.5.S.J._._.P.P.D. .y.P.P.h.I.`.`._._._._._._.P.p.y.G._._.P._.P._.s.y.P._.I._._.).W.W.}.H.5.p.p._._._._.F.3.9.i.i.p.J._.J.P._._.P._._.u.p.G._._._._._._._._._._._._._._._._._.`.`.`._._._._._.P.P._.G.y.s._.G.P.P.P.P.P.J.G.5.i.p.G.!.}.W.s.d.d.F.i.a._.)._.).`.`._._._._._._._._._._._._._._._._._._._._.P.I.P.P.G.i.5.9.p.p._._.`._._.).W.E.i i -.3._ u.2XhXfXfXfXfXfXdXwXwXqXqX].Y.P.K.p.p.u.u.u.y.} } { } _ _ _ _ _ ) ) ) ) / ) _ 3.3.3.5.3.3.3.` 3.3.3.3.2.3.3.3.3.3.3.8.2.2.2.2.2.8.8.8.2.2.2.2.2.2.2.2.2.2.2.2.2.2.2.2.2.2.2.2.2.2.2.2.2.2.2.2.2.2.2.2.2.2.2.2.2.2.2.2.2.2.2.2.2.2.2.2.2.2.2.2.2.2.2.2.2.2.2.2.2.2.2.2.2.2.2.2.2.2.2.2.! 8.F._._._._._.d.) :.4.,.,.-.r 3 9.}.W.P._.I.P.).G.i.5.d.s._._._.P._.P.p.u.P._._._._._._._._._.G.!.G.p.y.G._._._._._._.s.p.F.U.P.I.I.P.P.P.J.G.y.y.i.G._._.W.s.5.i.i.d.s.G._._._.P.P._._.P.s.y.s.P._._.P.P.P._._._._._._._._._._._._._._._.`.`.I._._._._.s.p.G.W._._._.`._._._.G.i.5.i.F._._._.F.5.5.S.i.p.P.P._._._._._._._._._._._._._._._._._._._._._._._._._.P.P._.J.S.i.i.5.F.G._._._._.`.",
"J._._._._.P.P.G.i.5.5.S.J._._.P.P.G.} y.P.P.h.I.`.`._._._._._._.P.p.y.G._._.P._.P._.s.y.P._._._._.).W.W.}.H.5.p.d._._._._.F.5.9.i.i.p.J._.J.P._._.P._._.u.p.G._._._._._._._._._._._._._._._._._.`.`.`._._._._._._.P._.P.p.s.).P.P.P.P.P.U.J.G.y.i.p.G.!.}.W.s.d.d.F.i.a._.)._.).`.`._._._._._._._._._._._._._._._._._._._._._.P.P.P.G.i.5.9.p.p.).).`._._.)._.E.i e @.7._ } &XfXzXpXpXpXpXsXpXiXhXgXgXgXaXaXaXeXqXwX3X2X2X*X*XY.P.p.s.p.u.y.} } } { { ( ( U U U 3.3.3.` _ ` ) ` _ ` _ ` 3.` 3.3.3.2.2.2.-.2.2.2.2.2.2.2.2.2.2.2.2.2.2.2.2.2.2.2.2.2.2.2.2.2.2.2.2.2.2.2.2.2.2.2.2.2.2.2.2.2.2.2.2.2.2.2.2.2.2.2.2.2.2.2.2.2.2.2.2.2.2.2.2.2.2.2.2.2.2.2.2.2.2.2.2.4.i.G._._.P.G.5.) 2.4.:.-.-.r 3 9.}.W._._.P.P.).G.i.5.d.s._._.).P._.P.p.p.P._._._._._._._._._.G.'.G.p.y.G._._._._._._.s.p.F.U.P.P.I.P.P.P.J.G.y.y.i.F.W.}.W.G.i.i.d.d.s.P._.P._.P.P._._.P.s.y.P.P._._.P.P.P._._._._._._._._._._._._._._._.`.`.I._.P.P._.s.p.G.W._._._.`.`._._.G.i.5.9.F._._._.G.5.5.S.i.s._.P._._._._._._._._._._._._._._._._._._._._._._._._._.P.P._.J.S.i.i.5.F.G._._._._.`.",
"J._._._._.P.P.G.i.5.5.F.J._.P.P.P.D.} y.P.P.h.I.`.`._._._._._._.G.p.y.G.'._.P._.P._.s.y.P._.I._._._.W.W.}.H.5.p.d.P._._._.F.5.F.i.i.p.J._.J._._._.P._._.u.p.G._._._._._._._._._._._._._._._._._.`.`._._._._._._._.P.).P.u.s.).P.P.P.P.P.U.J.G.5.y.p.G.!.}.W.s.d.d.a.d.p._.)._.)._._._._._._._._._._._._._._._._._._._._._._.I.P.P.P.G.i.5.9.S.p.{.{.`._._.)._.E.a u @.9._ T L.dXpXpX:X<XpXpXpX,X=X=X,X,X,XiXiXpXsXsXhXhXfXfXfXaXgXgXgXgXuXuXtXtXtXqXqX2XY.T.I.P.p.i.d.5.3._ 3._ _ / ) / Y I Y I 8.2.2.-.-.-.2.2.2.2.2.2.2.2.2.2.2.2.2.2.2.2.2.2.2.2.2.2.2.2.2.2.2.2.2.2.2.2.2.2.2.2.2.2.2.2.2.2.2.2.2.2.2.2.2.2.2.2.2.2.2.2.2.2.2.2.2.2.2.2.2.2.2.2.2.2.2.2.2.2.4.) 5.F._.].P.p.5.) 4.8.:.,.-.r 3 M.}._.P._.P.P.).G.i.5.d.s._._._.G._._.p.u.P._._._._._._._._._.G.'.J.p.y.G._._._._._._.s.p.F.U.P.P.I.P.P.J.J.G.y.y.i.F._.'._.G.i.i.d.y.s._._.P._.P.P._._.P.s.y.P.P._._.P.P.P._._._._._._._._._._._._._._._.`.`.I._._._._.s.d.G.W._._._._._._._.G.i.5.i.F.'._._.J.5.5.S.i.s._.P._._._._._._._._._._._._._._._._._._._._._._._._._.P.P._.J.F.i.i.5.F.G._._._.`.`.",
"P._._._._.P.P.G.d.5.5.F.J._._.P.P.G. .y.P.P.h.I.`.`._._._._._._.P.y.y.G._.P.P.P.P._.s.y.P.P.I._._._.W.W.}.G.5.p.d.P._._._.F.5.F.i.i.p.J._.J._._.).P._._.p.p.W._._._._._._._.`._.`._._._._._.`.`.`.`._._._._._._._._._.P.u.s.]._.P.P.P.P.U.U.G.y.y.i.G.!.}.W.s.p.d.p.d.p._.)._.)._._._._._._._._._._._._._._._._._._._._._._.P.P.P.U.G.i.5.i.S.p.).{._.x._.)._.E.a e L 8.3.T I.dXiXfXhXhXhXfXfXfXhXhXfXfXfXfXfXaXdXdXdXdXaXaXaXgXgXuXgXgXgXgXgXgXuXuXgXgXgXgXgXgXuXyXyXyXyX@X@X@XoXoXoX}.'.!.J.W.F.9.7.7.8.8.7.7.2.2.2.2.2.2.2.3.2.2.2.2.2.2.2.2.2.2.2.2.2.2.2.2.2.4.2.4.2.4.2.4.2.4.2.4.2.4.2.2.2.2.2.2.2.2.2.2.2.2.2.2.2.2.2.2.2.2.2.2.2.2.2.2.2.2.2.2.2.2.2.4.4.:.2.a.}.|.W.i.8.:.:.8.:.,.-.r 3 M.}.W._._.P.P.).G.p.5.d.p.G._._.P._.P.p.u.P._._._._.`.`.`._._.G.'.J.y.y.G._.P._.P._.P.s.p.s.P.P.P.P.P.P.P.J.G.y.y.p.G.W.'._.G.i.i.y.y.s._._.P._.P.P._._.P.s.y.G.P._._.P.P.P._._._._._._._._._._._._._._._._._.P._._._._.s.d.G._._._._._._._._.G.i.5.i.G._.).'.J.5.5.S.i.G._._._._._._._._._._._._._._._._._._._._._._._._._._._.J.J.!.J.F.i.i.5.F.G._._._._._.",
"_._._._._._._._.p.y.5.i.G.!.!.J.}.p.y.u.P._.P.P.I.I.P.P.P.P.P.P.P.u.y.p.P.P.P.P.P.P.P.P.P.P.P.P.P.W._.}.!.G.i.y.p.G._._.W.W.F.5.5.p.W.}.}._._._.W._.).G.p.p.E.}._._.`._.`._.`._._._._._._._._._._._._._._._._._._._._._._._._._._._._._.P.G.s.p.y.p.s.W.}._.G.s.p.p.s.G._._._.)._._._._._._._._._._._._._._._._._._._._._._._._.W.G.F.F.a.i.a.p.}._._._._._._.W.G y y L ! 2.9.H.}.).).).}.}.}.}.].].].].].].].].).).).).).).).).].].].].].].).)._.P._.P._.P._.'.J.J.!.!.'.!.'.!.!.!.'.!.'.!.!.!.(.(.(.^.W.E.E.F.9.9.7.7.7.4.3.3.2.2.2.2.2.3.2.3.2.2.2.2.2.2.2.2.2.:.2.:.2.! ) ! 4.4.4.4.4.4.4.4.8.2.2.2.8.8.8.8.2.2.2.2.2.2.2.2.:.-.:.:.:.:.-.-.:.:.:.:.-.-.:.,.8.:.-.:.m.V.m.1.=.=.=.Q h p e , 3 M.F.W.}._.]._._.G.s.d.5.i.H.!._.h._.I.u.p.I.I._._.`.`.`.`.`._.P.P.G.y.y.G.P.P.P.P.J.G.J.G.G.G.P.P.P._._._.J.G.y.y.p.G.P._.J.G.9.9.d.p.s.P._._._._._._.}.W.F.5.).)._.)._._._._._._._._._._._._._._._._._._._._._._._.W.W.W.W.W.J.J.P.P.P.P.P.J.G.p.y.i.G._.'.!.H.n.3.3.9.F.W.}._._._._._._._._._._._._._._._._._._._._._._._._.!.!.J.F.F.i.5.5.i.p.G.P._.P.P.P.",
"_._._._._._._._.p.y.5.i.F.!.!.J.}.s.p.s._._._._._._._._._._._._.s.u.} p.P.P.P.P.P.P.P.P.P.P.P.P.G.W._._._.G.p.3.p.G.W.W.W.J.p.3.3.d.G.W._._._._._._.}.W.p.a.G.}._._._._._._._._.`.`.`.`.`.`.`._._._._._._._._._._._._.).{.).).)._.W._._.W.G.G.p.p.p.G.W.}._.G.s.d.p.p.s.G.G.G.W.G.G.G.G.G.G.G.G.s.s.s.s.G.G.G.G.s.s.s.s.s.s.s.p.F.F.9.9.5.i.i.i.}.}._._._._._.W.y r r y E Q -.1.:.2.2.2.2.2.2.2.) ) ) ) ) ) ) ) H H H H ! H H H _ _ _ _ _ _ _ _ ) ) ) ) ) ) ) ) ) / ) ) ) ) ) / ) ) ) ` ) ` ) ` 2.2.2.) ) ! ! ! 3.2.3.2.3.2.2.2.2.2.2.2.2.2.2.2.2.2.2.2.2.2.2.2.:.^ ! ! :.:.:.:.:.:.:.:.:.:.:.:.:.2.2.2.2.2.2.2.8.8.8.8.8.8.4.4.,.,.,.,.,.,.-.-.Q Q Q Q E h Q Q -.a i i a b a i t t t t p p p t 3 F.H.!.}.G.)._._.P.s.d.5.9.H.!._.I.)._.u.p.`._.)._.`.).`.).`._.P.P.G.p.p.G.P.P.U.P.P.P.P.G.G.P._.P.G.P._._.G.G.y.y.u.G._._._.G.5.7.5.p.G._._.`.{._._._.}.W.F.5._._._._._._._._._._._._._._._._._._._._._._._._._._._._._._._._._._.W._._._._.W.G.p.p.p.G.W.'.!.H.F.9.9.i.H.!.}.}.}._._.).).).).).).).)._._._._._._._._._._._._.G.H.F.F.S.9.5.5.i.p.G.P._._._._.",
"_._._._._._._._.p.p.d.i.F.G.J.!._.p.y.p.P._.P.P._._.P.P.P.P.P.P.G.y.y.p.P.P.P.P.P.P.P.P.P.P.P.P.W.!.!.'.!.G.p.5.i.G.W.W.W.W.p.5.5.a.W.}.}.}.}.}._._._.W.p.a.F.W._._._._._._._._._._._._._._._._._._._._._._._._._._._._._._._._.G.W.W.W.G.F.p.i.i.i.p.F.G.G.p.i.y.d.i.p.p.F.p.p.p.p.p.p.p.p.p.p.d.d.d.d.d.d.d.d.d.d.d.d.d.d.d.d.5.9.7.3.5.9.a.p.}.}._._._._._.W.a t t t p p a h =.=.-.-.-.-.-.-.:.:.:.:.:.:.:.:.1.8.8.8.8.8.8.4.2.2.2.2.2.2.2.2.2.2.2.2.2.2.2.:.:.-.:.:.:.:.:.-.-.-.-.-.-.^ -.-.:.,.:.,.:.:.:.1.-.,.,.,.,.,.:.,.1.1.1.1.1.1.1.1.1.1.1.1.1.1.1.1.=.=.,.,.,.:.1.1.,.,.,.,.,.,.,.,.1.1.1.1.1.1.1.1.=.-.-.-.-.-.=.-.a h h h h h h h i i t t e t t i p i u 7 u 7 7 7 p 9 7 8 9 9 t t 3 H.!.!.}.G._._.)._.s.d.5.a.H.!._.P.).I.u.u._._._._.I.I._._.`._.P.P.G.p.p.G.J.J.P.P.P.P.P.P.P.P._.P.J.P._.J.G.G.y.p.p.G._._._.W.5.9.5.i.G._._.)._._._.W.W.G.F.5._._._._._._._._._._._._._._._._._._._._._._._._._._._._._._._._.J.J.J.J.J.J.J.J.G.p.d.i.G.G.J.G.H.F.n.9.F.H.G.G.W.W.W.W._._._._.G.G.G.G.G.G.G.G.p.p.p.p.p.p.p.p.S.S.n.n.9.9.5.i.y.p.G.P._._._._.",
"_._._._._._._._.y.y.p.d.i.S.G.J.J.p.y.p.P.P.P.G.P.G.P.G.P.J.P.G.G.p.u.G.U.'.P.P.P.P.P.P.P.P.P._.}.!.}.'.!.G.p.d.i.G.!.!.!.W.F.d.i.F.W.!.W._._._.G.W.W.G.a.d.F.G.W._.W.W.W.W.W.W.s.s.s.s.s.s.G.F.F.F.F.F.s.s.p.p.F.F.F.F.p.p.p.p.a.a.a.a.i.i.5.5.i.i.5.9.i.i.i.5.5.5.9.i.i.i.9.9.9.i.i.i.9.9.9.i.5.5.5.5.5.5.5.5.9.9.5.5.9.9.5.5.i.9.9.5.5.i.p.F._._._._._._._.^.a q 9 t p t p p p p i i i i i i e e e e e e e 7 i i i i i i i i a a a a L a a a L L L L L a L L a h h h h h h h h h h h h h h h h v v v b b b b v b b b b b b b >.b b b b b b b b b b b b b b b b b b b =.=.=.>.=.=.=.=.=.=.=.b p p p p p p p p p p p p p p p u u 9 p p p p e e p p p 9 u 9 p u 9 p q q q 9 q p z p q 9 q 9 q e 3 H.!.}.}.G.)._._._.s.d.5.i.H.!._.P._.P.y.u.P._._._.P.P._._._._.P.U.G.p.p.G.P.J.P.J.P.J.P.J.J.J._.P.P.P._._.J.G.p.p.p.G._.'._.W.9.9.9.a.G._._._.)._.W.W.W.W.F.5._._._._._._._._._._._._._._._._._.W._.W._.W._._.W.W.W.W.W.W.W.J.G.G.G.G.G.G.G.G.p.i.y.d.p.F.G.F.F.n.9.9.9.a.i.i.p.p.p.p.s.s.s.s.d.d.d.d.d.d.d.d.5.5.5.5.5.5.5.5.5.5.5.5.9.i.i.i.y.p.G._._._._.).",
"_._._._._._._._.y.y.y.5.y.i.F.G.W.s.p.G._._._._._._._._._.'._._.G.p.p.G.P.J.G.J._._._._._._._.'.W.G.G.G.G.F.a.d.5.F.G.G.G.G.p.5.5.a.p.F.p.p.p.p.p.p.s.p.d.d.a.F.i.i.i.i.i.i.i.i.i.i.i.i.i.i.i.i.i.9.9.9.9.9.9.9.5.5.5.5.5.5.5.5.9.9.5.5.5.5.3.3.S.i.9.5.9.9.i.9.5.5.9.9.9.9.9.9.9.9.5.5.5.5.5.5.5.5.5.5.9.9.9.5.5.5.5.5.9.9.9.9.i.i.5.y.i.i.p.s._._._._._._.P.^.b q 9 9 p 9 9 9 9 9 9 9 9 9 9 9 p p p p z p z p q q q q p p p p 9 9 9 9 9 9 9 9 u 9 9 9 9 9 9 7 9 8 9 9 9 8 9 w w w w w 8 8 8 8 9 9 9 9 9 9 w w q 9 q p 9 9 9 9 p p q q q q q q 9 9 9 9 9 9 9 9 p p p p p p p p p p p p p p p p 9 9 9 9 9 9 9 9 9 9 9 9 9 9 9 9 9 p p p p p p p p p p p p p p p 9 9 q q q q z z q 9 q q z z z p D H.!.!.'.G.}._.P.P.s.y.5.5.F.G.J.G._.P.y.u._._._._._._._._._._.'.'.G.i.p.G.'.'.P.J.P.J.P.W._.W.'.!._.!.'.!.W.G.p.i.p.F.J.J._.G.9.9.i.a.G.W._._.)._._.W.!.!.F.a.J.J.G.J.G.J.G.J.G.G.G.G.G.G.G.G.G.F.G.F.G.G.G.G.s.p.p.p.p.S.p.S.i.i.i.i.i.i.i.i.i.y.5.5.i.i.i.i.n.5.5.5.5.5.5.' 5.5.y.y.y.y.y.y.i.9.5.5.5.5.5.5.n.n.n.n.9.9.9.9.5.5.5.i.9.i.i.p.d.G.G._._._._.).",
"_._._._._._._._.p.p.y.y.y.y.p.p.G.p.p.G.G.G.G.G.G.G.G.G.G.G.G.G.p.y.y.p.G.s.p.s.s.s.s.s.G.s.G.F.p.p.i.i.i.i.5.3.3.d.p.i.i.i.d.3.9.9.p.a.d.d.d.d.d.d.d.d.5.5.i.a.9.5.5.5.9.9.9.9.i.9.i.9.i.9.i.9.5.5.5.5.9.9.9.9.5.5.5.5.5.5.5.9.9.9.5.5.9.5.5.5.9.5.5.5.5.9.9.5.5.5.9.9.9.9.9.9.9.9.9.9.5.5.5.5.9.5.5.5.9.9.5.5.5.5.5.5.9.9.9.9.i.i.y.y.y.i.p.s._._.P._._._._.W.=.q w 9 p 9 9 9 z z z z z p z z 9 9 9 9 9 9 9 9 9 9 9 9 9 9 9 9 q p p p p p p p z z z z z z z z p p p p p q q q q q q q p p q q q p q q q q 9 9 q q q q 9 9 9 9 9 9 9 9 9 9 9 9 9 9 9 9 9 9 9 9 p p p u 9 u 9 9 p p p p p p u 9 v v v v v v l l q q q q q q q q p p p p p p p p p p p p p p p p 9 q q q q 9 q q p p p p p p u e P G.G.W.'.G.]._._.P.s.p.5.5.i.S.G.G.'._.p.p._._._.'._._._._._._.J.J.F.d.d.G.W.J.J.J.J.J.J.J.W.W.J.J.J.J.W.W.G.G.d.d.i.p.G.G.G.F.a.9.9.d.p.G.G.s.s.s.p.p.F.F.9.3.F.p.p.p.s.p.s.p.p.p.p.p.p.i.p.i.d.d.d.d.i.i.i.i.d.d.d.d.i.d.i.i.5.5.5.5.5.5.5.5.y.y.5.5.5.y.i.i.n.5.5.5.5.5.5.5.i.i.d.d.p.d.y.i.9.9.9.9.n.n.n.n.5.5.5.5.9.9.9.9.5.5.5.i.i.i.i.i.p.G.J.'._._._._.",
"_._._._._._._._.G.s.y.y.y.p.p.i.p.5.5.d.p.i.y.d.d.y.y.y.y.y.y.y.p.d.5.i.i.d.d.d.d.d.d.d.5.5.5.5.i.d.5.5.d.d.5.3.3.d.d.5.5.i.d.5.i.a.p.a.i.d.p.p.d.d.d.d.5.5.5.9.i.i.i.i.i.i.i.i.d.9.d.d.d.i.d.d.5.5.5.5.5.5.9.9.9.9.9.9.9.9.9.9.i.i.i.i.9.i.i.i.5.' _ ' 5.5.5.5.5.i.i.i.i.i.i.i.i.i.i.i.i.i.i.i.i.i.5.i.5.5.5.5.i.i.i.i.i.i.9.i.5.y.y.y.p.s.G.G._._.P.P._._._.W.,.a e i p p p u e 7 7 7 7 7 7 7 9 9 9 9 q q q q p p p p p p p p p 9 9 9 p p p p p p 9 9 9 p p p p p p p p 9 9 9 p p p p p p p p 7 7 7 7 7 7 7 7 p p p p p p p p p p p p p p p p t t p p p p p p i p p p p p a a a a a a a a a p 7 9 9 9 7 7 7 7 p p p p 9 9 9 p e u i i i i i e i i e e u i i i p p p p p p p p z p i i i i i e 3.}.G.G.'.P.}.P._.P.P.s.y.5.5.i.S.p.G.G.y.d.G.G.G.G.G.G.G.G.G.G.F.G.p.d.i.F.G.F.p.G.F.F.F.F.G.G.G.F.p.F.F.G.p.i.d.y.y.d.p.F.p.i.a.9.5.d.a.p.s.p.p.y.3.5.d.i.5.3.i.i.i.i.i.i.i.i.y.5.y.5.y.5.y.y.y.y.y.y.y.y.y.y.y.y.y.y.y.y.y.y.5.y.5.5.y.y.y.y.i.i.i.i.5.5.y.i.S.n.5.5.9.i.i.5.i.i.i.i.i.i.i.i.5.5.5.5.5.5.5.5.5.5.5.5.5.5.5.5.i.i.i.5.y.y.y.y.s.G._.)._._.P.P.",
"_._._._._._._._.).G.p.y.p.p.p.y.p.y.5.i.i.y.5.y.y.y.y.y.5.5.5.5.p.d.d.i.i.y.5.d.i.i.i.i.i.i.i.i.i.d.d.5.d.i.d.d.d.a.p.5.d.a.p.i.5.5.5.5.5.3.d.d.p.p.d.d.d.5.5.5.d.d.d.d.i.d.d.d.d.d.d.d.d.d.d.d.i.5.i.5.i.5.y.5.i.i.i.i.i.i.i.i.y.y.y.y.y.y.y.i.p.y.y.y.p.p.p.d.y.y.y.i.p.i.p.d.p.i.p.i.p.i.p.i.p.i.y.y.y.i.y.i.y.i.p.i.p.i.p.p.d.y.p.p.s.G._.}._._.P.P._._._._.7.! r r J J r y i i i i r t t t r e e e e t e t e t e t e t e e i i i i i i i i i i i i i i i i i i i i i i e e i i i i i i i i r r r r i r i r 2 2 e 2 r r i i y r y r y r y r r r r r r r r r r r i i i y a a y y y y i y i y y y y y y y y t r t r t r r r r r r i i i i r r r e e e r r i i t t e e t t i r r e 2 r r L Q ! i.|.G.G._.P._.s._._.P.G.p.y.5.5.5.5.F.F._ _ i.i.i.5.5.5.5.y.y.y.y.p.p.d.i.p.p.y.5.5.5.d.d.d.d.d.i.d.y.d.i.d.5.3.d.y.y.y.i.i.i.i.F.i.5.5.d.p.p.p.p.p.d.d.F.F.a.5.i.i.i.i.i.i.i.i.i.i.i.i.i.i.i.i.p.p.p.p.p.i.i.i.i.i.d.d.i.d.d.i.i.i.i.i.i.i.i.i.i.i.i.i.i.i.i.i.i.5.5.5.i.i.i.5.i.i.i.i.d.d.i.i.i.9.i.9.i.9.i.9.i.9.i.5.i.9.i.i.i.d.y.5.y.y.y.y.s.G._.)._._.P.P.",
"_._._._._._._._.G.G.s.s.s.s.s.s.p.p.p.p.p.p.p.p.p.p.p.p.p.p.p.p.p.p.p.p.p.p.p.p.p.p.p.a.a.p.p.p.G.G.G.G.G.F.s.G.G.G.G.G.G.G.G.G.G.G.F.G.G.G.G.G.s.s.s.F.F.F.F.F.G.s.s.s.s.s.s.s.s.s.G.G.G.G.h.G.G.G.G.G.G.G.G.G.G.G.G.G.G.G.G.G.G.P.P.P.P.G.P.G.P.P.P.P.P.P.P.P.P.P.P.P.P.P.P.P.P.P.P.P.P.P.P.P.P.P.P.P.P.P.P.P.P.P.P.P.P.P.P.P.P.P.P.P.P.P.P.P.P.P.P.P.P.P.P._._.W.W.W.W.W.W.^.E.E.E.E.E.E.E.E.M.M.V.M.M.M.M.M.m.m.M.M.M.M.m.m.V.V.V.V.V.V.V.V.V.V.V.V.V.V.V.M.r.V.r.V.r.V.r.V.r.V.r.V.r.V.r.r.F.F.F.F.F.F.E.F.E.F.V.M.F.F.F.F.F.F.F.F.F.F.F.F.F.F.H.F.H.F.F.M.Q.Q.Q.Q.Q.Q.Q.Q.Q.Q.Q.Q.Q.Q.Q.Q.E.E.E.E.E.E.E.E.E.E.H.E.H.H.H.H.F.F.F.F.F.F.F.M.F.F.F.F.F.F.F.M.M.M.M.M.M.M.M.M.M.M.M.H.H.H.E.!.J.P.J.P.P.P.P.P.P.P.P.G.p.p.y.y.5.5.5.5.5.5.5.5.5.5.5.5.5.5.5.5.d.d.d.y.d.5.d.d.d.d.d.d.d.d.d.d.5.5.5.5.5.5.y.y.5.y.y.y.5.5.y.5.d.d.d.d.d.d.p.p.p.p.d.d.d.d.d.d.y.y.y.y.y.y.y.y.y.y.y.y.y.y.y.y.y.y.y.y.y.y.y.y.y.y.y.y.y.y.y.y.y.y.y.y.5.5.5.5.i.i.i.i.i.i.i.i.i.i.i.i.i.i.i.i.i.i.i.i.i.i.p.p.p.i.p.i.p.i.p.i.p.i.y.y.y.y.y.y.p.p.p.p.p.s.s.s._._._._._._._._.",
"_._._._._._._._._._._._._._._._._.!.W.W.W.W.!.!.W.W.W.W.!.!.!.W.G.G.W.W.G.G.G.G.G.G.G.G.G.G.G.G.W.W.W.W.G.W.G.G._.W.W.W._.W._.W.J.J.J.J.J.J.P.P._._._._._.!.!._._._._._._._._._._._._._._._._._.P.P.P.P.P.P.P.P.P.P.P.P.P.P.P.P.P.I.I.I.I.I.I.I.I.P.I.I.I.I.I.I.I.I.I.I.I.I.I.I.I.I.I.I.I.I.I.I.P.P.P.P.I.I.I.I.I.I.I.I.I.I.I.P.P.P.P.P.P.P.P.P.P.P.P.P.P.P.P.P._._._._._._._._._.'.'.'.!.!.!.!.!.!.!.!.!.!.!.!.!.!.W.!.W.!.!.W.W.!.W.W.W.W.W.W.W.W.W.W.W.!.W.W.W.W.W.W.W.W.W.W.W.W.W.W.W.W.W.W.'.'.!.!.!.!.!.!.!.!.!.!.!.'.'.!.J.J.J.J.J.J.J.J.J.J.J.J.J.J.J.J.J.W.W.W.W.W.W.W.!.!.!.!.!.!.!.!.J.W._.W.P.J.P.J.J.J.J.J.J.J.J.J.!.!.!.!.!.!.!.!.!.!.!.!.!.!.!.!.!.J.J.J.J.J.J.J.G.G.G.G.J.J.J.U.P.P.P.P.P.P.P.P.P.P.P.P.G.G.p.D.p.p.p.p.p.p.p.p.F.F.F.F.F.F.p.F.p.p.s.F.s.p.s.p.G.G.G.G.G.G.G.G.G.F.G.F.G.G.G.G.G.G.G.G.G.F.G.G.G.G.G.G.G.G.G.G.G.G.s.G.G.G.G.G.G.G.G.G.G.G.G.G.G.G.G.G.G.G.G.G.G.G.G.G.G.G.G.G.G.G.G.G.G.G.G.G.G.G.G.G.G.G.G.G.J.G.J.G.J.G.J.G.G.G.J.J.G.G.G.G.J.J.J.J.J.J.J.P.G.P.P.P.P.P.P.P.P.P.P.P.P.P.P.P.s.G.G.G.G.G.P.P._._._._._._._._.",
"_._._._._._._._._._._._._._._._._.'._._._._.'.'._._._._.'._._.'._._._._.'.'.'.'.W.W.W._.W.W._._._._._._._._._._.)._._._._._._._._._._._._._._._._._._._._._._._._.`.`.).`.`.`.`.{.`.{.{.{.{.{.).I.P.P.P.P.P.P.P.P.P.P.P.P.P.P.I.`.I.I.I.I.I.I.I.I.I.I.I.I.I.`.I.I.I.I.I.I.I.I.I.`.`.I.I.I.I.I.I.I.I.I.I.I.I.I.I.I.I.I.I.I.I.I.I.P.P.P.P.P.P.P.P.P.P.P.P.P.P.P.I.I.L.I.I.I.I.I.I.P.P.P.P.P.P.P.P.P.P.P.P.P.P.P.P.P.P.P.P.P.P.P.P.P.P.I.P._.P._.P._.P._.P._.P._._._._._._._._._._._._._._._._._._.P.P.P.P.P.P.P.P.P.P.P.P.P.P.P.P.P.P.P.P.P.P.P.P.P.P.P.P.P.P.P.P.P.P.P.P.P.P.P.P.P.P.P.P.P.P.P.P.P.I.I.P.I.P.I.P.I.P.I.P.I.P.I.P.P.P.P.P.U.P.P.P.P.U.U.U.U.P.P.P.J.J.J.J.U.U.U.U.P.P.P.P.I.I.I.I.P.P.P.P.P.P.P.P.P.P.P.P.P.P.P.P.G.J.J.J.J.J.J.J.J.J.J.J.J.J.J.J.J.J.G.J.G.J.G.J._._._._._._._.'._.W._._._.P.P.P._.W._.P._.W._._._._._._._.).).)._._._._._._._._._.U.P.U.U.U.U.U.P.U.P.U.U.U.P.U.U.U.U.U.U.U.P.U.U.U.P.U.U.U.U.U._.W._.W._.W.J.J.P.!.W.W.W.W._._.P.P.J.J.J.J.J.J.U.U.P.U.U.U.P.P.P.P.P.P.P.P.P.P.P.P.P.P.P.P.P.P.h.G.P.P.P.P._._._._._._._._._._.",
"_._._._._._._._.P.P.P.P.P.P.P.P._.J.P.J.J.J.J.J.P.J.J.J.J.J.P.J._.W._.W._.W._._.J.J.J.J.J.J.J.J.).).).).).).).)._._._._._._._._._._._._._._._._.I.P.P.P.P.G.G.P._.`.`.`.`.`.`.`.`.`.`.`.`.`.`.).I.I.I.I.I.I.I.I.I.I.I.I.I.I.I.I.I.I.I.I.I.I.I.I.I.I.I.I.I.I.I.I.I.I.I.I.I.I.I.I.I.`.I.`.I.I.I.I.I.I.I.I.I.I.I.I.I.I.I.I.I.I.I.I.P.P.P.P.P.P.P.P.P.P.P.P.P.P.P.I.L.L.L.L.L.I.I.I.L.L.L.L.L.L.L.L.I.L.I.I.L.I.I.I.I.I.I.I.I.I.I.I.L.L.I.L.I.I.I.I.I.I.I.I.I.I.I.I.I.h.I.I.I.I.I.I.I.I.I.I.I.I.I.I.I.I.I.I.I.I.I.I.I.I.I.I.L.L.I.I.L.L.I.L.I.L.I.L.I.L.I.L.I.L.I.I.P.P.P.P.P.P.P.P.P.P.P.P.P.P.P.P.I.I.I.I.I.I.I.I.I.I.I.I.I.I.I.I.K.K.K.K.K.K.K.K.K.K.K.K.K.K.K.K.P.P.P.P.P.P.P.K.P.P.P.P.P.K.I.P.P.P.P.P.P.P.P.P.P.P.P.P._._._.)._._._._._._._._.P._._._._._._._._._._._._._._._._._._._._._._._._._._._._.P.P.P._._._._._._._._._._._._.).).).)._._._._.).).)._.P.P.P.P.P.P.P.P.P.P.P.P.P.P.P.P.P.U.P.U.P.U.P.P.P.P.P.P.P.P.P.U.G.J.G.J.G.J.G.J.G.J.J.J.G.J.G.G.J.P.P.P.P.P.P.G.P.P.P.J.P.P.P.P.P.P.P.P.P.P.P.P.P.P.P.P.P.P.P.P.P.P.P.P.P.P._._._._._._._._._._.",
"_._._._._._._._._._._._._._._._._._._._._._._._._.'.).'._._._._.P.P.P.P.P.P.P.P.P.P.P.P.P.J.P.P._._._._._._._._._._._._._._._._._.P.P.P.I.I.I.I.I.I.I.I.I.I.I._._._._._._._._._._._._._._._._._.I.P.P.P.P.P.P.P.P.P.P.P.P.P.P.P.I.I.I.I.I.I.I.I.I.I.I.I.I.I.I.I.I.I.I.I.I.I.I.I.I.I.I.I.I.I.I.I.I.I.I.I.I.I.I.I.I.I.I.I.I.I.I.I.I.I.I.I.I.I.I.I.I.I.P.P.P.P.P.I.I.I.I.I.I.I.I.I.I.I.I.I.P.I.I.I.I.I.I.I.I.I.I.I.I.I.I.I.I.I.I.I.I.I.I.I.I.I.I.I.I.I.I.I.I.I.I.I.I.I.I.I.I.I.I.I.I.I.I.I.I.I.I.I.P.P.P.P.P.P.P.P.P.P.P.P.P.P.P.P.P.P.I.P.I.P.I.P.I.P.I.P.I.P.I.P.P.P.P.P.P.P.P.P.P.P.P.P.P.P.P.I.I.I.I.I.I.I.I.I.I.L.L.L.I.I.I.L.P.P.P.P.P.P.P.P.P.P.P.P.P.P.P.P.P.P.P.P.P.P.P.P.P.P.P.I.P.P.P.P.P.P.P.P.P.P.P.P.P.P.P.P.P.P.P.P._._._._._._._._.I.I.P._.P.P.P.P.P.P.P.P.P.P.P.P.P.P.P.P.P.P.P.P.P.P.P.P.P.P.P.P.P.P.P.P.P.P.P.P._._._._._._._._._._._._._._._._.P.P.P.P.P.P.P.P.P.P.P.P.P.P.P.P.P.P.P.P.P.P.P.P.P.P.P.P.P.P.P.P._._._._._._._._._._._._._._._._.P.P.P.P.P.P.P.P.P.P.P.P.P.P.P.P.P.P.P.P.P.P.P.P.P.P.P.P.P.P.P.P._._._._._._.).)._._._._._._._._.",
"_._._._._._._._._._._._._._._._._._._._._._._._._._._._._._._._.).).).)._.)._._.P.P.P.P.P.P.P.P._._.`._._._._._._._._._._._._._._.P.P.I.I.I.I.I.I.I.I.I.I.I.I.I._._._._._._._._.).).).)._._._._.I.P.P.P.P.P.P.P.P.P.P.P.P.P.P.P.P.P.P.P.P.P.P.P.P.P.P.P.P.P.P.P.P.P.P.P.P.P.P.P.P.P.P.P.P.P.P.P.P.P.P.P.P.P.P.P.P.P.P.P.P.P.P.P.I.I.I.I.I.I.I.I.I.I.P.P.P.P.P.P.P.P.P.P.P.P.P.P.I.P.P.P.P.P.P.P.P.P.I.I.I.I.I.I.I.I.I.I.I.I.I.P.I.I.I.I.P.I.I.I.I.I.I.I.I.I.I.I.P.P.P.P.P.P.P.P.P.P.P.P.P.P.P.P.P.P.P.P.P.P.P.P.P.P.P.P.P.P.P.P.P.P.P.P.P.P.P.P.P.P.P.P.P.P.P.P.I.I.I.I.I.I.I.I.I.I.I.I.I.I.I.I.I.I.I.I.I.I.I.I.I.I.I.I.I.I.I.P.P.P.P.P.P.P.P.P.P.P.P.P.P.P.P.P.P.I.I.I.P.P.P.P.P.P.P.P.P.P.P.P.P.P.P.P.P.P.P.P.P.P.P.P.P.P.P.I.I.I.I.I.I.I.I.P.I.I._._._._._._.I.P.P.P.I.P.I.P.P.P.P.P.P.P.P.P.I.P.I.P.I.P.I.P.P.P.P.P.I.P.I.I._._._._._._._._._._._._._._._.`.I.I.I.I.I.P.I.I.I.I.I.I.I.I.I.P.P.P.P.P.P.P.P.P.P.P.P.P.P.P.P.P._._._._._._._._._._._._._._._.P.P.P.I.P.P.P.P.P.P.P.P.P.P.P.P.P.P.P.P.P.P.P.P.P.P.P.P.P.P.P.P.P._._._._._._._._._._._._._._._._.",
"_._._._._._._._.P.P.P.P.I.I.I.I.P.P.P.P.P.P.P.P.P.P.P.P.P.P.P.I._.U.U.U.U.U.U.U.P.P.P.P.P.P.P.P.`.`.`._.`._.`._.`._.`._.`._.`._._.P.I.I.I.I.I.I.j.I.I.I.I.P.P.P._._._._._._._._.).)._._._._._._.P.P.P.P.P.P.P.P.P.P.P.P.P.P.P.P.P.P.P.P.P.P.P.P.P.P.P.P.P.P.P.P.P.P.P.P.P.P.P.P.P.P.P.P.P.P.P.P.P.P.P.P.P.P.P.P.P.P.P.P.P.P.P.P.I.I.I.I.I.I.I.I.I.I.I.I.P.P.P.P.P.P.P.P.P.P.P.P.P.K.G.D.G.G.G.P.P.P.P.P.P.P.P.P.P.P.P.P.P.P.P.P.P.P.P.P.P.P.P.P.P.P.P.P.P.P.P.P.P.P.P.P.P.P.P.P.J.J.P.J.P.P.P.P.P.G.G.G.P.P.P.P.G.G.J.J.J.J.J.G.W.W.W.W.W.W._._.W._.W.W.W.G.G.P.).I.I.I.I.I.I.I.I.I.I.I.I.I.I.I.P.P.P.P.P.P.P.P.P.P.P.P.P.P.P.P.P.K.P.K.P.P.P.K.P.K.P.P.P.P.P.P.I.I.I.I.I.I.P.P._._._._._._._._.P.I.P.P.P.P.P.P.P.P.I.P.P.I.I.I._._.`._.`._.`._.`.).`.).`.).`.).I.P.I.P.I.P.I.P.I.P.I.P.I.P.P.P._._._._._._._._._._._._._._._._.`.`.`.`.`.`.`.`.`.`.`.`.`.`.`.`.I.I.I.I.I.I.I.I.I.I.I.I.I.I.I.I.I.P.I.P.I.P.P.P.I.P.I.P.I.P.I.P.P.P.P.P.P.P.P.P.P.P.P.P.P.P.P.P.I.I.I.I.I.I.I.P.I.I.I.I.I.I.I.P.P.P.G.P.P.P.P.P.G.G.G.G.G.G.G.P.P.I.h.I.I.I.P.P._._._._._._.P.P.",
"W.W.W.W.W.W.W.W.W.W.W._._._._._._.!.!.W.W.W.W.!.W.W.W.W.W.W.W.W.W.J.W.J.P.P.P.P.P.P.P.P.P.P.P.I.`.`.`._._._.`.`.j.`.`._._._._._._._.P.P.P.I.I.I._._._._._._._._._._._.P.P._._._._._._._._._._._._.P.P.P.J.J.J.P.P.P.P.P.J.J.J.P.J.J.J.J.J.J.J.J.U.U.U.U.U.U.U.'.U.J.U.J.U.J.U.J.U.J.U.J.U.J.U.J.P.J.P.P.J.P.J.J.J.J.P.P.P.P.J.P.P.P.P.P.P.P.P.P.P.P.P.P.P.P.P.P.P.J.P.J.P.J.P.J.G.G.G.G.G.J.J.J.P._._._.P.P._._._._._._._._._._.U.U.U.P.P.P.U.U.P.P.P.P.P.P.P.P.'.'.'.'.'.'.'.U.'.J.'.'.'.'.'.'.P.J.J.J.W.W.W.W.W.W.P.P._._._._._._._._._._._._.W.W.W.W.W.W.W.W.).).).).).).)._._._._._._._._._.P.J.J.J.W.J.J.J.J.J.J.J.J.J.J.J.J.J.J.J.J.J.J.J.J.J.J.J.W.W.W._._._._._._._.W.W.W.W.W.W.W.W.W.W._.P._.P._.P._.P.J.J.J.P._.P._._._._._._._._._._._._._._._._._._._._._._._._._._._._._._._._._._._.W._.W._._._._._.W._._._.W._._._._._._._._._._._._._._._._._._._.I.I.I.I.I.I.I.I.I.I.I.I.I.I.P.P.P.P.P._._._._._._._._.P.P.P.P.'.}.}.}.}.}.}.}._._._._._._._._._._._._._._._._._._._.'._.'._.'.!.!.!.J.J.J.J.J.!.!.!.!.!.!.!.!.!._._._._._._.W._.W._.W.W.W.W.W.",
"8.8.8.8.8.8.8.8.8.4.4.8.8.8.8.8.8.8.8.8.8.8.8.8.4.8.8.8.9.m.m.M.Q.Q.^.!.^.!.!.}.}._._._.P.I.P.h.I.I._.P.P.P.I.I.1Xj.h.c.).[.^.}.}.}.}.}.}.}.}.!.!.W.W._.}.)._._._.P.P.P._._.).).U._.G.G.E.W.^.^.W.W.W.W.W.W.W.W.W.G.G.G.G.W.W.W.W.W.W.W.W.W.W.W.W.W.W.W.W.W.W.W.G.E.W.!.!.J.G.F.J.J.G.H.G.E.W.E.W.H.G.G.G.G.G.G.G.G.!.G.J.W.J.G.G.G.G.G.W.W.G.G.G.G.G.G.G.G.G.G.G.G.G.G.J.G.J.J.G.G.J.G.J.G.G.G.G.W.W.W.G.G.G.G.G.J.G.J.W.G.z.s.W.G.G.G.G.G.G.G.G.J.J.G.F.F.G.W.G.G.G.G.G.G.G.G.G.G.G.G.G.G.G.G.F.F.F.F.F.F.F.F.G.G.J.W._._.P.P.I.I.P.D.G.P.'.W.W.W.!.Q.Q.Q./.^.}.}.}.}.}.}.}.}.}.!.}.!.}.!.}.!.^.^.(.(.(.^.^.^.^.(.(.(.(.(.(.(.Q.Q.^.^.^.^.Q.Q.^.^.^.Q.Q.Q.^.^.^.^.^.^.^.^.^./.^.^.^./././././.^.(.^.(.^.(.Q.(.Q.Q.Q.^.^.^.^.^.^.^.^.^.^.^.^.^.^.^.^.^.^.^.^.^.^.^.^.^.^.^.^.Q.^.Q.^.^.^.^.^.Q.^.^.^.^.^.^.^.(.^./.^./.^./.^.^.(.!.(.!.!.!.^.^.!.!.!.!.W.^.W.W._._.}.!.!.'.P.P.I.I.I.L.I.I.P.P.!.!.!.W.^.^.~.E.E.E.E.F.H.H.H.F.M.M.M.M.M.M.M.M.9.9.9.9.9.9.n.n.9.9.9.9.9.9.9.9.7.7.7.7.7.7.7.8.8.8.4.4.8.8.8.8.8.8.8.8.8.8.8.8.8.8.8.8.4.8.8.8.4.4.4.4.4.8.8.8.",
"=.=.=.=.=.Q =.=.-.=.=.=.=.=.-.-.Q Q Q Q Q Q Q Q L Q Q Q =.=.-.-.Q ^ :.4.8.M.F.H.W.W.W.'.}.}.].].P.I.P.P.P.P.P.I.`.j.j.`.[.E.l.r.9.a.9.9.9.9.9.9.8.8.7.5.d.s.W._._._.P.P._.P.U.P.'.U.G.a.a.9.9.7.7.5.5.5.5.5.5.5.a.a.a.a.a.a.a.a.5.5.i.d.i.i.i.i.5.5.5.5.5.5.5.7.7.7.7.9.9.9.5.5.9.5.9.9.9.9.9.9.9.9.9.9.9.9.9.9.5.a.a.9.d.p.p.d.a.a.a.a.F.F.F.a.F.F.F.F.S.S.S.S.p.p.p.F.F.F.F.F.p.F.F.F.F.F.p.p.a.s.s.p.p.p.p.s.s.s.G.G.a.a.a.p.a.a.a.a.i.i.a.a.i.a.p.i.5.3.d.p.p.p.p.p.F.F.p.F.p.F.p.p.p.p.F.F.F.S.F.F.F.F.F.F.F.F.G.G.P._.P.I.I.I.P.K.P.'.'.G.!.^.Q.Q.E.V.V.V.9.9.9.9.9.9.9.9.7.7.7.7.7.7.7.7.8.4.8.8.8.8.8.8.2.4.:.:.:.:.4.4.:.:.4.4.4.4.:.:.4.4.:.:.:.:.4.4.4.4.4.4.4.4.4.:.4.4.4.4.4.4.4.:.4.4.4.4.4.4.:.:.:.:.:.:.:.:.:.:.:.:.:.:.4.4.4.4.:.:.:.:.4.4.4.2.:.:.:.:.:.:.:.:.:.:.:.:.:.:.:.:.8.8.8.8.8.8.8.8.8.8.8.8.8.8.8.8.8.4.8.4.8.8.7.7.E.E.E.~.E.E.E.E.a.a.a.F.H.!.J.P.I.I.I.L.I.I.P.J.!.M.9.4.2.4.,.,.-.-.-.-.^ ^ ! ! -.-.-.-.-.-.-.-.! ! ! ! ! ! ^ -.-.-.-.-.-.-.-.-.-.-.-.-.-.-.-.-.-.-.=.=.=.=.=.=.=.Q =.=.=.=.Q Q =.=.=.=.=.=.=.=.=.=.=.=.=.=.=.=.",
"L L L L L L L L L L L L L L L L L L L L L L L L L L L Q Q Q Q Q a a L P Q Q ! ! 8.4.9.9.a.F.F.G.P.I._.P.P.P.I.I.j.j.c.{.[.a.2.#.! ! ! ! ^ ^ ^ ^ L G P P P 3.a.W._._._.P.P.P.P.P.P.J.F.i.5.7.2.2.3.3.3.3.3.3.3.3.3.3.3.3.5.5.5.5.5.5.3.3.5.5.5.5.3.3.3.5.5.5.3.3.7.7.7.9.9.9.5.5.9.9.9.9.9.9.9.9.9.9.5.5.5.5.7.7.i.a.i.5.5.i.a.d.a.5.5.5.5.a.a.i.i.i.i.i.S.i.i.i.i.a.a.a.a.a.F.a.i.a.a.a.a.a.a.a.d.a.d.d.d.a.i.i.i.p.p.p.a.d.d.d.a.i.i.a.i.i.a.i.i.a.a.d.3.3.d.p.a.a.a.a.a.a.a.a.a.a.a.a.a.a.a.i.i.i.i.i.a.a.a.a.a.a.p.p.G.P.P.I.I.I.I.P.P.'.J.F.` ) ! P P L J J -.! ! ! ! ! ! ! P Q P P P P P P G L L L L L L L P P P P P P P P L P P P P P P P P P P P P P P P P P P P P P P P P P P P Q Q P Q Q Q Q Q Q Q Q Q Q Q L L L L L L P P P P P P P P P P P P P P P P L P P P P P P P L P P P L P L L J J L L L L L L L L L L P P P G P G Q Q P P P P G G P P L P K K 2.2.2.3.9.F.J.U.P.I.I.I.I.).P.J.E.9.! G P Q -.@.L L L L G G G G E Q Q Q Q Q Q Q L L L L L L L L L L L L L L L L Q -.Q Q -.=.=.=.L L L L L L L L L L L L L L L L Q h h h h h h h h h h h h h h h ",
"-.-.-.-.-.-.-.-.-.-.-.-.-.-.-.-.-.=.-.-.-.=.-.=.-.-.-.=.-.=.-.=.=.=.=.Q h a y y P Q ! ! ! ! ! I G.P.P.P.G.P.I.I.h.h.`.{.^.7.#.G P G L L Q E Q E h E Q G J P 2.9.W._._._.P.P.P.P.G.G.p.d.5.5.7.9.5.5.5.5.5.5.5.5.3.3.5.5.5.5.5.5.5.5.5.5.5.5.5.5.a.a.a.a.a.a.a.9.9.9.F.F.F.F.F.F.F.S.F.F.F.F.E.F.F.F.F.F.F.F.F.F.F.F.a.5.5.p.F.p.F.a.5.5.5.a.a.a.F.F.F.F.S.S.S.S.a.a.F.F.F.F.F.F.a.a.F.F.F.F.F.F.a.d.d.a.p.p.p.p.p.S.p.p.a.a.d.d.p.p.p.p.p.p.p.p.a.p.F.a.d.5.i.F.p.p.p.p.p.F.p.F.F.F.F.F.p.p.F.F.i.i.i.i.i.i.9.9.a.d.d.p.s.P._._.I.I.P.P.P.J.a.3.P P G P G P L L L Q L Q L Q L Q Q Q Q Q Q Q Q Q L Q P L P L P L -.-.-.-.-.-.-.-.@.Q @.Q @.Q @.Q @.P P P @.Q @.Q @.Q @.Q @.Q @.Q -.Q -.Q -.Q -.Q Q Q Q Q Q Q Q Q Q Q Q Q Q Q Q Q Q Q @.Q @.Q @.P @.Q @.Q @.Q @.P -.-.-.-.-.-.-.-.-.-.-.-.-.-.-.-.P L P L P Q P Q L L L L L L J L P P P P P P P P P P P P P P P P P L P ! 2.4.F.J.P.I.I.j.I.{._.W.9.4.G L P >.=.=.=.=.-.=.=.~ ~ ~ Q Q Q Q -.Q -.Q Q Q -.Q -.Q =.=.-.-.-.-.-.-.-.-.=.=.=.=.>.>.>.>.-.-.-.-.-.-.-.-.-.-.-.-.-.-.-.=.=.=.=.=.=.=.=.=.=.=.=.=.=.=.=.=.",
"=.=.=.=.=.=.=.=.=.=.=.=.=.=.=.=.-.-.=.=.=.=.=.=.=.-.-.-.=.=.=.=.=.=.b b b ;.;.=.Q Q Q Q Q E E G G.P.P.P.G.P.P.P.j.j.`.).E.3.P G Q Q Q k k k k k k ;.;.Q L L -.:.p.G._._.P.P.P.P.G.D.p.d.5.9.9.9.7.5.5.5.5.5.5.5.5.5.9.a.a.a.a.a.i.i.i.i.i.i.i.i.a.a.a.a.a.a.a.9.7.9.9.F.F.F.F.F.n.n.9.9.9.9.9.F.F.F.F.F.F.F.F.F.a.a.5.3.3.d.a.a.F.a.5.5.5.a.F.F.F.F.S.F.S.S.S.S.F.F.F.F.F.F.F.F.a.F.F.F.F.F.F.F.a.7.d.i.a.F.F.i.F.F.p.a.a.a.d.d.a.a.a.a.a.a.a.a.d.i.i.i.5.5.d.p.F.F.p.F.p.p.p.p.p.p.F.F.F.F.F.F.i.i.i.i.a.a.a.a.a.d.7.p.s._.).).P.I.P.P.G.a.` P ! ! Q -.-.-.,.,.=.=.=.=.=.=.=.=.=.=.=.=.>.=.=.=.-.-.=.-.-.-.=.-.-.-.=.-.=.-.=.-.@.@.@.@.@.=.@.=.@.@.@.@.@.=.@.@.@.=.@.=.@.L @.-.@.-.-.-.-.-.-.-.=.Q =.Q =.Q =.Q =.Q Q Q Q Q =.=.=.=.@.=.@.L @.@.@.=.@.=.@.@.@.@.=.-.=.-.=.-.=.-.=.-.=.-.=.-.=.-.=.-.=.-.=.-.=.-.-.-.@.=.@.-.-.-.-.-.-.-.-.-.-.-.>.,.,.,.,.,.,.,.@.P P Q ! ! 4.F._.I.`.j.`.]._.F.2.! L L -.-.=.=.=.=.=.=.=.=.=.~ Q Q =.Q =.Q =.Q =.Q =.Q =.Q =.=.=.=.=.=.=.=.=.=.-.=.=.-.=.=.=.=.=.=.=.=.=.=.=.=.=.=.-.=.=.=.=.=.=.=.=.=.=.=.=.=.=.=.=.=.=.=.=.=.",
"=.=.=.=.=.=.=.=.=.-.-.=.=.=.=.=.=.=.=.=.=.=.=.=.=.=.=.=.@.=.@.b b b b b b b ;.;.b k b b b k b Q G.P.P.P.G.G.P.P.I.I._._.s.3.P Q =.b b b n k b b k k ;.;.=.h =.-.3.p.W._._.P.P.P.G.G.p.d.5.7.7.9.a.a.a.a.a.a.a.a.5.5.a.a.F.F.a.a.a.a.a.a.a.a.a.a.a.a.a.a.a.a.a.9.7.7.9.9.9.M.n.S.9.5.9.5.9.9.7.9.M.9.9.9.a.a.a.a.i.a.i.3.3.d.a.i.a.9.5.5.5.a.a.a.i.i.i.i.S.S.S.S.F.F.F.F.F.S.S.S.9.9.a.F.F.F.F.a.7.7.3.5.a.F.F.9.i.i.i.9.a.5.5.5.a.a.a.a.a.a.a.a.d.i.p.d.5.5.d.p.p.a.a.a.a.a.a.a.p.p.a.a.a.a.a.i.S.p.i.a.F.F.a.a.F.a.7.d.G._.)._.P._._._.F.3.P G P L L @.@.@.@.@.>.=.>.=.>.b >.=.b b b b b b b =.=.=.=.=.=.=.=.=.=.=.=.=.=.=.=.=.=.=.=.=.=.=.=.=.=.=.=.=.=.=.=.=.=.=.=.=.=.=.=.=.=.=.=.=.=.=.=.=.=.=.=.=.=.=.=.=.=.=.=.=.=.=.=.=.=.=.=.=.=.=.=.-.=.=.=.=.=.=.=.=.=.=.=.=.=.=.@.=.=.=.=.=.=.=.@.=.=.=.=.=.@.=.=.=.=.=.=.=.=.=.=.-.-.-.-.-.-.=.=.=.b h h b h b h =.,.=.@.-.Q G ! 5._._.`.c.`.|._.5.! Q Q -.=.=.=.=.=.=.=.=.=.h Q Q =.Q =.=.=.=.=.Q =.=.=.=.=.Q =.=.=.=.=.=.b b b b =.=.b b =.=.=.=.=.=.=.=.=.=.=.=.=.=.=.=.=.=.=.=.=.=.=.=.=.=.=.=.=.=.=.=.=.=.=.=.",
"=.=.-.-.=.=.=.=.>.>.>.>.>.>.>.>.=.=.>.=.>.=.=.=.>.=.>.=.>.=.>.>.>.b m b n v v v v N b b b k b Q G.P.P.P.P.P.P.P.I.I._._.a.2.P Q b b b b b b b b N k b b >.=.>.-.H 3.G.'._.P.P.P.P.G.s.d.5.3.7.7.F.F.F.F.F.F.F.F.5.5.i.a.F.F.a.a.F.F.F.F.F.F.F.F.a.a.F.F.F.F.a.a.5.7.9.9.M.F.S.F.F.S.n.9.9.9.7.9.F.F.F.F.F.F.F.F.a.F.a.5.5.a.F.p.a.i.5.5.5.a.a.a.i.i.i.i.i.i.S.i.F.F.F.9.M.9.9.9.9.9.9.9.F.F.F.F.7.2.3.3.a.F.S.9.9.9.9.9.5.7.7.3.F.p.p.p.p.p.p.p.p.F.F.p.d.d.a.F.p.p.a.a.a.a.p.a.p.p.p.p.a.a.p.i.S.p.i.i.F.F.a.a.F.d.3.p.P._.).I._._._.W.a.! G G ,.>.>.>.>.>.>.=.>.b b b b b b b m b m b m b m =.b b @.b @.b @.b >.=.>.=.>.=.>.=.>.=.=.=.>.=.>.=.>.=.>.=.>.=.>.=.>.=.>.=.>.=.>.=.>.>.>.=.>.=.>.=.>.>.>.>.>.>.>.>.>.>.>.=.>.=.>.=.=.=.>.=.>.=.=.=.>.=.>.=.>.=.>.=.=.=.=.=.>.=.=.=.>.=.=.=.=.=.=.=.@.b @.b @.x @.m =.=.=.m =.=.=.=.=.=.=.=.=.=.b b >.>.>.>.>.>.>.>.<.x b >.Q y W 7.W.).`.c.`.{.s.2.P -.>.>.=.=.,.,.=.=.=.=.=.b b b =.=.>.>.>.=.>.>.=.=.=.=.=.=.=.=.=.=.=.=.=.b b b >.=.=.>.>.>.>.=.>.>.>.>.>.>.>.>.=.=.=.=.=.=.=.=.>.>.>.>.>.>.>.>.>.>.>.>.>.>.>.>.",
"=.=.=.=.=.=.=.=.=.=.=.=.=.=.=.=.=.=.=.=.=.=.=.=.=.=.>.>.>.>.>.>.=.m m m m b m b b b b b b N k E F.P.P.P.P.P.P.P.I._.)._.a.2.L a b b b b b b b b ;.b b b >.>.>.-.F ) F.}.)._.P.P.P.G.s.i.i.9.9.9.9.a.a.a.a.a.a.a.5.5.i.a.F.F.a.a.a.a.a.a.a.a.a.a.i.a.a.a.a.a.a.9.7.7.9.9.F.M.S.S.F.F.F.9.9.9.7.9.F.F.F.M.F.F.F.F.i.a.a.5.5.a.p.i.F.a.i.i.a.F.F.F.i.S.i.i.S.S.S.S.F.F.F.F.F.M.n.9.9.9.9.F.F.F.F.F.9.2.3.7.F.H.F.n.S.S.9.M.9.9.7.7.a.a.a.a.a.a.a.a.i.F.F.a.d.5.i.F.p.p.F.F.F.p.p.p.p.p.p.p.F.F.p.F.i.i.i.i.9.9.9.a.F.d.3.d.G._.P.h._._.}.!.a.! G Q Q h x x x @.=.=.=.>.>.>.>.=.=.=.>.>.=.=.=.=.=.=.>.>.>.>.>.>.>.>.>.>.>.>.>.>.>.>.@.@.m m m m m m m m m =.m m x x m m m m x x x m =.=.=.m m =.=.m m m b b b b m m b b b b b b b b m m m m x m m m m m m m m m m m =.=.=.=.=.=.=.=.=.>.=.=.=.=.=.=.>.>.>.>.>.>.>.>.>.>.>.>.>.>.>.>.>.>.>.>.=.=.b b m m b b b b b b =.x b >.=.a ! 9.E.).`._._.{.s.Y a a =.=.@.=.,.1.=.=.=.=.b b b b b =.=.=.m =.=.=.b b b b b b m m b b b b b b b b =.=.=.=.=.=.=.=.=.=.=.=.=.=.=.=.=.=.=.-.=.=.=.=.=.=.=.=.=.=.=.=.=.=.=.=.=.=.=.=.",
"=.=.=.=.=.=.=.=.=.=.=.=.=.=.=.=.=.>.>.>.>.>.>.>.>.>.>.>.>.>.>.>.>.>.>.>.>.>.>.=.m m m m b b b Q G._.P.G.U.U.D.P.].h.).}.7.P Q =.b m m m =.m =.=.p <.1.,.=.=.=.-.P H W.!.G.).P.P.P.G.p.i.i.3.9.n.a.a.a.a.a.a.a.i.5.5.9.a.a.a.a.a.a.S.S.S.i.i.i.i.i.i.S.S.S.S.S.F.7.7.9.9.M.F.S.S.S.S.n.9.9.9.7.7.9.F.F.F.F.F.F.i.a.i.5.5.d.a.p.i.a.a.i.5.5.F.F.i.S.i.S.S.S.S.S.S.9.9.F.F.F.9.3.3.7.9.F.F.F.F.F.F.9.7.7.9.9.M.n.n.M.n.M.F.M.7.8.9.5.d.p.p.a.a.a.F.a.a.a.i.d.d.a.F.p.p.p.a.a.a.a.a.a.a.a.a.p.p.p.p.S.S.S.S.F.F.a.a.F.d.7.d.G._.)._._.).G.}.F.P ! Q >.h =.>.m >.,.=.=.=.=.=.=.=.=.=.=.=.=.=.=.=.=.=.>.>.>.m >.>.>.>.>.>.>.>.>.>.>.>.>.>.>.>.>.>.>.>.>.>.>.>.>.>.>.>.>.>.>.>.>.>.m m >.>.m m m >.>.>.=.m m m m m m m m m m m m m m m =.=.>.>.>.>.>.>.>.>.>.>.>.>.m m >.>.>.>.>.>.m m >.>.m m m >.>.>.>.>.>.>.>.>.m m >.>.>.>.>.>.m >.>.$.>.>.m m b n v b ;.b b >.=.x >.x >.b ;.Q G 9.!._.{.`._.[.^.&.-.b =.=.>.i B.1.=.=.=.>.b b b b m m m m m m m m m m m m m m m b b b b b b b b b b b b b b b b =.=.=.=.=.=.=.=.=.=.=.=.=.=.=.=.=.=.=.=.=.=.=.=.=.=.=.=.=.=.=.=.=.",
"=.=.=.=.=.=.=.=.=.=.=.=.=.=.=.=.=.>.>.>.>.>.>.>.>.>.>.>.>.>.>.>.>.>.>.>.>.>.>.>.=.=.=.=.=.=.b Q G._.P.G.U.U.D.P._.P.).}.7.P Q =.=.=.=.=.=.=.=.=.@.,.B.e.,.=.=.-.P H W.!.G.).P.P.P.G.p.i.i.3.5.M.a.a.a.a.a.a.a.i.5.5.i.a.a.a.a.a.a.S.S.S.i.i.i.i.i.i.S.S.S.S.i.F.7.7.9.9.M.F.S.S.S.S.9.9.9.9.7.7.9.F.F.F.F.F.F.9.a.i.5.5.d.a.p.i.a.a.i.5.5.F.F.i.i.i.S.S.S.S.S.S.9.9.F.F.F.9.3.3.9.9.F.F.F.F.F.F.9.7.7.9.9.M.n.n.M.n.M.F.M.7.8.9.5.d.p.p.p.a.a.F.a.a.p.i.d.d.a.F.p.p.a.a.a.a.a.a.a.a.p.p.p.p.p.p.S.S.S.S.F.F.a.a.F.d.7.d.G._.)._._.).G.!.F.P Q Q =.h b >.m >.,.>.=.=.=.=.=.=.=.=.$.=.>.>.=.=.=.=.>.>.>.>.m m >.>.>.>.>.>.m m >.>.>.>.>.>.m m >.>.>.>.>.>.m m >.>.>.>.m >.>.>.>.m >.>.>.>.>.>.>.>.=.m m m m m m m m m m m m m m m =.=.>.>.>.>.>.>.>.>.>.>.>.>.m m >.m m >.>.>.>.m >.>.>.>.>.>.>.>.>.>.>.>.>.>.m m >.>.m >.>.>.>.>.$.$.>.>.m m m b v b b b b >.,.>.>.m >.b ;.Q G M.!._.{._._.[.^.#.-.v =.=.>.a A.8.Q =.=.>.b b b b b m m m m m m m m m m m m m m m b b b b b b b b b b b b b b b =.=.=.=.=.=.=.=.=.=.=.=.=.=.=.=.=.=.=.=.=.=.=.=.=.=.=.=.=.=.=.=.=.",
"=.=.=.=.=.=.=.=.=.=.=.=.=.=.=.=.>.>.=.=.=.=.=.=.=.=.=.=.=.=.=.>.>.>.>.>.>.>.>.>.=.=.=.=.=.=.=.P G.P.P.J.U.G.p.P._.P.}.}.7.G Q =.b =.=.-.-.-.@.#.@.w.~.V.,.-.-.,.P P E.!.G.).P.P.P.p.p.i.5.' 4.n.a.a.a.a.a.a.a.i.5.5.i.a.a.a.a.a.a.a.S.S.i.i.i.i.i.i.i.i.i.i.i.F.7.7.9.9.M.F.S.S.S.S.n.9.9.9.7.7.9.F.M.F.F.F.F.9.a.i.5.5.d.a.p.a.a.a.i.5.5.F.F.i.i.i.i.S.S.S.S.S.9.a.F.F.F.9.9.5.9.9.F.F.F.F.F.F.9.7.7.9.9.F.S.S.F.n.F.F.M.7.7.9.5.i.p.p.p.a.p.p.a.p.p.i.d.d.i.F.a.a.a.a.p.a.p.p.p.p.p.p.a.a.a.F.p.p.S.i.F.F.a.a.F.d.7.d.G._._._._.).G.!.F.G Q Q b h b <.x =.<.@.=.=.=.=.=.=.=.=.=.=.=.=.=.=.=.=.=.=.=.=.=.=.=.=.=.=.=.=.m =.=.=.=.=.=.=.m =.=.=.=.=.=.=.m =.=.=.>.>.=.=.=.=.=.=.=.=.=.=.=.=.>.=.=.=.=.=.=.=.=.=.m =.=.=.=.=.=.=.=.=.=.=.=.=.>.=.=.=.=.=.>.=.=.=.>.>.=.=.=.=.=.=.=.=.=.=.=.=.>.=.=.=.=.=.>.=.=.=.=.=.=.=.=.>.=.>.$.$.>.>.>.m m b v b b h =.:.8.8.>.x >.b =.Q G 9.!._.)._._.[.E.#.=.b =.=.=.a Z.8.Q Q Q =.b b b b b =.=.=.=.=.=.=.=.=.=.=.=.=.=.=.=.=.=.=.=.=.=.=.=.=.=.=.=.=.=.=.=.=.=.=.=.=.=.=.=.=.=.=.=.=.=.=.=.=.=.=.=.=.=.=.=.=.=.=.=.=.=.=.",
"=.=.=.=.=.=.=.=.=.=.=.=.=.=.=.=.=.>.=.=.=.=.=.=.=.=.=.=.=.=.=.=.>.>.$.>.$.>.=.=.=.=.=.=.=.=.=.P G.P.P.J.U.D.p.P.P.P.}.!.8.Q Q k =.=.-.-.-.-.#.#.#.r.(.~.8.@.=.,.! P E.!.E.}._.P.P.p.p.i.5.3.5.n.a.a.a.a.a.a.a.i.5.5.i.a.a.a.a.a.i.i.S.S.S.S.i.i.i.i.i.i.i.i.i.F.7.7.9.9.M.F.S.S.S.S.n.9.9.9.7.7.9.F.F.F.F.F.F.9.a.i.5.5.d.a.p.a.a.a.i.5.5.F.F.i.i.i.i.i.S.S.S.S.9.a.F.F.F.9.9.9.9.9.F.F.F.F.F.a.9.7.7.7.9.F.S.S.F.n.F.F.9.7.7.9.5.d.a.p.p.a.p.p.a.p.p.i.i.i.i.F.a.a.a.a.p.p.p.p.p.p.p.p.a.a.a.F.p.p.i.i.F.F.a.a.F.d.7.d.G._._.P.I.).G.}.F.Q Q Q k h b >.x @.>.@.=.=.=.=.=.=.=.=.=.=.=.=.=.=.=.=.=.=.=.=.m m =.=.=.=.=.=.m m =.=.=.=.=.=.m =.=.=.=.=.=.=.m m =.=.=.=.=.>.>.=.=.=.=.=.=.=.=.=.=.=.=.=.=.=.=.=.=.=.=.=.=.=.=.=.=.=.=.=.=.=.=.=.=.=.=.=.=.=.>.=.=.=.=.=.=.>.>.=.=.=.=.=.=.=.=.=.=.=.=.=.=.=.=.=.=.=.=.=.=.=.>.>.=.=.$.$.>.>.>.m m m b b h L -.8.E.E.,.@.>.=.=.~ D 9.!._.).)._.[.E.P Q b >.Q =.L /.m.Q Q Q =.b b b b b =.=.=.=.=.=.=.=.=.=.=.=.=.=.=.=.=.=.=.=.=.=.=.=.=.=.=.=.=.=.=.=.=.=.=.=.=.=.=.=.=.=.=.=.=.=.=.=.=.=.=.=.=.=.=.=.=.=.=.=.=.=.=.",
"=.=.>.m m m =.=.=.=.m m m m =.=.=.=.m m m m =.=.=.m =.=.=.=.=.=.>.>.$.>.$.=.=.=.=.=.=.-.-.-.=.P G.P.P.P.U.p.y.P.P.G.}.!.8.Q Q k =.=.=.-.-.@.#.#.P V.(./.6.P P -.Q G E.!.E.).P.P.P.D.p.y.5.4.5.M.a.a.a.a.a.a.a.9.5.5.i.a.a.a.a.a.i.S.S.S.S.S.S.S.S.S.S.S.S.S.S.S.7.7.9.9.M.F.S.S.S.S.M.9.9.9.7.7.9.M.M.F.F.F.F.a.F.i.5.5.d.a.a.a.a.a.i.5.9.F.F.i.i.i.i.i.S.S.S.S.a.a.a.a.F.a.i.i.a.i.a.a.F.F.a.a.9.7.7.5.9.F.S.S.S.i.F.F.a.7.7.9.5.i.p.p.a.a.a.p.a.p.p.i.d.d.a.F.a.a.a.a.a.a.p.p.a.a.a.p.p.p.a.F.p.p.S.S.F.F.a.a.F.i.7.p.G._._.P._._.s.}.F.Q Q h k h >.<.x @.=.@.=.=.-.-.-.=.=.=.=.=.-.-.-.=.=.=.=.=.=.=.=.=.=.=.=.=.=.=.=.=.=.=.=.=.=.=.=.=.=.=.=.=.=.=.=.=.=.=.=.=.=.=.=.=.=.=.=.=.=.=.=.=.=.=.=.=.=.=.=.=.=.=.=.=.=.=.=.=.=.=.=.=.=.=.=.=.=.=.=.=.=.=.=.=.=.=.=.=.=.=.=.=.=.=.=.=.=.=.=.=.=.=.=.=.=.=.=.=.=.=.=.=.=.=.=.=.=.=.>.>.>.>.>.m m b b =.L P :.V.^.^.-.@.>.=.=.Q D 9.!._.)._.W.}.G.P L b =.a -.Q /.n.G Q Q ~ Q b b b =.=.=.=.=.=.=.=.=.=.=.=.=.=.=.=.=.=.>.>.>.>.=.=.>.>.=.=.=.=.>.>.=.=.>.>.m m =.=.=.=.m m m m =.=.=.=.>.>.>.>.=.=.=.=.>.>.>.>.=.=.",
"=.=.>.>.m m =.=.=.=.m >.m m =.=.=.=.=.=.m m =.=.=.=.=.=.m m =.=.=.>.>.=.=.=.=.=.=.=.=.-.-.-.=.P G.P.P.P.J.i. .G.P.G.}.W.2.Q =.k b =.=.=.-.@.@.#.#.V.(./.,.L L -.Q P Q.!.W.).P.P.P.D.y.y.3.` 5.n.a.a.a.a.a.a.a.9.5.5.i.a.a.a.a.a.i.S.S.S.S.S.S.S.S.S.S.S.S.S.S.S.7.7.9.9.9.F.S.S.S.S.9.9.9.7.7.7.9.M.M.F.F.F.F.i.a.i.5.5.d.a.a.a.a.a.i.5.9.F.F.i.i.i.i.i.S.S.S.S.a.a.a.a.a.a.a.a.a.a.a.a.a.a.a.a.5.7.7.5.9.F.S.S.F.i.F.F.a.7.7.d.5.i.p.p.a.a.a.p.a.p.a.i.d.d.a.F.a.a.p.p.a.a.p.a.a.a.a.a.p.p.a.F.p.p.S.S.F.F.a.a.F.i.7.p.G._._.P._._.s.}.F.E E k k k ;.<.=.@.-.@.=.=.=.=.=.=.=.=.=.=.=.=.=.=.=.=.=.=.=.=.=.=.=.=.=.=.=.=.=.=.=.=.=.=.=.=.=.=.=.=.=.=.=.=.=.=.=.=.=.=.=.=.=.=.=.=.=.=.=.=.=.=.=.=.=.=.=.=.=.=.=.=.=.=.=.=.=.=.=.=.=.=.=.=.=.=.=.=.=.=.=.=.=.=.=.=.=.=.=.=.=.=.=.=.=.=.=.=.=.=.=.=.=.=.=.=.=.=.=.=.=.=.=.=.=.=.=.=.>.>.>.>.=.b b b =.Q L P 2.E.}.^.-.@.,.Q ~ Q D 9.}._.)._.W.}.G.H a b =.a ~ W .XM.P Q Q ~ Q b b b =.=.=.=.=.=.=.=.=.=.=.=.=.=.=.=.=.=.>.=.>.>.=.=.>.>.=.=.=.=.>.>.=.=.>.=.>.>.=.=.=.=.>.>.m m =.=.=.=.>.=.>.>.=.=.=.=.>.>.=.=.=.=.",
"=.=.=.>.m >.=.=.>.>.>.>.m =.=.=.=.=.=.=.b =.=.=.=.=.=.=.b b b =.m m m m =.=.=.=.=.=.=.=.=.=.=.P G.P.P.U.J.' _ G.P.P.}.E.:.E =.k k k Q Q =.Q -.-.-.V./.V.,.Q L -.Q Q Q.^.W.'.P.P.P.K.u. .' ` 4.M.a.a.a.a.a.a.a.i.5.5.i.a.a.a.a.a.i.S.S.S.S.S.S.S.S.S.S.S.S.S.S.S.7.7.9.9.9.M.S.S.S.S.9.9.9.7.7.7.9.F.M.F.F.F.F.i.a.i.5.5.d.a.p.a.a.a.i.5.9.F.F.i.i.i.i.i.S.S.S.S.p.p.a.a.a.a.p.F.F.p.p.p.a.p.p.a.5.5.5.5.a.a.i.i.F.i.a.F.a.5.7.d.5.i.a.p.a.a.a.F.a.a.a.a.d.d.a.F.p.p.p.p.a.a.a.a.a.a.a.a.p.p.p.a.p.S.S.S.F.F.a.a.F.i.y.p.G._._.I.I.).G.}.F.H Q E Q k :.1.=.@.,.-.=.b b b b b b b b b b b b b b b =.=.=.=.-.-.-.-.=.=.=.=.-.-.-.-.-.=.=.=.=.-.-.-.=.=.=.=.-.-.-.-.=.-.=.-.-.-.-.=.=.=.-.-.-.=.=.=.=.=.=.=.=.=.=.=.=.=.=.=.=.=.=.=.-.-.-.-.=.=.=.=.-.-.=.-.=.=.-.-.=.-.-.-.-.-.=.=.-.-.-.-.=.=.=.=.-.-.=.-.-.-.-.-.=.=.=.-.-.-.-.=.$.$.>.>.m m =.b =.Q P -.7.W.).W.2.@.,.Q ~ Q D 9.}.P._._.W.}.H.! a b =.a ! ^ .XH.H E Q Q Q b b N =.=.=.=.=.=.=.=.=.=.=.=.=.=.=.=.=.=.=.=.>.>.>.=.>.=.=.=.=.>.>.>.=.=.=.=.>.m m m =.>.>.>.m m =.=.=.=.=.=.>.>.>.=.=.>.>.>.=.=.=.=.",
"=.=.=.=.>.>.=.=.>.>.=.>.m m =.=.=.=.=.=.=.=.=.=.=.=.=.=.b b =.=.m m m m m b b =.=.=.=.=.=.=.=.P G.P.P.U.J.' _ J.P.P.}.H.! Q ;.k k k Q =.=.=.-.-.-.M./.V.:.Q Q -.Q Q Q.^.E.}.I.P._.G.p.y.3.` 9.M.a.a.a.a.a.a.a.9.5.5.i.a.a.a.a.a.i.S.i.S.i.S.i.S.i.S.i.S.i.S.i.F.7.7.9.9.9.M.S.S.S.n.9.9.9.7.7.7.9.F.M.F.F.F.F.i.a.i.5.5.d.a.p.a.a.a.i.5.9.F.F.i.S.i.i.i.S.S.S.S.a.a.a.a.a.a.F.p.p.p.p.i.a.a.p.a.5.7.5.5.a.F.i.S.F.i.a.F.a.7.7.d.5.i.a.p.a.a.a.F.a.a.a.a.d.d.a.F.p.p.p.p.a.a.a.a.a.a.a.a.p.p.a.a.p.p.S.S.F.F.a.a.F.i.d.p.G._.P.P.I.I.s.}.F.P Q k k Q :.1.Q -.,.=.=.b b b b b b b b b b b b b b =.=.=.=.=.-.-.-.=.=.=.=.=.-.-.-.=.-.=.=.=.-.-.-.=.=.=.=.=.-.-.-.=.-.=.-.=.-.=.-.=.=.=.-.=.-.=.=.=.=.=.=.=.=.=.=.=.=.=.=.=.=.=.=.=.=.=.-.=.-.=.=.=.=.=.=.=.=.=.=.=.-.=.-.=.-.=.-.=.=.=.-.=.-.=.=.=.=.=.=.=.=.=.=.=.=.=.=.=.=.=.=.=.=.=.>.=.=.=.=.=.h Q Q -.d.W.).W.2.@.-.Q -.! D 9.'.P._.P.G.}.F.! a =.=.y ! ! oXH.G E Q ~ =.=.b b =.=.=.=.=.=.=.=.=.=.=.=.=.=.=.=.=.=.=.=.>.>.>.=.>.>.=.=.>.>.>.>.=.=.=.=.>.m m m =.>.>.>.m m =.=.=.=.=.=.>.>.>.=.>.>.>.>.=.=.=.=.",
"=.=.=.=.=.=.=.=.=.=.=.=.=.=.=.=.=.=.=.=.=.=.=.=.=.=.=.=.=.=.=.=.m m m m =.=.=.=.=.=.=.=.Q L =.P G.G.'.}.p.I _ J.P.U.J.9.! Q b N k h h b >.>.-.G ! !.H.(.:.Q =.=.Q G ~.!.G.{.I.)._.p.p.p.7.3.9.9.a.i.i.a.F.a.9.9.7.5.9.S.F.i.p.i.S.S.F.S.a.i.a.i.a.i.a.i.a.i.a.F.9.7.7.9.F.F.n.F.9.F.F.9.9.9.7.4.9.9.9.F.F.a.a.9.F.a.5.5.p.F.p.a.a.a.9.5.5.F.F.i.i.i.F.F.S.S.S.S.a.i.i.a.F.F.a.i.a.a.a.a.a.a.F.F.9.7.3.7.a.F.9.n.F.S.F.F.9.7.7.9.5.5.i.a.a.a.a.a.a.F.a.5.5.i.p.a.a.i.i.i.S.i.i.i.F.F.i.i.i.i.F.F.i.i.i.i.F.F.F.F.a.F.5.3.G._.P.P.P.P.h.).E.P -.k k E 4.Q.G P b b b =.=.=.=.=.=.=.=.=.=.=.=.=.=.=.=.=.=.=.=.=.=.=.=.=.=.=.=.=.=.=.=.=.=.=.=.=.=.=.=.=.=.=.=.=.=.=.=.=.=.=.=.=.=.=.=.=.=.=.=.=.=.=.=.-.=.=.=.=.=.=.b b =.=.Q h h h =.=.=.=.=.=.=.=.>.>.>.=.=.=.>.=.=.=.=.=.=.=.=.=.=.=.=.=.=.=.=.=.=.=.=.=.=.=.=.=.=.=.=.=.=.=.=.=.b b >.>.>.=.=.=.=.Q L :.E.W.P._.7.L Q -.-.-.G 9.!.G.P.P.P.}.F.P @.=.;.h H ) @XH.E k k =.-.-.b N =.=.=.=.=.=.=.=.=.=.=.=.=.=.=.=.=.=.=.=.=.=.=.=.=.=.=.=.=.=.=.=.=.=.=.=.>.>.>.>.=.=.>.>.=.=.=.=.=.=.=.=.=.=.=.=.=.=.=.=.=.=.=.=.",
"=.=.=.=.=.=.=.=.=.=.=.=.=.=.=.=.=.=.=.=.=.=.=.=.=.=.=.=.=.=.=.=.=.m m m =.=.=.=.-.=.=.=.L =.=.! J.G.P.}.a.I _ !.J.U.J.5.! Q b n Q Q b =.>.=.@.G ) !.G.!.) Q =.=.Q G E.!._.{.I.`._.p.a.F.7.7.a.9.S.i.i.i.F.F.9.9.7.9.9.S.i.i.p.i.F.F.F.F.a.a.a.a.a.a.a.a.a.a.a.a.9.7.7.9.F.F.n.S.9.F.F.9.9.9.7.3.9.9.M.F.F.a.a.9.F.a.5.d.p.F.p.a.a.a.a.5.5.F.F.i.p.p.S.i.S.S.S.S.a.i.i.a.F.F.a.i.a.a.a.a.a.a.F.F.9.7.3.7.F.M.n.n.F.S.F.F.9.7.7.9.7.5.i.a.a.a.a.a.a.F.a.5.5.a.p.a.a.i.i.F.S.i.i.i.F.S.i.i.i.F.F.S.p.i.i.i.F.F.F.F.a.F.5.3.G.'.P.P.K.P.h.{.z.P =.k k f 4.!.H Q b n b =.=.=.=.=.=.=.=.=.=.=.=.=.=.=.=.=.=.=.=.=.=.=.=.=.=.=.=.=.=.=.=.=.=.=.=.=.=.=.=.=.=.=.=.=.=.=.=.=.=.=.=.=.=.=.=.=.=.=.=.=.=.=.=.=.=.=.=.=.=.=.=.=.=.=.Q Q k =.=.=.=.=.=.=.=.=.>.>.>.>.>.>.>.>.=.=.=.=.=.=.=.=.=.=.=.=.=.=.=.=.=.=.=.=.m m =.=.=.=.m m =.=.=.b b b =.=.>.=.=.=.>.Q h ! H.W.P._.7.L Q =.>.-.G 9.!.D.P.P.P.}.E.P $.=.;.g H / yXJ.E k b =.-.-.b N =.=.=.=.=.=.=.=.=.=.=.=.=.=.=.=.=.=.=.=.=.=.=.=.=.=.=.=.=.=.=.=.=.=.=.=.>.>.>.=.=.>.>.>.=.=.=.=.=.=.=.=.=.=.=.=.=.=.=.=.=.=.=.=.",
"=.=.=.=.=.=.=.=.=.=.=.=.=.=.=.=.=.=.=.=.=.=.=.=.=.=.=.=.=.=.=.=.=.=.=.=.=.=.=.=.-.=.=.=.@.=.=.! G.G._.W.d.I 3.!.J.U.J.5.^ Q b b Q Q b =.>.=.-.P ) !.G.!.! Q =.=.Q G ^.}._.{.I.`._.p.a.F.7.7.a.9.S.i.i.i.F.F.9.9.7.9.9.i.i.i.p.i.a.a.F.F.a.a.a.a.a.F.F.F.a.a.a.a.9.7.7.M.F.F.n.S.n.S.F.9.9.9.9.7.9.9.9.F.F.a.a.9.F.a.5.5.p.F.p.a.a.a.9.5.5.F.F.i.p.i.i.i.S.S.S.S.a.a.i.a.F.F.a.i.a.a.a.a.a.F.F.F.9.7.3.7.F.F.n.n.F.n.F.F.9.7.7.9.7.5.i.a.a.a.a.a.a.a.a.5.5.a.F.a.a.i.F.F.S.S.i.i.S.S.i.i.i.i.S.S.p.p.i.i.F.F.F.F.a.F.5.3.G.'.J.P.K.P.h.{.z.P =.k k f 4.!.H Q b M b =.=.=.=.=.=.=.=.=.=.=.=.=.=.=.=.=.=.=.=.=.=.=.=.=.=.=.=.=.=.=.=.=.=.=.=.=.=.=.=.=.=.=.=.=.=.=.=.=.=.=.=.=.=.=.=.=.=.=.=.=.=.=.=.=.=.=.=.=.=.=.=.=.=.=.k k Q =.=.=.=.=.=.=.=.=.>.>.>.>.>.>.>.>.=.=.=.=.=.=.=.=.=.=.=.=.=.=.=.=.=.=.=.=.m =.=.=.=.=.m =.=.=.=.b b b =.=.=.=.=.=.>.Q h ! E.W.P._.7.L -.=.>.-.P 9.!.G.P.P.P.}.E.P $.=.;.f H _ yX!.E k b =.-.#.=.b =.=.=.=.=.=.=.=.=.=.=.=.=.=.=.=.=.=.=.=.=.=.=.=.=.=.=.=.=.=.=.=.=.=.=.=.>.>.=.=.=.=.>.>.>.>.=.=.=.=.=.=.=.=.=.=.=.=.=.=.=.=.=.=.",
"=.=.=.=.=.=.=.=.=.=.=.=.=.=.=.=.=.=.=.=.=.=.=.=.=.=.=.=.=.=.=.=.>.>.=.=.=.=.=.=.=.=.=.=.=.=.-.! J.G._.W.3.I 3.!.J.U.G.5.^ Q b b Q Q b =.>.>.-.P ) '.G.!.! Q =.=.Q P ^.}._.{.I.`._.p.p.F.7.7.9.9.S.i.i.i.F.F.9.9.7.9.9.9.S.i.p.i.a.a.a.a.a.a.a.a.a.F.F.F.a.a.a.a.9.7.7.M.F.F.n.S.n.S.F.9.9.9.9.7.9.9.9.F.F.a.a.9.a.i.5.5.p.F.p.a.a.a.9.5.5.F.F.i.p.i.i.i.S.S.S.S.a.a.i.a.a.a.i.5.i.a.a.a.F.F.F.F.9.7.3.7.F.F.n.n.F.n.M.F.9.7.7.9.7.5.i.a.a.a.a.a.a.a.i.5.5.a.F.a.a.i.S.S.S.S.a.a.S.S.i.i.i.i.S.S.S.p.i.i.F.F.M.M.a.F.5.3.G.'.J.P.K.P.h.{.z.P =.k k E 4.}.) Q b M b =.=.=.=.=.=.=.=.=.=.=.=.=.=.=.=.=.=.=.=.=.=.=.=.=.=.=.=.=.=.=.=.=.=.=.=.=.=.=.=.=.=.=.=.=.=.=.=.=.=.=.=.=.=.=.=.=.=.=.=.=.=.=.=.=.=.=.=.=.=.=.=.=.=.Q Q Q Q Q =.=.=.=.=.=.=.=.>.>.>.>.>.>.>.=.>.=.=.=.=.=.=.=.=.=.=.=.=.=.=.=.=.=.=.=.m =.=.=.=.=.=.=.=.=.=.b b b =.=.=.=.=.=.>.Q h ! H.W.P._.9.L -.=.=.-.P 9.!.G.P.P.P.}.E.P $.=.;.f H _ yX!.E k b =.-.#.=.b =.=.=.=.=.=.=.=.=.=.=.=.=.=.=.=.=.=.=.=.=.=.=.=.=.=.=.=.=.=.=.=.=.=.>.>.>.>.=.=.=.=.>.>.>.>.=.=.=.=.=.=.=.=.=.=.=.=.=.=.=.=.=.=.",
"=.=.=.=.=.=.=.=.=.=.=.=.=.=.=.=.=.=.=.=.=.=.=.=.=.=.=.=.=.=.=.=.>.=.=.=.=.=.=.=.=.=.=.=.=.=.-.! J.G.J.p.) F 3.}.J.U.J.5.! Q m b Q Q b b >.>.-.P _ }.G.!.! Q =.=.Q G E.}._.{.I.`._.p.p.F.7.7.9.9.p.i.i.i.F.F.9.9.7.7.9.i.i.i.p.i.a.a.a.a.a.a.a.a.a.a.a.a.a.a.a.a.9.7.7.M.F.F.n.F.n.S.9.3.7.9.9.9.9.9.9.F.F.a.a.9.F.a.5.9.p.F.F.a.a.a.9.5.5.F.F.i.i.i.i.i.S.S.S.S.F.a.a.a.a.a.i.5.i.a.a.F.F.F.a.a.a.7.4.9.F.F.n.S.S.9.9.F.9.7.7.9.7.5.i.a.a.a.a.a.a.a.5.5.5.F.F.a.a.i.S.S.S.i.i.a.S.i.i.i.i.i.i.S.S.S.S.S.F.F.F.M.a.F.5.3.J.'.J.P.K.I.h.{.z.P =.k k E 4.oX) ! h M b =.=.=.=.=.=.=.=.=.=.=.=.=.=.=.=.=.=.=.=.=.=.=.=.=.=.=.=.=.=.=.=.=.=.=.=.=.=.=.=.=.=.=.=.=.=.=.=.=.=.=.=.=.=.=.=.=.=.=.=.=.=.=.=.=.=.=.=.=.=.=.=.=.Q Q Q Q Q Q =.=.=.=.=.=.=.=.=.=.=.=.>.>.>.>.=.=.=.=.=.=.=.=.=.=.=.=.=.=.=.=.=.=.=.=.=.=.=.=.=.=.=.=.=.=.=.=.b b =.=.=.=.=.=.=.Q a ! E.W.P._.9.L =.=.=.-.P F.'.P.P.P.P.}.E.P $.=.;.f E _ uX}.E k b =.-.#.=.b =.=.=.=.=.=.=.=.=.=.=.=.=.=.=.=.=.=.=.=.=.=.=.=.=.=.=.=.=.=.=.=.=.=.=.=.=.=.=.=.=.=.=.=.=.=.=.=.=.=.=.=.=.=.=.=.=.=.=.=.=.=.=.=.",
"=.=.=.=.=.=.=.=.=.=.=.=.=.=.=.=.=.=.=.=.=.=.=.=.=.=.=.=.=.=.=.=.=.=.=.=.=.=.=.=.=.=.=.=.-.-.-.-.!.P.G.i.I F 7.}.J.U.G.3.! L m b =.Q b b >.>.-.P 3.}.G.!.! Q -.=.Q G E.}._.{.I.`._.p.p.F.7.7.9.9.p.i.i.i.F.F.9.9.7.9.9.i.i.i.p.i.a.a.a.a.a.a.a.a.a.a.a.a.a.a.a.a.9.7.7.M.F.F.n.F.9.n.9.3.7.9.9.9.9.9.9.F.F.a.a.9.a.9.5.9.p.F.F.a.a.a.9.5.5.F.F.i.i.i.i.i.S.S.S.S.F.a.a.a.a.a.i.5.i.i.a.F.F.F.a.a.9.7.4.9.F.F.n.S.S.9.M.F.9.7.7.9.7.5.i.a.a.a.a.a.a.a.5.3.5.F.F.a.a.i.S.S.S.S.i.a.S.S.i.i.i.i.i.S.S.S.S.S.F.F.M.M.a.F.5.3.J.'.J.P.K.I.h.{.z.P =.k k G 3.OX3.! h M =.=.=.=.=.=.=.=.=.=.=.=.=.=.=.=.=.=.=.=.=.=.=.=.=.=.=.=.=.=.=.=.=.=.=.=.=.=.=.=.=.=.=.=.=.=.=.=.=.=.=.=.=.=.=.=.=.=.=.=.=.=.=.=.=.=.=.=.=.=.=.=.Q =.Q =.=.-.Q Q =.=.=.=.=.=.=.=.=.=.=.=.>.>.>.>.=.=.=.=.=.=.=.=.=.=.=.=.=.=.=.=.=.=.=.=.=.=.=.=.=.=.=.=.=.=.=.=.b b =.=.=.=.=.=.=.Q a ! E.W.P._.9.L -.=.=.-.P F.'.P.P.P.P.}.F.G #.=.;.f E ' uXoXQ k b =.#.#.=.b =.=.=.=.=.=.=.=.=.=.=.=.=.=.=.=.=.=.=.=.=.=.=.=.=.=.=.=.=.=.=.=.=.=.=.=.=.=.=.=.=.=.=.=.=.=.=.=.=.=.=.=.=.=.=.=.=.=.=.=.=.=.=.=.",
"=.=.=.=.=.=.=.=.=.=.=.=.=.=.=.=.=.=.=.=.=.=.=.=.=.=.=.=.=.=.=.=.m m =.=.=.=.=.=.=.=.=.=.-.-.-.-.!.J.G.5.H F 5.}.W.'.G.3.P a m b =.Q h b >.>.-.P 3.}.G.!.! Q =.>.Q G E.}._.{.j.`._.s.p.F.7.8.9.7.i.i.i.i.F.F.9.9.7.9.9.F.i.i.i.i.a.a.a.a.a.a.a.a.a.a.a.a.a.a.a.a.9.7.7.9.F.M.n.F.n.n.9.3.7.9.9.9.9.9.9.F.F.a.a.9.a.5.5.d.p.F.F.a.a.a.i.5.5.F.F.i.i.i.i.i.S.S.S.S.F.a.a.a.a.a.i.5.i.i.a.F.F.F.a.a.a.7.4.9.F.F.n.S.n.9.9.F.M.9.7.M.7.5.i.a.a.a.a.a.a.a.5.3.5.F.F.i.a.i.S.i.S.S.S.i.i.a.i.i.i.i.a.a.p.p.S.S.F.F.F.F.a.F.5.3.G.'.P.P.K.I.h.{.z.P =.k Q G 3.OX3.P h M =.=.=.=.=.=.=.=.=.=.=.=.=.=.=.=.=.=.=.=.=.=.=.=.=.=.=.=.=.=.=.=.=.=.=.=.=.=.=.=.=.=.=.=.=.=.=.=.=.=.=.=.=.=.=.=.=.=.=.=.=.=.=.=.=.=.=.=.=.=.-.-.Q =.-.,.,.-.-.Q =.=.=.=.=.=.=.=.=.=.=.=.>.>.=.=.=.=.=.=.=.=.=.=.=.=.=.=.=.=.=.=.=.=.=.=.=.=.=.=.=.=.=.=.=.=.=.=.b b =.=.$.$.=.=.=.Q a ^ E.W.h._.9.L Q =.=.-.P F.'.P.P.P.J.}.E.G =.=.;.f W ' uXXXQ Q =.=.#.#.b N =.=.=.=.=.=.=.=.=.=.=.=.=.=.=.=.=.=.=.=.=.=.=.=.=.=.=.=.=.=.=.=.=.=.=.=.=.=.=.=.=.=.=.=.=.=.=.=.=.=.=.=.=.=.=.=.=.=.=.=.=.=.=.=.",
"=.=.=.=.=.=.=.=.=.=.=.=.=.=.=.=.=.=.=.=.=.=.=.=.=.=.=.=.=.=.=.=.m m m >.=.=.=.=.@.=.@.=.=.-.-.-.!.!.G.7.K F 7.!.W.'.G.3.Q a m m =.Q b b >.>.-.P 3.#XG.!.! Q =.>.Q G E.}._.{.j.`._.s.p.F.7.8.9.7.p.i.i.i.F.F.9.9.7.9.9.F.S.S.S.i.a.a.a.a.a.a.a.a.a.a.a.a.a.a.a.a.9.7.7.9.F.F.n.F.n.S.9.3.7.9.9.9.9.9.9.F.F.a.9.9.a.5.5.d.p.F.F.a.a.a.i.5.5.F.F.i.S.S.i.i.S.S.S.S.F.a.a.a.a.a.i.5.i.i.a.F.F.F.a.a.a.7.4.9.F.F.n.S.n.5.9.F.M.9.9.F.7.5.i.a.a.a.a.a.a.a.5.3.i.F.F.i.a.i.i.i.S.S.S.i.i.a.i.i.i.a.a.i.p.i.S.S.F.F.F.F.a.F.5.3.G.'.P.P.K.I.h.{.z.P -.k Q G 3.OX7.P h ;.=.=.=.=.=.=.=.=.=.=.=.=.=.=.=.=.=.=.=.=.=.=.=.=.=.=.=.=.=.=.=.=.=.=.=.=.=.=.=.=.=.=.=.=.=.=.=.=.=.=.=.=.=.=.=.=.=.=.=.=.=.=.=.=.=.=.=.=.=.=.-.=.Q -.:.:.:.:.-.Q Q =.=.=.=.=.=.=.=.=.=.>.>.>.=.=.=.=.=.=.=.=.=.=.=.=.=.=.=.=.=.=.=.=.=.=.=.=.=.=.=.=.=.=.=.=.=.=.b b =.=.$.$.=.=.=.Q a ^ E.W.P._.M.L Q =.=.-.P F.'.P.P.P.J.!.F.G =.b ;.f W  .gXXXQ Q =.=.#.#.b N =.=.=.=.=.=.=.=.=.=.=.=.=.=.=.=.=.=.=.=.=.=.=.=.=.=.=.=.=.=.=.=.=.=.=.=.=.=.=.=.=.=.=.=.=.=.=.=.=.=.=.=.=.=.=.=.=.=.=.=.=.=.=.=.",
"=.=.=.=.=.=.=.=.=.=.=.=.=.=.=.=.=.=.=.=.=.=.=.=.=.=.=.=.=.=.=.=.m >.=.=.m m =.=.L >.=.=.=.L L 4.J.}.9.2.K H E.!.G.}.G.) ! =.b b b Q b =.>.=.-.P H.G.!.J.2.Q >.=.Q G E.}._.{.j.`._.G.a.F.9.7.7.5.i.i.S.F.F.F.9.9.7.7.9.a.S.S.S.i.a.a.a.a.a.a.a.a.a.a.a.a.a.a.a.a.7.7.9.9.F.F.S.n.n.S.M.3.7.9.9.9.9.9.9.F.F.F.a.a.a.5.5.a.p.a.a.p.a.a.5.5.i.a.a.a.S.S.a.a.S.S.S.S.a.a.a.a.a.a.a.a.5.i.F.F.F.a.a.a.9.3.3.9.F.F.n.n.S.n.F.F.9.7.7.F.5.3.5.a.F.F.a.F.F.i.5.5.a.F.a.i.a.i.i.i.S.i.i.i.i.i.i.i.a.i.S.i.p.p.S.S.M.F.M.M.a.F.d.3.G.'.P.P.K.K.P.).z.-.Q b k E 7.OXW.G =.b =.=.=.=.=.=.=.=.=.=.=.=.=.=.=.=.=.=.=.=.=.=.=.=.=.=.=.=.=.=.=.=.=.=.=.=.=.=.=.=.=.=.=.=.=.=.=.=.=.=.=.=.=.=.=.=.=.=.=.=.=.=.=.=.@.=.>.-.L L Q -.:.:.:.:.:.:.:.:.Q =.=.Q b Q =.=.=.=.=.=.=.=.=.=.=.=.=.=.=.=.=.=.=.=.=.=.=.=.=.=.=.=.=.=.=.-.-.-.=.=.=.=.-.=.=.=.v v =.=.>.=.@.x =.Q L :.E.!.G._.9.L -.=.=.-.P 9.!.P.K.P.).!.9.P =.>.b f H G.tXrX! Q =.=.#.@.b n =.=.=.=.=.=.=.=.=.=.=.=.=.=.=.=.=.=.=.=.=.=.=.=.=.=.=.=.=.=.=.=.=.=.=.=.=.=.=.=.=.=.=.=.=.=.=.=.=.=.=.=.=.=.=.=.=.=.=.=.=.=.=.=.",
"=.=.=.=.=.=.=.=.=.=.=.=.=.=.=.=.=.=.=.=.=.=.=.=.=.=.=.=.=.=.=.=.>.>.=.=.m m =.=.L >.=.=.>.L L 8.J.#X9.) P P E.!.G.'.F.) ! -.m b b Q b =.=.=.-.P H.G.'.J.2.Q >.>.Q G E.}._.{.I.`._.G.a.F.9.9.7.5.i.i.S.F.F.F.9.9.7.7.9.a.S.S.S.i.a.a.a.a.a.a.a.a.a.a.a.a.a.a.a.a.7.7.9.9.F.F.S.n.n.S.n.3.7.9.9.9.7.9.9.F.F.F.a.a.a.5.5.a.p.a.a.p.a.a.5.5.i.a.a.a.S.S.a.i.S.S.S.S.a.a.a.a.a.a.a.a.5.a.F.F.F.a.a.F.9.3.3.9.F.F.n.n.n.n.F.F.9.7.7.F.7.3.5.a.F.F.a.F.F.i.5.5.a.F.a.i.a.i.S.S.S.i.a.a.i.i.i.i.i.i.S.S.p.p.S.S.F.F.F.M.a.F.d.3.G.'.P.P.K.K.P._.z.-.L b k E 5.rX}.K =.b =.=.=.=.=.=.=.=.=.=.=.=.=.=.=.=.=.=.=.=.=.=.=.=.=.=.=.=.=.=.=.=.=.=.=.=.=.=.=.=.=.=.=.=.=.=.=.=.=.=.=.=.=.=.=.=.=.=.=.=.=.=.=.=.=.=.-.=.L L Q =.:.:.:.4.4.4.4.:.=.=.=.=.=.=.=.=.=.=.=.=.=.=.=.=.=.=.=.=.=.=.=.=.=.=.=.=.=.=.=.=.=.Q Q Q =.=.=.=.Q Q Q Q Q Q Q h v v m =.>.=.=.=.=.Q L :.Q.!.P._.9.L -.-.=.-.P 9.!.P.K.P.'.!.9.P =.=.n f H P.tXrX! Q =.=.#.@.b n =.=.=.=.=.=.=.=.=.=.=.=.=.=.=.=.=.=.=.=.=.=.=.=.=.=.=.=.=.=.=.=.=.=.=.=.=.=.=.=.=.=.=.=.=.=.=.=.=.=.=.=.=.=.=.=.=.=.=.=.=.=.=.=.",
"=.=.=.=.=.=.=.=.=.=.=.=.=.=.=.=.=.=.=.=.=.=.=.=.=.=.=.=.=.=.=.=.>.=.=.=.=.=.=.=.L >.=.=.>.L L 8.Q.!.7.) P P E.^.W.}.F.) P -.m m h Q b =.=.=.-.P H.G.'.J.) Q >.=.Q P E.}._.{.I.`._.s.a.a.9.7.7.5.i.i.S.F.F.F.9.9.7.9.9.a.S.S.p.i.a.a.a.a.a.a.a.a.a.a.a.a.a.a.a.a.7.7.9.M.F.F.S.n.n.F.9.3.7.9.9.9.7.9.9.F.F.F.a.9.a.5.5.a.p.a.a.a.a.a.5.5.i.a.a.a.S.S.S.i.S.S.S.S.a.a.a.a.a.a.a.a.i.a.a.a.i.i.a.F.9.3.3.9.F.M.n.n.S.n.M.F.9.7.7.F.7.5.5.a.F.a.a.F.F.i.5.5.a.F.a.i.a.i.S.S.S.i.a.i.i.i.S.S.i.S.S.S.p.p.i.S.F.F.F.F.a.F.5.3.G.'.P.P.K.K.P._.z.-.L =.k E 5.rX}.K =.>.=.=.=.=.=.=.=.=.=.=.=.=.=.=.=.=.=.=.=.=.=.=.=.=.=.=.=.=.=.=.=.=.=.=.=.=.=.=.=.=.=.=.=.=.=.=.=.=.=.=.=.=.=.=.=.=.=.=.=.=.=.=.=.=.=.=.-.-.Q Q -.,.4.4.4.4.4.4.2.4.=.=.Q Q =.=.=.=.=.=.=.=.=.=.=.=.=.=.=.=.=.=.=.=.=.=.=.=.=.=.=.=.=.Q =.=.Q =.Q Q =.-.-.-.-.-.=.=.v b m =.>.>.=.=.=.Q L :.Q.!.G._.9.L Q =.=.-.P 9.!.P.K.P.).!.9.P =.=.b y H P.uXrX) Q =.=.#.@.b b =.=.=.=.=.=.=.=.=.=.=.=.=.=.=.=.=.=.=.=.=.=.=.=.=.=.=.=.=.=.=.=.=.=.=.=.=.=.=.=.=.=.=.=.=.=.=.=.=.=.=.=.=.=.=.=.=.=.=.=.=.=.=.=.",
"=.=.=.=.=.=.=.=.=.=.=.=.=.=.=.=.=.=.=.=.=.=.=.=.=.=.=.=.=.=.=.=.>.=.=.=.=.=.=.=.L >.=.=.-.L =.8.Q.!.3.! P P E.W.W.}.p.H P -.m m h Q b =.>.=.-.P H.G.!.H.) G >.=.Q G E.}._.{.I.`._.s.a.F.9.7.7.5.i.i.S.F.F.F.9.9.7.9.9.F.S.i.p.i.a.a.a.a.a.a.a.a.a.a.a.a.a.a.a.a.7.7.9.M.F.F.S.n.n.S.9.3.7.9.9.9.7.7.9.9.a.a.a.9.a.5.5.a.p.a.a.a.a.a.5.5.i.a.a.a.S.S.i.i.S.S.S.S.a.a.a.a.a.a.a.a.a.a.a.i.5.i.a.F.9.3.3.9.F.M.n.n.S.n.F.F.9.7.7.F.7.5.5.a.F.a.a.F.F.i.5.5.a.F.a.i.a.i.S.S.S.i.i.i.S.S.S.S.S.S.S.S.p.p.S.S.F.F.F.F.a.F.5.3.G.'.P.P.K.K.P._.z.-.L =.Q G 3.yX|.K Q >.=.=.=.=.=.=.=.=.=.=.=.=.=.=.=.=.=.=.=.=.=.=.=.=.=.=.=.=.=.=.=.=.=.=.=.=.=.=.=.=.=.=.=.=.=.=.=.=.=.=.=.=.=.=.=.=.=.=.=.=.=.=.=.=.-.-.-.Q Q -.-.:.4.4.4.2.2.2.2.4.-.=.=.Q =.=.=.=.=.=.=.=.=.=.=.=.=.=.=.=.=.=.=.=.=.=.=.=.=.=.=.=.=.=.=.=.Q Q Q Q =.=.=.=.=.=.=.=.b v m =.=.>.=.=.=.Q E :.Q.!.G._.9.L Q =.=.-.P M.!.P.K.P.).!.9.P >.=.b f I U.gXrX2.Q =.=.#.@.b N =.=.=.=.=.=.=.=.=.=.=.=.=.=.=.=.=.=.=.=.=.=.=.=.=.=.=.=.=.=.=.=.=.=.=.=.=.=.=.=.=.=.=.=.=.=.=.=.=.=.=.=.=.=.=.=.=.=.=.=.=.=.=.=.",
"=.=.=.=.=.=.=.=.=.=.=.=.=.=.=.=.=.=.=.=.=.=.=.=.=.=.=.=.=.=.=.=.=.=.=.=.=.=.=.=.=.>.=.=.-.L -.8.(.H.! P P P E.^.W.'.i.H P =.m m h Q =.>.>.=.-.P !.G.'.J.! G >.>.Q G E.}._.{.I.`._.s.i.i.9.9.7.5.i.i.i.S.F.F.9.9.7.9.9.S.S.i.p.i.a.a.a.a.a.a.a.a.a.a.a.a.a.a.a.a.7.7.9.M.F.F.S.n.n.F.M.3.7.9.9.9.7.3.9.M.F.F.a.a.a.5.5.a.p.a.a.a.a.a.5.5.i.a.a.a.i.i.i.i.S.S.S.S.a.a.a.a.a.a.a.a.F.a.a.i.5.5.a.F.9.3.3.9.F.F.n.n.S.n.F.F.9.7.7.F.d.5.5.a.F.a.a.a.F.i.5.5.a.F.a.i.F.i.i.i.i.S.S.S.a.F.F.F.S.S.S.S.p.p.i.i.F.F.F.F.a.F.5.3.G.'.J.P.K.K.I.).z.-.L Q Q G 3.yX|.Y @.>.=.=.=.=.=.=.=.=.=.=.=.=.=.=.=.=.=.=.=.=.=.=.=.=.=.=.=.=.=.=.=.=.=.=.=.=.=.=.=.=.=.=.=.=.=.=.=.=.=.=.=.=.=.=.=.=.=.=.=.=.=.=.=.=.=.Q Q Q -.-.:.4.2.2.2.2.2.2.3.4.,.;.;.=.=.Q =.=.=.=.=.=.=.=.=.=.=.=.=.=.=.=.=.=.=.=.=.=.=.=.=.=.=.Q Q Q Q Q Q Q Q Q Q Q Q Q Q h b m m =.=.>.=.>.=.Q E :.!.}.P._.9.L Q Q =.-.P F.!.P.P.P.).!.7.P >.=.b f ) ].gXtX3.=.@.=.#.@.b b =.=.=.=.=.=.=.=.=.=.=.=.=.=.=.=.=.=.=.=.=.=.=.=.=.=.=.=.=.=.=.=.=.=.=.=.=.=.=.=.=.=.=.=.=.=.=.=.=.=.=.=.=.=.=.=.=.=.=.=.=.=.=.=.",
"=.=.=.=.=.=.=.=.=.=.=.=.=.=.=.=.=.=.=.=.=.=.=.=.=.=.=.=.=.=.=.=.=.=.=.=.=.=.=.=.=.>.=.@.-.L -.8.(.H.H P P -.E.^.W.!.d.F P >.m m h Q =.>.>.=.-.P !.J.'.G.! G >.>.Q G E.}._.{.I.`._.s.a.a.9.7.7.5.i.i.i.S.F.F.9.9.7.9.9.9.S.S.p.i.a.a.a.a.a.a.a.a.a.a.a.a.a.a.a.a.7.7.9.M.F.F.S.n.n.F.9.3.7.9.9.9.3.3.9.9.a.F.a.a.a.5.5.a.p.a.a.p.a.a.5.5.i.a.a.a.i.i.i.i.S.S.S.S.a.a.a.a.a.a.a.a.a.a.a.i.5.5.i.F.9.3.3.9.F.F.n.n.S.n.M.F.9.7.7.F.a.5.5.a.F.a.a.a.F.i.5.5.a.F.a.i.F.i.i.i.S.S.S.i.i.i.F.F.S.S.S.S.p.p.i.i.F.F.M.M.a.F.5.3.G.'.J.P.K.K.I.).z.-.L =.Q D 3.uXrXY @.>.=.=.=.=.=.=.=.=.=.=.=.=.=.=.=.=.=.=.=.=.=.=.=.=.=.=.=.=.=.=.=.=.=.=.=.=.=.=.=.=.=.=.=.=.=.=.=.=.=.=.=.=.=.=.=.=.=.=.=.=.=.=.=.=.=.Q Q Q -.:.4.4.2.2.2.2.2.2.3.2.:.:.;.=.=.Q =.Q =.=.=.=.=.=.=.=.=.=.=.=.=.=.=.=.=.=.=.=.=.=.=.=.=.Q Q Q Q ~ ~ Q -.-.-.-.-.-.-.=.>.b =.=.=.=.=.=.=.=.E :.!.'.P._.9.L Q Q =.-.P F.!.P.P.P.).!.7.P >.m b f / ].gXuX7.-.@.=.#.-.b N =.=.=.=.=.=.=.=.=.=.=.=.=.=.=.=.=.=.=.=.=.=.=.=.=.=.=.=.=.=.=.=.=.=.=.=.=.=.=.=.=.=.=.=.=.=.=.=.=.=.=.=.=.=.=.=.=.=.=.=.=.=.=.=.",
"=.=.=.=.=.=.=.=.=.=.=.=.=.=.=.=.=.=.=.=.=.=.=.=.=.=.=.=.=.=.=.=.=.m =.=.=.=.=.=.b =.=.a -.L -.m.(.H.F G ! -.E.^.W.!.5.F P >.>.m b Q =.>.>.=.-.W !.J.'.G.! G >.>.Q G E._._.{.I.`._.s.a.a.9.7.7.5.i.i.i.S.F.F.9.9.7.7.9.i.S.S.p.i.a.a.a.a.a.a.a.a.a.a.a.a.a.a.a.a.7.7.9.9.F.F.S.n.n.F.M.3.7.9.9.7.4.3.9.9.a.F.a.a.a.5.5.a.p.a.a.a.a.a.5.5.i.a.F.a.i.i.i.i.S.S.S.S.a.a.a.a.a.a.a.a.a.a.a.i.5.5.i.a.9.2.3.9.F.F.n.n.S.n.F.F.9.7.7.F.a.5.5.a.F.a.a.a.F.i.5.5.a.F.a.i.F.F.i.i.i.i.S.F.i.i.i.i.i.i.S.S.i.i.i.i.F.F.M.M.a.F.5.3.G.'.P.P.K.K.I.).z.#.L Q Q D 3.uXrX&.@.>.=.=.=.=.=.=.=.=.=.=.=.=.=.=.=.=.=.=.=.=.=.=.=.=.=.=.=.=.=.=.=.=.=.=.=.=.=.=.=.=.=.=.=.=.=.=.=.=.=.=.=.=.=.=.=.=.=.=.=.=.=.=.=.=.=.Q Q -.,.1.4.4.4.2.2.2.3.3.3.2.:.:.,.;.=.Q Q Q =.=.=.=.=.=.=.=.=.=.=.=.=.=.=.=.=.=.=.=.=.=.=.=.L Q Q Q =.=.=.=.,.,.,.,.,.,.,.,.;.>.>.=.@.@.=.=.=.=.Q :.!.}.P._.M.L Q Q =.-.P F.!.P.P.P.).!.7.P >.m k f / ].hXuX7.-.@.$.#.-.b N =.=.=.=.=.=.=.=.=.=.=.=.=.=.=.=.=.=.=.=.=.=.=.=.=.=.=.=.=.=.=.=.=.=.=.=.=.=.=.=.=.=.=.=.=.=.=.=.=.=.=.=.=.=.=.=.=.=.=.=.=.=.=.=.",
"=.=.=.=.=.=.=.=.=.=.=.=.=.=.=.=.=.=.=.=.=.=.=.=.=.=.=.=.=.=.=.=.m m =.=.=.m =.=.=.=.x a -.L -.m. XM.F G ! -.E.^.W.!.7.F P <.m m b =.=.>.>.=.Q P !.!.}.H.! L >.=.Q P E._.P.).I.)._.s.a.a.9.7.7.5.i.i.i.F.F.a.9.9.7.5.9.9.F.i.p.i.a.a.a.a.a.a.a.a.a.a.a.a.a.a.a.a.7.7.9.9.F.F.S.n.n.F.9.3.7.9.9.7.4.3.5.9.a.F.a.a.a.5.5.a.p.a.a.a.a.a.5.5.i.a.F.a.S.i.i.i.S.S.S.S.a.a.a.a.a.a.a.a.a.a.a.i.5.5.i.9.9.2.3.9.F.F.n.n.S.n.F.F.9.3.7.F.9.7.5.a.F.a.a.a.F.i.5.5.a.F.a.i.S.F.i.i.i.a.a.a.i.i.i.i.i.i.S.S.S.p.i.i.F.F.M.M.a.F.5.3.G.'.J.P.P.P.I.).a.-.L b Q y _ uXrX&.P =.=.=.=.=.=.=.=.=.=.=.=.=.=.=.=.=.=.=.=.=.=.=.=.=.=.=.=.=.=.=.=.=.=.=.=.=.=.=.=.=.=.=.=.=.=.=.=.=.=.=.=.=.=.=.=.=.=.=.=.=.=.=.=.=.=.L Q -.:.8.4.2.2.2.2.2.2.3.2.2.8.:.,.=.=.Q Q Q =.=.=.=.=.=.=.=.=.=.=.=.=.=.=.=.=.=.=.=.=.=.=.=.Q Q Q Q -.-.,.,.,.,.,.,.:.,.:.,.;.>.>.-.=.=.=.=.-.Q Q 4.!.}.P._.M.L =.=.=.-.! M.!.J.P.P.'.!.7.P >.m k y / ].hXgX5.-.L =.=.=.b b =.=.=.=.=.=.=.=.=.=.=.=.=.=.=.=.=.=.=.=.=.=.=.=.=.=.=.=.=.=.-.-.=.Q =.Q =.Q =.Q =.Q =.Q =.Q =.=.=.=.=.=.=.=.=.=.=.=.=.=.=.=.=.=.",
"=.=.=.=.=.=.=.m m m =.=.=.=.=.=.=.=.=.=.=.=.=.=.=.=.=.=.=.=.=.=.m m >.>.=.=.=.=.>.>.=.=.-.L -.V.Z.:.P ! P 3.F.W.G.!.) G -.x >.m x =.b b >.Q G ) !.W.!.F.-.L >.b W H H.!.G._.G.P.P.G.p.a.9.8.8.9.9.a.F.a.a.a.a.7.3.5.a.a.a.i.i.F.F.a.a.a.F.a.i.5.a.a.a.F.F.a.a.a.7.7.9.9.F.F.S.n.9.F.9.3.7.9.9.9.7.3.3.a.a.a.a.F.5.5.i.a.F.S.F.a.a.a.5.5.i.a.a.a.S.i.a.i.S.S.S.S.a.a.a.a.a.a.a.a.a.a.a.a.a.a.a.a.9.3.3.9.F.F.S.n.F.S.a.F.a.5.7.a.a.9.7.5.a.F.F.9.F.5.3.i.F.S.a.p.S.S.S.i.i.i.i.i.i.i.S.S.S.i.i.i.i.p.S.S.S.S.F.F.a.9.5.5.p._.}._.).P.P._.p.) Q ;.k E 3.uXrXa.r h v v N N N b b b b =.=.>.=.=.x a =.=.=.=.=.=.=.=.=.=.=.=.=.=.=.=.=.=.=.=.=.=.=.=.=.=.=.=.=.=.=.=.=.=.=.=.m =.=.=.>.b >.>.>.b b =.P P -.2.2.2.2.2.2.2.2.2.2.2.2.2.:.:.:.,.=.Q Q Q =.=.=.=.=.b =.=.=.=.=.=.=.=.=.=.=.=.=.=.=.b b h L Q -.,.:.:.:.:.:.:.:.:.:.:.:.:.-.:.:.:.-.=.@.L L Q P 7.!.}.G._.E.P =.=.=.@.P E.!.J.G.G.!.^.7.@.m v ;.y _ rXdXgXs.F =.b N b x >.=.=.=.=.=.=.b =.h b =.>.>.b =.b b k k k Q Q Q Q ,.,.:.:.4.8.8.8.8.:.:.:.:.:.,.,.Q Q L L L Q -.-.=.=.=.=.=.=.=.=.=.b b =.=.b b b ",
"=.=.=.=.=.=.=.=.m m =.=.=.=.m m =.=.=.=.=.=.=.=.=.=.=.=.=.=.=.=.m m >.>.=.=.=.=.=.>.=.=.-.L -.A.C.-.Q ! P ` F.W.H.!.2.P -.x >.m m =.b b =.Q G 3.}.W.^.E.-.L >.=.! H G.!.G.).P.P.P.G.p.a.9.8.8.9.9.a.F.a.a.a.a.7.3.7.a.a.a.a.i.F.F.a.a.a.F.a.i.5.a.a.a.F.F.a.a.a.7.7.9.9.F.F.S.n.9.F.9.3.7.9.9.9.7.3.3.a.a.a.a.F.5.5.i.a.S.S.S.i.a.a.5.5.i.a.a.a.S.S.a.i.S.S.S.S.a.a.a.a.a.a.a.a.a.a.a.a.a.a.a.a.9.2.3.9.F.F.n.n.F.i.a.F.a.5.7.a.9.9.7.7.a.F.F.a.F.5.3.i.F.S.i.p.S.S.i.i.i.i.i.i.i.i.S.S.S.i.i.i.S.S.S.S.S.S.S.S.a.9.5.5.p._.}._.).P.P._.G.) k k =.Q 3.uXrXE.F ~ b N b b b b b b b b =.=.=.=.=.x =.=.=.=.=.=.=.=.=.=.=.=.=.=.=.=.=.=.=.=.=.=.=.=.=.=.=.=.=.=.=.=.=.=.=.=.=.=.m =.b b b b b b b =.-.-.2.2.2.2.2.2.2.2.2.2.2.2.2.2.:.4.4.:.-.Q Q Q =.=.=.=.=.b b =.=.=.>.=.=.=.=.=.=.=.b =.=.b h h P ! -.:.:.4.:.:.:.:.:.:.:.:.:.4.2.2.2.2.,.:.-.Q P P P 3.W._.G.!.E.P -.=.=.@.P E.!.P.G.J.}.^.9.@.m v >.y _ rXdXhXh.I =.n v M =.=.=.=.=.=.=.=.=.=.=.=.=.b =.b b h k k Q Q Q =.-.-.,.:.:.4.2.8.8.8.4.4.4.:.:.:.:.:.-.-.-.! Q Q Q Q -.=.=.=.=.=.>.>.=.=.=.=.b b b b ",
"=.=.=.=.=.=.=.=.m =.=.=.=.=.m m =.=.=.=.=.=.=.=.=.=.=.=.=.=.=.=.=.=.>.>.=.=.=.=.=.=.=.=.>.L =.A.B.=.Q W P 3.G.!.E.^.-.P =.x >.m x =.b h =.Q P 3.!.W.!.E.-.Q >.=.W H G.'.J.}.U.P.P.G.p.a.9.8.8.9.9.a.F.a.a.F.a.7.3.7.a.a.a.a.i.F.F.a.a.a.F.a.i.5.a.a.a.F.F.a.a.a.7.7.9.M.F.F.S.n.n.S.9.3.7.9.9.9.7.3.7.a.a.a.a.F.5.5.i.a.i.i.i.i.a.a.5.5.i.a.a.a.S.S.S.S.S.S.S.S.a.a.a.a.a.a.a.a.a.a.a.a.a.a.a.a.9.3.3.9.F.F.i.i.F.i.a.F.a.5.7.a.9.9.7.9.a.F.F.a.F.5.3.i.F.S.i.S.i.i.i.i.F.a.i.i.i.S.F.F.i.a.i.i.S.S.S.S.S.S.S.S.a.9.5.5.p._.}._.).P.P.).G.) h k k G 3.uXrXW.H ~ =.b b b b b b =.b b =.=.=.=.b b =.=.=.=.=.=.=.=.=.=.=.=.=.=.=.=.=.=.=.=.=.=.=.=.=.=.=.=.=.=.=.=.=.=.=.=.=.=.m m >.>.b b b b b =.:.2.2.2.2.2.2.2.2.2.2.2.2.2.2.2.4.4.4.:.=.Q Q Q =.=.=.=.b =.b =.>.>.>.>.=.=.=.=.=.=.=.=.=.=.=.Q Q -.:.:.2.4.:.4.4.4.4.4.4.4.:.:.2.2.8.8.8.1.,.,.P ! P ` E.J.G._.M.P -.=.=.@.P ~.!.P.P.P.}.W.7.@.=.b =.G ' rXdXhXh.I =.n v M =.=.=.=.=.=.=.=.=.=.>.>.=.b =.b =.h =.Q =.=.-.,.:.:.:.:.:.2.2.2.8.8.8.8.4.4.4.:.:.:.:.:.:.:.-.! P P -.=.=.=.-.>.>.>.=.=.=.=.=.=.b b ",
"m =.=.=.=.=.=.=.m =.=.=.=.=.=.=.=.=.=.=.=.=.=.=.=.=.=.=.=.=.=.=.=.=.=.=.=.=.=.=.=.=.=.=.>.L ,.C.1.-.Q ! P 3.W.!.E.^.! P =.x m m x >.b L =.Q P 3.}.W.!.F.-.L =.Q W H G.!.J.}.P.P.P.G.p.a.9.8.8.9.9.i.F.a.a.F.a.d.3.7.a.a.a.a.i.F.F.a.a.a.F.a.i.5.a.a.a.F.F.a.a.a.7.7.9.M.F.F.S.n.n.F.9.3.7.9.9.9.7.7.7.a.F.a.a.F.5.5.i.a.S.S.i.i.a.a.5.5.i.a.a.a.S.S.S.S.S.S.S.S.a.a.a.a.a.a.a.a.a.a.a.a.a.a.a.a.9.3.3.9.F.F.i.i.F.i.a.F.a.5.d.a.9.9.7.9.a.F.F.a.F.5.3.9.F.S.i.S.a.i.i.i.F.S.S.S.i.S.F.F.i.a.i.i.S.S.S.S.S.S.S.S.a.9.5.5.p.W.}._.).P.I.].G.) h k h L 3.uXtX_.H ~ Q b b b b b =.=.b b b =.b b b =.=.=.=.=.=.=.=.=.=.=.=.=.=.=.=.=.=.=.=.=.=.=.=.=.=.=.=.=.=.=.=.=.=.=.=.=.=.=.m m >.>.=.b m b m =.:.2.2.2.2.2.2.2.2.2.2.2.2.2.2.2.4.:.:.:.-.-.Q Q =.=.=.=.=.=.b =.>.>.>.>.=.=.=.=.=.=.=.=.=.=.=.-.-.:.:.:.4.4.:.4.4.4.4.4.4.4.:.2.2.2.8.8.8.8.1.:.-.! P 3.G.P.G.}.M.P -.=.=.@.P E.!.U.P.P.}.^.7.@.>.b =.G ' yXdXfXI.I =.n v M =.=.=.=.=.=.=.=.=.=.>.-.=.=.=.=.-.=.,.-.,.,.:.:.1.8.:.2.2.2.2.2.2.2.4.4.4.4.4.:.:.:.4.4.4.4.:.:.! P -.=.=.=.=.-.>.>.=.=.=.=.=.=.=.b ",
"=.=.=.=.=.=.=.=.=.=.=.=.=.=.=.=.=.=.=.=.=.=.=.=.=.=.=.=.=.=.=.=.=.=.>.=.=.=.=.=.=.=.=.=.>.L >.C.,.-.Q ! P 3.!.!.W.E.P G >.x m m m >.@.L =.Q P 3.}.W.}.F.P L b h P H F.J.G.).P.P.P.G.p.a.9.8.8.9.9.i.F.a.a.a.a.d.3.7.a.a.a.a.S.F.F.a.a.a.F.a.i.5.a.a.a.F.F.a.a.a.7.7.9.M.F.F.S.n.n.S.9.3.7.9.9.9.d.5.5.a.F.a.a.F.5.5.i.a.i.i.i.i.a.a.5.5.i.a.a.a.i.i.i.S.S.S.S.S.a.a.a.a.a.a.a.a.a.a.a.a.a.a.a.a.9.3.3.9.F.F.i.i.F.p.a.F.a.d.d.a.a.9.7.9.9.F.F.9.F.5.3.i.F.p.i.i.a.i.i.i.i.a.S.S.S.S.i.i.i.S.S.S.p.p.S.S.S.S.S.S.a.9.5.5.p._.}._._.I.I.].G.` E Q Q P 3.tXtX{.) ! -.-.-.-.-.-.=.=.Q Q =.=.=.=.Q =.=.=.=.=.=.=.=.=.=.=.=.=.=.=.=.=.=.=.=.=.=.=.=.=.=.=.=.=.=.=.=.=.=.=.=.=.=.=.=.=.=.=.=.b =.=.=.-.8.2.2.2.2.2.2.2.2.2.2.2.2.2.2.2.4.4.:.:.:.-.-.Q =.=.=.=.=.b =.=.>.>.=.=.=.=.=.=.=.=.=.=.Q -.=.=.,.:.:.4.4.4.4.4.4.4.:.:.:.4.4.2.2.2.2.2.8.1.1.:.:.2.) 5.W._.P.}.9.L -.=.=.@.P E.!.U.P.P.'.W.7.@.>.b =.G ' uXdXfX`.I ~ N v M =.-.=.b =.=.=.=.Q Q =.=.=.=.-.>.,.:.1.1.:.:.:.4.4.4.2.2.2.2.2.2.3.2.4.4.4.4.4.4.:.:.:.:.:.4.4.:.:.-.-.=.@.L @.=.=.=.=.=.=.=.=.b Q =.",
"=.=.=.=.=.=.=.=.=.=.=.=.=.=.=.=.=.=.=.=.=.=.=.=.=.=.=.=.=.=.=.=.m =.>.>.=.=.=.=.=.=.=.=.>.L >.A.>.=.-.! P 3.!.!.W.H.G G ,.x m m m =.L L -.W ! 9.}._._.F.! L =.Q P H G.J.G.).P.P.P.G.p.a.9.8.8.9.9.i.F.a.a.a.a.d.3.7.a.a.a.a.S.F.F.a.a.a.F.a.i.5.a.a.a.F.F.a.a.a.7.7.9.9.F.F.S.n.n.S.9.3.3.9.9.9.a.5.5.a.F.a.a.a.5.5.i.a.i.i.S.i.a.a.5.5.i.a.a.a.i.i.i.i.S.S.S.S.a.a.a.a.a.a.a.a.a.a.a.a.a.a.a.a.9.3.3.9.F.F.9.9.F.a.a.F.a.d.d.a.a.9.7.9.9.F.F.a.F.5.3.i.F.p.i.p.S.i.i.i.a.a.S.S.S.i.i.i.S.S.S.S.p.p.S.S.S.S.S.S.a.9.5.5.p._.}._._.I.I.`.P.` Q ~ -.! d.dXdX4X_ ) :.1.1.1.1.1.1.1.-.-.-.Q =.=.Q =.=.=.=.=.=.=.=.=.=.=.=.=.=.=.=.=.=.=.=.=.=.=.=.=.=.=.=.=.=.=.=.=.=.=.=.=.=.=.=.=.=.=.=.=.=.>.>.,.8.2.2.2.2.2.2.2.2.2.2.2.2.2.2.2.2.:.:.:.:.:.-.Q -.=.=.=.=.b =.=.=.>.=.=.=.=.=.=.=.=.=.=.Q -.=.-.:.:.4.4.4.4.4.4.4.4.:.:.4.4.4.2.2.2.2.2.,.1.1.:.2.8.2.5.!.'.P.}.9.L @.-.=.-.-.^.!.U.P.P.'.W.7.P >.b =.G i.uXfXdX`.Y ~ k v M =.-.=.b =.=.=.=.=.-.L -.-.-.,.:.8.8.8.8.8.8.4.4.4.2.2.2.2.2.2.2.2.2.2.4.4.4.4.4.:.:.:.:.:.4.4.4.4.4.=.-.-.L @.L @.=.=.=.=.=.=.=.=.Q ",
"=.=.=.=.=.=.=.=.=.=.=.=.=.=.=.=.=.=.=.=.=.=.=.=.=.=.=.=.=.=.=.=.m m m >.=.=.=.=.=.>.=.=.-.L -.A.=.=.>.Q G 3.!.W.!.F.F G ,.@.=.=.=.=.L L -.W ! i.'.W._.E.2.Q ;.=.! H G.!.G.).P.P.P.G.p.i.9.8.8.9.9.i.F.i.a.a.a.7.3.7.a.a.a.a.i.F.F.a.a.a.F.a.i.5.a.a.a.F.F.a.a.a.7.7.9.9.F.F.S.n.n.F.M.3.3.9.9.9.a.5.5.a.F.a.a.a.5.5.i.i.i.i.S.i.a.a.5.5.9.a.a.a.i.i.i.i.S.S.S.S.a.a.a.a.a.a.a.a.a.a.a.a.a.a.a.a.9.2.3.9.F.F.9.9.F.p.a.F.a.7.d.a.a.9.7.7.9.F.F.a.F.5.3.i.F.p.i.p.S.S.S.S.a.i.i.S.S.S.i.i.a.i.S.S.i.i.S.S.S.S.S.S.a.9.5.5.p._.}._._.I.I.`.P.3.^ -.:.3.u.gXdX4X3.` 2.6.6.6.8.8.8.8.:.,.-.-.@.L L =.=.=.=.=.=.=.=.=.=.=.=.=.=.=.=.=.=.=.=.=.=.=.=.=.=.=.=.=.=.=.=.=.=.=.=.=.=.=.=.=.=.=.=.=.=.>.,.1.2.2.2.2.2.2.2.2.2.2.2.2.2.2.2.2.2.:.:.4.4.:.-.Q -.Q =.=.=.=.=.=.=.=.=.=.=.=.=.=.=.=.Q L Q Q =.-.8.4.8.2.2.2.4.4.2.2.2.2.2.2.2.2.2.2.2.2.,.,.,.:.2.2.3.i.}.'.P._.9.J @.-.-.-.P ^.!.U.P.P.'.W.7.P >.v Q G i.uXfXdX1XY Q k v M =.-.=.b b =.=.=.=.=.@.-.-.:.2.6.6.8.8.4.4.4.4.2.2.2.2.2.2.2.2.2.3.2.2.2.2.2.2.2.2.2.2.2.2.2.2.2.4.8.:.,.,.-.-.L @.@.-.=.=.=.=.=.=.=.",
"=.=.=.=.=.=.=.=.=.=.=.=.=.=.=.=.=.=.=.=.=.=.=.=.=.=.=.=.=.=.=.=.m m >.>.=.=.=.=.>.>.=.=.-.L -.B.=.=.>.Q G 7.W.W.!.F.F G :.L =.>.=.=.L L -.! ) i._.P._.W.2.-.1.:.! I J.'.G.).P.P.P.G.p.i.9.7.8.9.9.i.F.i.a.a.a.7.3.7.a.a.a.a.i.F.F.a.a.a.F.a.i.5.a.a.a.F.F.a.a.a.7.7.9.9.F.F.S.n.n.F.M.3.3.9.9.9.a.5.d.a.F.a.a.a.5.5.d.i.i.S.S.i.a.a.5.5.9.a.a.a.i.i.i.i.S.S.S.S.a.a.a.a.a.a.a.a.a.a.a.a.a.a.a.a.9.2.3.9.F.F.9.i.F.i.a.F.a.7.7.a.a.9.7.7.a.F.F.a.F.5.3.i.F.p.i.p.S.S.S.S.i.i.i.i.S.S.i.a.a.i.i.i.i.i.S.S.F.S.S.S.a.9.5.5.p._.}._._.I.j.`.s.3.! :.:.) y.dXdX4X} ) 2.6.6.6.6.6.6.,.6.:.-.-.-.L L =.=.=.=.=.=.=.=.=.=.=.=.=.=.=.=.=.=.=.=.=.=.=.=.=.=.=.=.=.=.=.=.=.=.=.=.=.=.=.=.=.=.=.=.-.=.,.1.8.2.2.2.2.2.2.2.2.2.2.2.2.2.2.2.2.2.:.:.4.4.:.-.L -.Q =.=.=.=.=.=.=.=.=.=.=.=.=.=.-.=.=.L Q Q -.,.8.8.4.2.2.2.4.4.2.2.2.2.2.2.2.2.8.8.6.2.6.6.1.8.2.2.3.9.}._.s.W.9.J P -.-.-.P W.'.U.P.P.'.W.7.L >.b ~ G p.uXfXfX1XY Q k j ;.=.-.=.=.=.=.=.=.-.-.-.-.:.2.6.6.6.2.2.2.2.2.2.2.2.2.2.2.2.2.2.2.3.2.2.2.2.2.2.2.2.2.8.4.2.2.2.2.2.8.8.8.:.,.-.-.-.-.-.-.-.=.=.=.=.=.",
"=.-.-.=.=.=.Q =.=.=.=.=.=.-.=.=.=.=.=.=.=.=.=.=.=.=.=.=.=.=.=.=.m m =.=.=.=.=.=.=.=.=.=.Q -.,.,.>.=.>.L G 9.^.F.oX3.F ! P -.=.@.=.,.,.,.:.) ` G.G._._.p.2.4.:.,.) 5.G.!.P.P.P.P.P.p.p.i.a.7.8.7.9.i.F.F.a.a.a.a.5.7.a.a.a.a.i.i.F.a.a.a.F.a.i.5.a.a.a.F.F.a.a.a.7.7.9.M.M.M.S.S.S.S.M.9.7.9.9.F.a.7.5.d.a.E.F.p.5.i.a.F.i.i.i.F.a.5.5.5.a.F.F.a.i.i.i.i.S.S.S.S.a.a.a.a.a.a.a.a.a.a.a.a.a.a.a.a.9.7.7.9.F.F.i.F.i.i.a.F.a.5.7.a.F.9.7.7.9.a.F.a.i.5.5.a.F.p.i.F.i.S.S.S.i.i.i.i.S.F.i.i.i.S.S.F.p.p.S.S.S.S.S.S.a.9.5.5.p.W.}._._.I.I.`.h.5.4.:.! ) u.fXdXtXu./ 2.2.2.2.2.2.2.2.2.:.2.:.:.-.Q L =.=.=.>.>.>.=.=.=.=.=.=.=.=.=.=.=.=.=.=.=.=.=.=.=.=.=.=.=.=.=.=.a h =.=.=.=.=.L a L =.,.1.1.1.1.2.2.2.2.2.2.2.2.2.2.2.2.2.2.2.2.2.2.2.4.8.:.-.-.L L Q =.=.=.=.=.b =.=.>.>.=.=.Q -.-.Q -.-.:.8.8.4.2.2.2.2.2.2.2.2.2.2.2.2.2.2.2.2.2.2.2.6.6.6.4.8.2.2.G._._._._.9.G Q @.@.-.-.E.'.P.P.P.'.W.7.G =.>.=.G G.gXfXfX4XT E k n <.-.-.=.=.=.=.=.=.-.-.:.2.2.2.2.2.2.2.2.2.2.2.2.2.2.2.2.2.2.2.2.2.2.2.2.2.2.2.2.2.2.2.2.2.2.2.2.2.2.2.4.4.4.:.:.:.:.,.Q Q Q Q Q Q Q -.",
"Q Q Q Q =.=.=.=.=.=.=.=.=.=.=.=.=.=.=.=.=.=.=.=.=.=.=.=.=.=.=.=.m m m =.=.=.=.=.=.=.=.=.Q -.,.,.>.=.>.L G 9.^.G.}.` F ! ! =.,.=.=.,.:.:.4.) ` G.J.P._.p.3.4.:.:.) 5.G._.P.P.P.P.P.p.p.i.a.7.7.7.9.i.F.F.a.a.a.a.5.7.d.a.a.F.i.i.F.a.a.a.F.a.i.5.a.a.a.F.F.a.a.a.3.7.9.M.M.M.S.F.S.S.M.9.7.9.9.F.a.7.5.d.a.E.F.p.5.i.a.F.i.i.i.F.a.5.5.5.a.F.F.a.i.i.i.i.S.S.S.S.a.a.a.a.a.a.a.a.a.a.a.a.a.a.a.a.9.7.7.9.F.F.i.F.i.i.a.F.a.5.7.a.F.9.7.7.9.a.F.F.i.5.5.a.F.S.i.F.i.S.S.F.i.i.i.i.F.F.i.i.i.i.F.F.p.S.S.S.S.S.S.S.a.9.5.5.p.W.}._._.I.`.`.h.5.4.:.) / u.dXdXtXp./ 2.2.2.2.2.2.2.2.2.2.2.2.:.:.-.-.=.=.=.=.=.=.=.=.=.=.=.=.=.=.=.=.=.=.=.=.=.=.=.=.=.=.=.=.=.=.=.=.b Q =.=.=.=.Q L L -.,.:.8.8.6.:.2.2.2.2.2.2.2.2.2.2.2.2.2.2.2.2.2.2.2.4.8.4.:.-.L @.Q =.=.b =.=.=.=.=.=.=.=.=.Q L Q Q Q -.:.:.8.2.2.2.2.2.2.2.2.2.2.2.2.2.2.2.2.2.2.2.2.6.6.6.4.6.2.2.G._._.I._.9.G -.@.@.-.-.E.U.P.K.P.'.W.7.P =.=.Q G G.hXfXfX5XT Q k N ;.L P L Q Q =.-.,.:.8.2.2.2.2.2.2.2.2.2.2.2.2.2.2.2.2.2.2.2.2.2.2.2.2.2.2.2.2.2.2.2.2.2.2.2.2.2.2.2.2.2.4.4.:.:.:.:.:.-.-.-.-.-.Q Q Q ",
"L L Q Q =.=.=.-.=.=.=.=.=.=.=.=.=.=.=.=.=.=.=.=.=.=.=.=.=.=.=.=.m >.=.=.=.=.=.=.-.=.=.=.L -.-.>.m m =.L G 9.^.H.!.) F ! :.,.1.,.,.8.:.:.4.) ` G.P.P._.p.3.2.:.:.) 5.G._.P.P.P.P.P.s.p.p.a.7.7.7.9.i.F.F.a.a.a.a.5.7.d.a.a.a.i.i.F.a.a.a.F.a.i.5.a.a.a.F.F.a.a.a.3.7.9.F.M.M.S.F.S.S.9.9.7.7.9.E.a.7.5.7.a.E.F.a.5.i.a.F.i.i.i.F.a.5.5.5.a.F.F.a.i.i.i.i.S.S.S.S.a.a.a.a.a.a.a.a.a.a.a.a.a.a.a.a.9.7.7.9.F.F.9.F.i.i.a.F.a.5.7.a.F.9.9.9.9.a.F.F.i.5.5.a.F.p.i.F.i.i.F.F.i.i.i.i.a.i.i.i.i.S.S.S.S.S.S.S.S.S.n.S.a.9.5.5.p._.}._._.I.I.`.P.5.` :.` / u.dXdXtXp./ 3.2.2.2.2.2.2.2.2.2.2.2.2.:.-.-.=.=.=.=.=.=.=.=.=.=.=.=.=.=.=.=.=.=.=.=.=.=.=.=.=.=.=.=.=.=.=.=.=.=.=.=.-.-.-.-.-.,.:.6.6.6.6.2.2.2.2.2.2.2.2.2.2.2.2.2.2.2.2.2.2.2.2.4.8.4.:.-.-.=.=.=.=.=.=.=.=.=.=.=.-.=.L L L Q ! -.:.:.:.:.2.2.2.2.2.2.2.2.2.2.2.2.2.2.2.2.2.2.2.2.6.6.6.4.2.) 2.F._._.I._.9.P -.-.-.-.! W.J.P.K.K.U.W.9.P =.-.Q G G.hXfXfX5XT G k N >.J P P Q Q -.:.4.8.8.2.2.2.2.2.2.2.2.2.2.2.2.2.2.2.2.2.2.2.2.2.2.2.2.2.2.2.2.2.2.2.2.2.2.2.2.2.2.2.2.2.2.2.4.:.:.:.:.:.:.:.-.-.Q Q L ",
"Q Q Q Q Q Q =.=.=.=.=.=.=.Q =.=.=.=.=.=.=.=.=.=.=.=.=.=.=.=.=.=.>.>.=.=.=.=.=.=.>.-.=.=.@.-.-.-.m m =.L G 9.(.E.W.) H 2.:.:.1.1.,.8.:.:.4.) _ G.P.P.P.p.3.2.:.:.` 5.G._.P.P.I.P.P.s.p.p.a.7.7.7.9.i.F.F.a.a.a.a.5.7.d.a.a.a.i.i.F.a.a.a.F.a.i.5.a.a.a.F.F.a.a.a.3.7.9.F.M.M.S.S.S.S.9.9.7.7.9.E.a.7.5.7.a.F.F.a.5.i.a.F.i.i.i.F.a.5.5.5.a.F.F.a.S.i.i.i.S.S.S.S.a.a.a.a.a.a.a.a.a.a.a.a.a.a.a.a.9.7.7.M.F.F.9.F.i.i.a.F.a.5.7.a.F.9.9.9.9.a.F.F.i.5.5.a.F.p.i.F.i.i.S.S.S.i.a.a.i.i.i.i.i.S.S.S.S.S.S.S.S.S.n.n.a.9.5.5.p.W.}._._.I.I.`.P.5.` ^ ` / u.dXdXdXK./ 3.2.2.2.2.2.2.2.2.2.2.2.2.4.2.:.=.=.=.=.=.=.=.=.=.=.=.=.=.=.=.=.=.=.=.=.=.=.=.=.=.=.=.=.=.=.=.=.=.=.=.=.=.-.-.-.,.,.6.8.6.6.6.2.2.2.2.2.2.2.2.2.2.2.2.2.2.2.2.2.2.2.2.2.4.4.:.-.-.-.=.@.=.=.=.=.>.=.=.=.=.=.L L Q Q -.:.:.:.:.2.2.2.2.2.2.2.2.2.2.2.2.2.2.2.2.2.2.2.2.2.6.6.6.2.2.) 3.F._._.I._.a.! :.:.,.:.2.!.G.K.K.K.P.J.a.-.=.-.Q H P.hXpXpX9XT G h k ;.G P :.:.:.:.2.2.2.2.2.2.2.2.2.2.2.2.2.2.2.2.2.2.2.2.2.2.2.2.2.2.2.2.2.2.2.2.2.2.2.2.2.2.2.2.2.2.2.2.2.2.2.2.2.4.4.:.4.:.:.:.-.-.-.Q ",
"=.=.=.-.Q Q Q Q Q Q Q Q Q Q Q -.=.=.=.=.=.=.=.=.=.=.=.=.=.=.=.=.>.=.=.=.m =.=.=.-.-.=.=.=.Q Q =.m m =.@.P 9.^.H.W.` ) 3.4.:.1.,.,.8.,.:.8.) _ D.P.P.P.p.3.2.:.:.` 5.G._.P.P.I.P.P.s.p.s.p.5.7.7.9.i.p.p.a.d.a.a.7.7.d.a.a.a.i.i.F.a.a.a.F.a.i.5.a.a.a.F.F.a.a.a.7.7.9.F.9.9.S.S.S.S.9.9.7.7.9.E.a.7.5.7.a.F.a.a.5.i.a.F.i.i.i.F.a.5.5.5.a.F.F.a.S.S.i.i.S.S.S.S.a.a.a.a.a.a.a.a.a.a.a.a.a.a.a.a.9.7.7.M.F.F.i.F.i.i.a.F.a.5.7.a.F.9.7.9.9.a.a.a.i.5.5.i.F.p.i.F.i.i.i.a.S.S.S.F.i.i.i.S.i.i.i.i.i.i.S.S.S.S.S.S.a.9.5.5.p._.}._._.I.`.`.G.5.4.^ ^ ) u.dXdXgXP.( 3.2.2.2.2.2.2.2.2.2.2.2.2.2.2.6.>.>.=.=.=.=.=.=.=.=.=.=.=.=.=.=.=.=.=.=.=.=.=.=.=.=.=.=.=.=.=.=.=.Q Q Q =.=.-.-.8.8.8.8.6.2.2.2.2.2.2.2.2.2.2.2.2.2.2.2.2.2.2.2.8.2.2.2.4.4.:.:.-.-.-.@.=.=.=.=.>.>.=.=.Q Q Q Q -.-.:.4.8.4.4.2.2.2.2.2.2.2.2.2.2.2.2.2.2.2.2.2.2.2.2.2.6.6.6.2.6.2.3.a._._.I._.F.! 2.4.6.8.2.!.J.P.K.K.P.J.a.2.,.-.~ W U.hXpXpX9XT G h k ;.! 2.2.4.8.2.2.2.2.2.2.2.2.2.2.2.2.2.2.2.2.2.2.2.2.2.2.2.2.2.2.2.2.2.2.2.2.2.2.2.2.2.2.2.2.2.2.2.2.2.2.2.2.2.2.2.2.4.4.:.:.:.:.:.:.:.",
",.,.,.=.=.-.Q Q Q Q Q Q Q Q Q -.=.=.=.=.=.=.=.=.=.=.=.=.=.=.=.=.>.>.=.=.m m =.=.=.=.=.=.=.Q L =.m b >.@.P 9.!.E.W.` ) 8.4.:.1.,.,.6.:.2.8.` _ G.P.P.I.p.3.2.:.:.) 5.G._.P.P.I.P._.s.p.s.a.5.7.7.5.i.p.p.a.d.a.a.7.7.d.a.a.a.i.i.F.a.a.a.F.a.i.5.a.a.a.F.F.a.a.a.7.7.9.F.9.9.S.S.S.S.9.9.7.5.9.E.a.7.5.7.a.a.a.5.5.i.a.F.i.i.S.F.a.5.5.5.a.F.F.a.S.S.a.a.S.S.S.S.a.a.a.a.a.a.a.a.a.a.a.a.a.a.a.a.9.7.7.M.F.F.S.F.p.i.a.F.a.5.7.a.F.9.9.9.9.a.a.a.i.5.5.i.F.p.i.F.i.i.a.a.S.S.S.F.a.i.i.S.i.i.i.i.i.p.S.S.S.S.S.S.a.9.5.5.p._.}._._.I.`.`.G.5.^ ^ ^ _ u.dXdXhXI.( 3.4.2.2.2.2.2.2.2.2.2.2.2.2.2.8.,.<.=.=.=.=.=.=.=.=.=.=.=.=.=.=.=.=.=.=.=.=.=.=.=.=.=.=.=.=.=.=.=.Q =.=.-.,.,.:.8.8.8.2.2.2.2.2.2.2.2.2.2.2.2.2.2.2.2.2.2.2.2.2.8.2.2.2.4.8.8.:.-.-.-.@.=.=.=.=.=.=.=.=.Q =.Q Q :.:.4.4.8.8.6.6.2.2.2.2.2.2.2.2.2.2.2.2.2.2.2.2.2.2.2.2.6.6.6.2.6.2.3.a._._.I._.F.2.8.8.8.8.2.!.G.P.L.K.P.J.a.2.1.=.-.) Y.hX8XpXdX{ W k n 1.-.2.2.2.2.2.2.2.2.2.2.2.2.2.2.2.2.2.2.2.2.2.2.2.2.2.2.2.2.2.2.2.2.2.2.2.2.2.2.2.2.2.2.2.2.2.2.2.2.2.2.2.2.2.4.4.4.4.:.:.:.:.:.4.4.:.",
"1.1.,.,.,.,.-.-.Q Q Q Q Q Q Q =.=.=.=.=.=.=.=.=.=.=.=.=.=.=.=.=.m m =.=.=.m =.=.@.=.=.=.-.=.L =.m b =.=.P 9.^.W.F./ ) 7.4.:.1.1.,.8.2.2.8.` _ G.P.P.P.p.3.3.:.:.) 5.G._.P.P.P.I.P.s.p.p.a.7.7.9.5.i.F.F.a.a.a.a.7.7.a.a.a.a.i.i.F.a.a.a.F.a.i.5.a.a.a.F.F.a.a.a.7.7.9.F.9.9.S.S.S.S.M.9.7.5.9.F.a.7.5.5.a.a.a.5.5.i.a.F.i.i.S.F.a.5.5.5.a.p.p.a.S.S.S.a.S.S.S.S.a.a.a.a.a.a.a.a.a.a.a.a.a.a.a.a.9.7.7.9.F.F.i.F.S.i.a.F.d.7.7.a.F.9.7.7.9.a.a.a.i.5.5.a.F.p.i.F.S.S.i.S.S.S.i.i.a.a.S.S.S.S.a.a.p.p.S.S.S.S.S.S.i.9.5.5.p._.}._._.P.`.`.G.5.:.:.^ _ u.dXdXhXY.( 2.:.4.4.4.4.2.2.2.2.2.2.2.2.2.2.,.<.<.=.=.=.=.>.=.=.=.=.=.=.=.=.=.=.=.=.=.=.=.=.=.=.=.=.=.=.=.=.h Q =.,.:.:.:.4.8.:.2.2.2.2.2.2.2.2.2.2.2.2.2.2.2.2.2.2.2.2.2.2.8.2.2.2.4.8.8.4.:.,.-.Q @.=.=.=.Q h h h =.=.=.=.8.8.4.4.2.2.8.8.2.2.2.2.2.2.2.2.2.2.2.2.2.2.2.2.2.2.2.2.6.6.6.2.6.2.3.G.)._.I._.F.-.2.8.8.8.3.!.G.P.P.K.P.G.a.2.8.,.:.` ].hX8XpXfX} ! ~ ;.1.:.7.2.2.2.2.2.7.7.7.2.2.2.2.2.2.2.2.2.2.2.2.2.2.2.2.2.4.4.4.4.4.4.2.2.2.2.2.2.2.2.2.2.2.2.2.2.2.2.2.2.2.2.2.2.8.8.8.:.:.:.4.:.4.4.4.",
":.1.1.1.:.:.:.:.Q Q Q Q Q Q Q Q =.=.=.=.=.=.=.=.=.=.=.=.=.=.=.=.=.m =.=.=.=.=.=.L @.=.=.-.=.=.=.m b =.L P 9.(.W.F.) ) 7.4.:.8.1.6.8.2.2.8.` _ G.P._._.p.3.2.:.:.` 5.G._._.P.P.P._.s.p.p.a.7.7.9.9.a.F.F.a.a.a.a.7.5.a.a.a.a.a.a.F.a.a.a.F.a.i.5.a.a.a.F.F.a.a.a.7.7.9.F.a.9.S.F.S.n.M.9.5.5.a.F.a.7.5.7.a.a.a.5.5.i.a.F.i.i.S.F.a.5.5.5.a.F.p.a.S.S.S.i.S.S.S.S.a.a.a.a.a.a.a.a.a.a.a.a.a.a.a.a.9.7.7.a.F.F.i.F.i.i.a.p.d.7.7.a.F.9.7.7.9.a.a.a.9.3.5.a.F.p.i.F.S.S.S.S.S.i.i.i.i.i.S.S.S.i.i.a.p.p.p.S.i.S.S.F.a.i.5.7.p._.}._._.I.`.`.G.5.4.:.` _ u.wXdXhXY.( 2.:.:.:.4.4.2.2.2.2.2.2.2.2.2.2.1.,.<.=.=.=.>.<.=.=.=.=.=.=.=.=.=.=.=.=.=.=.=.=.=.=.=.=.=.=.=.=.L Q -.:.1.8.8.8.4.2.2.2.2.2.2.2.2.2.2.2.2.2.2.2.2.2.2.2.2.2.2.2.8.2.2.2.4.8.8.8.:.-.-.Q L =.-.-.Q Q Q Q =.-.-.:.8.8.:.2.2.2.2.8.2.2.2.2.2.2.2.2.2.2.2.2.2.2.2.2.2.2.2.2.2.2.6.2.6.2.3.G.)._.I._.F.! 2.2.2.8.` !.P.P.P.P.P.G.i.2.8.1.4.' 2XhX8XpXhXu.) -.,.8.:.8.2.2.2.2.2.2.2.2.2.2.2.2.2.2.2.2.2.2.2.2.2.2.2.2.2.4.2.4.2.4.2.2.2.2.2.2.2.2.2.2.2.2.2.2.2.2.2.2.2.2.2.2.2.8.8.8.2.4.2.4.4.4.4.4.",
"4.4.2.2.2.2.2.2.2.2.2.2.2.2.2.4.-.=.-.Q Q Q L L Q Q Q Q Q Q Q Q -.=.=.=.=.-.-.-.Q =.=.=.Q Q Q L L Q P P 2.E.!.W.5.3.) 2.2.2.,.6.2.2.2.2.) ) 9.G.G._.P.p.3.2.:.:.2.5.F.W._.P.P.P._.G.p.p.i.5.7.9.5.a.F.F.a.a.a.a.5.i.a.F.a.a.a.F.F.i.a.a.F.a.d.5.a.a.a.a.a.a.i.a.7.7.d.a.a.F.i.i.i.S.a.9.7.7.a.a.a.7.7.7.a.F.a.5.5.i.a.F.p.i.i.F.a.F.5.3.F.F.i.a.i.i.i.i.S.S.S.S.a.a.a.a.a.a.a.a.a.a.a.a.a.a.a.a.a.7.5.a.F.a.i.F.i.i.a.F.a.5.7.a.a.9.9.9.7.9.a.a.5.5.i.a.F.F.F.p.a.a.a.a.a.a.a.a.a.a.a.a.F.F.a.p.p.p.S.S.S.F.F.F.a.d.5.3.p._.)._.I.`.I._._.a.) 4.4./ y.tXgXeXwX{ ` :.4.4.4.:.:.:.2.2.2.2.2.2.2.6.8.1.,.,.=.=.=.=.>.>.b b b b b b b b b b b b =.=.=.=.=.=.=.=.@.@.4.4.4.2.2.2.2.2.2.2.2.2.2.2.2.2.2.2.2.2.2.2.2.2.2.2.2.2.2.2.2.2.2.2.2.2.2.2.2.2.4.4.:.-.-.P P P ! ! -.-.:.2.2.2.2.2.2.2.2.2.2.2.2.2.2.2.2.2.2.2.2.2.2.2.2.2.2.2.2.2.2.2.2.2.2.2.2.2.3.s._.P.I.P.5.2.2.4.2.) 5.J.P.U.I.P.).G.4.2.4.:.4._ wXfXhXiXpXj._ :.8.8.:.:.2.2.2.2.2.2.2.2.2.2.2.2.2.2.2.2.2.2.2.2.2.2.2.2.2.2.2.2.2.2.2.2.2.2.2.2.2.2.2.2.2.2.2.2.2.2.2.2.2.2.2.2.2.2.2.2.2.2.2.2.2.2.2.2.",
"2.2.2.2.2.2.2.2.2.2.2.2.2.2.2.2.:.-.-.=.-.Q Q Q Q Q Q Q Q Q Q Q Q =.=.=.=.=.Q Q L L L Q =.=.=.Q -.:.! ! 3.H.!.H.7.3.2.2.2.2.6.6.2.2.2.2.) ) 9.G.G._.W.d.3.2.:.:.2.5.F.W.'._.P.P._.G.p.S.i.9.7.9.9.a.F.F.a.a.a.a.5.i.a.F.a.a.a.F.F.i.a.a.F.a.a.7.a.a.a.a.a.a.i.a.7.7.d.a.a.F.i.S.i.i.a.i.7.7.a.a.a.7.7.7.a.F.9.9.5.i.a.F.p.i.p.F.a.F.5.3.F.F.i.a.i.i.i.i.S.S.S.S.a.a.a.a.a.a.a.a.a.a.a.a.a.a.a.a.a.5.5.a.F.a.i.p.i.i.a.F.a.5.7.a.a.9.9.9.7.9.a.a.5.5.i.a.F.F.F.p.a.a.a.a.a.a.a.a.a.a.a.a.F.F.a.p.p.p.S.S.S.F.a.F.a.d.d.3.p._._.P.I.I.I._._.a.) 3.3./ y.yXgXeXiXX.` :.4.4.4.4.:.:.2.2.2.2.2.2.6.6.8.1.,.,.-.=.-.=.=.=.b b b b b b b b b b b b =.=.L L =.-.-.-.-.-.2.2.2.2.2.2.2.2.2.2.2.2.2.2.2.2.2.2.2.2.2.2.2.2.2.2.2.2.2.2.2.2.2.2.2.2.2.2.2.2.2.2.:.:.:.-.-.-.-.-.-.2.2.2.2.2.2.2.2.2.2.2.2.2.2.2.2.2.2.2.2.2.2.2.2.2.2.2.2.2.4.4.2.2.2.2.2.2.2.2.3.s._.P.I.P.5.2.) 4.2./ 5.J.P.I.I.P.).H.4.4.4.4.4._ iXpXhXiXpXj._ ) 7.3.:.:.2.2.2.2.2.2.2.2.2.2.2.2.2.2.2.2.2.2.2.2.2.2.2.2.2.2.2.2.2.2.2.2.2.2.2.2.2.2.2.2.2.2.2.2.2.2.2.2.2.2.2.2.2.2.2.2.2.2.2.2.2.2.2.2.",
"2.2.2.2.2.2.2.2.2.2.2.2.2.2.2.2.:.:.:.:.:.-.:.-.-.-.-.-.-.-.-.-.Q Q Q Q Q Q Q Q Q Q Q -.-.-.,.,.4.8.2.! 3.E.^.H.7.3.2.2.2.2.6.6.2.2.2.2.2.) 9.G.G._.W.d.3.2.:.:.2.5.F.W.'._.P.P._.G.p.i.i.9.8.9.9.a.F.F.a.a.a.a.5.i.a.F.a.a.a.F.F.i.a.a.F.a.a.7.a.a.a.a.a.a.i.a.5.7.d.a.F.F.S.S.S.S.a.i.7.7.a.E.F.9.7.7.a.F.9.7.5.i.a.F.p.i.p.F.a.F.5.3.F.F.i.a.i.i.i.i.S.S.S.S.a.a.a.a.a.a.a.a.a.a.a.a.a.a.a.a.a.5.5.a.F.a.i.F.i.i.a.F.a.5.7.a.a.9.9.9.7.9.a.a.5.5.i.a.F.F.F.p.a.a.a.a.a.a.a.a.a.a.a.a.F.F.F.p.p.p.p.S.i.a.a.a.a.d.7.3.p._._.P.I.I.I._._.a.) 3.3./ y.yXgXiXiXX._ 4.4.4.4.4.2.2.2.2.2.2.2.2.6.6.,.,.6.,.,.-.=.=.=.=.=.b b b b b b k k k k Q =.-.L Q Q -.-.:.4.4.2.2.2.2.2.2.2.2.2.2.2.2.2.2.2.2.2.2.2.2.2.2.2.2.2.2.2.2.2.2.2.2.2.2.2.2.2.2.2.2.2.2.2.2.2.2.2.2.2.2.2.2.2.2.2.2.2.2.2.2.2.2.2.2.2.2.2.2.2.2.2.2.2.2.2.2.2.2.2.2.4.4.2.2.2.2.2.2.2.2.7.G._.P.I.P.5.2.) 4.` ) 5.J.P.I.I.P.).G.4.4.4.:.4._ dXpXaXiXfXj._ ) 7.3.:.:.2.2.2.2.2.2.2.2.2.2.2.2.2.2.2.2.2.2.2.2.2.2.2.2.2.2.2.2.2.2.2.2.2.2.2.2.2.2.2.2.2.2.2.2.2.2.2.2.2.2.2.2.2.2.2.2.2.2.2.2.2.2.2.2.",
"2.2.2.2.2.2.2.2.2.2.2.2.2.2.2.2.8.:.4.:.4.:.:.:.4.:.:.:.4.:.4.:.:.,.:.,.:.,.:.,.,.,.:.,.:.1.8.8.8.8.3.) 3.E.^.H.3.3.2.2.2.2.6.6.2.2.2.2.2.4.9.G._._.W.d.3.2.:.:.2.5.F.W.'._.P.P.).G.p.p.i.9.8.9.9.a.F.F.a.a.a.a.5.i.a.F.a.a.a.F.F.i.a.a.F.a.a.7.a.a.a.a.a.a.i.i.5.7.a.a.F.F.F.S.i.i.a.i.7.7.a.E.F.9.7.7.a.F.9.5.5.i.a.F.p.i.p.F.a.F.5.3.F.F.i.a.S.i.i.i.S.S.S.S.a.a.a.a.a.a.a.a.a.a.a.a.a.a.a.a.d.5.5.a.F.a.i.F.i.i.a.F.a.5.7.a.a.9.9.9.7.9.a.a.5.9.i.a.S.F.F.p.a.a.a.a.a.a.a.a.a.a.a.a.F.F.F.i.p.p.i.S.i.a.a.a.a.d.7.3.p._._.P.I.I.I._._.a.) 3.3./ y.uXgXiXiXO._ 4.4.4.4.4.2.2.2.2.2.2.2.2.6.6.6.,.6.6.6.,.=.=.=.=.=.=.=.=.b =.k k k Q Q Q Q -.Q -.-.:.:.:.8.8.2.2.2.2.2.2.2.2.2.2.2.2.2.2.2.2.2.2.2.2.2.2.2.2.2.2.2.2.2.2.2.2.2.2.2.2.2.2.2.2.2.2.2.2.4.4.8.8.2.2.2.2.2.2.2.2.2.2.2.2.2.2.2.2.2.2.2.2.2.2.2.2.2.2.2.2.2.2.2.2.4.4.2.2.2.2.2.2.2.3.7.G._.P.I.P.5.2.) 4.) ) 5.J.P.I.I.P.).G.4.` 4.2.4.} dXpXaXiXfX%X_ ) 7.2.:.:.2.2.2.2.2.2.2.2.2.2.2.2.2.2.2.2.2.2.2.2.2.2.2.2.2.2.2.2.2.2.2.2.2.2.2.2.2.2.2.2.2.2.2.2.2.2.2.2.2.2.2.2.2.2.2.2.2.2.2.2.2.2.2.2.",
"2.2.2.2.2.2.2.2.2.2.2.2.2.2.2.2.4.4.4.4.2.4.2.:.4.4.4.4.4.4.4.4.8.8.8.8.8.8.8.8.8.8.8.8.8.1.8.4.2.8.2.! 3.E.!.E.3.3.2.2.6.6.6.6.2.2.2.2.2.4.a.W._._.W.d.2.2.:.:.3.5.F.W.'._.P.P.).G.p.i.i.9.8.9.5.a.F.F.a.a.a.a.5.i.a.F.a.a.a.F.F.i.a.a.a.a.a.7.a.a.a.a.a.a.i.i.5.d.a.a.F.F.F.F.i.i.a.i.5.5.a.E.F.9.7.7.9.F.9.7.5.9.a.F.p.i.S.F.a.F.5.3.F.F.i.a.S.S.S.S.S.S.S.S.a.a.a.a.a.a.a.a.a.a.a.a.a.a.a.a.d.7.5.a.F.a.i.F.i.i.a.F.a.5.7.a.a.9.9.9.9.9.a.a.5.5.i.a.S.F.F.S.a.a.a.a.a.a.a.a.a.a.a.a.a.a.a.i.p.p.p.i.i.a.a.a.a.d.7.3.p._._.P.I.I.I._._.a.) 3.3.) y.uXgXaXfXO._ 4.4.4.4.4.2.2.2.2.2.2.2.2.6.6.-.6.6.6.6.,.-.-.-.-.-.=.=.h a h h Q Q Q Q Q Q Q :.:.:.2.2.2.6.6.2.2.2.2.2.2.2.2.2.2.2.2.2.2.2.2.2.2.2.2.2.2.2.2.2.2.2.2.2.2.2.2.2.2.2.2.2.2.2.2.2.2.2.2.2.2.2.2.2.2.2.2.2.2.2.2.2.2.2.2.2.2.2.2.2.2.2.2.2.2.2.2.2.2.2.2.2.2.2.2.4.4.2.2.2.2.2.2.3.3.5.G._.P.I.P.5.2.) 4.2./ 5.J.P.I.I.P.).G.3.` 8.2.4. .fXpXaXiXfX&X_ ) 3.2.:.:.2.2.2.2.2.2.2.2.2.2.2.2.2.2.2.2.2.2.2.2.2.2.2.2.2.2.2.2.2.2.2.2.2.2.2.2.2.2.2.2.2.2.2.2.2.2.2.2.2.2.2.2.2.2.2.2.2.2.2.2.2.2.2.2.",
"2.2.2.2.2.2.2.2.2.2.2.2.2.2.2.2.2.2.2.2.2.2.2.2.2.2.2.2.2.2.2.2.8.8.8.8.8.8.8.8.4.4.2.4.2.:.2.2.:.4.2.! 3.E.!.W.3.` 2.3.6.8.6.6.2.2.2.2.2.4.F.W._._.W.d.2.2.:.4.3.5.F.W.'._.P.P.).G.p.p.i.9.8.9.5.a.F.F.a.a.a.a.5.i.a.F.a.a.a.F.F.i.a.a.a.a.d.7.a.a.a.a.a.a.i.i.5.d.a.F.F.F.F.F.i.i.a.i.5.5.a.F.F.9.7.7.9.a.9.3.5.9.a.F.p.i.S.F.a.F.5.3.F.F.i.a.S.S.S.S.S.S.S.S.a.a.a.a.a.a.a.a.a.a.a.a.a.a.a.a.d.7.5.a.F.a.i.F.i.i.a.F.a.5.7.a.a.9.9.9.7.9.a.a.5.5.i.a.S.S.F.p.a.a.a.a.a.a.a.a.a.a.a.a.a.a.a.i.p.S.p.S.i.a.a.a.a.d.5.3.p.W._.P.I.I.I._.!.a.) 3.3.) y.uXgXaXfXg._ 4.2.4.4.4.2.2.2.2.2.2.2.2.6.6.2.6.6.6.6.6.2.:.:.,.,.-.-.=.L L Q Q -.-.-.-.-.-.4.2.2.2.2.2.2.2.2.2.2.2.2.2.2.2.2.2.2.2.2.2.2.2.2.2.2.2.2.2.2.2.2.2.2.2.2.2.2.2.2.2.2.2.2.4.2.2.4.4.2.2.2.2.2.2.2.2.2.2.2.2.2.2.2.2.2.2.2.2.2.2.2.2.2.2.2.2.2.2.2.2.2.2.2.2.2.2.4.4.2.2.2.2.2.2.3.3.d.G._.P.I._.5.2.2.4.2./ 5.J.P.I.I.P.).G.3.` 8.2.4.y.fXpXaXiXlX&X3.) 3.3.4.:.2.2.2.2.2.2.2.2.2.2.2.2.2.2.2.2.2.2.2.2.2.2.2.2.2.2.2.2.2.2.2.2.2.2.2.2.2.2.2.2.2.2.2.2.2.2.2.2.2.2.2.2.2.2.2.2.2.2.2.2.2.2.2.2.",
"2.2.2.2.2.2.2.2.2.2.2.2.2.2.2.2.2.2.2.2.2.2.2.2.2.2.2.2.2.2.2.2.2.2.2.2.2.2.2.2.2.2.2.2.2.2.2.2.2.8.2.! 7.!.!.W.` ) 2.2.6.8.6.6.2.2.2.4.2.4.F.!._.).W.d.2.2.4.4.2.5.F.W.'._.P.P.P.G.p.p.i.9.7.9.5.a.F.F.a.a.a.a.5.i.a.F.a.a.a.F.F.i.a.a.a.a.d.7.a.a.a.a.a.a.i.i.5.d.a.F.F.F.F.F.i.i.a.i.5.5.a.F.F.9.7.7.9.a.9.3.5.9.a.F.p.i.S.F.a.F.5.3.F.F.i.a.i.a.S.S.S.S.S.S.a.a.a.a.a.a.a.a.a.a.a.a.a.a.a.a.d.7.5.a.F.a.i.F.i.i.a.F.a.5.7.a.a.9.9.9.9.9.a.a.5.5.i.a.F.F.F.p.a.a.a.a.a.a.a.a.a.a.a.a.a.a.a.i.p.S.p.S.S.F.a.a.a.d.5.3.p.W._.P.I.I.P._.!.a.) 3.3.) p.uXgXiXfXL._ 2.2.4.8.2.2.2.2.2.2.2.2.2.6.6.6.6.6.6.6.6.6.6.6.6.:.:.:.,.-.-.-.-.-.-.:.:.:.2.2.2.2.2.2.2.2.2.2.2.2.2.2.2.2.2.2.2.2.2.2.2.2.2.2.2.2.2.2.2.2.2.2.2.2.2.2.2.2.2.2.2.2.2.2.2.2.2.2.2.2.2.2.2.2.2.2.2.2.2.2.2.2.2.2.2.2.2.2.2.2.2.2.2.2.2.2.2.2.2.2.2.2.2.2.2.2.2.4.4.2.2.2.2.2.2.2.3.d.W._.P.I.).5.2.2.4.2./ 5.J.P.I.I.P.).G.3.4.8.:.3.u.fXpXiXiXlX&X3.) 3.3.4.4.2.2.2.2.2.2.2.2.2.2.2.2.2.2.2.2.2.2.2.2.2.2.2.2.2.2.2.2.2.2.2.2.2.2.2.2.2.2.2.2.2.2.2.2.2.2.2.2.2.2.2.2.2.2.2.2.2.2.2.2.2.2.2.2.",
"2.2.2.2.2.2.2.2.2.2.2.2.2.2.2.2.2.2.2.2.2.2.2.2.2.2.2.2.2.2.2.2.2.2.2.2.2.2.2.2.2.2.2.2.8.8.8.8.8.4.4.) 7.!.!.H.` ) 2.2.6.8.6.6.2.2.2.4.4.4.F.!._.).W.7.2.2.4.4.2.5.F.W.'._.P.P._.G.p.S.i.9.7.9.5.a.F.F.a.a.a.a.5.i.a.F.a.a.a.F.F.i.a.a.a.a.d.7.a.a.a.a.a.a.i.i.5.d.a.F.F.F.F.F.i.i.a.i.5.5.a.F.F.9.7.7.9.a.9.3.5.i.a.F.p.i.S.F.a.F.5.3.F.F.i.a.i.a.i.S.S.S.S.S.a.a.a.a.a.a.a.a.a.a.a.a.a.a.a.a.d.7.5.a.F.a.i.F.i.i.a.F.a.5.7.a.a.9.9.9.9.9.a.a.5.5.i.p.F.F.F.p.a.a.a.a.a.a.a.a.a.a.a.a.a.a.a.i.p.S.S.S.S.F.a.a.a.9.5.3.i.W._.P.I.I.P._.!.a.) 3.3.) p.uXgXiXhXL._ 2.2.2.2.2.2.2.2.2.2.2.2.6.6.6.6.6.6.6.6.6.6.8.6.6.6.8.6.,.,.:.:.:.:.4.4.8.8.8.2.2.2.2.2.2.2.2.2.2.2.2.2.2.2.2.2.2.2.2.2.2.2.2.2.2.2.2.2.2.2.2.2.2.2.2.2.2.2.2.2.2.2.2.2.2.2.2.2.2.2.2.2.2.8.8.2.2.2.2.2.2.2.2.2.2.2.2.2.2.2.2.2.2.2.2.2.2.2.2.2.2.2.2.2.2.2.2.4.4.2.2.2.2.2.2.2.3.a.W._.P.I.).5.2.2.4.2./ 5.J.P.I.I.P.}.G.3.2.8.-.3.u.hXpXiXdXlX&X3.) 3.3.4.4.2.2.2.2.2.2.2.2.2.2.2.2.2.2.2.2.2.2.2.2.2.2.2.2.2.2.2.2.2.2.2.2.2.2.2.2.2.2.2.2.2.2.2.2.2.2.2.2.2.2.2.2.2.2.2.2.2.2.2.2.2.2.2.2.",
"2.2.2.2.2.2.2.2.2.2.2.2.2.2.2.2.2.2.2.2.2.2.2.2.2.2.2.2.2.2.2.2.2.2.2.2.2.2.2.2.2.2.2.2.2.2.2.2.2.2.2.) 3.^.(.9.3.` 3.2.2.2.6.6.2.2.2.4.2.3.F.}.W.).W.3.2.2.8.:.2.3.W.}.J.P._.P.).G.p.S.a.9.7.9.7.i.F.F.F.a.a.a.5.i.a.F.a.a.a.F.F.a.a.a.a.a.a.7.a.a.a.a.a.F.F.a.5.a.a.F.a.a.i.F.i.i.i.5.5.7.a.9.F.9.7.7.9.9.3.3.F.a.a.a.F.F.F.S.F.i.5.5.a.F.a.i.i.i.a.a.S.S.S.S.a.a.a.a.a.a.a.a.a.a.a.a.a.a.a.a.d.7.5.a.F.a.i.F.i.i.F.a.a.7.d.9.9.M.9.9.7.5.9.a.5.i.a.F.p.i.p.F.a.a.a.a.a.a.a.a.a.a.a.a.a.a.a.i.S.S.S.S.S.F.F.F.7.7.5.3.i.J._.P.I.I.P.P.!.9.) 4.` _ } gXaXiXpXwX_ 2.3.3.2.2.2.6.2.2.2.2.2.2.6.6.2.2.2.2.2.2.6.2.2.2.2.6.2.2.2.4.2.2.2.2.2.2.2.2.2.2.2.2.2.2.2.2.2.2.2.2.2.2.2.2.2.2.2.2.2.2.2.2.2.2.2.2.2.2.2.2.2.2.2.2.2.2.2.2.2.2.2.2.2.2.2.2.2.2.2.2.2.2.2.2.2.2.2.2.2.2.2.2.2.2.2.2.2.2.2.2.2.2.2.2.2.2.2.2.2.2.2.2.2.2.2.2.4.4.2.2.2.2.2.2.2.3.a._._.P.h._.3.3.2.) ) ` i.G.P.I.I.P._.F.` 2.2.8.) P.fX8XiXaXfX3XT ) 7.2.4.4.2.2.2.2.2.2.2.2.2.2.2.2.2.2.2.2.2.2.2.2.2.2.2.2.2.2.2.2.2.2.2.2.2.2.2.2.2.2.2.2.2.2.2.2.2.2.2.2.2.2.2.2.2.2.2.2.2.2.2.2.2.2.2.2.",
"2.2.2.2.2.2.2.2.2.2.2.2.2.2.2.2.2.2.2.2.2.2.2.2.2.2.2.2.2.2.2.2.2.2.2.2.2.2.2.2.2.2.2.2.2.2.2.2.2.2.2.) 3.^.(.5.3.3.3.2.2.2.6.6.2.2.2.4.2.3.F.}.W.).W.3.2.2.8.:.2.3.W.}.J.P._.P.).G.p.S.a.9.7.9.7.i.F.F.F.a.a.a.5.i.a.F.a.a.a.F.F.a.a.a.a.a.a.7.a.a.a.a.F.F.F.a.5.a.a.F.a.a.i.F.i.i.i.5.5.7.a.9.F.9.7.7.9.9.3.3.F.F.a.a.p.p.p.S.F.i.5.5.a.F.a.i.S.S.a.i.S.S.S.S.a.a.a.a.a.a.a.a.a.a.a.a.a.a.a.a.d.7.5.a.F.a.i.F.i.i.F.a.a.5.d.9.9.M.9.9.7.7.9.a.5.i.a.F.p.i.p.F.a.a.a.a.a.a.a.a.a.a.a.a.a.a.a.i.S.S.S.S.S.F.F.F.7.7.5.3.i.G.W.P.I.I.P.J.!.9.) 4.` _ } gXaXiXpXiXT 2.2.2.3.2.2.2.2.2.2.2.2.2.6.6.2.2.2.2.2.2.6.6.2.2.2.2.2.2.2.2.2.2.2.2.2.2.2.2.2.2.2.2.2.2.2.2.2.2.2.2.2.2.2.2.2.2.2.2.2.2.2.2.2.2.2.2.2.2.2.2.2.2.2.2.2.2.2.2.2.2.2.2.2.2.2.2.2.2.2.2.2.2.2.2.2.2.2.2.2.2.2.2.2.2.2.2.2.2.2.2.2.2.2.2.2.2.2.2.2.2.2.2.2.2.2.2.4.4.2.2.2.2.2.2.3.3.a._._.P.P.P.3.2.2.) ) ` i.G.f.I.I.P._.F.` 2.2.8.) P.fX8XiXfXfX3XT ) 7.2.4.4.2.2.2.2.2.2.2.2.2.2.2.2.2.2.2.2.2.2.2.2.2.2.2.2.2.2.2.2.2.2.2.2.2.2.2.2.2.2.2.2.2.2.2.2.2.2.2.2.2.2.2.2.2.2.2.2.2.2.2.2.2.2.2.2.",
"2.2.2.2.2.2.2.2.2.2.2.2.2.2.2.2.2.2.2.2.2.2.2.2.2.2.2.2.2.2.2.2.3.3.2.2.2.2.2.2.2.2.2.2.3.3.2.2.4.2.2.) 3.^.!.3.3.` 3.3.2.2.6.6.2.2.2.4.2.` F.}.W.).W.7.2.8.8.:.2.3.W.}.J.P._.P._.G.p.p.i.9.7.9.7.i.F.F.F.a.a.a.5.i.a.F.a.a.a.F.F.a.a.a.a.a.a.7.a.a.a.a.F.F.F.a.5.a.a.F.a.a.a.F.i.i.i.5.5.7.d.9.F.9.9.7.9.9.3.3.a.a.a.a.p.p.p.p.F.i.5.5.a.F.a.i.S.S.S.S.S.S.S.S.a.a.a.a.a.a.a.a.a.a.a.a.a.a.a.a.a.7.5.a.F.a.i.F.i.i.F.a.d.5.7.9.a.M.9.9.7.7.9.a.5.i.a.F.i.i.p.F.a.a.a.a.a.a.a.a.a.a.F.F.a.a.a.i.S.S.S.S.S.F.F.M.9.7.5.5.d.G.W.J.P.P.P.J.!.9.3.7.` 3.} gXdXdXpXiXy.3.3.2.2.2.2.2.2.2.2.2.4.:.,.6.2.2.2.2.2.2.2.2.2.2.2.2.2.2.2.2.2.2.2.2.2.2.2.2.2.2.2.2.2.2.2.2.2.2.2.2.2.2.2.2.2.2.2.2.2.2.2.2.2.2.2.2.2.2.2.2.2.2.2.2.2.2.2.2.2.2.2.2.2.2.2.2.2.2.2.2.2.2.2.2.2.2.2.2.2.2.2.2.2.2.2.2.2.2.2.2.2.2.2.2.2.2.2.2.2.2.2.2.2.2.2.2.4.4.2.2.2.2.2.2.2.3.a._._.P.I.P.3.2.) ) ) ` i.J.K.I.I.P._.F.` 2.2.8.) P.fX8XiXfXfX9X_ ) 7.2.4.4.2.2.2.2.2.2.2.2.2.2.2.2.2.2.2.2.2.2.2.2.2.2.2.2.2.2.2.2.2.2.2.2.2.2.2.2.2.2.2.2.2.2.2.2.2.2.2.2.2.2.2.2.2.2.2.2.2.2.2.2.2.2.2.2.",
"2.2.2.2.2.2.2.2.2.2.2.2.2.2.2.2.2.2.2.2.2.2.2.2.2.2.2.2.2.2.2.2.3.2.2.2.2.2.2.2.2.2.2.2.2.3.2.2.2.2.2.2.3.!.!.3.` ` 3.3.2.2.6.6.2.2.2.4.2.` F.}.W.).W.3.2.2.8.:.3.3.G.}.J.P._.P.).G.p.p.i.9.8.9.7.i.F.F.F.a.a.a.5.i.a.F.a.a.a.F.F.i.a.a.a.a.a.7.a.a.a.a.F.F.F.a.5.d.a.F.a.a.a.F.i.i.i.5.5.7.d.9.F.M.9.9.9.9.3.3.a.F.F.a.p.p.p.S.F.i.5.5.a.F.a.i.S.S.S.S.S.S.S.S.a.a.a.a.a.a.a.a.a.a.a.a.a.a.a.a.a.5.5.a.F.a.i.F.i.i.F.a.a.5.7.9.a.M.9.9.7.7.5.9.5.i.a.F.S.i.p.F.a.a.a.a.a.a.a.a.a.a.F.F.a.a.a.i.S.S.S.S.S.F.M.M.9.9.5.5.i.G.P.P.P.P.P.J.!.9.3.7.` 3.} gXdXfXfXiXu.7.7.3.3.2.2.2.2.2.2.2.4.8.,.6.2.2.2.2.2.2.2.2.2.2.2.2.2.2.2.2.2.2.2.2.2.2.2.2.2.2.2.2.2.2.2.2.2.2.2.2.2.2.2.2.2.2.2.2.2.2.2.2.2.2.2.2.2.2.2.2.2.2.2.2.2.2.2.2.2.2.2.2.2.2.2.2.2.2.2.2.2.2.2.2.2.2.2.2.2.2.2.2.2.2.2.2.2.2.2.2.2.2.2.2.2.2.2.2.2.2.2.2.2.2.2.2.4.4.2.2.2.2.2.2.2.3.a._._.P.I.P.3.) ) 4.) / i.U.K.I.I.P._.F.` 2.2.8.) P.fXpXsXiXfX9Xy.) 7.2.8.4.2.2.2.2.2.2.2.2.2.2.2.2.2.2.2.2.2.2.2.2.2.2.2.2.2.2.2.2.2.2.2.2.2.2.2.2.2.2.2.2.2.2.2.2.2.2.2.2.2.2.2.2.2.2.2.2.2.2.2.2.2.2.2.2.",
"2.2.2.2.2.2.2.2.2.2.2.2.2.2.2.2.2.2.2.2.2.2.2.2.2.2.2.2.2.2.2.2.2.2.2.2.2.2.2.2.2.2.2.2.2.2.2.2.2.2.4.2.3.!.!.` ` 3.3.2.2.2.6.6.2.2.2.4.2.) F.!.P._.G.3.2.2.8.:.2.3.G.}.J.P.].P.P.G.p.p.a.9.7.9.7.i.F.F.F.a.a.a.5.i.a.F.a.a.a.F.F.i.a.a.a.a.a.7.a.a.a.F.F.F.F.a.5.d.a.F.a.a.i.F.i.i.i.5.5.5.d.9.F.M.9.7.5.5.7.3.a.a.a.a.p.p.S.S.F.i.5.5.a.F.a.i.i.i.i.S.S.S.S.S.a.a.a.a.a.a.a.a.a.a.a.a.a.F.a.a.d.7.5.a.F.a.i.F.i.i.F.a.a.5.7.9.a.F.9.9.7.7.5.9.5.i.a.F.S.i.S.F.a.a.a.a.a.a.a.a.a.a.a.a.F.F.F.S.S.S.S.S.S.S.M.M.9.9.5.5.d.G._.P.P.P.P.J.!.9.3.7.) 3.} gXdXfXfXdXu.7.3.2.3.2.2.2.2.2.2.2.4.4.6.4.2.2.2.2.2.2.2.2.2.2.2.2.2.2.2.2.2.2.2.2.2.2.2.2.2.2.4.4.4.4.2.2.2.2.2.2.2.2.2.2.2.2.2.2.2.2.2.2.2.2.2.2.2.2.2.2.2.2.2.2.2.2.2.2.2.2.2.2.2.2.2.2.2.2.2.2.2.2.2.2.2.2.2.2.2.2.2.2.2.2.2.2.2.2.2.2.2.2.2.2.2.2.2.2.2.2.2.2.2.2.2.2.4.4.2.2.2.2.2.2.2.5.E._._.P.I.G.3.2.) 4.) ! 5.'.P.I.I.P._.F.` 2.2.7.) P.fXpXpXdXlX9Xu.) 7.2.4.4.2.2.2.2.2.2.2.2.2.2.2.2.2.2.2.2.2.2.2.2.2.2.2.2.2.2.2.2.2.2.2.2.2.2.2.2.2.2.2.2.2.2.2.2.2.2.2.2.2.2.2.2.2.2.2.2.2.2.2.2.2.2.2.2.",
"2.2.2.2.2.2.2.2.2.2.2.2.2.2.2.2.2.2.2.2.2.2.2.2.2.2.2.2.2.2.2.2.2.3.2.2.2.2.2.2.2.2.2.2.2.2.2.2.4.2.4.2.3.E.W.) 3.3.2.2.2.2.6.6.2.2.3.4.2.) F.!.P._.W.3.2.2.8.:.2.` F.}.J.P.].P.P.G.p.p.a.9.7.9.7.i.F.F.F.a.a.a.5.i.a.F.a.a.a.F.F.i.a.a.a.a.a.7.a.a.a.F.F.F.F.a.5.d.a.F.a.a.i.F.i.i.i.5.5.5.d.9.F.M.9.9.5.7.7.7.a.a.a.a.S.p.S.p.F.i.5.5.a.F.a.i.i.i.i.S.S.S.S.S.a.a.a.a.a.a.a.a.a.a.a.a.a.a.a.a.d.7.5.a.F.a.i.F.i.i.F.a.d.5.7.9.a.F.9.9.7.7.5.9.5.i.a.F.S.i.S.F.a.a.a.a.a.a.a.a.a.a.a.a.F.a.F.S.S.S.S.S.S.S.M.M.9.9.5.3.d.G._.P.P.P.P.J.!.9.3.7.) 3.} gXdXfXlXdXp.7.*.Y 2.3.7.7.2.2.2.2.4.4.6.4.2.2.2.2.2.2.2.2.2.2.2.2.2.2.2.2.2.2.2.2.2.2.2.2.2.4.4.4.4.4.4.4.2.2.2.2.2.2.2.2.2.2.2.2.2.2.2.2.2.2.2.2.2.2.2.2.2.2.2.2.2.2.2.2.2.2.2.2.2.2.2.2.2.2.2.2.2.2.2.2.2.2.2.2.2.2.2.2.2.2.2.2.2.2.2.2.2.2.2.2.2.2.2.2.2.2.2.2.2.2.2.2.4.4.2.2.2.2.2.2.7.a.W.W.P.P.I.G.3.2.2.4.) H _ U.P.I.I.P._.F.` 2.2.7.) P.lXpXsXfXlXfXp.) 7.2.8.:.2.2.2.2.2.2.2.2.2.2.2.2.2.2.2.2.2.2.2.2.2.2.2.2.2.2.2.2.2.2.2.2.2.2.2.2.2.2.2.2.2.2.2.2.2.2.2.2.2.2.2.2.2.2.2.2.2.2.2.2.2.2.2.2.",
"2.2.2.2.2.2.2.2.2.2.2.2.2.2.2.2.2.2.2.2.2.2.2.2.2.2.2.2.2.2.2.2.2.2.2.2.2.2.2.2.3.3.2.2.2.2.2.2.4.2.4.2.3.E.W.) 3.3.2.2.2.2.6.6.2.2.2.4.2.` F.!.G._.G.3.2.8.8.:.2.` F.!.G.P.].P.P.G.p.S.a.9.7.9.7.i.F.F.F.a.a.a.5.i.a.F.a.a.a.F.F.i.a.a.a.a.a.7.a.a.a.F.F.F.F.a.5.d.a.F.a.a.i.F.i.i.i.5.5.5.a.9.a.9.9.9.7.7.7.7.a.a.a.a.S.S.S.p.F.i.5.5.a.F.a.i.i.i.i.i.S.S.S.S.a.a.a.a.a.a.a.a.a.a.a.a.a.F.a.a.d.7.5.a.F.a.i.F.i.i.F.a.d.5.7.9.F.F.F.9.7.7.5.9.5.i.a.F.p.i.p.F.a.a.a.a.a.a.a.a.a.a.a.a.a.a.a.i.S.S.S.S.S.M.M.M.9.9.5.3.d.G._.P.P.P.P.J.!.9.3.7.) 3.} gXdXfXlXdX4X^.d.3.3.3.3.2.2.2.2.2.1.1.1.:.4.4.4.4.:.:.2.2.2.2.2.2.2.2.2.2.2.2.2.2.2.2.4.4.4.4.4.4.4.4.4.4.2.2.2.2.2.2.2.2.2.2.2.2.2.2.2.2.2.2.2.2.2.2.2.2.2.2.2.2.2.2.2.2.2.2.2.2.2.2.2.2.2.2.2.2.2.2.2.2.2.2.2.2.2.2.2.2.2.2.2.2.2.2.2.2.2.2.2.2.2.2.2.2.2.2.2.2.2.2.2.2.4.4.2.2.2.2.2.2.9.W.!.W.P.P.I.G.3.2.) 4.) H _ U.P.I.I.P._.F.` 2.2.7.) U.zXlXpXfXlXfXs.) 3.2.8.:.2.2.2.2.2.2.2.2.2.2.2.2.2.2.2.2.2.2.2.2.2.2.2.2.2.2.2.2.2.2.2.2.2.2.2.2.2.2.2.2.2.2.2.2.2.2.2.2.2.2.2.2.2.2.2.2.2.2.2.2.2.2.2.2.",
"2.2.2.2.2.2.2.2.2.2.2.2.2.2.2.2.2.2.2.2.2.2.2.2.2.2.2.2.2.2.2.2.2.2.2.2.2.2.2.2.2.2.2.2.2.2.2.2.4.4.4.2.4.H.H.) 3.3.3.2.2.2.2.2.2.3.2.3.` ` a.}.G._.G.3.) 8.4.:.-.3.F.}.G.P.].I.P.G.p.S.M.9.7.9.7.i.F.F.F.a.a.a.5.i.a.F.a.a.a.F.F.i.a.a.F.a.d.5.a.a.a.F.F.F.F.a.5.d.a.F.a.a.a.F.a.a.i.5.5.5.a.9.a.a.9.7.7.3.5.5.a.i.i.i.S.S.S.S.F.i.5.5.a.F.a.i.i.i.i.i.S.S.S.i.i.F.a.a.a.a.a.a.a.a.a.a.a.a.a.a.i.7.5.a.F.a.i.F.i.a.F.a.d.5.7.d.F.F.F.9.7.3.7.5.5.i.a.F.i.i.S.F.a.a.a.a.a.a.a.a.a.a.a.a.a.a.a.i.S.S.S.S.S.M.M.M.9.9.5.5.d.E._.P.P._.P.W.!.9.2.8.3.3.} gXgXfXfXfXhXuX).u.y.3.3.) 3.2.2.2.6.2.6.4.4.:.4.:.:.:.4.4.4.4.2.2.2.2.2.2.2.2.2.2.2.2.2.2.2.2.4.4.4.4.4.4.2.2.2.2.2.2.2.2.2.2.2.2.2.2.2.2.2.2.2.2.2.2.2.2.2.2.2.2.2.2.2.2.2.2.2.2.2.2.2.2.2.2.2.2.2.2.2.2.2.2.2.2.2.2.2.2.2.2.2.2.2.2.2.2.2.2.2.2.2.2.2.2.2.2.2.2.2.2.2.2.2.3.3.3.2.2.2.3.F.!.!.W.G.P.P.G.3.) 2.9.2.G ` J.G.P.I.P.'.F.3.2.2.7.) ].hXpXfXfXlXfXp._ _ ) 8.:.2.2.2.2.2.2.2.2.2.4.4.4.4.4.4.4.2.2.2.2.2.2.2.2.2.2.2.2.2.2.2.2.2.2.2.2.2.2.2.2.2.2.2.2.2.2.2.2.2.2.2.2.2.2.2.2.2.2.2.2.2.2.2.2.",
"6.6.7.6.7.2.6.2.6.6.6.6.7.2.7.6.2.2.2.2.2.2.2.2.2.2.2.2.2.2.2.2.2.2.2.2.2.2.2.2.2.2.2.2.2.2.2.2.4.) ) 4.9.9.4.) ` ` ` 2.2.2.2.4.3.3.3.3._ _ p.)._._.E.3.) 4.4.-.Q G E.W.P.].I.I.P.G.p.a.9.9.9.7.7.d.a.a.F.a.p.a.3.i.p.p.a.F.p.i.F.S.i.S.F.F.9.3.S.a.F.F.S.i.9.9.7.5.9.F.F.F.a.a.a.a.9.5.3.3.9.a.a.a.a.i.i.9.5.5.p.S.S.S.i.i.i.i.F.9.3.5.9.S.S.9.S.S.S.F.F.F.S.S.S.S.S.S.S.S.S.S.F.F.F.F.F.F.F.F.5.5.5.i.i.p.p.p.p.p.a.a.a.d.d.7.a.9.9.9.5.3.3.3.3.9.F.F.F.F.a.F.i.p.p.p.p.p.S.S.S.i.i.i.i.i.i.p.i.i.i.i.i.n.M.M.5.5.5.7.d.W._._._.{._.W.^.9.6.8.8.2.p.rXgXhXpXfXiXiXdXdX3XI.u.} _ _ 3.3.7.8.6.2.:.:.:.:.:.8.8.8.:.1.1.1.1.,.,.8.6.4.2.4.2.:.:.:.4.4.4.4.4.:.:.:.6.6.6.6.6.6.6.6.6.6.,.6.6.6.6.6.6.6.6.6.6.6.,.6.6.6.6.6.6.6.6.6.6.6.,.,.6.6.6.6.6.6.,.,.6.6.6.6.6.6.6.6.6.6.6.6.8.8.8.8.6.8.8.8.8.8.8.8.8.8.8.8.8.6.8.8.8.8.8.2.3.5.S.G.!.!.W.G.'.}.'.J.J.U.J.G.) 3.2.9.-.# 2.!.!.U.G.P.'.a.2.8.P 3.u.I.dXfXiXfXfXdX2Xp./ H ! 4.:.:.:.:.8.8.:.,.:.,.-.-.-.,.,.1.1.6.6.6.6.6.6.6.6.6.,.6.6.6.6.8.8.1.1.1.1.1.1.1.1.1.1.1.1.1.1.1.1.4.6.4.6.4.6.:.8.8.8.8.8.8.8.8.",
"2.2.2.2.2.2.2.2.2.2.2.2.2.2.2.2.2.2.2.2.2.2.2.3.2.3.2.2.2.2.2.2.2.2.6.2.6.2.6.2.6.6.6.6.8.8.8.6.8.2.) 4.9.9.8.2.4.4.4.4.4.4.4.4.3.3.3.3.3.*.p._.z.W.E.7.2.4.4.-.L L E.W.P.`.I.I.P.G.S.a.9.9.9.9.7.d.a.a.F.a.p.a.3.i.p.p.i.F.F.i.F.S.i.S.F.S.5.3.9.i.S.S.S.i.i.9.5.5.9.F.F.F.a.a.a.a.9.5.3.3.9.F.a.a.a.i.i.d.5.5.p.S.S.S.p.i.i.S.F.9.3.5.9.F.S.9.S.S.F.F.F.F.F.S.S.S.S.S.S.S.S.S.i.i.i.i.p.S.p.p.5.5.9.i.i.p.p.F.p.a.p.a.d.d.7.7.a.9.9.9.9.3.3.3.3.9.F.F.F.F.F.F.a.p.p.p.i.p.S.S.F.p.p.i.i.S.p.S.p.S.S.S.S.F.F.M.5.5.5.7.a.^.[._._.{._.^.^.9.2.6.2.2.d.rXhXhXfXlXpXpXfXfXdXwX2X1Xu.} T I I 2.2.2.8.4.4.:.:.-.! Q 4.:.6.1.6.1.6.6.6.2.2.2.2.2.2.2.2.2.2.2.2.2.2.2.6.6.6.6.6.6.6.6.6.6.,.,.6.6.6.6.6.6.6.6.6.6.,.,.6.6.6.6.6.6.6.6.6.6.6.,.6.6.6.6.6.6.6.,.6.6.6.6.6.6.6.6.6.6.6.6.8.8.8.8.8.8.8.8.8.8.8.8.6.6.8.8.6.6.6.6.8.6.8.8.p.D.G.J.'.'.P.J.J.U.P.G.G.P.J.p./ 4.-.8.L # 4.(.!.J.G.J.'.9.! 2.2._ y.].gXfXiXhXpXiXeX2XD._ / ! 9.8.6.2.2.2.:.:.4.:.:.:.:.:.-.,.1.6.6.6.6.6.6.6.6.6.,.,.6.6.6.6.1.1.1.1.8.1.8.1.8.1.8.1.8.1.8.8.:.:.:.:.:.:.:.:.:.:.:.:.:.:.:.:.",
"2.2.2.2.2.2.2.2.2.2.2.2.2.8.8.8.2.3.2.3.2.3.2.3.3.3.2.3.2.3.3.3.2.2.2.2.2.2.2.2.2.2.2.2.2.2.2.2.2.2.! 2.8.8.2.-.2.2.2.2.2.2.2.2.2.2.3.2.2.&.d.W.^.^.W.8.2.4.-.Q y G E.!._.].I.I.P.G.S.i.9.9.9.7.7.7.a.a.a.a.a.a.5.i.F.a.a.F.F.a.F.F.a.F.F.F.9.3.9.9.F.F.F.a.9.9.5.9.a.F.F.F.a.a.a.a.9.7.3.3.9.F.a.a.a.i.i.5.5.5.i.i.i.S.S.S.S.S.S.9.3.5.9.F.F.9.F.F.F.F.F.F.F.F.F.M.M.M.F.F.F.F.a.a.a.a.a.a.a.a.5.5.i.a.a.a.F.F.a.a.a.a.7.7.7.7.a.a.9.5.7.3.3.3.5.9.F.F.F.a.a.F.F.a.F.F.a.F.F.F.F.a.a.a.i.F.F.F.i.i.i.F.F.F.M.M.5.5.5.7.d.E._._.I.)._.W.!.9.2.2.3.) d.].hXhX8X8XlXfXfXhXhXhXhXgXtX2XP.p.y.3.3._ 3.8.8.8.7.8.7.8.2.2.2.2.2.2.2.2.2.2.2.2.2.2.2.2.2.2.2.2.2.2.2.2.2.2.2.2.2.2.2.2.2.2.2.2.2.2.2.2.2.2.2.2.2.2.2.2.2.2.2.2.2.2.2.2.2.2.2.2.2.2.2.2.2.2.2.2.2.2.2.2.2.2.2.2.2.2.2.2.6.6.6.6.6.6.6.6.2.2.2.2.2.2.2.2.2.2.2.2.2.2.6.7.G.G.P.P.P.P.G.G.G.P.P.G.P.P.G.p.) 4.-.Q i r 9.(.!.U.G.P.!.7.P -.8.) ( ].gXdX;XzX8XpXfXiX2XI...} T T Y Y 3.5.d.a.) ) 3.4.4.4.2.2.2.2.2.2.2.2.2.2.2.2.2.2.2.2.2.2.6.8.6.8.6.8.6.8.6.8.6.8.6.8.6.2.2.2.2.2.2.2.2.2.2.2.2.2.2.2.2.2.",
"8.4.8.8.8.8.8.4.2.2.3.3.3.3.8.4.2.2.2.2.2.2.2.2.2.2.2.2.2.2.2.2.4.4.4.4.2.2.2.2.2.2.2.2.2.2.2.2.2.2.2.2.8.8.2.2.8.8.4.4.8.4.8.8.8.2.6.6.2.2.9.~.}.}.E.6.P L y r r y E.}._.].I.P.P.G.S.i.9.9.9.7.7.7.a.a.l.a.a.a.7.a.F.a.a.F.F.a.F.F.a.F.F.F.9.7.9.9.a.F.a.F.a.9.9.9.a.F.F.F.a.a.a.a.9.7.3.3.9.F.a.a.a.d.5.5.5.5.a.i.a.i.i.S.i.S.F.9.3.5.9.F.F.9.F.F.F.F.F.F.F.F.M.M.M.M.F.F.F.F.F.F.a.a.a.a.a.a.i.i.a.a.a.F.F.F.F.a.a.a.a.7.7.7.F.F.a.9.5.7.3.3.5.9.F.F.F.a.a.a.F.F.F.F.F.F.F.F.a.a.i.i.i.i.i.a.i.i.9.9.9.9.9.9.7.9.7.3.a.E._._.P.P.P._.!.7.H 2.7.) } I.iXfXlXpX8XpXiXiXiXdXaXdXgXuXrXrX].G.p.3.I H I I ) ) 3.3.3.2.2.2.2.2.2.2.2.3.3.3.3.3.3.3.3.3.3.3.3.3.3.2.2.2.2.2.2.2.2.2.2.2.2.2.2.2.2.2.2.2.2.2.2.2.2.2.2.2.2.2.2.2.2.2.3.2.2.2.2.2.2.2.3.2.2.2.2.2.2.2.2.2.2.2.2.2.2.2.2.2.2.2.2.2.2.2.2.2.2.2.2.2.2.2.2.3.2.2.2.2.7.7._.P.P.P.P.P.P.P.P.U.U.P.P.P.P.i.! b.Q a e e 9.!.W.P.G.P.!.3.G L 4.! ) P.uXaX7XpXlXlXlXfXfXdXdXwX`.`.h.s.u.y.T I Y Y _ _ _ 3.3.3.2.2.2.2.2.2.2.2.2.2.2.2.2.2.2.2.2.2.2.2.2.2.2.2.2.2.2.2.2.3.2.2.2.3.2.3.2.3.3.3.3.3.3.3.3.3.3.3.",
"4.` 4.` :.^ :.^ :.` 4.` :.^ :.:.:.:.! ! ! :.:.:.4.4.4.4.4.4.4.4.:.4.4.4.4.4.4.4.8.8.8.8.8.8.8.8.8.8.8.8.8.8.8.8.8.8.8.8.8.8.8.8.1.,.1.8.6.2.7.r./.E.8.P i i e e r r E.}._.].I.P.P.G.S.n.9.9.9.7.7.9.9.a.F.a.a.9.7.9.F.F.a.F.F.a.F.M.9.F.F.F.9.7.9.9.9.M.F.F.F.F.9.9.F.F.F.F.F.F.F.F.9.7.3.3.9.M.a.a.9.7.7.7.7.9.a.F.a.F.F.S.F.F.F.9.7.7.9.F.F.9.F.F.F.F.F.F.F.F.M.M.M.M.M.M.F.F.F.F.a.a.a.a.a.a.a.a.a.a.F.F.F.F.E.F.F.9.9.9.9.7.F.F.F.9.9.7.7.7.9.9.F.F.F.9.9.9.a.a.a.a.a.a.a.a.9.5.5.5.5.5.9.9.7.7.9.9.9.9.9.9.7.9.7.7.a.E._._.P.L.D.J.J.3.H ) 3.Y T f.3XfXzXzXzXhXhXhXhXhXgXdXdXuXgXgXgXuXrXOXG.F.5._ ) / ) _ 3.3.3.3.3.3.3.3.3.3.3.3.3.3.3.3.3.3.3.3.3.3.3.3.3.3.3.3.3.3.3.3.3.3.3.3.3.3.3.3.3.3.3.3.3.3.3.3.3.3.3.3.3.3.3.3.3.3.3.3.3.3.3.3.3.3.3.3.3.3.3.3.3.3.3.3.3.3.3.3.3.3.3.3.3.3.3.3.3.3.3.3.3.3.3.3.3.3.3.3.3.3.7.d.'.).'.P.P.U.).).P.).).P.P.P.G.5.-.v.h i e e 9.W._.P.P._.!.4.i y E ^ ` 5.XXgXaXpXpXpX:X8X8XpXfXhXfXdXdX5X2X`.h.p.s.p.p.y._ _ 3.3.3.3.3.3.3.3.3.3.3.3.3.3.3.3.3.3.2.3.2.3.2.3.2.3.3.3.3.3.2.3.3.3.2.) 2.) 2.) ) ) 3.` 3.` 3.` 3.` ",
":.:.:.:.:.:.:.:.:.4.4.4.:.:.:.:.:.:.:.:.:.:.:.:.-.-.-.-.-.-.-.-.,.,.,.,.,.,.,.,.=.=.=.=.-.-.=.=.>.>.=.=.=.=.=.=.=.-.=.=.=.>.=.>.x a x @.@.J @.-.,.-.@.i i e p p r r E.}._.].I.P.P.G.S.9.n.9.7.7.7.9.9.l.a.a.9.9.7.9.F.a.a.F.F.a.F.M.9.F.F.F.9.7.9.9.9.9.F.F.F.F.M.M.F.F.F.F.F.F.F.F.9.7.3.3.9.F.F.a.9.7.7.7.9.9.a.a.a.a.F.F.a.a.F.9.3.7.9.F.F.9.F.M.F.9.9.9.9.M.9.9.9.9.9.9.9.9.F.F.a.a.a.a.a.a.9.9.a.a.F.a.F.F.a.a.9.9.9.9.9.9.F.F.9.9.9.9.9.9.7.9.M.F.9.9.9.9.9.9.9.9.9.9.9.9.5.7.7.3.3.3.3.5.7.7.7.7.7.7.8.8.7.9.7.7.a.W._._.P.K.D.U.!._ D ! 7._ ( } g.I.1X3X3XtXwXwXwXtXtXrX2X].XXrXrXrXrXXX}.!.G.i.5.3.3.3.3.3.3.3.3.3.3.3.3.3.3.3.3.3.3.3.3.3.3.3.3.3.3.3.2.2.2.2.2.2.2.2.2.2.2.2.2.2.2.2.2.2.2.2.2.2.2.2.2.2.2.2.2.2.2.2.2.2.2.2.2.2.2.2.2.2.2.2.2.2.2.2.2.2.2.2.2.2.2.2.3.3.3.3.2.2.3.2.2.2.2.2.2.2.2.2.2.2.2.3.2.2.7.7.F.F.G.F.G.F.G.G.G.G.G.F.p.F.d.` ;.n t t e e 9.^._._.P._.!.:.t t t ~ E ! J.uXgXaXpXpXpXpXpXpXfXfXdXdXgXhXhXhXgXuX4X|._.p.y._ 3.3.2.2.2.2.2.2.2.2.2.2.2.2.2.2.2.2.3.3.3.3.3.3.2.2.3.3.3.3.3.2.3.7.3.3.3.3.3.3.3.3.3.3.3.3.4.4.4.3.",
";.;.;.;.;.;.;.;.;.;.;.;.;.;.;.;.=.=.=.=.;.;.;.;.h h h h h h h h h h h h h h h h p p p p p p p p p p p i u p p p p i p i p i p p 9 7 9 p i e u i i i i p p q q p r y E.}.G._.P.P.P.G.F.9.9.9.5.7.7.9.9.a.l.r.9.9.7.9.F.F.9.F.F.9.F.9.9.a.E.a.9.7.7.9.9.9.9.F.F.F.F.F.F.M.F.F.F.F.F.F.9.7.3.3.9.F.F.a.9.7.7.7.7.9.a.F.F.F.F.F.F.F.F.9.7.9.9.F.F.9.M.M.9.9.9.9.9.9.9.9.9.9.9.9.9.9.9.9.9.9.9.9.d.d.5.9.9.9.9.9.9.9.7.7.9.9.9.9.9.9.9.9.7.7.9.7.7.7.7.7.9.9.9.7.7.7.7.7.9.9.7.7.7.7.7.7.7.7.7.7.7.7.7.7.7.7.7.7.7.7.9.9.7.3.a.W._._.P.P.D.U.!.` D ! 9.8.3.) _ } } } T { { ( { } _ _  ._ ( / / ( / / ` ) ) ) ) ) ) ) 2.2.2.2.2.2.2.2.2.2.2.2.2.2.2.2.2.2.2.2.2.2.2.4.2.2.2.2.2.2.2.2.2.2.2.2.2.2.2.2.2.2.2.2.2.2.2.2.2.2.2.2.2.2.2.2.2.2.2.2.2.2.2.2.2.2.2.2.2.2.2.4.2.2.2.2.2.2.2.2.2.2.2.2.2.2.2.2.2.2.2.2.2.2.2.2.2.2.2.2.2.2.2.2.4.4.3.4.3.2.2.4.3.8.3.) 2.4.2.E n j w t p e 9.}._.I.P.'.^.:.e p 8 g g f n.J.].rXgXhXhXhXhXhXdXdXtXtXtXrX2X].P.G.}.W.F.d.7.2.2.2.2.2.2.2.2.2.2.2.2.2.2.2.2.2.2.2.2.2.2.2.2.2.2.2.2.2.2.2.2.2.2.2.4.4.4.4.4.4.4.4.:.:.:.:.:.:.:.:.",
"g g g g g g g g t t t t t t t t t t t t t t t t 9 9 9 9 9 9 9 9 9 9 9 9 9 9 9 9 9 9 9 9 9 9 9 9 p p p 9 9 9 q p q q q q 9 q q q q 9 9 p p 9 p p p p q p l q 9 8 r D H.!.G._.P.P.P.G.F.n.9.9.7.7.7.9.9.l.r.r.9.9.7.9.F.F.9.F.F.9.F.9.9.a.E.F.9.7.9.9.9.9.9.F.F.F.F.F.F.M.M.F.F.F.F.F.9.7.3.3.9.F.F.a.9.7.7.7.7.9.a.F.F.M.F.F.F.F.F.9.7.7.9.F.F.9.M.M.M.9.9.9.9.9.9.9.9.9.9.9.9.9.7.5.7.7.5.5.5.5.3.3.7.7.7.7.7.7.7.7.7.7.7.7.9.7.7.7.7.7.7.7.7.7.7.7.9.9.7.7.7.7.7.7.7.7.7.7.7.7.9.7.7.7.7.9.9.9.9.9.9.9.7.9.7.9.9.9.7.5.a.W._._.I.I.P.).}.` D ! :.4.4.4.4.4.4.4.3.3.2.) ) 2.3.3.` ` ) ) 4.4.` ) :.:.4.4.8.8.4.:.4.:.6.8.6.1.6.,.:.:.:.:.:.,.:.,.:.:.:.:.:.,.:.:.1.,.1.,.1.,.1.,.1.,.1.,.1.,.1.1.1.,.1.,.1.,.1.,.1.,.1.1.1.,.1.,.1.,.1.,.1.,.1.,.1.,.1.,.1.1.1.,.1.,.1.,.1.,.1.,.,.,.,.,.,.,.,.,.,.,.,.,.,.,.,.,.,.>.,.,.,.,.>.>.-.-.-.-.=.=.=.Q Q Q Q a Q ~ Q a j d > g x e 9.}._.I.P.'.^.:.i 9 8 q 7 t ~ ! 3.'.D.P.P.I.P.p.p.p.p.y. ._ _ _ / I ) -.:.:.:.1.1.1.1.,.1.,.1.,.1.,.1.,.1.,.1.,.1.1.,.,.1.,.1.,.1.,.,.,.,.,.,.>.,.>.Q =.-.=.-.=.-.=.a h L h Q h Q h ",
"8 8 q q q q q 8 q q q q q q 8 8 q q q q q q q q q q q q 0 0 0 q 0 0 0 0 0 0 q q q q q q 0 0 0 0 0 0 0 0 0 0 0 0 q q q q q q 0 0 0 0 0 0 0 0 q 0 9 9 9 0 0 0 s g 2 ! F.W.P._.P.P.P.G.S.9.9.9.d.5.9.9.9.9.7.7.7.7.5.5.5.5.5.5.5.5.7.7.9.a.a.9.7.7.7.7.7.9.9.7.7.7.9.i.i.S.S.i.9.9.5.5.5.5.5.5.5.5.7.7.5.5.5.5.7.7.7.7.7.7.7.7.9.9.7.5.5.5.5.5.5.9.5.5.5.5.5.5.5.7.9.9.9.9.9.9.5.5.3.5.5.5.5.d.i.a.5.5.5.9.9.9.9.9.7.7.7.7.9.9.9.9.7.9.9.9.9.9.9.9.5.5.5.5.7.5.5.7.5.5.5.5.5.5.5.5.5.5.5.5.5.5.5.5.7.9.9.9.9.7.7.7.9.7.5.5.p.G.W._.`.`._._.W.a.P r ,.,.v.v.1.<.<.1.,.,.,.,.,.,.,.,.:.:.:.:.:.:.:.:.,.<.,.<.,.,.,.1.1.1.1.1.q.q.q.1.<.<.<.<.<.<.<.<.>.;.;.<.<.<.;.;.M M M M >.M >.M >.M M M m M m M >.M >.M m M >.M m m m m b m m m z z z z z z z z p p p p p p z z z z z z p p p p p p p p p p p p u 9 p p p p p p p p p p p p p p p t p t p p p t p p p p p p p 9 d s g t i @.9._._.I.h.G.!.8.a p q 9 8 9 p h Q ^ ! ) / ) ! ) ! ! ) ) ` ` :.:.:.,.=.>.>.M b M m m b b m m b b b b b b b v z z z z p p u p p p u p p p p p p p p p t 9 p q p q p q 9 9 9 9 t 9 9 9 ",
"9 q 9 q q q q q 9 q 9 q 9 q q q q 0 q 0 9 9 9 q 9 q q 9 q 0 q q 0 0 0 0 0 0 0 0 0 0 0 0 0 0 0 q 9 q q q q q q q q 0 q q q q q 0 0 0 0 0 0 0 9 q 0 w 0 9 0 0 0 8 # ! G.}.P.P.P._.P.G.S.i.9.i.d.d.a.9.a.9.a.9.a.9.a.9.a.9.a.9.a.a.5.7.7.a.d.7.7.7.7.7.7.7.7.7.7.5.5.5.i.i.i.i.5.5.5.5.5.5.5.5.5.5.5.5.7.7.5.5.5.7.7.7.7.7.7.9.d.d.i.i.i.i.i.i.i.i.5.5.5.5.5.5.5.5.9.9.9.9.9.9.9.i.5.5.5.5.5.5.3.5.5.3.5.5.5.5.5.7.7.9.a.9.a.9.a.d.5.5.5.5.5.5.5.5.5.5.5.5.5.5.5.5.i.9.i.9.i.9.i.9.i.9.i.9.i.9.i.d.d.a.a.a.a.9.9.9.7.5.a.p.G.W._.).c.c.c._.^.7.J # i a v N v v v v p p p p a a a a i i i y y y y y p p p p p p p p p p u u u p p p 9 9 9 9 9 9 9 9 w w w w w w w 9 9 9 9 9 9 9 9 9 9 9 9 9 9 9 9 9 9 9 9 9 9 9 9 9 w w w w w w w w 9 9 9 9 9 9 9 9 9 9 9 9 9 9 q q 9 q q q 9 9 9 9 9 9 9 9 9 q q 9 9 9 9 q q q q q q q q q q q q q 9 9 q q q q q q q q q q q q q q w 8 8 9 e J 9._._.).I.P.!.4.r 7 p q q p p i t t y y r r r r r r r r t t t t t t 9 9 9 q 9 9 9 9 q q q q q q q q 9 9 9 9 9 9 9 9 9 9 9 9 9 q q q q q q q q q q q 9 9 q q q q q q 9 9 9 9 9 9 9 9 ",
"p q p q q q q q p q p q q q q q p q l q q q p q p q p q p q p q q q q q q l l l q q l l q q q q q s q s q s q s q q q s q s q s s s s s q s q q q q q q q q 9 t 3 ) !.].I.h.I._.P.G.F.p.i.i.p.p.5.5.7.5.5.5.5.5.5.5.5.5.5.5.5.5.7.5.5.d.d.5.5.7.5.5.5.5.5.5.7.3.5.5.5.5.5.5.5.5.5.5.5.5.5.5.5.5.5.5.5.5.5.5.5.5.3.3.7.3.7.7.7.7.5.5.5.5.5.5.5.5.3.3.3.3.3.3.3.3.5.3.5.5.5.5.5.5.5.5.y.5.3.3.3.3.5.5.5.5.5.5.5.5.5.5.5.5.5.5.7.5.7.7.5.5.5.5.5.5.5.5.5.5.5.5.5.5.5.5.5.5.5.5.5.5.5.5.5.5.5.5.5.5.7.7.7.5.7.7.5.5.3.5.p.G._.)._._.c.c.c.{.[.d.K # i i p 9 q l s s 9 p p p p p p p p p p p p t t p t p p p p p p p z z z z z z z z z z z z z z z z p p p z z p p p z z z z z z z z z z z z z z z z z z z z z z z z z z z z z z z z q q q q p q q q q q q q q q q q q q q q q q q q q q q q q q q q q q q q q z p p p q q q q q q q q q q q q q s s q q q q q q q t 8 t p t i L a.}._.I.I.P.!.8.i e u 9 9 p i p p t t t t t t t t t t t t t t 9 9 9 q 9 q q 0 0 0 0 q q q q q q q q q q q q q q z p q q q q q q q q z l z q q q p q q q q q q q q q q q q q q q q q ",
"p p p p p 9 p 9 p p p p p 9 p 9 p p p 9 p 9 p p p p p p p p p p 9 9 p 9 p 9 p p p 9 p 9 p 9 p 9 t 9 t 9 t 9 t 9 9 9 9 9 t 9 9 9 9 9 9 9 9 t t 9 9 9 9 e t t t r H 5.'.].I.I.I.P.P.J.G.G.G.G.s.s.d.5.7.5.d.5.7.5.5.5.5.5.5.' 5.5.d.d.p.p.p.d.p.d.p.d.p.d.p.d.p.d.y.d.p.i.p.y.p.y.y.y.y.y.y.y.y.y.y.i.d.d.d.d.d.d.d.5.d.5.d.d.d.d.d.y.d.y.d.y.d.y.y.5.y.5.y.5.y.5.d.i.d.i.d.y.d.y.d.d.p.p.p.p.p.y.p.i.p.i.d.i.d.d.d.d.d.d.d.d.d.d.d.i.p.i.p.i.p.i.p.i.p.i.p.a.p.i.d.i.d.i.d.i.d.i.d.i.d.i.d.i.d.i.p.p.p.d.d.d.d.d.d.p.G._.).)._._.c.c.{.{.[.z.7.P J i e 7 9 q q 9 7 7 7 7 e 7 e e e e e e e e i i e e e e e t u p e 7 u u u u u u 7 7 e e e e e e e e e e u u e e u 9 9 9 u u u u u u 9 u u 9 9 9 u u u u 9 9 9 p p u p p p p p p p p p p p p p p 9 9 9 9 9 9 9 9 9 u 9 9 9 9 9 9 9 9 9 9 u 9 u u 9 9 9 9 9 9 9 u 9 9 9 9 9 9 9 7 9 9 9 9 p p p p 9 9 9 9 9 9 9 t 2 2 r y P 8.E.}.P.I.P.P.}.F.2.,.i e e e e i e e t t t t t t t t t t t t t t t 9 q q q q q q q q p u p p p p p p p p p p p p p p 9 9 9 9 9 9 9 9 9 q q 9 9 9 9 9 9 9 9 9 9 9 9 9 9 9 9 9 9 9 9 9 ",
"r r r r r r r r r r r r r r r r r r r r r r r r r r r r r r r r r r r r r r r r r r r r r r r r r r r e r r r r r r r r r r r r r r r r r r r r r r r r r r r D F.G.P.P.`.`.`.I._._.J.J.P.P.P.P.G.G.G.G.W.G.G.G.G.G.G.G.G.G.G.G.G.G.G.G.G.G.G.G.s.G.s.G.G.G.G.G.s.D.G.G.G.G.p.D.D.D.p.D.p.D.p.D.D.S.G.F.s.F.G.F.W.W.W.W.W.W.W.W.G.G.G.G.G.G.G.G.G.G.G.G.G.G.G.G.J.G.G.G.G.G.G.G.s.p.s.p.G.G.G.G.G.G.G.G.G.G.G.F.G.G.G.G.W.G.W.G.G.G.G.G.G.G.G.G.s.s.s.s.s.s.s.s.J.G.J.G.J.G.J.G.J.J.J.J.J.G.J.G.P.P.P.G.G.J.J.J.G.G.G._._._._.`.`.`._.).{.[.W.a.H F r r y y t t i i i i r i r r r r r r i r r r r r r r r r r r r e r e r e r r r r r r r r r r r r r r r r r r e e e e e e e e e e e e r e e e e e e e e e e e i i i i i i i i i i i i i i i i i i i i i i i i i i i i i i i i i i i i i i i i e e e r r r i i i i i i r r r r i r r r i i i i r r r r r r r r 3 3 3 G 8.~.}.}.P.I.I.K.).!.E.~.8.:.P G r r r e r r r r r r r r i t i i r r r t i i i i t t i i i i i i i i i i i i i r i e e e i i i i i i i e i i i i i i i i i r r r r r r r e r r r r r r r ",
"4.4.4.4.4.4.4.4.4.4.4.4.4.4.4.4.4.4.4.4.4.4.4.4.4.4.4.4.4.4.4.4.4.4.4.4.4.4.4.4.4.4.4.4.4.4.4.4.4.4.4.4.4.4.4.4.4.4.4.4.4.4.4.4.4.4.4.4.4.4.4.4.4.2.2.3.7.7.7.7.'.).P.I.`.`.`.h.)._._._.P.P.I.P._.}.}.}.}.'._.'.U.U.U.U.U.U.U.U._._._._._._._._._.W._.W._._._.P.P.J.P.P.P.P.P.J.P.P.P.P.P.P.P.P.P.J.J.J.P._._._.}.}._._.}.}.}._._.P.P.P.P.P.P.P.P.U.P.P.P.P.P.P.P.J.J.J.P.P.P.P.G.G.P.P.P.P.P.P.P.U.P.P.P.J.J.J._.W._._._._._._._.P._.P._.P._.P.P.G.P.G.P.G.P.G.P.U.U.U.U.U.U.U.U.U.U.U.U.U.U.U.P.P.P.P.P.P.P.P._._._.P._._.`.`._._._._.).).).}.G.F.9.7.9.4.4.4.7.7.7.7.7.7.7.7.7.7.7.8.7.8.7.7.7.3.7.7.7.7.7.7.9.9.9.9.9.9.9.9.9.9.9.9.9.9.9.9.7.9.9.9.9.9.9.9.9.9.9.9.9.9.9.9.9.9.9.9.9.9.9.9.9.9.9.9.9.9.9.9.9.9.9.9.9.9.9.9.7.7.7.7.7.7.7.7.7.7.7.7.7.7.7.7.7.7.7.7.7.7.7.7.7.7.7.7.7.7.7.7.7.7.7.7.7.7.7.7.7.7.7.7.7.7.7.7.9.9.9.9.9.9.9.9.9.9.7.7.7.7.7.7.9.3.4.9.^.(.!.G.K.Y.L.f.P.'.W.!.!.J.F.9.7.7.7.8.8.8.8.8.8.7.7.8.8.8.8.8.8.8.8.8.2.2.8.6.8.8.8.8.7.7.7.7.7.7.7.7.7.7.7.7.2.2.2.2.8.8.8.8.8.8.8.8.4.4.4.4.4.4.4.4.4.4.4.4.4.4.4.4.4.4.8.8.8.8.8.8.",
"!.!.!.^.!.!.!.!.!.!.!.!.!.!.!.!.!.!.!.!.!.J.!.J.!.J.!.J.!.!.!.!.J.J.J.J.J.J.J.J.J.Q.Q.Q.J.J.J.Q.(.(.^.^.(.^.(.(.(.(.^.^.^.^.(.(.!.!.!.!.!.!.!.!.!.!.}.}.}.}.}.}.P.U._.I.I.`.`.h.)._.P.P.P.P.I.I._._._._._.P.P.P.P.P.P.P.P.P.P.P._._._._._._._._._._._._._._._._.P.P.P.P.P.P.P.P.P.P.P.P.P.P.P.P.P.U.P.P.P.P.P.U._._._._._._._._.P.P.P.P.P.P.P.P.P.P.P.P.P.P.P.P.G.G.G.G.P.P.P.P.P.P.P.P.P.P.P.P.P.P.P.P.P.P.U.U.J.J.J.J.P.P.P.P.P.P.P.P.P.P.P.P.P.P.P.P.P.P.P.P.G.G.G.G.G.G.G.D.G.D.G.G.G.D.G.D.K.K.P.P.P.P.P.P.P.P._._._.`.`.`.P.P.P.P._._.P.P.].].|.'.).'.'.}.).}.}.}.}.}.}.}.}.}.}.|.}.}.}.}.}.'.}.}.}.}.}.|._._._._._._._._.).).).).).).).).).).).).).).).)._._._._._._._._._._._._._._._._._._._._._._._._._._._._._._._._.}.}.}.}.}.}.}.}.}.}.}.}.).).}.}.}.}.}.}.}.}.}.}._.).}.}.}.}.}.}.}.}.}.}.}.}.}.}.}.}.}.}.}.}.}.}.}.}.}.}.}.}.}.}.|.}.}.}.}.}.|.}.|.}.}.!.(.!.G.D.K.Y.L.f.I._.W.W.U.U.G.G.!.}.}.}.}.|.}.}.|.|.|.|.}.}.}.}.}.}.}.}.}.[.}.}.}.}.}.}.}.}.}.}.}.}.}.}.|.}.|.}.}.}.}.}.!.!.!.!.!.!.!.!.^.!.!.!.^.!.!.!.!.!.!.!.!.!.!.!.!.!.!.!.}.}.}.}.",
"J.J.J.J.J.J.J.J.J.J.J.J.J.J.J.J.G.G.P.G.G.G.P.G.G.G.P.G.P.G.G.G.G.G.G.G.G.G.G.G.G.G.G.G.G.G.G.G.J.W.W.W.W.W.W.W.W.W.W.W.W.W.W.W.W.W._.W._.W._._._._._._._._._.P.p.P.I.I.j.I.I.I.I.I.P.P.P.P.I.I.P.P.P.P.P.P.P.P.P.P.P.P.P.P.P.P.P.P.P.P.P.P.P.P.I.P.P.P.P.P.I.I.P.P.P.P.P.P.P.P.P.P.P.P.P.P.P.P.K.K.P.P.P.P.P.P._._._._.).).)._.P.P.P.P.P.P.P.P.P.P.P.P.P.P.P.P.I.U.I.I.I.I.I.I.P.P.P.P.P.P.P.P.P.P.P.P.P.P.P.P._._._._._._._._.P.P.P.P.P.P.P.P.P.P.P.P.P.P.P.P.P.P.P.P.P.P.P.P.P.P.P.P.P.P.P.P.P.P.P.P.P.P.P.P.P.P._.).`.`.`.`._.P.'.P._.P.P.h.f.P.I.P.P.P.P.).P.P.P.P._._._._._._._._._._._._.P.P.P.P.P.P.P.P._.I._._._._._._._._._._._._._._.`.`.`.).).).).)._._._._._._._._._._._._._._._._._._._._._._._._._._._._.I._._._.P.P.P.P.P.P.P.P.P.P.P.h.h.h.P.P.P.P.P.P.P.P.P.P.I.I.P.I.P.I.I.I.P.P._.P._.I._.I._.P._.P._.P.P.P.P.P.P.P.P.P.P.P.P.P.P.P.P.P.I.I.P.P._.'.W.W.'.}.D.Y.Y.L.I._._._.K.K.K.K.P.P.P.G._._._._.`.`.`.`._._._._._._._._._._.I.I._._.).).I.I._.P._.I._.I._._._._._._._._.P.J._.W._.P._.W.W.W._.W.W.W.W.W.J.P.P.P.P.P.P.P.P.P.P.P.P.P._._.",
"P.P.P.P.P.P.P.P.P.P.P.P.P.P.).I.I.I.I.I.I.I.I.I.I.P.I.P.I.P.I.P.I.I.I.I.I.I.I.I.I.I.I.I.I.I.I.I.P.P.P.P.P.P.P.P.P.P.P.P.P.P.P.P.P.P.P.P.P.P.P.P.P.P.P.P.P.I.I.P.P.P.P.P.I.I.I.P.I.I.P.K.I.I.I.I.P.P.P.P.P.P.P.P.P.P.P.P.P.P.P.P.P.P.I.P.I.P.I.P.I.P.I.P.I.I.I.I.I.I.I.I.I.I.I.I.I.I.P.I.I.I.I.I.P.P.P.P.P.P.P.I.I.I.I.I.I.I.I.I.h.I.).I.I.I.h.h.I.P.P.P.P.P.P.P.U.P.P.P.P.P.P.P.P.P.P.P.P.P.P.P.P.P.P.P.P.P.P._._._._._._._._._._.P._.P._.P._.P.I.I.P.P.P.P.h.h.I.I.I.I.I.P.P.P.P.P.P.P.P.P.P.P.P.P.P.P.P.P.P.P._._._.).).)._.I._._._.P._.P.P.P.P.P.P.P.P.P._._._._._._._.`.`._.`.`._._._._._._._.I._._._._._._.`.`.`.`.`.`._._.P.P._._.P.P.P.I._._._._._._._._._._._._._._._._._._._._._._._._.P.P.P.P.P.P.P.P.I.I.I.I.I.I.I.I.I.I.I.I.I.I.I.P.P.P.I.I.I.P.P.P.I.I.I.I.I.I.I.I.I.I.P.).).I.I.I.I.I.).I.).I.).I.).).).).).).).).P.P.P.P.P.P.P.P.P.P.I.I.I.I.I.I.I.I.P.P.P.P.P.P.I.I.I.I.I.I.P.P.I.I.I.I.I.I.I.I._.`.`.`.`.`.`.`.P.P.P.P.P.P.P.P.P.P.P.P.P.P.P.P.I.I._.I._.I._.I.I.I.I.I.I.I._.I._.P.P.P.P.P.P.P.I.P._._._._._._._.P.P.P.P.P.).).I.I.).I.P.P.P.P.",
"P.P.P.P.P.P.P.P.P.P.P.P.I.I.I.I.h.g.h.g.h.g.I.L.h.g.h.g.h.g.h.g.I.I.I.I.I.I.I.I.I.I.I.I.I.I.I.L.I.K.P.K.P.K.P.K.I.I.I.I.I.I.I.I.I.I.I.I.I.I.I.I.I.I.I.I.P.I.I.I.P.P.P.P.P.P.P.P.I.I.I.I.P.P.Y.I.I.I.P.I.P.I.I.I.I.I.I.I.I.I.P.P.P.P.P.P.P.P.P.P.f.K.K.K.P.K.P.K.I.I.I.I.I.I.I.I.I.I.I.I.I.I.I.P.K.D.K.K.K.K.I.I.I.I.I.j.j.j.j.j.j.I.I.I.I.I.I.I.I.I.P.P.P.P.P.P.P.P.P.P.P.P.P.P.P.P.P.P.P.P.P.P._._._._._._._._._._._._._._._._._._._._._._._._._._._._._._._._.).).{.).).).`.`.).)._._._._._._.P.P._._._.P.P.P.I.I._._.).).)._._._._._._._._._._._._._._._._._._._._._._._.`.`.I.`.I.I._._._._._._._._._._._._.`.`.`.`.`.`.`._.P.P._._._.P.P.P._._._._._._._._._._._._._._._._._._._._._._._.P.P.P.P.P.P.P.P.P.P.P.I.I.I.I.I.I.I.I.I.I.I.I.I.P.I.P.I.I.I.I.P.P.I.I.I.I.P.P.I.I.I.I.I.I.I.I.I.I.I.I.I.I.I.I.I.I.I.I.I.I.I.I.I.I.P.P.P.P.P.P.P.P.I.I.I.I.I.I.I.I.I.I.I.I.I.I.I.I.I.I.I.I.P.I.P.P.I.I.I.).`.I.I.I.I.I.I.I.I.I.I.I.P.U.P.P.P.P.P.U.P.P.P.P.P.P.P.P.I.I.I.I.I.I.I.I.P.P.I.I.I.I.I.I.I.I.I.I.I.I.I.I.I.I._.)._._._._._.P.P.P.P.I.I.I.I.I.I.I.I.I.P.P.",
"P.P.P.P.P.P.P.P.P.P.P.P.P.P.P.P.).I.).I.).I.).I.).I.).I.).I.).I.).I.).I.).I.).I.).I.).).).I.).I._.U._.U._.U._.U._.U._.U._.U._.U._.P._.P._.U.P.P._.P._.P._.P._.P.P.P.P.P.I.P.P.P.P.P.P.P.P.P.P.P.P.P._.P._.P._.P._.P.P.P.P.P._.P.).).).).].].].].P.P.P.P._.U._.U.).I.).I.).I.).I.).P._.P.).I.).U.U.U.U.U.U.U._._.).).).).).).).)._._.P.I._._.P.P.P.P.P.P.P.P.P.P.P.P.P.P.P.U.P.P.P.P.P.P.P.P.P.P.P.P.P.P.P.P.P.P.P.P.P.P.P.P.P.P.P.P.P.P.I.I.P.P._._._.P.P.P.P.P.).)._._._.I.I.I._._._._._._._._.P._._._._._._.P.I.I.I.I.I.).).)._._._._._._._._._._._._._._._._._._._._._.`.`.`._._._._._._._._._._._._._._._._._.`._._.`.I.I._._._._._._._._._._._._._.`.`._._._._._._._._._._._._._._._._._.P.P.P.P.P.P.P.P.P.P.P.P.P.P.P.P.P.I.I.P.I.I.I.I.I.P.I.I.I.I.I.P.I.P.P.P.P.P.P.P.P.I.P.P.P.P.P.P.P.P.P.P.P.P.P.P.P.P._._._.P.P.P.P.P.P.P.P.P.P.I.I.I.I.I.I.I.I.I.I.I.P.P.P.I.I.I.I.P.P.P.P.P.P.P.P.I.I.I.I.I.I.I.I.I.I.I.I.I.I.I.I.P.P.P.P.P.P.P.P.P.P.P.P.P.P.P.P.I.I.I.I.I.I.P.I.P.P.P.P.P._.P.P.I.I.I.I.I.I.I.I.I.I.I._._._._.I._.P.P.P.P.P.P.P.I.P.I.P.P.P.P._.",
"P.P.P.P.P.P.P.P.P.P.P.P.P.J.U.P.P.P.P.P.P.P.P.P.P.P.P.P.P.P.P.P.P.P.P.P.P.P.P.P.P.P.P.P.P.P.P.P.P.J.P.J.G.J.J.J.G.G.G.G.G.G.G.G.G.G.G.G.G.J.G.J.G.G.G.G.G.G.G.G._._._._._._._._._.W._.W._.W._.J.G.G.G.G.G.G.G.G.G.G.G.G.G.G.G.G._.W._.W._._._._.G.J.P.J.G.W._._.G.G.P.G.P.G.P.G.P.G.P.G.P.G.P.G.G.G.G.G.J.J.J.J.G.G.G.G.G.G.G.G.)._.P._._._._.P.P.P.P.P.P.P.P.P.P.P.P.U.U.U.P.P.P.P.P.P.P.P.P.P._._._._._._._._._._._._._._._._._._._._._._._._.P.P.P.P.P.P.P.P.P.I.I.I.I.I.I.I.P.P.P.I.I.I.I._._._._._._._._.P._._._._._._.).)._._._._._._._._._._._._._._._._._._._._._._.`._._._._._._._._._._._._._._._._._._._._._.I.I.I._._._.P.P._._._._._._._._.`.`.`._._._._._._._._._._._._._._._._._.P.P.P.P.P.P.P.P.P.P.P.P.P.P.P.P.P.P.P.P.P.P.P.P.P.P.P.P.P.P.P.P.I.I.I.P.I.I.I.I.P.P.I.P.P.P.P.P.I.I.I.I.P.I.I.I._._._.P.P.P.P.P.P.P.P.P.P.P.P.P.P.P.P.I.I.I.I.P.P.P.P.P.P.P.P.P.I.I.P.I.P.I.P.P.I.P.P.P.P.P.P.I.P.P.P.P.P.P.P.P.P.G.P.G.P.G.P.G.P.P.P.P.P.P.P.P.P.P.P.P.P.P.P.P.P.P.P.P.P.P.P.P.P.P.P.P.P.P.P.P.P.P.P._._._._._._.P.P.P.P.P.P._.P.P.P.P.I.P.P._.",
"P.P.P.P.P.P.P.U.U.J.J.J.!.!.!.!.}.}.}.}.}.}.}.}._.!._.!._.W._.!._.!._.!._.!._.!._.!._.!._.!._.!.W.!.W.!.W.!.W.!.!.!.!.!.!.!.!.!.}.}.}.!.}.}.}.}.}.}.}.}.}.}.}.!.!.!.!.!.!.!.!.!.}.}.}.}.}.}.}.}.}.}.}.}.}.}.}.!.}.!.}.}.}.}.}.}.!.!.!.!.!.!.!.!.!.!.!.!.!.!.}.}.!.!.!.!.!.!.'.!.!.!.!.!.!.!.!.!.!.!.!.!.!.!.!.!.W.W.!.!.!.!.W.W.!.!.!.}.}.'.J.G._._.P.P.P.P.I.P._.U.P.U.).'.'.P.P.U.U.U.U.U.U.U._._._._._._._._._._._._._._._._._._._._._._._._._._._._._._._._._._._._._._._._._._._._._._.)._._.P.P._._._._.P.]._._._._._.)._._._._._._._._._._._._._._._._._._._._._.I._._._._._._._._._._._._._._._._._._._._._._._._._.`._._.P.P.P._._._._._._._._.`.`.`._._._._._._._._._._._._._._._._._.P.P.P.P.P.P.P.P.P.P.P.P.P.P.P.P.P.P.P.P.P.P.P.P.P.P.P.P.P.P.P.P.P.P.P.P.P.P.P.P.P.P.P.P._._._.P._._._._._._._._.P.P.P.P.P.I.P.P._._._._._._._._._._._._._._._.P.P.P.P.P.P.P.P.P.P.P.P.P.P.P.P.P._._._._._._._._._._._._._._._.P.).'.).'.).'.).'.P.U.P.U.P.U.P.P._._._._._._._._._._._._._._._.P.P.P.P.P.P.P.P.P.}.}.}.].).).).}._.'._._.'.'._._._._._._._._._._.",
"P.P.P.P.P.P.U.J.G.G.H.H.H.H.H.H.W.^.^.^.^.^.^.^.W.W.W.W.W.E.W.E.E.E.E.E.E.E.E.E.E.E.E.E.E.E.E.E.F.F.F.F.F.F.F.M.F.F.E.E.F.F.F.F.E.E.E.E.E.E.E.E.E.E.E.E.E.E.E.E.9.9.9.9.9.9.9.9.M.M.9.9.F.M.F.M.E.E.E.E.E.E.E.E.E.E.E.E.E.E.E.E.F.F.F.F.F.F.F.F.E.E.E.E.E.E.E.E.E.E.E.E.E.E.W.E.E.E.E.E.E.E.E.E.E.Q.E.E.E.Q.E.Q.Q.Q.Q.Q.Q.Q.Q.Q.H.E.!.!.W.G.W.W._._._.P.P.P.I.P.U.J.G.G.J.J.J.G.G.G.G.J.J.J.G.G.J.G.J.G.G.G.G.G.G.G.G.G.G.G.G.G.G.G.G.G.G.G.G.G.G.G.G.G.G.G.G.P.P.h.h.h.h.P.P.P.h.h.P.P.I._._._._.J.G.P._._.P.G._._._._.)._.`.I._._._._._._._._._._._._._._._._._._._._.I._._._._._._._._._._._._._._._._._._._._._._._._._.`._._.P.s.G.P._._._._._._._.`.`._._._._._._._._._._._._._._._._._._.P.P.P.P.P.P.P.P._.P.P.P.P.P.P._._._._._._._._._._._._._._._.P._._.).P.P._._._._.P.P.P._._.)._.)._._._._._._._._._._._._._._._._._._._._._._._._._._._._._._._._.P.P.P.P.P.P.P.P.P.P.P.P.P.P.P.P._._._._._._._._.G.G.G.G.G.G.G.G.G.G.G.G.G.G.G.G.J.J.J.J.G.G.J.J.J.J.J.J.J.J.J.J._.W._.P.P._._._.J.G.G.G.G.G.J.J.J.J.W._.W.W.W.W.J.J.J.J.J.J.G.J.J.J._._._._._._.",
"P.P.P.P.P.P.J.J.5.3.4.4.4.4.4.4.! -.-.-.-.-.-.-.-.-.-.-.P #.#.-.#.#.P P P P P P P P P P P P P ! G G G G P P P P G J G J G J G G G G G G G G G G G G G G P P G G -.-.-.-.-.-.-.-.! ! ! ! ! ! ! ! G G G G P P G G G P G G G G G G P P P P P P P P P P P P P Q P ! ! ! P ! P ! P ! P ! P ! P ! P ! -.-.-.-.-.-.! ! ! ^ ! ^ ! ! ^ ^ :.8.4.4.3.7.F.!.W._._._.P.I.I.P.P.G.p.i.p.S.S.S.p.S.p.S.p.S.p.p.s.s.s.s.p.p.p.s.s.s.s.s.s.s.s.s.s.s.s.s.s.s.s.s.p.p.p.p.p.p.p.p.s.s.s.s.s.s.s.s.s.s.s.s.h.h.I.P._.G.G.G._._.P.s.s.P.P._.)._._.I._._._._._._._._._._._._._._._._._._._._._._._._._._._._._._._._._._._._._._._._.I._._._.`.`._._._.G.s.s.P._._.P._._._._._._._._._._._._._._._._._._._._._._._._.P.P.P.P.P.P.P.P.P.J.G.G.G.G.P.P.P.J.P.J.P.J.P.J.P.J.P.J.P.J.P.G.P.G.P.G.G.G.P.G.s.G.G.G.P.P.P.J.P.G.P.G.G.G.P.G.P.J.P.J._._._._.G.G.G.G.G.G.G.G.G.G.G.G.G.G.h.G.G.G.G.G.G.G.G.G.G.G.G.G.G.G.G.G.G.G.G.s.s.G.G.G.s.s.s.s.s.s.s.p.i.i.i.i.i.i.i.i.S.S.S.S.S.S.S.S.p.p.p.p.p.p.p.p.F.F.F.F.p.p.p.p.p.p.p.p.S.S.S.F.i.i.p.p.d.d.d.i.i.i.i.i.i.i.i.i.p.p.G._._._._._.",
"P.P.P.P.P.P.J.J.H H H G G E G L Q Q -.P @.P -.Q -.Q -.Q @.P -.Q @.P @.P @.P @.P @.P @.P @.P @.P -.Q -.Q -.Q =.Q -.-.-.-.-.-.-.-.-.-.-.-.-.-.-.-.-.-.-.-.-.-.-.-.L L L L L L L Q -.-.-.-.-.-.-.-.-.-.-.-.-.-.-.-.-.-.-.-.-.-.-.-.-.-.-.Q -.Q -.Q -.Q -.Q -.-.-.-.@.P @.P @.P @.P @.P @.P @.P @.-.-.-.-.-.-.Q Q Q Q Q Q E L L L E y L Q G D P 9.!.W._._._.P.I.I.P.J.F.i.' ' i.i.i.' ' 5.5.5.5.5.5.y.y.y.y.y.y.y.y.y.y.y.y.y.y.y.y.y.y.y.y.y.y.y.y.p.p.p.p.p.p.p.p.s.s.s.s.h.P.P.P.s.h.h.h.P.P.I.I.P.G.s.G._._.G.s.y.u.s._._._._.I._._._._._._._._._._._._._._._._._._._._._._._._._._._._._._._._._._._._._._._._.I._._._.`.`._._._.G.p.s.P._._.P._._._._._.I.I.I._._._._._._._._._._._._._._._._.P.P.P.P.P.P.P.P.G.p.p.p.y.p.p.G.D.D.p.D.p.D.p.D.p.D.p.D.p.D.p.D.p.p.p.p.p.p.p.p.y.y.y.p.p.D.p.D.p.p.p.p.p.p.p.p.p.p.p.p.p.p.p.p.i.i.i.i.i.p.p.p.p.p.p.p.p.p.u.p.p.p.y.p.y.p.y.p.p.p.p.p.p.p.p.p.i.i.y.5.y.y.d.i.y.5.y.5.y.5.y.5.i.i.i.i.i.i.i.i.5.' 5.5.' 5.' 5.5.5.5.5.5.5.5.5.5.3.5.3.' ' 5.5.5.5.5.5.' ' 5.5.5.5.d.5.5.5.5.5.5.5.5.3.3.' ' ' _ 5.F.J.'._._._.",
"I.I.P.P.P.'.G.F.H H W Q E h E Q =.-.=.-.=.=.-.=.-.-.-.=.=.-.=.-.-.-.-.-.-.-.=.=.=.=.=.=.-.-.=.=.=.=.=.=.=.=.=.=.=.=.=.=.=.=.=.=.=.=.=.=.=.=.=.=.=.=.=.=.=.=.=.=.=.=.=.=.=.=.=.=.=.=.=.=.=.=.=.=.=.=.=.=.=.=.=.=.=.=.=.=.=.=.=.=.=.=.=.=.=.=.=.=.=.=.=.=.=.=.=.=.=.=.-.-.-.-.=.-.-.-.=.-.=.-.-.=.=.=.=.=.>.>.=.Q Q Q -.Q Q Q E E Q ~ E E ! H 2.!.!.W._._.P.I.I.P._.p.5.i.i.i.y.y.y.5.5.y.i.5.5.y.y.y.p.y.y.y.p.p.p.p.p.p.p.p.p.p.G.G.G.G.G.G.G.J.J.'.}._.J.'.'._._.G.P.P.P._._._.P._._._.)._._.I.P.y.p.J._._._.s.u.y.u.P._._._._._._._._._._._._._.P.s.P._._.P._._.).)._._.}._.G.P._._._.I.I.`._.P._._._._._._._._._._._._._._._._.s.u.s.P._._._._._._._._._.`._._._._._._._._._.P._._.P._._.P.s.y.s.P._._._._.G.s.p.y.y.p.F.F.p.p.p.p.p.p.p.p.p.p.p.p.p.p.p.p.p.p.p.p.F.s.p.p.p.3.y.p.F.p.p.p.F.p.a.p.F.p.p.p.F.p.p.p.p.p.p.p.p.p.i.d.d.i.p.F.F.p.p.p.p.s.s.s.s.p.p.p.p.p.p.p.p.p.p.p.p.p.p.p.p.d.5.5.5.i.a.p.a.a.5.5.a.F.a.a.F.i.9.S.S.S.9.5.5.9.i.S.F.F.F.S.9.9.a.a.9.5.9.i.F.i.9.i.9.i.9.i.9.5.5.5.5.5.5.5.9.3.3.5.3.5.3.5.5.3.3.3.7.9.9.9.3.7.9.F.W._._.)._.",
"I.P.P.P.P.'.W.F.H W Q E E h k Q =.=.=.=.=.=.=.=.=.=.=.=.=.=.=.=.-.=.=.=.=.=.=.=.=.=.=.=.=.=.=.=.=.=.=.=.=.=.=.=.=.=.=.=.=.=.=.=.=.=.=.=.=.=.=.=.=.=.=.=.=.=.=.=.=.=.=.=.=.=.=.=.=.=.=.=.=.=.=.=.=.=.=.=.=.=.=.=.=.=.=.=.=.=.=.=.=.=.=.=.=.=.=.=.=.=.=.=.=.=.=.=.=.=.=.=.=.=.=.-.=.=.=.=.=.=.=.=.>.b m m =.>.=.=.=.Q Q Q =.-.,.,.Q Q Q Q Q G 2.^.^.W._._._.I.I.P._.F.5.i.i.i.i.S.p.i.i.S.i.y.5.i.s.G.G.G.s.G.G.G.G.G.G.G.G.G.G.G._.G.G.J.G.s.s.G.G._.'._.J._.'._.J.G.s.s.G.P.P.P.P._._._.)._._.I.P.y.p.J._._._.s.u.y.u.P._._._._._._._._._._._._._.P.P.P.P.P.P._._.)._.P._._.J.s.G.J._._._.I.I._.P.G.G.s.s.s.P._._._._._._._._._._.s.u.s.P._._._._._._._._.`.`._._._._._._._._._.P._._.I._._.P.s.y.s.P._._._._.G.s.i.5.5.p.F.F.i.S.S.p.S.p.i.p.p.p.p.p.i.p.F.p.F.p.p.p.F.F.S.p.i.5.5.i.F.p.p.p.F.i.a.p.p.p.i.p.i.i.a.p.p.p.p.p.a.a.i.9.5.i.p.F.F.p.p.p.p.p.p.p.p.p.p.p.p.p.p.p.i.p.S.p.S.p.p.p.i.5.5.5.5.i.a.a.a.a.5.5.a.F.a.a.F.9.9.S.S.S.9.5.5.5.9.S.F.F.F.S.n.9.9.a.9.9.9.9.F.i.S.i.i.9.9.a.a.5.5.5.5.9.9.9.9.3.7.5.5.5.5.9.a.5.5.7.9.9.9.9.5.7.9.F.W._.).)._.",
"I.P.P.P.P.'.W.F.H Q Q Q Q Q k b =.=.=.=.=.=.=.m =.=.=.m =.=.=.=.=.m =.=.=.=.=.=.=.=.=.m =.=.=.=.=.=.=.=.=.=.=.=.=.=.=.m =.=.=.=.=.=.=.=.=.=.=.=.=.=.=.=.=.=.=.=.=.=.=.=.=.=.=.=.=.=.=.=.=.=.=.=.=.=.=.=.=.=.=.=.=.=.=.=.=.=.=.=.=.=.=.=.=.=.=.=.=.=.=.=.=.=.=.=.=.=.=.=.=.=.=.=.=.=.=.=.=.=.=.=.m m m m v b =.=.>.=.a L Q Q Q L =.=.=.Q -.P 2.^.^.W._._._._.I.P._.S.5.5.i.i.F.G.G.F.F.G.F.i.i.p.J._._._._.J._.'._._._._._._._._._.P.P._.G.s.p.p.s._._.P.G._._.J.J.G.p.p.p.G.P.P.P._._._.`._.`.I.G.y.p.J._._._.s.u.y.u.P._._._._._._._._._._._._._.P._._.P.s.s._.I.)._.P.P.P.G.d.p.G.P._._._.I.I._.G.s.y.y.p.G._._._._._._._._._._.s.u.s.P._._._._._._._.`._.`._._._._._._._._._.P._._.I._._.P.s.y.s.P._._._._.J.s.i.5.5.i.F.F.i.i.i.S.S.i.i.p.i.p.i.p.i.S.S.F.S.i.i.p.S.F.S.S.i.5.5.i.F.p.i.F.F.i.a.p.a.a.9.d.i.a.a.a.F.F.F.a.a.a.9.5.9.i.a.F.p.a.a.a.a.p.p.a.p.S.S.p.i.p.i.p.i.F.F.S.S.p.i.i.i.5.7.7.5.9.a.a.a.a.5.5.a.F.a.a.F.9.i.9.i.S.9.5.5.5.9.S.F.F.F.F.n.9.9.9.9.9.9.9.F.M.F.F.F.M.M.M.M.9.9.9.9.9.9.9.9.9.9.a.9.9.9.9.F.a.9.9.9.M.n.9.4.7.9.F.W._._.`._.",
"I.P.P.P._.'.W.F.P G Q Q =.=.=.b =.=.=.=.=.=.=.=.=.=.=.m m m =.=.m m =.=.=.=.=.=.=.=.=.m =.=.=.=.=.=.=.=.=.=.=.=.=.=.=.=.=.=.=.=.=.=.=.=.=.=.=.=.=.=.=.=.=.=.=.=.=.=.=.=.=.=.=.=.=.=.=.=.=.=.=.=.=.=.=.=.=.=.=.=.=.=.=.m =.=.=.=.=.=.=.=.=.=.=.=.=.=.=.=.=.=.=.=.=.=.=.=.=.=.=.=.=.=.=.=.=.=.=.=.m m m m b b =.-.=.Q L Q -.:.! L =.>.=.=.-.P -.Q.^.W._._._._.I.P.'.F.5.5.i.p.G.!.!.G.G.J.G.p.i.p.G.P._._._.J._._.P.P.P.J.P.J.P.P._.J._.)._.s.y.y.s.G._.G.P._._.G.!.G.p.y.p.s.P._.P._._._.`.`.`.I.G.y.p._._._._.s.u.p.u.P._._._._._._._._._._._._._._._._.s.u.s._.I.).).P.P.G.p.5.y.p.G._._._.I.I._._.G.p.y.p.G.)._._._._._._._._._.s.u.s.P._._._._._._._._._.`._._._._._._._._._.P._._.I._._.P.s.y.s.P._._._.W.G.F.i.5.5.i.F.F.S.a.a.S.S.S.i.i.i.i.i.i.i.S.S.S.S.i.i.i.S.F.S.i.i.5.5.i.F.i.i.F.F.a.a.F.a.5.5.5.5.a.a.a.F.F.F.F.a.a.9.5.7.9.a.F.F.a.a.a.a.a.a.d.d.F.i.i.i.i.i.i.i.F.F.S.S.i.i.i.a.5.7.7.5.9.a.a.a.a.5.5.a.F.a.a.F.9.i.i.i.9.5.5.5.5.9.i.S.S.F.F.M.a.9.9.9.7.9.9.F.F.F.F.F.F.F.F.F.F.S.S.S.F.F.M.M.9.a.a.9.9.9.9.F.F.F.F.M.M.M.9.4.7.9.F.W.)._.`.`.",
"P.P.P.P._.'.W.F.P P G Q >.>.>.m =.>.=.=.=.=.>.>.=.=.=.=.=.=.=.>.m =.=.=.=.>.>.>.=.=.=.=.>.>.>.=.=.=.=.=.>.>.=.=.=.=.>.>.=.=.=.=.>.>.=.=.=.=.>.>.=.=.=.=.=.=.=.>.=.=.=.>.>.>.=.=.=.=.=.>.>.>.=.=.=.=.=.=.>.>.=.=.=.=.>.>.=.=.=.=.>.>.=.=.=.=.>.>.=.=.=.=.=.=.=.>.=.=.=.=.>.>.=.=.=.>.>.>.=.=.=.=.b m m >.>.=.=.=.L P :.9.E.~.E.m.=.>.=.-.,.P -.~.^.W.W._._._.I.P.'.F.d.y.d.p.G.}.!.W.J.W.G.p.d.p.s.P._._._.P.P._.P.P.P.P.I.P.P.P.P.P._.)._.s.y.y.u.P._.P.P._._.G.!.G.i.5.y.s.P._.P._._._.`._.`.P.G.y.F.!.W.J._.s.p.p.p.P._._._._._._._._._._._._._._._.I.u.y.s._.I.).)._.P.J.F.5.5.i.G._._._.`.I._._.G.s.y.p.G._._._._._._._._._._.s.u.s.P._._._.I._._._._._._._._._._._._._._._.P._._.P._._.P.s.u.s._._._._.W.W.F.i.5.9.a.F.F.9.F.F.F.F.F.F.F.F.F.F.F.F.F.F.F.F.9.F.F.F.F.F.F.a.3.9.i.F.F.F.F.F.a.a.F.a.9.3.3.3.9.9.a.F.F.F.F.a.M.9.9.9.9.F.a.a.9.a.a.a.i.i.d.5.F.F.F.F.F.F.F.F.F.F.F.F.F.F.F.F.5.5.5.5.a.a.a.a.a.5.5.a.F.a.a.F.a.a.a.a.i.i.5.5.5.5.i.a.F.F.a.F.F.a.9.5.7.5.a.F.F.F.F.F.F.F.F.F.F.S.F.F.F.F.F.F.a.a.9.9.5.5.9.a.F.F.F.M.M.M.9.7.7.9.F.W._.`.`.`.",
"P.P.P.P._.}.W.F.P P P -.>.<.>.b >.>.=.=.=.=.=.>.=.=.=.=.=.=.=.>.=.=.=.=.=.>.>.>.=.=.=.=.=.=.>.>.=.=.=.=.>.>.=.=.=.=.>.>.=.=.=.=.>.>.=.=.=.=.=.>.=.=.=.=.=.=.=.>.=.=.=.=.=.>.=.>.=.=.=.=.=.>.=.>.=.=.=.=.>.>.=.=.=.=.>.>.=.=.=.=.>.>.=.=.=.=.=.>.=.=.=.=.=.=.=.>.=.=.=.=.=.=.=.=.=.>.>.>.=.=.=.=.b b b m >.>.-.L P :.9.Q.(.(.!.~.@.>.=.=.-.P -.~.^.W._._._._.I.P._.F.d.d.d.i.G.}.!.W.G.!.W.p.d.d.s.P._._._.P.P.P._._._._._._._._.P.P.P._._.s.u.u.u.G._.P.P._._.P.'.G.i.5.y.s.P.).I._._._.`._.`.I.s.y.G.'.W.J.P.s.p.p.p.P._._._._._._._._._._._._._._._.P.u.y.s.).I.).)._._.W.F.5.5.i.G._._.).`.`.P.J.G.s.y.y.p.P._._._._._._._._._.s.u.s.P._._._.I._._._._.I._._._._._._._._._._.P._._.P._._.P.s.u.s._._._._.W.G.F.i.5.9.9.F.F.9.F.F.F.F.F.F.F.F.F.F.F.F.F.F.F.F.9.F.F.F.F.F.F.F.3.9.i.F.F.F.F.F.9.F.F.9.9.5.3.3.9.9.a.F.F.F.F.F.9.9.3.9.9.9.a.a.a.a.a.a.a.i.5.5.F.F.F.F.F.F.F.F.F.F.F.F.F.F.F.F.5.5.5.5.a.a.a.a.a.5.5.a.F.a.a.F.a.a.a.a.i.i.5.5.5.5.i.i.F.F.a.F.a.F.9.5.7.5.a.F.F.F.F.F.F.F.F.F.F.S.F.F.F.F.F.F.a.a.9.5.7.7.9.a.F.F.F.F.M.M.9.7.7.9.F.W._.`.`.`.",
"P.P.P.P._.!.W.E.P G G -.,.,.<.m =.=.=.=.=.=.=.=.=.=.=.=.=.=.=.=.=.=.=.=.=.=.=.=.=.=.=.=.=.=.=.=.=.=.=.=.=.=.=.=.=.=.=.=.=.=.=.=.=.=.=.=.=.=.=.=.=.=.=.=.=.=.=.=.=.=.=.=.=.=.=.=.=.=.=.=.=.=.=.=.=.=.=.=.=.=.=.=.=.=.=.=.=.=.=.=.=.=.=.=.=.=.=.=.=.=.=.=.=.=.=.=.=.=.=.=.=.=.=.=.=.=.=.=.=.=.=.=.m z p p b >.=.P @.6.E.^.W.W.G.E.$.>.=.=.:.P -.~.^.W.W._._._.I.P._.s.p.d.d.p.G._._.W.W.'.W.s.d.p.s.P._._._.I.I.I._._._._._._._._._.P.P._.I.s.u.u.u.h._._._._._.P.'.G.i.5.y.s.G._.I._._._.)._._.P.s.y.G.}._.J.J.s.p.y.p.J._._._._._._._._._._._._._.P.P.P.u.y.s._.I.`.)._._.J.F.5.5.i.G._._.).`.).P._.J.p.y.} p.G._._._._._._._._._.s.u.s.P._._._._._._._.`.`._._._._._._._._._._.P._._.P._._.P.s.u.s._._._._.W.G.F.i.5.9.9.F.M.n.F.F.M.M.M.M.F.F.F.F.M.M.M.F.F.F.9.M.M.F.F.F.F.9.3.9.9.F.F.F.F.F.9.F.F.F.9.9.7.7.9.9.M.F.F.F.F.F.9.9.7.7.9.M.M.M.F.F.a.9.a.i.i.5.F.M.F.F.M.M.M.M.M.M.F.F.F.M.M.F.5.5.5.5.a.a.a.a.a.5.5.a.F.a.a.F.p.p.p.a.i.d.5.5.3.5.i.i.p.p.p.a.F.F.9.5.3.5.a.F.a.a.a.a.a.a.a.a.F.F.F.F.F.F.a.a.F.F.9.7.7.7.9.a.F.F.a.M.M.M.9.9.3.9.F.W._.`.{.c.",
"P.P.P.P._.}.W.F.P G G -.,.,.>.=.=.=.=.=.=.=.=.=.=.=.=.=.=.=.=.=.=.=.=.=.=.=.=.=.=.=.=.=.=.=.=.=.=.=.=.=.=.=.=.=.=.=.=.=.=.=.=.=.=.=.=.=.=.=.=.=.=.=.=.=.=.=.=.=.=.=.=.=.=.=.=.=.=.=.=.=.=.=.=.=.=.=.=.=.=.=.=.=.=.=.=.=.=.=.=.=.=.=.=.=.=.=.=.=.=.=.=.=.=.=.=.=.=.=.=.=.=.=.=.=.=.=.=.=.=.=.=.=.m z w 7 a =.=.-.J 2.a.W.W.G._.^.@.=.=.=.,.@.-.~.^.W._._._._._._.G.s.p.p.d.d.s._._._._.}.W.G.i.p.s.P._._.P.P.P.P._.P.P.P.I.I.I.I.)._._._.P.u.y.y.u.P._._._.)._.P.P.G.d.5.y.p.G._.P._._.).)._._.I.s.y.G.}._.J.J.s.p.y.p.P._._._._._._._._._._._._._.P.h.s.p.u.s._.h.`._.P.P.P.F.5.i.F.J._._._.`.)._._.J.p._ _ s._._._._._._._._._._.s.u.s.P._._._._._._._.`.`.`._._._._._._._._.P.P._._.P._._.P.s.d.G._._._._.W.G.F.i.5.9.9.F.F.9.M.F.F.F.F.M.F.F.F.F.F.M.F.F.F.F.9.M.F.F.F.F.F.n.3.9.i.F.F.F.F.F.9.F.F.M.9.9.9.9.9.9.M.F.F.F.F.F.9.9.7.7.9.9.M.F.F.F.a.F.a.i.i.i.F.M.F.F.F.F.F.M.F.F.F.F.F.M.F.F.5.5.5.5.a.a.a.a.a.5.5.a.F.a.a.F.F.F.a.a.i.5.5.5.5.5.i.i.p.p.p.a.F.F.9.5.3.5.a.F.a.F.a.F.F.F.F.F.F.F.F.F.F.F.a.F.F.F.a.7.7.7.9.F.F.F.9.9.M.M.9.9.3.i.F.J._.`.`.`.",
"I.g.I.I.P.).W.9.G ~ =.a 8.B.G -.-.=.=.=.=.=.=.=.=.=.=.=.=.=.=.=.=.=.=.=.=.=.=.=.=.=.=.=.=.=.=.=.=.=.=.=.=.=.=.=.=.=.=.=.=.=.=.=.=.=.=.=.=.=.=.=.=.=.=.=.=.=.=.=.=.=.=.=.=.=.=.=.=.=.=.=.=.=.=.=.=.=.=.=.=.=.=.=.=.=.=.=.=.=.=.=.=.=.=.=.=.=.=.=.=.=.=.=.=.=.=.=.=.=.=.=.=.=.=.=.=.=.=.=.=.=.=.b m w 6 & p ,.=.Q G ! E.W.W.}.s.!.:.a =.=.=.=.-.E.W._.P.I.I.P._._._.G.p.d.a.G.W._.`._._._._.p.d.i.s.G._._._.P._._._._._._._._._._._.P.P._._.s.p.y.p.G._._._._._._._.F.d.5.5.i.G.'._._.`.`.)._.P.P.p.p.W._.W.}.}.p.d.p.s._.)._._._._._._._._._._._.P.P.P.P.P.P.P.P._._.I._._.J.s.y.y.p.G._._._._._.I.].G.y.i.i.i.J._._._._._._._._.}.y.y.P.P._.).I._._._._._._._._._._._._.P.P.P.P.P.P.P.P._._._.s.5.F.J.P.P.P.P.G.p.a.7.7.9.a.F.F.i.S.i.S.S.S.S.S.i.S.i.S.i.S.i.S.a.F.a.F.a.F.a.F.5.5.9.9.a.F.a.F.9.M.M.M.9.7.9.9.9.a.a.F.F.F.F.F.a.5.3.7.9.F.F.a.a.i.a.i.a.i.i.i.a.F.a.F.a.F.a.F.a.F.a.F.a.F.a.a.a.5.5.5.a.a.a.a.a.i.5.5.a.F.F.a.F.9.9.F.9.7.3.9.7.5.a.a.F.F.S.a.a.a.a.5.5.5.a.F.a.i.a.i.i.i.i.S.S.S.n.S.F.F.F.F.M.M.9.9.7.7.9.F.S.S.n.n.n.M.9.5.3.9.G.J.P.P.I.I.",
"I.g.I.I.I.).W.9.G ~ Q y b.M.G :.-.=.=.=.=.=.=.=.=.=.=.=.=.=.=.=.=.=.=.=.=.=.=.=.=.=.=.=.=.=.=.=.=.=.=.=.=.=.=.=.=.=.=.=.=.=.=.=.=.=.=.=.=.=.=.=.=.=.=.=.=.=.=.=.=.=.=.=.=.=.=.=.=.=.=.=.=.=.=.=.=.=.=.=.=.=.=.=.=.=.=.=.=.=.=.=.=.=.=.=.=.=.=.=.=.=.=.=.=.=.=.=.=.=.=.=.=.=.=.=.=.=.=.=.m =.=.b N 6 6 & p <.h Q P ! E.W.W.'.G.'.) a >.=.m >.-.M.W.P.P.I.I.P._._._.G.p.i.p.G._._.`.`.c.`._.p.9.9.G.G._._._.P._._._._._._._._._._._.P.P._._.s.p.y.p.G._._._._._._.P.s.d.5.9.9.F.'._._.`.`.)._.P.G.s.p._._._.}.}.p.d.d.s._._._._._._._._._._._._._._.P.P.P.P.P.P._._._.P._._.G.s.y.y.p.G._._._._._.I.).G.d.S.9.9.G._._._._._._._._.'.y.y.J.I._.).I.`.`._._._._._._._._._._.P.P.P.P.P.P.P.P._._._.s.5.F.J.P.P.P.P.G.p.a.7.7.9.a.F.S.i.i.i.i.S.S.S.S.i.i.i.i.a.a.i.i.a.a.a.F.a.a.a.a.5.5.9.i.a.a.a.F.n.n.M.M.9.7.7.9.9.a.a.F.F.F.F.a.a.5.5.5.a.F.F.a.S.S.i.i.S.S.S.S.a.a.a.a.a.a.a.a.a.a.a.a.a.a.a.a.a.5.5.5.a.a.a.a.a.i.5.5.a.F.F.F.F.9.n.M.9.8.3.9.7.7.9.a.F.F.S.i.a.a.a.5.5.5.a.F.i.i.i.i.S.S.S.S.S.S.n.n.F.F.F.F.9.9.9.9.7.7.9.F.S.S.n.n.n.n.9.3.3.i.G.J.P.P.P.P.",
"I.g.I.I.I.).W.9.L ~ Q y b.V.H ! -.=.=.=.=.=.=.=.=.=.=.=.=.=.=.=.=.=.=.=.=.=.=.=.=.=.=.=.=.=.=.=.=.=.=.=.=.=.=.=.=.=.=.=.=.=.=.=.=.=.=.=.=.=.=.=.=.=.=.=.=.=.=.=.=.=.=.=.=.=.=.=.=.=.=.=.=.=.=.=.=.=.=.=.=.=.=.=.=.=.=.=.=.=.=.=.=.=.=.=.=.=.=.=.=.=.=.=.=.=.=.=.=.=.=.=.=.=.=.=.=.=.m m m =.=.b v ; 6 & p <.h Q P ! E.W.W.'.G.'.) a >.=.m >.-.M.W.P.P.I.I.P._._._.G.p.i.F.W._._.`.`.`.`._.p.9.9.G.G._._._.P._._._._._._._._.I.I._.P.P._._.G.y.y.p.G._._._._._.P.P.G.y.5.5.9.F.'._._.`.`.)._.P.G.p.p._._._.}.}.p.p.p.s._._._.I._._._._._._._._._._._._._._._._._._._.P._._.G.s.y.y.p.G._._._._._.I.).G.d.S.n.5.G._._._._._._._._.'.y.p.P.P.I.)._.`.`._._._._._._._._._._.P.P.P.P.P.P.P.P._._._.s.5.F.J.P.P.P.P.G.a.9.7.7.a.p.F.S.i.i.i.i.a.i.S.S.S.i.S.F.a.S.S.i.a.a.a.F.a.a.a.a.5.5.i.i.i.a.a.F.n.n.M.M.9.9.7.9.9.a.a.F.F.F.F.a.a.5.5.5.a.F.F.a.S.S.S.S.S.S.S.S.a.a.a.a.a.a.a.a.a.a.a.a.a.a.a.a.a.d.5.d.a.a.a.a.a.i.5.5.a.F.F.F.F.9.n.M.9.8.3.9.7.7.9.a.a.F.i.i.a.a.a.d.5.5.a.F.i.i.i.i.S.S.S.S.S.n.n.n.M.M.F.F.9.9.9.7.7.7.9.F.S.S.n.n.n.n.9.3.3.9.G.J.P.P.P.P.",
"I.g.I.).I._.W.7.L ~ Q y m.V.P ! -.=.=.=.=.=.=.=.=.=.=.=.=.=.=.=.=.=.=.=.=.=.=.=.=.=.=.=.=.=.=.=.=.=.=.=.=.=.=.=.=.=.=.=.=.=.=.=.=.=.=.=.=.=.=.=.=.=.=.=.=.=.=.=.=.=.=.=.=.=.=.=.=.=.=.=.=.=.=.=.=.=.=.=.=.=.=.=.=.=.=.=.=.=.=.=.=.=.=.=.=.=.=.=.=.=.=.=.=.=.=.=.=.=.=.=.=.=.=.=.=.=.=.m =.=.=.b l ; 6 & p ;.a Q P ! E.W.W.'.G.'.2.a >.=.m =.@.M.W.P.P.I.I.P._._._.G.p.a.G.!.).).`.`.`.`._.p.9.9.s.G._._._.P._._._._._._._.I.I._._.P.P._._.G.p.y.p.J._._._._._.P.P.G.i.5.9.9.F.'._.`.`.`.)._.P.G.p.p._._.W.}.}.p.p.d.s._.)._._._._._._._._._._._._._._._._._._._._._.P._._.G.s.y.y.p.G._._._._._.I._.G.i.S.n.5.F._._._._._._._._._.y.p._.P.P.)._.`.`._._._._._._._._._._.P.P.P.P.P.P.P.P._._._.s.5.F.J.P.P.P.P.G.p.a.7.7.a.p.F.S.i.i.i.i.a.i.i.S.S.S.S.F.i.S.S.i.a.a.F.F.a.a.a.a.5.5.i.i.i.a.a.F.n.n.M.M.9.7.7.9.9.a.a.F.F.F.F.a.a.5.5.5.a.F.F.a.S.S.S.S.S.S.S.S.a.a.a.a.a.a.a.a.a.a.a.a.a.a.a.a.a.5.5.d.a.a.a.a.a.i.5.5.a.F.F.F.F.9.n.M.9.8.3.7.7.7.9.a.a.a.i.i.a.a.a.5.5.5.a.F.S.S.i.i.S.S.S.S.S.S.n.n.M.F.F.F.9.9.9.7.7.7.9.F.S.S.n.n.n.n.9.3.3.i.G.J.P.P.P.P.",
"I.L.I.).I._.W.7.L Q Q f m.Q.P ! -.=.=.=.=.=.=.=.=.=.=.=.=.=.=.=.=.=.=.=.=.=.=.=.=.=.=.=.=.=.=.=.=.=.=.=.=.=.=.=.=.=.=.=.=.=.=.=.=.=.=.=.=.=.=.=.=.=.=.=.=.=.=.=.=.=.=.=.=.=.=.=.=.=.=.=.=.=.=.=.=.=.=.=.=.=.=.=.=.=.=.=.=.=.=.=.=.=.=.=.=.=.=.=.=.=.=.=.=.=.=.=.m =.=.=.=.=.=.m =.=.=.m m m =.b q ; 6 6 p >.a Q Q ! W.W.W.'.G.'.2.a =.=.m =.-.M.W.P.P.I.I.P._._._.G.p.p.W.}.)._.`.`.`.)._.F.9.9.G.P._._._.P._._._._._._._._.`.`._.P.P._._.s.p.y.p.J._._._._._.P._.G.i.i.9.9.F.J._.`.`.`.)._.P.G.u.u._.).G._.'.p.p.p.s._._.I.I._._._._._._._._._._._._._._._._._._._.P._._.G.s.y.d.p.G._._._._._.I._.s.y.F.n.5.F._._._._._._._._.J.y.p._._.P.)._.`.`._._._._._._._._._._.P.P.P.P.P.P.P.P._._._.s.5.F.J.P.I.P.P.G.p.a.9.9.9.p.F.S.p.i.i.i.a.i.i.i.i.i.S.F.S.S.S.S.a.a.a.a.a.a.a.a.5.5.i.i.a.a.a.F.n.n.M.M.9.9.9.9.9.a.a.F.F.F.F.i.a.5.5.5.a.F.F.a.i.i.i.S.S.S.S.S.a.a.a.a.a.a.a.a.a.a.a.a.a.a.a.a.a.5.5.5.a.a.a.a.p.i.5.5.a.F.F.F.F.9.n.M.9.8.7.9.7.7.9.a.F.F.i.i.a.a.a.5.5.5.a.F.S.S.S.S.S.S.S.S.S.n.n.S.M.M.M.M.M.M.9.7.7.7.9.F.S.S.n.n.n.M.9.9.3.i.G.J.P.P.P.P.",
"I.L.I.).I.).W.7.L Q Q f B.Q.P ! -.=.=.=.=.=.=.=.=.=.=.=.=.=.=.=.=.=.=.=.=.=.=.=.=.=.=.=.=.=.=.=.=.=.=.=.=.=.=.=.=.=.=.=.=.=.=.=.=.=.=.=.=.=.=.=.=.=.=.=.=.=.=.=.=.=.=.=.=.=.=.=.=.=.=.=.=.=.=.=.=.=.=.=.=.=.=.=.=.=.=.=.=.=.=.=.=.=.=.=.=.=.=.=.=.=.=.=.=.=.=.=.m =.=.=.m =.m m =.=.m m m =.=.b q ; w 6 p >.a Q Q ! W.W.W.).G.'.4.a >.=.m =.@.M.W.P.P.I.I.P._._.).G.p.p.W.}.)._.`.`.`.)._.F.9.9.G.P._._._.P._._._._._._._._._.`._.P.P._._.s.p.y.s.J._._.P._._.P._.G.p.i.i.9.F.J._._.`.`.)._.P.G.u.u._.).G.P.'.s.p.d.s._._.I.I._._._._._._._._._._._._.P.P._._._._._.P._._.G.s.y.p.s.G._._.P.I.I.I.I.s.y.F.S.5.i._._._._._._._._.J.y.p._._.P.)._.`.`._._._._._._._._._._.P.P.P.P.P.P.P.P._._._.s.5.F.J.P.I.P.P.G.p.a.9.9.9.p.F.S.p.i.i.F.i.i.i.i.i.i.S.S.F.S.S.S.a.a.a.a.a.a.a.a.5.5.i.i.a.a.a.F.n.n.M.M.9.9.9.9.9.a.a.F.F.F.F.i.a.5.5.5.a.F.F.a.i.i.i.S.S.S.S.S.a.a.a.a.a.a.a.a.a.a.a.a.a.a.a.a.a.d.5.5.a.a.a.a.p.i.5.5.a.F.F.F.F.9.n.M.9.8.7.9.7.7.9.a.F.F.i.i.a.a.a.5.5.5.a.F.S.S.S.S.S.S.S.S.S.n.n.S.M.M.F.M.M.M.9.7.7.7.9.F.S.S.n.n.M.M.9.9.3.i.G.W._.P.P.P.",
"I.I.I.).I._.W.7.G E E a V./.H ! -.=.=.=.=.=.=.=.=.=.=.=.=.=.=.=.=.=.=.=.=.=.=.=.=.=.=.=.=.=.=.=.=.=.=.=.=.=.=.=.=.=.=.=.=.=.=.=.=.=.=.=.=.=.=.=.=.=.=.=.=.=.=.=.=.=.=.=.=.=.=.=.=.=.=.=.=.=.=.=.=.=.=.=.=.=.=.=.=.=.=.=.=.=.=.=.=.=.=.=.=.=.=.=.=.=.=.=.=.=.=.=.m m =.=.=.=.m m =.=.=.=.m =.=.b q ; w 6 p ;.a Q P ! W.W.W.).G.'.4.E >.=.m =.-.M.W.P.P.I.I.P._._.).G.d.a.G.!._.s.`.`.`.`._.p.9.9.G.P._._._.P._._._._._._.`.`.`._._.P.P._._.s.p.y.s.J._._.P._._.P._.G.p.i.S.i.S.J._._.`.`.)._.P.G.u.u._.}.G._.'.s.d.d.s._._.I.I._._._._._._._._._._._._.P.P._._._._._.P._._.G.s.y.p.s.G._._._.I.I.I._.p.y.F.F.5.i._._._._._._._._.G.y.s.)._.P._._.`.`._._._._._._._._._._.P.P.P.P.P.P.P.P._._._.s.5.F.J.P.I.P.I.G.a.9.9.9.9.p.F.S.p.i.F.F.S.S.i.i.i.i.i.i.F.a.S.S.a.a.a.a.a.a.a.a.5.5.i.i.a.a.a.F.n.n.M.M.9.7.9.9.9.a.a.F.F.F.F.i.a.5.5.5.a.F.F.a.i.i.i.i.S.S.S.S.a.a.a.a.a.a.a.a.a.a.a.a.a.a.a.a.a.5.5.5.a.p.a.a.p.i.5.5.a.F.F.F.F.9.n.M.9.8.8.9.7.7.9.a.F.a.i.i.a.a.a.5.5.5.a.F.a.a.S.i.S.S.S.S.S.n.S.S.F.F.F.F.M.M.9.9.7.7.9.F.S.S.n.n.M.M.9.9.3.i.G.W._.P.P.P.",
"I.I.I.).P._.W.7.G E E L V./.H P -.=.=.=.=.=.=.=.=.=.=.=.=.=.=.=.=.=.=.=.=.=.=.=.=.=.=.=.=.=.=.=.=.=.=.=.=.=.=.=.=.=.=.=.=.=.=.=.=.=.=.=.=.=.=.=.=.=.=.=.=.=.=.=.=.=.=.=.=.=.=.=.=.=.=.=.=.=.=.=.=.=.=.=.=.=.=.=.=.=.=.=.=.=.=.=.=.=.=.=.=.=.=.=.=.=.=.=.=.=.=.=.=.m =.=.=.=.=.=.=.=.=.=.=.=.=.b 9 ; w 6 p ;.h Q P ! W.W.W.).G.'.4.E ;.=.m =.P M.W.P.P.I.I.P._._.).G.p.a.G.!._.s.`.c.`.`._.p.9.9.G.P._._._.P._._._._._._.`.`.`.`._.P.P._._.G.d.y.s.J.)._.P._._.P._.G.p.i.S.i.S.G._._.`.`.)._.P.G.y.u._.}.G.J.'.G.p.p.s._._.I.I._._._._._._._._._._._._._._._._._._._.P._._.G.s.y.p.s.G._._._.I.I.I.I.p.y.F.F.5.i._._._._._._._._.G.y.s.)._.P._._.`.`._._._._._._._._._._.P.P.P.P.P.P.P.P._._._.s.5.F.J.P.I.P.I.G.a.9.9.9.a.a.F.S.p.i.F.S.S.S.S.S.i.i.i.i.i.a.i.i.a.a.a.a.a.a.a.a.5.5.i.i.a.a.a.F.n.n.M.M.9.7.9.9.9.a.a.F.F.F.F.i.a.5.5.5.a.F.F.a.i.i.i.i.S.S.S.S.a.a.a.a.a.a.a.a.a.a.a.a.a.a.a.a.a.5.5.5.a.p.a.a.a.i.5.d.a.F.F.F.F.9.M.M.9.8.8.9.7.7.9.a.F.F.i.i.a.a.a.5.5.5.a.F.a.i.i.i.S.S.S.S.S.n.S.S.F.F.F.F.M.M.9.9.7.7.9.F.S.S.n.n.M.M.9.9.3.i.G.W._._.P.P.",
"P.I.I.I.P.}.W.2.G E -.r m.oXH P -.=.=.=.=.=.=.=.=.=.=.=.=.=.=.=.=.=.=.=.=.=.=.=.=.=.=.=.=.=.=.=.=.=.=.=.=.=.=.=.=.=.=.=.=.=.=.=.=.=.=.=.=.=.=.=.=.=.=.=.=.=.=.=.=.=.=.=.=.=.=.=.=.=.=.=.=.=.=.=.=.=.=.=.=.=.=.=.=.=.=.=.=.=.=.=.=.=.=.=.=.=.=.=.=.=.=.=.=.=.=.=.=.=.=.=.m m m =.=.=.=.=.=.=.=.b 9 6 6 6 p >.=.L G ! E.W.W.'.G.'.4.E =.b =.<.-.9.W.P.P.I.I.P._._.G.p.p.p.W.}.)._.`.c.`.`._.p.9.9.J.P._._._._._._._._._._._._.`.`._.P.P._._.s.p.p.G.J._._.P._._.P.).p.i.G.F.5.i.J._.I.).).I._.}.G.y.G.P.G.J.'.U.D.y.p.s.P.P.P.I.I._._._._._._._._._.P.P.P.P.P.P._._._._.P.P._.s.y.y.G._._._._._.P.I._.s.y.F.H.9.5.G.P._.`.P.P._._.s.y.G.}._.P.).I.`.`._._._._._._._._._._.P.P.P.P.P.P.P.P._._._.s.5.F.J.P.P.P.P.G.d.7.7.9.a.F.F.S.p.S.S.F.S.S.S.F.F.i.i.i.a.i.i.i.a.a.a.a.a.a.a.a.F.5.3.i.F.a.i.F.n.n.M.9.9.9.9.7.9.a.F.F.F.F.F.i.a.5.5.5.a.F.F.a.i.F.F.F.S.i.i.S.a.a.a.a.a.a.a.a.a.a.a.a.a.a.a.a.a.5.5.5.a.F.F.a.a.a.5.3.F.F.a.F.F.n.M.9.9.7.9.9.3.7.7.a.F.F.F.F.a.a.a.5.5.5.a.F.a.a.i.i.S.S.S.S.S.S.S.S.F.F.F.F.F.F.9.9.7.9.9.F.S.n.n.n.M.M.9.7.3.i.G.W._._.P.P.",
"P.I.I.P.P.}.W.2.G E -.r m.oXH P -.=.=.=.=.=.=.=.=.=.=.=.=.=.=.=.=.=.=.=.=.=.=.=.=.=.=.=.=.=.=.=.=.=.=.=.=.=.=.=.=.=.=.=.=.=.=.=.=.=.=.=.=.=.=.=.=.=.=.=.=.=.=.=.=.=.=.=.=.=.=.=.=.=.=.=.=.=.=.=.=.=.=.=.=.=.=.=.=.=.=.=.=.=.=.=.=.=.=.=.=.=.=.=.=.=.=.=.=.=.=.=.=.=.=.=.m =.m =.=.=.=.=.=.m =.b q 6 6 6 p >.=.L G ! E.W.W.'.G.'.4.E =.b =.<.@.9.W.P.P.I.I.P._._._.s.p.i.F.W._._.`.c.`.`._.p.9.9.J.P._._._._._._._._._._._.`.`.`._.P.P._._.s.p.p.G.J._._.P._._.P._.p.i.H.F.5.i.J._.I.).).I._.}.s.y.P.P.G.P.).U.D.y.p.s.P.P.P.I.I._._._._._._._._._.P.P.P.P.s.s._._._._.P.P._.s.y.y.G._._._._._.I._._.s.y.F.H.5.5.G.P._.`.I.P.P._.s.y.G.}._.P.).I.`.`._._._._._._._._._._.P.P.P.P.P.P.P.P._._._.s.5.F.J.P.P.P.P.G.d.7.7.9.a.F.F.S.p.i.F.F.S.S.S.F.a.i.i.i.a.a.i.i.a.a.a.a.a.a.a.a.F.5.3.i.F.a.i.F.n.n.M.9.9.9.9.7.9.a.F.F.F.F.F.i.a.5.5.5.a.F.F.a.i.F.F.i.i.i.i.S.a.a.a.a.a.a.a.a.a.a.a.a.a.a.a.a.a.5.5.5.a.F.F.a.a.a.5.3.F.F.i.F.F.n.M.n.9.7.9.9.3.7.7.a.F.F.F.F.a.a.a.5.5.5.a.F.i.S.i.a.S.S.S.S.S.S.S.S.F.F.F.F.F.F.9.9.7.9.9.F.S.S.n.n.M.M.9.9.3.d.G.W._._._.P.",
"P.P.P.P.P.}.W.3.! E -.r V.+XI H @.=.=.m =.=.=.=.=.=.=.=.=.=.=.=.=.=.=.=.=.=.=.=.=.=.=.=.=.=.=.=.=.=.=.=.=.=.=.=.=.=.=.=.=.=.=.=.=.=.=.=.=.=.=.=.=.=.=.=.=.=.=.=.=.=.=.=.=.=.=.=.=.=.=.=.=.=.=.=.=.=.=.=.=.=.=.=.=.=.=.=.=.=.=.=.=.=.=.=.=.=.=.=.=.=.=.=.=.=.=.=.=.=.=.=.=.=.=.=.m =.=.=.=.=.=.b q 6   w p >.=.Q P ! E.W.W.'.G.'.4.E =.b =.<.P 9.!.P.P.I.I.P._._._.G.p.d.p.G._._.`.`.`.`._.p.9.9.J.P._._._._._._._._._._._.I.`.`._.P.P._._.s.p.p.s.J._._.P._._.P._.p.y.F.F.3.5.G._.I.).).I._.).s.u.P.P.J.P.'.U.D.y.p.s.P.P.P.I.I._._._._._._._._.P.P._._.s.u.s.P._._._.P.P._.s.y.y.G._._._._._.I._._.s.y.F.F.5.5.G.P._._.I.P.P._.s.y.s.}._.P.).I.I.I.I._._._._._._._._._.P.P.P.P.P.P.P.P._._._.s.5.F.J.P.P.P.P.G.d.7.9.9.a.F.F.S.S.S.S.S.S.S.i.i.i.i.i.i.i.i.S.S.a.a.a.a.a.a.a.a.F.5.3.i.F.a.a.F.n.M.M.9.7.9.9.7.9.a.F.F.F.F.F.i.a.5.5.5.a.F.F.a.i.i.i.i.5.5.i.S.a.a.a.a.a.a.a.a.a.a.a.a.a.a.a.a.a.5.5.5.a.F.F.a.a.a.7.3.F.F.i.F.F.n.M.9.9.7.7.9.7.7.9.a.F.F.F.F.a.a.a.5.5.5.a.F.S.S.S.S.S.S.S.S.S.S.S.S.F.F.M.M.F.F.9.9.7.7.9.F.F.n.n.n.M.M.9.7.3.d.G.W._._._._.",
"P.P.P.P.P.}.W.3.! Q -.y V.+XY H @.=.m m =.=.=.=.=.=.=.=.=.=.=.=.=.=.=.=.=.=.=.=.=.=.=.=.=.=.=.=.=.=.=.=.=.=.=.=.=.=.=.=.=.=.=.=.=.=.=.=.=.=.=.=.=.=.=.=.=.=.=.=.=.=.=.=.=.=.=.=.=.=.=.=.=.=.=.=.=.=.=.=.=.=.=.=.=.=.=.=.=.=.=.=.=.=.=.=.=.=.=.=.=.=.=.=.=.=.=.=.m =.=.=.=.=.=.=.m =.=.=.=.=.=.b q 6   w v >.=.Q P ! E.W.W.'.G.'.4.Q =.b m >.P 9.!.P.P.I.I.P._._.).G.p.5.d.p.G._.`.c.`.`._.p.9.9.J.P._._._._._._._._._._._.I.`.`._.P.P._._.s.p.p.s.J._._.P._._.P._.p.y.F.F.' 5.G._.I.`.).I._._.p.u.P.P.J.P.'.P.D. .p.s.P.P.P.I.I._._._._._._._._.P._._._.s.y.u.P._._._.P.P._.s.y.y.G._._._._._.I._._.s.d.F.F.5.5.G.P._.)._.P.P._.p.y.s.}._.P.).I.I.I._._._._._._._._._._.P.P.P.P.P.P.P.P._._._.s.5.F.J.P.P.P.P.G.d.7.9.9.9.F.F.p.S.S.S.S.S.i.i.i.i.i.i.i.i.i.i.S.a.a.a.a.a.a.a.a.F.5.3.i.F.a.a.F.n.M.M.9.7.9.9.7.9.a.F.F.F.F.F.i.a.5.5.5.a.F.F.a.i.i.i.5.' ' i.S.a.a.a.a.a.a.a.a.a.a.a.a.a.a.a.a.a.5.5.5.a.F.F.a.a.a.7.3.F.F.a.F.F.n.M.9.9.7.7.9.7.7.a.a.F.F.F.F.a.a.a.5.5.5.a.F.S.S.S.S.S.S.S.S.S.S.S.S.F.M.M.M.F.F.9.9.7.9.9.F.F.n.M.M.M.n.9.7.3.d.E.W._._._._.",
"P.P.P.P.P.}.W.3.! Q -.y Q.@X) H @.=.=.=.=.=.=.=.=.=.=.=.=.=.=.=.=.=.=.=.=.=.=.=.=.=.=.=.=.=.=.=.=.=.=.=.=.=.=.=.=.=.=.=.=.=.=.=.=.=.=.=.=.=.=.=.=.=.=.=.=.=.=.=.=.=.=.=.=.=.=.=.=.=.=.=.=.=.=.=.=.=.=.=.=.=.=.=.=.=.=.=.=.=.=.=.=.=.=.=.=.=.=.=.=.=.=.=.=.=.=.=.m m =.=.=.=.=.=.m m =.=.=.=.=.b q 6   9 v b =.Q P ! E.W.W.'.G.'.4.Q =.b m =.P 8.W.P.P.I.I.P._._.).G.p.5.5.p.s._.`.`.`.)._.p.9.9.J.P._._._._._._._._._._._._._.`._.P.P.)._.s.d.d.G.J._._.P._._.P._.p.5.F.F.3.5.G._.I.`.).I._._.p.u.P.P.G.G.U.U.D. .p.p.P.P.P.I.I._._._._._._._._.P._._._.s.y.u.P._._._.P.P._.s.y.y.G._._._._._.I._.).s.y.F.F.5.' G.P._.)._.P.P.P.p.y.G.)._.P.).I.`.`._._._._._._._._._._.P.P.P.P.P.P.P.P._._._.s.5.F.J.P.P.P.P.P.d.a.9.9.9.F.F.i.i.i.S.S.S.S.i.i.S.S.i.i.i.i.S.S.a.a.a.a.a.a.a.a.F.5.3.i.F.a.a.F.n.M.M.3.8.9.9.7.9.a.a.F.F.F.F.i.a.5.5.5.a.F.F.a.i.i.i.5.' 5.i.S.a.a.a.a.a.a.a.a.a.a.a.a.a.a.a.a.a.5.5.5.a.F.F.a.a.a.5.3.F.F.a.F.M.n.M.9.9.7.7.9.7.7.9.F.F.F.F.i.a.a.a.5.5.5.a.F.i.i.i.S.S.S.S.S.S.n.S.S.F.F.M.M.F.F.9.9.7.7.9.F.F.S.M.9.M.9.7.7.3.d.E.W._._._._.",
"P.P.U.P.P.}.W.3.! Q =.y Q.@X) H -.=.=.=.=.=.=.=.=.=.=.=.=.=.=.=.=.=.=.=.=.=.=.=.=.=.=.=.=.=.=.=.=.=.=.=.=.=.=.=.=.=.=.=.=.=.=.=.=.=.=.=.=.=.=.=.=.=.=.=.=.=.=.=.=.=.=.=.=.=.=.=.=.=.=.=.=.=.=.=.=.=.=.=.=.=.=.=.=.=.=.=.=.=.=.=.=.=.=.=.=.=.=.=.=.=.=.=.=.=.=.=.m m =.=.=.=.=.=.=.m =.=.m =.=.b l 6   9 v b =.Q P ! E.W.W.'.G.'.4.Q >.=.m =.L 8.W.P.P.I.I.P._._.).G.p.5.5.i.s._.`.`.`.)._.F.9.9.J.P._._._._._._._._._._._._.`.`._.P.P.)._.s.d.d.G.J._._.P._._.P._.p.y.F.F.3.5.G._.I.`.`.I._._.} u.P.P.G.G.U.G.p. .p.p.P.P.P.I.I._._._._._._._._._._._._.s.u.u.P._._._.P.P._.s.y.y.G._._._._._.I.I._.p.y.F.F.5.5.s.P._.)._.P.P.P.s.y.G.}._.P.).I.`.`._._._._._._._._._._.P.P.P.P.P.P.P.P._._._.s.5.F.J.P.P.P.P.P.p.d.9.9.9.F.F.i.p.i.i.i.S.S.a.a.F.F.i.i.i.i.S.S.a.a.a.a.a.a.a.a.F.5.3.i.F.a.a.F.S.n.9.4.4.9.9.7.9.9.a.F.F.F.F.a.a.5.5.5.a.F.F.a.i.i.S.i.5.5.i.S.a.a.a.a.a.a.a.a.a.a.a.a.a.a.a.a.a.5.5.5.a.F.F.a.a.a.5.3.F.F.a.F.M.n.M.9.9.7.7.9.7.9.a.F.F.F.F.i.a.a.a.5.5.d.a.F.i.i.S.S.S.S.S.S.S.n.S.S.F.F.M.M.F.F.9.9.7.7.9.F.F.S.M.9.9.9.7.2.3.d.E.W._._._._.",
"P.P.U.P.P.}.W.3.! Q -.y Q.@X) H -.=.=.=.=.=.=.=.=.=.=.=.=.=.=.=.=.=.=.=.=.=.=.=.=.=.=.=.=.=.=.=.=.=.=.=.=.=.=.=.=.=.=.=.=.=.=.=.=.=.=.=.=.=.=.=.=.=.=.=.=.=.=.=.=.=.=.=.=.=.=.=.=.=.=.=.=.=.=.=.=.=.=.=.=.=.=.=.=.=.=.=.=.=.=.=.=.=.=.=.=.=.=.=.=.=.=.=.=.=.=.=.=.=.=.=.m m m =.=.=.=.=.m m =.b z ;   9 n b =.=.P ! E.W.W.'.G.'.9.Q >.=.m =.L 8.W.P.P.I.I.P._._._.W.p.d.d.p.s._.`.`.`.)._.p.9.9.J.P._._._._._._._._._._._._._._._.P.P.).P.p.y.y.G.J._._.P._._.P._.p.y.F.F.3.5.G._.h.I.`._._._.} u.P.P.G.G.U.G.p. .p.p.P.P.P.I.I._._._._._._._._._._.P._.P.s.s.P._._._.P.P._.s.y.y.G.'._._._._.P.I._.p.y.F.H.9.5.s.P._.)._.P.P.G.s.y.G.}._.P.).I.`.`._._._._._._._._._._.P.P.P.P.P.P.P.P._._.P.s.5.F.J.P.P.P.P.P.p.d.9.9.9.F.i.i.p.i.a.i.S.i.i.a.F.S.S.i.i.a.i.S.a.a.a.a.a.a.a.a.F.5.3.i.F.a.a.F.S.n.9.4.3.9.9.7.9.a.a.F.F.F.F.a.a.5.5.5.a.p.p.a.i.F.F.S.i.i.i.S.a.a.a.a.a.a.a.a.a.a.a.a.a.a.a.a.a.5.5.5.a.F.F.a.a.a.5.3.F.F.a.F.F.n.M.n.9.9.7.9.9.9.a.F.F.F.F.i.a.a.a.5.5.d.a.F.i.i.i.i.S.S.S.S.S.M.n.n.F.F.F.M.F.F.9.9.7.9.9.F.F.S.M.9.9.9.7.2.3.d.E.W._._._._.",
"P.P.P.P.P.}.W.2.~ Q -.G ^.yX) P -.=.=.=.=.=.=.=.=.=.=.=.=.=.=.=.=.=.=.=.=.=.=.=.=.=.=.=.=.=.=.=.=.=.=.=.=.=.=.=.=.=.=.=.=.=.=.=.=.=.=.=.=.=.=.=.=.=.=.=.=.=.=.=.=.=.=.=.=.=.=.=.=.=.=.=.=.=.=.=.=.=.=.=.=.=.=.=.=.=.=.=.=.=.=.=.=.=.=.=.=.=.=.=.=.=.=.=.=.=.=.=.=.=.=.=.m b =.=.=.=.=.=.m b =.b v 6   9 n b =.=.P ! E.W.W.).G.}.9.Q >.=.m =.P 8.W.P.P.P.I.P._._._.W.F.a.d.p.G._.`.c.`.`._.p.9.9.G.P._._._._._._._._._._._._._._._.P.P._.P.p.y.y.G.J._._.P._._.P._.p.i.F.F.5.y.J._.h.I.)._.].P.} u.P.P.P.G.U.J.p. .p.D.P.P.P.I.I._._._._._._._._._._.P.P.P.s.s.P._._._.P.P._.s.y.y.G._._._._._.I.P.P.p.y.G.G.i.i.s.P._.)._._.P.G.s.y.G.}._.I.).I.`.`._._._._._._._._._._.P.P.P.P.P.P.P.P._._.P.s.5.F.J.P.P.P.P.G.p.a.9.9.9.a.i.i.p.i.a.a.S.i.i.i.S.S.S.S.a.a.i.S.a.a.a.a.a.a.a.a.F.5.3.i.F.a.a.F.F.M.9.4.4.9.9.9.9.a.a.F.F.F.F.a.a.5.5.5.a.F.p.a.i.F.F.F.i.i.i.i.a.a.a.a.a.a.a.a.a.a.a.a.a.a.a.a.a.5.5.5.a.F.F.a.a.a.5.3.F.F.a.F.F.n.M.M.9.7.9.9.9.9.F.F.F.F.F.i.a.a.a.5.5.d.a.F.i.i.i.i.i.S.S.S.F.S.S.n.F.F.M.F.F.F.9.9.7.5.9.F.F.S.9.9.9.9.7.3.3.d.E.W._._._.P.",
"P.P.P.I._.{.^.:.h g E H _.yXS.G Q =.=.=.=.=.=.=.=.=.=.=.=.=.=.=.=.=.=.=.=.=.=.=.=.=.=.=.b b =.=.=.=.-.=.=.=.=.=.=.=.=.=.=.=.=.>.=.=.=.=.=.>.=.=.=.=.=.=.=.=.=.=.=.=.=.=.=.=.=.=.=.b =.b b b b b b b =.b =.b =.b =.b =.b =.b =.=.=.=.=.=.=.=.=.=.=.=.=.=.=.=.=.=.=.=.b b =.=.=.=.=.=.b b =.=.=.b v X 6 v b m >.-.Q P ^.!.z.)._._.9.E =.b =.<.L 8.W.P.P.I.I.P._._._.G.i.i.5.i.G.)._.I.`.).P.p.9.i._._._._._._._._.).`.I.I.`.).`.I._.P.P._._.s.p.p.J.J._._._._._._.J.p.i.F.G.i.d.s.G._._.P._._.s.y.s.P.P.P._.).J.D.y.p.G.P._.P._._._._._._._._._._._._._._._._._._.P.s.u.s._.W.p._ y.G._._.P._.)._.P._.p.y.G.W.p.y.s.G.)._._._._.G.y.u.G._._._._._._._._._._._._._._._._._.P.P.P.P.P.P.P.P._._._.s.5.a.G.P.P.P.P.G.a.7.9.9.9.p.p.p.F.F.S.S.i.i.a.i.i.i.i.i.i.i.S.S.a.a.a.a.a.a.a.a.a.5.5.5.a.F.F.a.F.F.9.7.9.a.9.3.5.a.a.F.p.a.a.p.F.i.5.5.i.F.a.i.i.i.a.F.F.F.F.F.a.a.a.a.a.a.a.a.a.a.a.a.a.a.a.a.a.5.5.5.a.F.F.a.a.F.a.5.5.a.F.a.9.9.9.7.7.7.9.a.7.d.a.a.p.F.p.i.a.a.a.i.5.5.i.F.a.a.a.a.a.i.a.S.i.i.i.S.F.F.F.F.F.F.a.9.7.7.d.F.F.S.F.M.9.9.5.7.3.d.G._.P.P.P.I.",
"P.P.P._.c.{.W.-.j j E H P.uXn.f Q =.=.=.=.=.=.=.=.=.=.=.=.=.=.=.=.=.=.=.=.=.=.=.=.=.=.=.b b =.=.=.-.-.-.=.=.=.=.=.=.=.=.=.=.>.>.=.=.=.=.>.>.>.>.=.=.=.=.=.=.=.=.=.=.=.=.=.=.=.=.b b b b b b b b b b b b b b b b b b b b b b b b =.=.=.=.=.=.=.=.=.=.=.=.=.=.=.=.=.=.=.b =.=.=.=.=.b b b =.=.=.b v   6 v b m >.=.Q P ^.^.z.{._.).9.E -.=.=.<.L 8.W.P.P.I.P.P._._._.G.i.i.5.5.F.'.I.I.`.).P.p.i.i._._._._._._._._.)._.I.I.`.).`.I._.P.P._._.s.p.p.G.J._._._._._._.J.i.d.F.G.p.p.s.J.W._.P._._.s.y.s.P.P.P._.'.J.s.y.p.G._._._._._._._._._._._._._._._._._._._._._.s.u.p.s._._.s.y.y.G._._.I._.`._.P._.p.y.G._.p.y.p.G.'._._._._.G.y.u.P._._._._._._._._._._._.`._._._._._.P.P.P.P.P.P.P.P._._._.s.d.a.G.P.P.P.P.G.a.7.9.9.9.p.p.p.F.S.S.S.i.a.a.i.i.i.i.i.S.S.S.S.a.a.a.a.a.a.a.a.a.5.5.5.a.F.F.a.F.F.9.7.5.a.9.3.5.a.a.F.a.a.p.a.F.i.5.5.i.F.a.i.5.5.i.a.a.a.p.a.a.a.a.a.a.a.a.a.a.a.a.a.a.a.a.a.a.5.5.5.a.F.F.a.a.F.a.5.5.a.F.a.F.F.9.9.7.5.9.F.5.d.a.a.F.S.p.i.i.a.a.9.5.5.i.F.a.a.a.a.a.a.a.a.p.i.i.i.F.F.F.F.F.F.a.9.5.7.d.F.a.S.F.S.9.9.5.7.3.d.G.P.P.P.P.P.",
"P.P.P._.c.{.W.-.j j E H _.uXn.f Q =.=.=.=.=.=.=.=.=.=.=.=.=.=.=.=.=.=.=.=.=.=.=.=.=.=.=.=.=.=.=.=.=.=.=.=.=.=.=.=.=.=.=.m m m m =.=.>.>.>.>.>.>.>.>.=.=.>.=.>.>.=.=.=.=.m m m m =.=.b b b b b b =.=.=.=.=.=.=.b =.=.=.=.=.=.b b m m =.=.=.=.=.=.=.=.=.=.=.=.=.=.=.=.b b =.=.=.=.=.=.=.b =.=.b b v & 6 v b v >.=.Q P ^.^.z.{._.).9.L -.=.=.>.L 8.!.P.P.P.P.P._._.}.G.i.i.5.5.S._.I.I.`.).P.p.i.i._._._._._._._._.`._.I.I._.)._.I._.P.P._._.s.p.p.G.J._._._._._._.W.i.y.F.G.p.y.p.J.W._.P._._.s.y.s.P.P.P._.).J.s.y.p.G._._._._._._._._._._._._._._._._._._._._._.s.p.y.s.J._.G.y.y.G._._.I._.`._.P._.p.y.G._.p.y.p.G._._._._._.G.y.p.P._._._._._._._._._.`.`.`._._._._._.P.P.P.P.P.P.P.P._._._.s.d.a.G.P.P.P.P.G.a.7.7.9.9.p.p.p.p.i.S.S.i.i.i.i.i.i.i.i.S.F.i.S.a.a.a.a.a.a.a.a.a.i.5.5.a.F.F.a.F.F.9.7.5.a.9.3.5.a.a.F.a.a.p.a.F.i.5.5.i.F.a.i.3.5.5.i.i.a.a.a.a.a.a.a.a.a.a.a.a.a.a.a.a.a.a.a.a.5.5.5.a.F.F.a.a.F.a.5.5.a.F.a.F.F.M.9.5.5.9.F.5.7.a.a.F.S.S.i.i.a.a.i.5.5.i.F.a.a.a.a.a.a.a.a.p.p.i.i.F.F.M.M.F.F.a.9.5.5.a.F.a.S.F.S.9.9.5.7.3.d.G.P.P.P.I.I.",
"P.P.P._.c.{.W.-.j j E H ).uXS.E Q =.=.=.=.=.=.=.=.=.=.=.=.=.=.=.=.=.=.=.=.=.=.=.=.=.=.=.=.=.=.=.=.=.=.=.=.=.=.=.=.=.=.=.m m m m =.=.>.>.>.>.>.>.>.>.=.=.>.>.>.=.=.=.=.=.=.m m m =.=.=.b =.b =.=.=.=.=.=.=.=.=.b =.=.=.=.=.=.b b m m =.=.=.=.=.=.=.=.=.=.=.=.=.=.=.=.=.=.=.=.b h =.=.=.=.=.=.=.b v & 6 v n N >.=.Q P ^.W.W.{._.).9.Q -.=.=.>.P 8.!.P.P.P.P.P._._.}.G.F.i.5.5.S.P.I.I.`.).P.p.i.i._._._._._._._._.`.`.I.I.I.I._._._.I.P._._.s.p.p.G.J._._._._._._._.i.y.F.G.p.y.p.J.W._.P._._.s.y.s.P.P.P._._.J.s.y.p.G._._._._._._._._._._._._._._._._._._._._._.s.p.u.s._._.G.p.y.G._._.I._.`._.P._.p.y.G._.p.y.p.G._._._._._.G.y.s.P._.)._.P._._._._._.`.`.`._._._._._.P.P.P.P.P.P.P.P._._._.s.d.a.G.P.I.P.P.G.a.7.7.9.9.p.p.p.p.i.S.i.i.i.S.S.S.S.i.i.a.F.i.i.a.a.a.a.a.a.a.a.F.i.5.5.a.F.a.a.F.F.9.7.5.a.9.3.5.a.F.F.p.a.p.a.F.i.5.5.i.F.a.i.3.5.5.i.a.a.a.a.a.a.a.a.a.a.a.a.a.a.a.a.a.a.a.a.a.5.5.5.a.F.F.a.a.F.a.5.5.a.F.a.F.F.F.9.5.5.a.F.5.5.a.a.a.S.S.i.i.a.a.9.5.5.i.F.a.a.a.a.a.a.a.a.S.p.i.i.F.F.M.M.F.F.a.9.5.5.a.F.a.S.F.F.9.9.5.7.3.d.G.P.P.P.I.I.",
"P.K.P.I.c.{.W.-.j j E H {.gXS.E Q =.=.=.=.=.=.=.=.=.=.=.=.=.=.=.b =.=.=.=.=.=.=.=.=.=.=.=.=.=.=.=.=.=.=.=.=.=.=.=.=.b b m m b m =.=.=.=.=.=.=.=.=.=.=.=.=.=.=.=.=.=.=.=.=.=.=.=.=.=.=.=.=.=.=.=.=.=.=.=.=.=.=.=.=.=.=.=.=.=.=.=.b =.=.=.=.b b b =.=.=.=.=.=.=.=.=.=.=.=.=.=.=.h =.=.=.=.=.=.=.b b * 6 v b b =.-.! P ^.!.G.)._.).9.L -.=.=.>.P 8.W.P.P.P.P.P._._.}.G.S.i.5.5.S.P._.I.I.).P.p.i.i._._._._._._._._._._.P.P.h.h.I._._.P.P.)._.p.d.d.J.J._._._._._._._.i.y.G.G.F.d.p.J.W._.P._._.s.y.P.I.P.P.P._.J.s.y.p.G._._._._._._._._._._._._._._._._._._._._._.P.P.G.G._._.G.y.y.G._._.I._.`._.P._.p.y.G._.p.y.p.G._._._._.J.G.p.s.P.).)._._._._._._._.`._._._._._._._.P.P.P.P.P.P.P.P._.)._.s.d.a.G.P.I.P.P.G.a.7.9.9.9.p.p.p.p.i.i.i.S.S.S.S.F.F.S.S.a.a.a.i.a.a.a.a.a.a.a.a.F.a.5.5.a.F.a.9.F.F.9.3.5.a.9.3.5.i.a.F.a.a.p.a.F.i.5.5.i.F.a.i.5.5.i.a.a.F.F.F.a.a.a.a.a.a.a.a.a.a.a.a.a.a.a.a.a.5.5.5.a.F.F.a.a.F.a.5.5.a.F.a.F.F.F.9.7.7.a.E.5.5.i.a.p.p.S.S.i.a.a.i.5.5.i.F.a.a.a.a.a.a.a.a.S.S.S.S.F.F.F.M.F.F.a.9.5.5.a.F.a.S.F.a.9.9.5.7.3.d.G.P.P.P.P.I.",
"P.P.P.I.c.{.W.-.k j E F ].gXF.E Q =.=.=.=.=.=.=.=.=.=.=.=.=.=.=.=.=.=.=.=.=.-.=.-.=.=.=.=.=.=.=.=.=.=.=.=.=.=.=.=.=.b b m m b b b =.=.=.=.=.=.=.=.=.=.=.=.=.=.=.=.=.=.=.=.=.=.=.=.=.=.=.=.=.=.=.=.=.=.=.=.=.=.=.=.=.=.=.=.=.=.=.=.=.=.=.=.=.b b =.=.=.=.=.=.=.=.=.=.b =.=.=.b h =.=.=.=.=.=.=.b b 6 6 v b b =.Q ! P ^.!.G.)._.).9.L -.=.=.>.P 8.W.P.P.P.P.P._._.}.G.i.i.5.5.F._._.I.I.).P.p.9.i._._._._._._._._._._.I.P.h.h.I._._.P.P.)._.s.d.d.J.J._._._._._._._.i.5.G.J.F.p.y.J.W._.P._._.s.y.P.I.P.P.P._.J.s.y.p.G._._._._._._._._._._._._._._._._._._._._._._._.P._._.J.s.y.y.G._._.I._.`._.P._.p.y.G._.p.y.p.G._._._._.G.s.u.s.P.).}._._._._._._._.`.`.I.I._._._._.P.P.P.P.P.P.P.P._._._.s.d.a.G.P.I.P.P.G.a.9.9.9.9.p.p.p.p.i.i.i.S.i.S.S.F.F.S.S.a.i.i.i.a.a.a.a.a.a.a.a.F.a.5.5.a.a.a.9.F.F.9.7.5.a.9.3.5.i.a.F.a.a.p.a.F.i.5.5.i.F.a.i.i.i.a.F.F.F.F.F.a.a.a.a.a.a.a.a.a.a.a.a.a.a.a.a.a.d.5.5.a.F.F.a.a.F.a.5.5.a.F.a.F.F.M.9.7.7.9.F.3.5.5.i.p.p.S.i.i.a.a.i.5.5.i.F.a.a.a.a.a.a.a.a.S.S.S.S.F.F.F.F.F.F.9.9.5.5.a.F.a.S.F.a.9.9.5.7.3.d.G.P.P.P.P.P.",
"I.K.P.P.c.{.W.-.n j E F ].gXF.G Q b b b b b b b b b b b b b b =.=.=.-.=.-.-.-.-.-.-.-.=.-.=.-.-.Q Q Q Q =.=.=.=.=.=.b b b b b b b b b b b b b b b b b b b b b =.=.=.=.=.=.=.=.=.=.=.=.=.=.=.-.=.-.=.-.=.=.=.=.=.-.=.-.=.=.=.-.=.=.=.=.=.=.=.=.=.=.=.b b b b b b Q Q b b =.=.=.=.=.Q =.b =.=.=.b m 7 7 v b b =.Q ! P ^.!.G.)._._.9.L -.=.=.<.P 8.W.P.P.P.P.P._._._.G.i.i.5.5.F.'._.I.`.).P.p.9.i._._._._._._._._.P._.P.P.s.s.P._._.P.P.).P.p.d.y.J.J._._._._._._.W.i.5.G.W.G.p.y.J._._.P._._.s.y.P._.P.P.P._.J.s.y.p.G._._._._._._._._._._._._._._._._._._._._._._._.P._._.J.p.y.y.G._._.I._.`._.P._.p.y.G._.p.y.y.G._._._._.G.s.u.s._.).}._._._._._._._._._._._._._._._.P.P.P.P.P.P.P.P._._._.s.d.a.G.P.I.P.P.G.a.9.9.9.9.a.p.p.F.F.i.i.i.i.i.i.i.i.S.S.i.i.S.S.a.a.a.a.a.a.a.a.F.a.5.5.a.a.a.9.F.M.9.7.5.a.9.3.5.i.a.p.p.a.a.a.F.i.5.5.i.F.a.i.a.a.F.F.F.F.a.a.a.a.a.a.a.a.a.a.a.a.a.a.a.a.a.a.a.5.5.5.a.F.F.a.a.p.a.5.5.a.F.a.F.F.9.9.7.7.9.a.3.7.5.i.p.p.p.i.i.a.a.i.5.5.i.F.a.a.a.a.a.a.a.a.p.p.S.S.F.F.F.F.M.M.9.9.5.5.a.F.a.S.F.a.9.9.5.7.3.d.G.P.P.P.P.P.",
"I.K.P.P.c.{.W.:.n j E I 2XhXG.G Q b b b b b b b b b b b b b b =.=.-.-.-.-.-.-.-.-.-.@.-.@.-.-.-.Q Q Q Q =.=.=.=.=.=.=.b b b b b b b b b b b b b b b b b b b b =.=.=.=.=.=.=.=.=.=.=.-.=.=.=.-.-.-.=.-.-.-.=.-.-.-.=.-.-.-.-.-.=.=.=.=.=.=.=.=.=.=.=.=.b b b b b Q =.b b =.=.=.=.=.h h b =.=.=.b m * 7 b b b -.Q ! P W.!.G.)._._.9.L -.=.=.<.P 8.W.P.P.P.P.P._._.W.G.i.i.5.9.F.'._.I._.).P.p.9.i._._._._._._._._.P._.P.h.s.s.P._._.P.P._.P.p.y.y.J.J._._._._._._.J.i.5.G.!.G.d.y.G._._.P._._.s.y.P._.P.P.P._.J.s.y.p.G._._._._._._._._._._._._._._._._._._._._._.P.P.P.P.P.J.p.y.y.G._._.I._.`._.P._.p.y.G._.p.y.y.G._._._._.G.s.u.s._.).)._._._._._._._._._.I._._._._._.P.P.P.P.P.P.P.P._._._.s.5.a.G.P.I.P.P.G.a.9.9.9.9.a.p.p.F.F.S.S.a.a.i.i.i.i.i.i.i.i.S.S.a.a.a.a.a.a.a.a.F.a.5.5.a.a.a.9.F.M.9.7.5.a.9.3.5.i.a.F.a.a.a.a.F.i.5.5.i.F.a.i.a.F.F.F.F.a.a.i.a.a.a.a.a.a.a.a.a.a.a.a.a.a.a.a.a.5.5.5.a.F.F.a.a.p.a.5.5.a.p.a.a.9.9.7.7.7.9.a.3.3.5.i.p.p.i.i.i.a.a.i.5.5.i.F.a.a.a.a.a.a.a.a.p.i.S.S.F.F.F.F.M.M.9.9.7.7.a.F.a.S.F.a.9.9.5.7.3.d.G.P.P.P.P.P.",
"U.P.U.P.h.{.E.! k g Q I 4XtX#XG ~ =.=.=.=.=.=.=.h h b b b =.=.=.L P P -.:.:.:.:.4.:.4.:.4.:.4.:.Q Q Q Q Q h a a >.>.>.=.=.b m m >.>.>.b =.b b b >.>.>.>.=.b b =.a Q =.=.=.-.-.Q L L -.-.,.,.:.1.:.:.:.:.:.:.:.:.:.,.-.-.-.-.-.Q L Q L Q =.=.=.=.=.=.=.=.b h h h =.=.b b Q =.=.=.=.=.=.=.=.=.=.=.>.7 p b >.,.Q -.P G E.}.G._.P.}.9.Q =.x =.=.J 2.W.P.I.P.P.P._._.G.J.S.5.9.i.S.)._.I.`.).P.p.i.p._._.`.I._._._._._.P._.P.y.p._.)._.P.P._.P.p.y.y.J._._._._._._.P.J.5.3.G.'.G.p.y.p.J.G.G.}.G.y.p.P._._.P.P._.G.s.y.p.G._._._._._._._._._._._._._._._._._._._._._._._._.G.P._.s.y.p.G._._.P._.`._._.P.s.y.p._.G.y.p.p.G.'.J._._.y.s.P._._.P._._._._._._._._.`._._._._._._.P.P.P.P.P.P.P.P._._._.s.d.5.G.U.P.P.U.G.5.7.7.7.9.a.p.p.S.S.i.i.a.S.S.S.S.S.S.i.i.i.S.S.a.a.a.a.a.a.a.a.a.i.5.5.a.F.F.F.F.9.7.9.9.a.5.3.5.a.a.F.p.a.a.a.F.a.5.5.i.p.F.F.a.a.a.a.a.a.a.a.a.a.a.a.a.a.a.a.a.a.a.a.a.a.a.a.a.5.5.5.a.F.F.a.a.F.a.5.5.i.a.a.9.F.F.9.3.5.a.a.7.5.9.a.p.p.p.i.i.a.a.i.5.5.i.F.F.i.i.F.F.i.5.a.p.p.F.S.M.F.M.M.9.F.a.9.5.5.a.a.a.S.F.a.9.9.5.7.3.d.G._.P.P.I.I.",
"P.P.U.P.h.{.E.! k g W I 4XdX#XV Q =.=.=.=.=.=.=.=.=.b b h h h Q -.-.-.-.:.:.:.4.4.4.2.2.4.4.4.4.-.=.=.=.-.-.=.=.=.=.=.=.=.b =.m >.=.=.>.b b =.=.=.=.=.=.b b b b Q =.=.=.-.=.Q Q -.-.=.-.:.,.,.1.:.:.:.:.:.:.:.:.:.:.:.:.:.-.-.-.-.-.-.-.=.=.@.=.Q =.Q =.b b b b =.=.b b Q =.=.=.=.=.=.=.=.=.h h >.7 p b =.,.L Q ! H E.}.W._.P.}.M.Q -.=.=.<.L 2.W.P.P.P.P.P._._.G.J.S.5.9.i.F.)._.I.`.).P.p.d.p._._._.I._._._._._.P._.G.y.p._.'._.P.P._.P.p.y.y.J._._._._._._.P.J.y.3.G.'.G.p.y.p.J.G.G.).G.y.p.P._._.P.P._.G.s.y.p.G._._._._._._._._._._._._._._._._._._._._._._._._.G.P._.s.y.p.G._._.P._.`._._.P.s.y.p._.G.y.p.p.G.'.P._._.y.s.P._.P.P._._._._._._._.`._.`._._._._._.P.P.P.P.P.P.P.P._._._.s.d.5.G.U.P.P.U.G.d.7.7.7.9.a.p.p.S.S.i.i.a.i.S.S.S.S.i.i.i.i.S.S.a.a.a.a.a.a.a.a.a.i.5.d.a.F.F.F.F.9.7.9.9.a.9.3.5.a.a.F.p.a.a.p.F.a.5.5.i.a.F.F.a.a.a.a.a.a.a.a.a.a.a.a.a.a.a.a.a.a.a.a.a.a.a.a.a.5.5.5.a.F.F.a.a.F.a.5.5.i.a.a.9.F.F.9.7.5.a.a.7.5.9.a.p.p.p.i.i.a.a.i.5.5.i.F.F.i.i.F.F.i.5.a.p.p.F.F.M.F.M.M.9.F.a.9.5.5.a.a.a.S.F.a.9.9.7.7.3.a.G._.P.P.I.I.",
"P.G.U._.h.`.E.! k g W I 4XdX#XG Q =.=.=.=.=.=.=.=.=.=.=.=.=.=.=.:.:.2.2.2.2.4.4.2.2.2.2.2.2.2.4.:.:.,.,.,.,.-.-.L =.=.=.=.=.=.b =.=.=.=.=.=.=.=.=.=.=.=.=.=.=.=.=.=.=.=.=.-.-.-.:.:.,.,.6.6.6.8.:.:.:.:.:.:.:.:.4.4.4.4.:.:.:.:.,.:.:.,.-.-.-.-.L L =.=.=.=.=.=.=.=.=.b =.=.=.=.=.=.=.=.=.=.h h >.* i b Q >.L Q ! H E.}.W._.P.}.M.Q -.=.>.<.J 2.W.P.P.P.P.P._._.G.J.F.5.9.i.F.}._.I.`.).G.p.d.p._._.`.`._._._._._.G._.G.y.p._._._.P.P._.P.p.d.d.J._._._._._._.P.J.y._ G.!.G.p.y.p.J.G.G._.G.y.u.P._._.P.P._.J.p.y.p.G._._._._._._._._._._._._._._._._._._._._._._._._.G.J.W.s.y.p.G._._.P._.`._._.J.p.y.p._.G.p.p.p.G._.P._._.y.s.P._.P.P._._._._._._._._._.`._._._._._.P.P.P.P.P.P.P.P._._._.s.d.5.G.U.P.P.U.G.9.7.7.7.9.a.p.p.S.i.i.i.i.i.S.S.F.S.S.i.i.a.a.S.a.a.a.a.a.a.a.a.a.a.5.5.a.F.F.F.F.9.7.9.9.a.9.3.5.a.a.F.p.a.a.p.F.a.5.5.i.a.F.F.a.a.a.a.a.a.a.a.a.a.a.a.a.a.a.a.a.a.a.a.a.a.a.a.a.5.5.5.a.F.F.a.a.F.a.5.5.i.a.a.9.F.F.9.7.9.F.a.7.5.9.a.p.p.S.i.i.a.a.i.5.5.i.F.F.i.i.F.F.i.5.a.p.p.a.F.F.F.F.F.9.F.a.9.5.5.a.a.a.S.F.a.9.9.5.7.5.a.G._.P.P.I.I.",
"P.G.U._.h.`.E.! k j W I 5XdX#XW E Q =.=.Q Q =.=.Q Q =.-.=.,.,.,.4.2.2.2.2.2.2.2.2.2.2.2.2.2.2.2.4.4.4.:.:.:.:.:.-.-.-.-.-.-.=.=.@.@.=.=.=.=.=.=.-.-.=.=.=.=.=.=.=.=.=.=.-.-.,.,.1.1.6.,.6.6.6.2.2.:.2.:.2.2.2.2.8.8.4.4.2.4.2.2.8.6.6.,.:.,.,.,.-.=.-.=.=.=.=.=.=.=.=.=.b =.=.=.=.=.=.=.=.b h h =.* a =.=.,.Q ^ :.P E.}.G._.P.}.M.Q -.=.>.<.L 2.W.P.P.P.P.P._._.G.J.F.5.9.i.p.'._._.`.).G.p.i.p._._._.`._._._._._.G._.J.y.p.W.'._.P.P._.P.s.d.d.J._._._._._._.P.J.i._ F.!.G.p.y.p.J.P.G._.G.y.u.P._._.P.P._.J.p.y.p.G._._._._._._._._._._._._._._._._._._._._._._._._.G.J._.s.y.p.G._._.P._.`._._.J.p.y.p._.J.p.p.p.G._.P._._.y.s.P._.P.P._._.P._._._._._._._._._._._._.P.P.P.P.P.P.P.P._._._.s.d.5.G.U.P.P.U.G.9.7.7.7.9.a.p.p.p.i.i.i.i.S.S.S.F.F.F.i.i.i.i.i.a.a.a.a.a.a.a.a.a.a.5.5.a.a.F.F.F.9.3.7.a.F.9.3.5.a.a.F.p.a.a.p.F.a.5.5.i.a.F.F.a.a.a.a.a.a.a.a.a.a.a.a.a.a.a.a.a.a.a.a.a.a.a.a.a.5.5.5.a.F.F.a.a.F.a.5.5.i.a.a.9.F.M.7.7.9.F.a.7.5.i.a.p.S.S.i.i.a.a.i.5.5.i.F.F.i.i.F.F.i.5.a.p.p.F.F.F.F.F.F.9.F.a.9.5.5.a.a.a.S.F.9.9.9.7.7.5.p.G._.P.P.I.I.",
"P.G.P._.h.`.z.P k j ! I 5XgXOXW G L L L Q Q Q Q -.=.=.,.,.:.1.8.4.2.2.2.2.2.2.2.2.2.2.2.2.2.2.2.2.4.8.4.4.4.4.:.:.:.:.,.-.-.@.-.L L L L L @.@.@.-.-.-.-.-.-.-.-.=.Q Q Q =.,.:.1.1.8.2.2.2.2.2.2.2.2.2.2.2.2.2.2.2.2.2.2.2.2.2.2.2.2.2.2.2.2.2.:.-.-.-.=.-.Q Q Q =.=.=.=.b h =.=.=.=.=.=.=.=.h h >.e =.>.>.1.-.4.2.H H.!.J.).P.'.9.Q -.=.>.<.J 2.W.P.P.P.P.P._._.G.!.F.5.9.5.p.'._.I.`.).G.p.9.S._.`._.`._._._._._.G._.J.y.p.W.'._.P.P._._.s.p.d.J.W._._._._._.P._.i._ F.W.G.p.y.p.J.P.G._.G.p.s.P._._.P._._.J.s.y.p.G._._._._._._._._._._._._._._._._._._._._._._._._.G.J.W.s.y.p.G._._.P._.`._._.G.p.y.p._.J.p.p.p.G._.G._.P.y.s.P._._.P._._.P._._._._._._.`._._._._._.P.P.P.P.P.P.P.P._._.P.s.d.5.G.U.P.P.U.G.9.7.7.7.9.p.p.p.p.i.F.S.i.a.a.a.i.i.i.i.S.S.i.i.a.a.a.a.a.a.a.a.F.a.i.5.a.a.F.a.a.9.7.7.a.F.9.5.5.a.a.F.p.a.a.p.F.a.5.5.i.a.F.F.a.a.a.a.a.a.a.a.a.a.a.a.a.a.a.a.a.a.a.a.a.a.a.a.a.5.5.5.a.F.F.a.a.F.a.5.3.9.a.9.a.F.9.7.7.a.F.a.7.5.i.a.a.S.S.i.i.a.a.i.5.5.i.F.F.i.i.F.F.i.5.a.p.p.i.i.F.F.F.F.9.F.a.9.5.5.a.a.a.S.F.S.9.9.5.7.3.d.G._.P.P.I.I.",
"P.G.P._.h.`.z.P k j ! I 5XgXOXW G L L Q Q Q -.-.:.:.:.:.:.:.:.:.2.2.2.2.2.2.2.2.2.2.2.2.2.2.2.2.2.2.2.2.2.2.2.2.8.8.6.,.:.,.-.=.-.-.-.-.-.L @.@.Q Q Q Q -.-.@.@.Q Q ~ =.,.:.1.8.:.:.2.2.2.2.2.2.6.6.6.2.2.2.2.2.2.2.2.2.2.2.2.2.2.2.2.2.2.2.2.2.:.:.:.-.-.-.Q Q =.=.=.=.b h =.=.=.=.=.=.=.=.=.=.>.i =.,.,.1.:.8.8.! H.!.J.).P._.9.Q -.=.<.<.J 2.W.P.P.P.P.P._._.G.!.F.5.5.5.i.'._.I.`.).G.p.5.S._.`._._._._._._._.G._.J.y.i.!.'._.P.P._._.s.p.p.J.W._._._._._.P._.i._ p.J.G.p.y.y.J._.P._.s.p.s._._._.P._._.J.s.y.p.G._._._._._._._._._._._._._._._._._._._._._._._._.G.J.W.s.y.p.G._._.P._.`._._.G.p.} p._._.p.y.p.G._.G._.P.y.s.P._._.P._._.P._._._._.I.`._._._._._._.P.P.P.P.P.P.P.P._._.P.s.d.5.G.U.P.P.U.G.9.7.7.7.9.p.p.p.p.a.F.S.i.a.i.i.i.i.i.i.S.S.S.i.a.a.a.a.a.a.a.a.F.a.i.9.a.a.a.a.a.9.3.7.a.a.9.5.5.a.a.F.p.a.a.p.F.a.5.5.i.a.F.F.a.a.a.F.a.a.a.a.a.a.a.a.a.a.a.a.a.a.a.a.a.a.a.a.a.5.5.5.a.F.F.a.a.F.a.5.3.9.a.a.a.F.9.3.5.a.F.a.7.5.i.a.a.S.S.i.i.a.a.i.5.5.i.F.F.i.i.F.F.i.5.a.p.p.i.i.F.F.M.F.9.F.a.9.5.5.a.a.a.S.F.F.9.9.5.7.3.d.G._.P.P.I.I.",
"P.G.'._.c.{.z.P n j ! T 5XhXrX/ ! -.-.-.-.:.:.:.8.8.8.8.:.:.:.:.2.2.2.2.2.2.2.2.2.2.2.2.2.2.2.2.2.2.2.2.2.2.2.8.2.2.6.,.,.:.:.:.:.:.,.-.-.-.-.-.-.-.-.-.-.-.-.-.=.=.,.,.:.:.:.4.:.4.2.2.2.2.2.6.6.2.2.2.2.2.2.2.2.2.2.2.2.2.2.2.2.2.2.2.2.2.2.2.2.:.:.,.,.-.=.=.=.=.=.=.=.=.=.=.=.h h h h =.=.;.,.i ,.1.,.1.:.4.4.! H.!.J.).P._.M.-.,.>.,.,.P 2.W.P.P.P.P.P._._.G.'.F.5.5.5.i.'._.I.`.).P.p.9.i._.`._._._._._._._.G._.J.y.i.!.!._.P.P._._.s.p.p.J.W._._._._._.P.'.i._ p.J.G.p.d.y.J._.J._.s.p.s._._._._._._.J.s.y.p.G._._._._._._._._._._._._._._._._._._._._._._._._.G.P._.s.y.p.G._._.P._.`._._.G.p._ p._._.s.y.y.G._.G._.G.y.s.P._._.P._._.P._._.I._.`.`.`._._._._._.P.P.P.P.P.P.P.P._._._.s.d.5.G.U.P.P.U.G.9.7.7.7.9.p.p.p.p.i.i.i.S.S.i.i.i.i.F.F.S.S.i.i.a.a.a.a.a.a.a.a.F.a.i.i.a.a.a.a.9.9.7.7.a.a.a.9.5.a.a.F.p.a.p.p.F.a.5.5.i.a.F.F.a.a.a.a.a.a.a.a.a.a.a.a.a.a.a.a.a.a.a.a.a.a.a.a.a.5.5.5.a.F.F.a.a.F.a.5.5.i.a.a.a.9.9.3.5.F.E.9.7.5.i.a.a.S.p.i.i.a.a.i.5.5.i.F.F.i.i.F.F.i.5.a.p.i.i.i.F.F.M.M.9.F.a.9.5.5.a.a.a.S.F.F.9.9.5.7.3.d.G.P.P.P.I.I.",
"P.G._._.c.{.E.P =.h ! T 5XhXrXI ) -.:.:.:.4.4.4.:.:.:.4.4.8.8.8.2.2.2.2.2.8.8.8.2.2.2.2.2.2.2.2.2.2.2.2.2.2.6.6.:.:.2.2.6.4.6.8.8.8.8.:.:.-.-.-.-.:.:.:.:.:.:.:.:.:.:.1.1.4.:.:.4.2.2.6.6.6.6.6.2.2.2.2.2.2.2.2.2.2.2.2.2.2.6.2.7.7.2.2.2.2.-.-.2.2.:.:.:.:.,.,.Q Q =.Q =.Q =.Q =.Q L a Q Q >.,.1.a ,.1.,.:.-.4.9.) G.!.G.).P._.F.-.:.,.1.1.! 8.W.P.P.P.I.P.P.P.J.'.F.5.5.5.p._._._.`.).P.p.i.i._._._._._._._.P._.G._.J.y.i.!.!._.P.P._._.s.p.p.J.W._._._._._.P.'.d._ p.J.G.p.d.y.J._.P._.s.p.G._._._._._._.J.G.y.p.G._._._._._._._._._._._._._._._._._._._._._._._._.P.P._.s.y.p.G._._.P._.)._._.G.p._ p._._.s.y.y.G._.G._.G.y.s._._._.P._._.P._._._._._.`.`._._._._.P.P.P.P.P.I.P.P.P.P.)._.s.d.5.G.U.P.P.U.G.d.7.7.7.9.p.p.p.p.i.S.S.S.S.i.i.i.i.i.F.S.S.i.i.a.a.a.a.a.a.a.a.F.a.i.i.a.a.a.a.9.9.3.7.9.F.a.5.5.a.a.F.a.a.p.p.F.a.5.5.i.a.F.F.a.a.a.a.a.i.a.a.a.a.a.a.a.a.a.a.a.a.a.a.a.a.a.a.a.5.5.5.a.F.F.a.a.F.a.5.5.i.a.a.F.9.7.3.7.F.E.9.7.5.i.i.a.i.p.i.i.a.a.i.5.5.i.F.F.i.i.F.F.i.5.a.p.i.i.S.F.M.M.M.9.F.9.9.5.5.a.a.F.S.F.S.9.9.5.7.7.d.G._.P.P.I.I.",
"P.P.P.P.)._.a.2.8.4.! _ uXdXdXX.2.2.2.4.4.4.8.2.2.2.2.2.2.2.2.2.2.2.2.2.2.2.2.2.2.2.2.2.2.2.2.2.2.2.2.2.2.2.2.2.2.2.2.2.2.2.2.2.2.2.2.2.2.2.2.2.2.2.2.2.2.2.2.2.2.4.4.2.2.2.2.2.2.2.2.2.2.2.2.2.2.2.2.2.2.2.2.2.2.2.2.2.2.2.2.2.2.2.2.2.2.2.2.2.2.2.2.2.2.2.2.2.:.-.-.! -.! ! P :.:.:.:.:.:.:.:.:.:.:.:.:.4.4.8.2.3.F.}._.P._.P.a.2.:.4.8.4.2.3._._._.I.P.P.P.P.J.U.F.' 5.5.p.}._.`.h.h._.s.5.G._._._._.P.P.P.P.P.G.P.J.y.d.W._.P._.P.P._.s.y.s.J.J._._._._._._._.p.d.p.W.'.G.y.p.s.W.}.W.d.p._.P._._.P._._.J.G.y.s.G._._._._._._._._._._._._._._._._._._._._._.I._._.P._._.s.3.p.J._._._._._.P._.J.s.y.p.G.J.G._ y.s.J._.J.s.y._._._._._._._._._._._._._._._._._._._.P.P.P.I.P.P.P.P.P.P.P.G.d.3.i.D.K.P.P.P.G.d.7.7.9.9.a.p.p.p.i.i.i.S.S.S.S.i.i.i.i.i.i.S.S.i.i.i.i.i.i.F.F.a.F.F.9.5.a.F.F.9.7.3.7.9.F.9.5.5.i.a.F.p.i.a.p.a.a.a.5.i.F.F.a.i.i.i.i.i.S.i.i.S.S.S.S.i.i.i.i.i.i.a.i.S.S.i.a.a.5.3.5.a.F.F.a.a.a.a.i.5.5.a.a.S.n.9.3.9.F.E.9.7.5.i.a.p.p.p.i.a.a.a.i.5.5.a.F.F.a.a.F.F.i.5.a.F.F.F.F.S.S.n.n.n.M.M.9.5.7.a.a.a.F.a.a.9.9.7.7.5.p.W._._.P.I.I.",
"P.P.P.P.)._.a.2.8.3.) ' uXdXfXo._ 2.2.2.2.2.6.2.2.2.2.2.2.2.2.2.2.2.2.2.2.2.2.2.2.2.2.2.2.2.2.2.2.2.2.2.2.2.2.2.2.2.2.2.2.2.2.2.2.2.2.2.2.2.2.2.2.2.2.2.2.2.2.2.2.2.2.2.2.2.2.2.2.2.2.2.2.2.2.2.2.2.2.2.2.2.2.2.2.2.2.2.2.2.2.2.2.2.2.2.2.2.2.2.2.2.2.2.2.2.2.2.2.2.2.2.2.2.-.-.2.2.2.2.2.2.2.2.2.2.2.2.2.4.2.2.2.3.F.}._.P.I.P.a.3.2.4.8.4.2.3._._.`.I.P.P.P.P.G.U.F.' 5.5.a.[._.{.c.h._.s.5.F._._._._.P.P.P.P.P.P.P.J.y.p.W._.P._.P.P._.s.y.s.J.J._._._._._._._.s.d.p.W.}.G.y.p.s.W.}.W.d.p._.P._._.P._._.J.G.y.s.G._._._._._._._._._._._._._._._._._._._._._.I._._._._._.s.3.p.J._._._._._.P._.J.s.y.p.G.J.G._ y.p.J._.J.p.y._._._._._._._._._._._._._._._._._._.P.P.I.P.I.I.P.I.P.P.P.U.G.d.3.9.D.D.P.P.P.P.d.7.7.7.9.a.p.p.p.i.S.S.S.i.S.S.F.S.i.i.i.i.F.S.S.S.S.S.i.i.i.S.a.F.F.9.5.a.F.F.9.7.3.7.9.F.9.5.5.i.a.F.p.i.i.p.a.a.a.5.i.F.F.a.i.i.i.i.S.S.S.S.S.S.S.S.i.i.i.i.i.i.a.a.S.i.i.i.a.5.5.5.a.F.F.a.a.a.a.i.5.5.a.a.S.n.9.3.9.F.E.9.7.5.i.a.p.S.p.i.a.a.a.i.5.5.a.F.F.a.a.F.F.i.5.a.F.F.F.F.S.n.n.n.n.n.M.9.7.7.a.a.a.F.a.a.9.9.7.7.5.p.W._.).P.I.I.",
"P.P.P.P.)._.l.2.8.3.) ' uXdXfXo._ 2.2.2.2.2.2.2.2.2.2.2.2.2.2.2.2.2.2.2.2.2.2.2.2.2.2.2.2.2.2.2.2.2.2.2.2.2.2.2.2.2.2.2.2.2.2.2.2.2.2.2.2.2.2.2.2.2.2.2.2.2.2.2.2.2.2.2.2.2.2.2.2.2.2.2.2.2.2.2.2.2.2.2.2.2.2.2.2.2.2.2.2.2.2.2.2.2.2.2.2.2.2.2.2.2.2.2.2.2.2.2.8.8.8.2.2.2.2.2.2.2.2.2.2.2.2.2.2.2.2.2.2.4.2.2.2.3.F.}._.P.I.P.a.3.2.4.8.4.2.3._._._.I.P.P.P.P.J.J.F.5.5.5.d._._.{.`._._.s.5.G._._._._.P.P.P.P.P.P.P.J.y.p._._.P._.P.P._.s.y.s.J.J._._._._._._._.p.d.p._.}.G.d.p.p.W.}.W.p.p._.P._._.P._._.J.G.y.s.G._._._._._._._._._._._._._._._._._._._._._.I._._.P._._.s.y.s.J._._._._._.P._.J.s.y.p.G.J.G._ y.p.J._.J.p.y._._._._._._._._._._._._.`.`._._._._.P.P.I.P.I.I.I.I.P.P.P.P.G.d.3.9.S.D.P.P.P.P.d.7.7.7.9.a.F.p.S.S.S.F.i.i.a.a.F.i.i.i.S.S.F.F.S.S.S.S.i.i.i.S.a.F.F.5.5.a.F.F.9.7.3.7.a.a.9.5.5.i.a.F.S.i.i.p.a.a.a.5.i.F.F.a.S.i.i.i.S.S.S.S.i.i.i.S.i.i.S.S.i.i.i.i.S.S.a.a.a.5.5.5.a.F.F.a.a.a.a.i.5.5.a.a.S.n.9.3.9.F.E.9.7.5.d.a.p.S.S.i.a.a.a.i.5.5.a.F.F.a.a.F.F.i.5.a.a.a.F.F.S.n.n.n.n.n.9.9.7.7.a.a.a.F.a.9.9.9.7.7.5.p.W._.).P.I.I.",
"P.P.P.P.)._.l.2.8.3.` y.uXdXfXo._ 2.2.2.2.2.2.2.2.2.2.2.2.2.2.2.2.2.2.2.2.2.2.2.2.2.2.2.2.2.2.2.2.2.2.2.2.2.2.2.2.2.2.2.2.2.2.2.2.2.2.2.2.2.2.2.2.2.2.2.2.2.2.2.2.2.2.2.2.2.2.2.2.2.2.2.2.2.2.2.2.2.2.2.2.2.2.2.2.2.2.2.2.2.2.2.2.2.2.2.2.2.2.2.2.2.2.2.2.2.2.2.2.2.2.2.2.2.2.2.6.6.6.6.2.6.6.6.2.2.2.2.2.4.2.2.2.3.F.}._.P.I.P.a.3.2.4.4.2.2.3._._._.I.P.P.P.P.J.J.F.5.3.5.d._._.{.`.`._.s.5.G._._._._.P.P.P.P.P.P.P.J.y.p._._.P._.P.P._.s.y.s.J.J._._._._._._._.p.d.p._.}.G.d.p.p.W.}.G.d.p._.P._._.P._._.J.G.y.s.G._._._._._._._._._._._._._._._._._._._._._.I._._.P._._.s.3.s.J._._._._._.P._.J.s.y.p.G.J.G.y.y.p.J.'.J.p.y._._._._._._._._._._._._.`.`.`._._._.P.P.I.P.I.I.I.P.P.P.P.P.G.d.3.5.S.D.P.P.I.P.d.7.7.7.9.a.S.S.S.F.F.F.i.i.i.a.a.a.i.i.S.S.S.S.S.S.S.S.i.i.i.S.a.F.F.5.5.a.F.F.5.7.7.7.a.a.9.7.5.i.a.F.S.i.i.p.a.a.a.5.i.F.F.a.S.i.i.i.S.S.S.S.i.i.a.a.a.i.S.S.S.i.i.i.S.S.a.i.a.d.5.5.a.F.F.a.a.a.a.i.5.5.a.a.S.n.9.3.9.F.E.9.7.5.i.a.a.S.S.i.a.a.a.i.5.5.a.F.F.a.a.F.F.i.5.a.a.a.F.F.S.n.n.n.n.n.9.9.7.7.a.a.a.F.a.9.9.9.7.7.5.p.W._.).P.I.I.",
"P.P.P.P._._.l.2.3.3.` y.uXdXfXk._ 2.2.2.2.2.2.2.2.2.2.2.2.2.2.2.2.2.2.2.2.2.2.2.2.2.2.2.2.2.2.2.2.2.2.2.2.2.2.2.2.2.2.2.2.2.2.2.2.2.2.2.2.2.2.2.2.2.2.2.2.2.2.2.2.2.2.2.2.2.2.2.2.2.2.2.2.2.2.2.2.2.2.2.2.2.2.2.2.2.2.2.2.2.2.2.2.2.2.2.2.2.2.2.2.2.2.2.2.2.2.2.2.2.2.2.2.2.2.2.2.2.2.2.2.2.2.2.2.2.2.2.2.4.2.2.2.3.F.}._.P.I.P.a.3.2.4.8.4.2.3._._._.`.P.P.P.P.G.J.F.5.3.3.5.W.z.).{._._.p.' G._._._._.P.P.P.P.P.P.P.G.y.y._._.P._.P.P._.s.y.s.J.J._._._._._._.W.p.y.p._.}.G.d.d.p.G.}.G.d.p._.P._._.P._._.J.G.y.s.G._._._._._._._._._._._._._._._._._._._._._._._._.P.P.P.s.3.p.J._._._._._.P._.J.s.y.p.G.J.G.y.y.p.J._.G.p.d._._._._._._._._._._._._.`.`.`._._._.P.P.I.P.P.P.I.P.P.P.P.P.G.d.3.5.S.G.P.P.P.P.d.7.7.7.9.a.p.S.S.S.a.a.S.S.i.i.i.i.S.S.i.i.i.i.S.S.S.S.i.i.S.S.a.F.F.5.5.a.F.F.7.7.7.9.F.F.9.7.5.i.a.F.S.i.i.F.a.a.a.5.i.F.F.a.F.F.i.i.S.S.S.S.i.a.a.i.S.S.F.S.S.S.S.S.i.i.i.i.a.5.5.5.a.F.F.a.a.a.a.i.5.5.a.a.a.9.7.3.9.F.E.9.7.5.i.a.p.p.S.i.a.a.a.i.5.5.a.F.F.a.a.F.F.i.5.a.a.a.F.F.S.n.n.n.n.M.9.9.7.7.a.a.F.F.F.a.9.9.7.7.5.a.W.).)._.I.I.",
"P.P.P.P.)._.l.2.2.3.3.y.uXdXfXk._ 2.2.2.2.2.2.2.2.2.2.2.2.2.2.2.2.2.2.2.2.2.2.2.2.2.2.2.2.2.2.2.2.2.2.2.2.2.2.2.2.2.2.2.2.2.2.2.2.2.2.2.2.2.2.2.2.2.2.2.2.2.2.2.2.2.2.2.2.2.2.2.2.2.2.2.2.2.2.2.2.2.2.2.2.2.2.2.2.2.2.2.2.2.2.2.2.2.2.2.2.2.2.2.2.2.2.2.2.2.2.2.2.2.2.2.2.2.2.2.2.2.2.2.2.2.2.2.2.2.2.2.2.4.2.2.2.3.F.}._.P.I.P.a.3.2.2.8.2.2.3._._._.`.P.P.P.P.G.J.F.3.3.3.3.s.s.).)._._.p.' G._._._._.P.P.P.P.P.P.P.G.y.y._._.P._.P.P._.s.y.s.J.J._._._._._._.W.p.d.p._.}.G.d.d.p.G.}.G.d.p._.P._._.P._._.J.G.y.p.G._._._._._._._._._._._._._._._._._._._._._._._._.P.P._.s.3.s.J._._._._._.P._.J.s.y.p.G.J.G.p.y.p.J._.G.p.p._._._._._._._._._._._._.`.`.I._._._._.P.I.I.P.P.P.P.P.P.P._.G.d.3.5.S.G.P.P.P.P.d.7.7.7.9.F.S.S.p.i.a.i.S.S.i.i.i.i.S.S.i.i.i.i.S.S.S.S.i.S.S.S.a.F.F.5.5.a.F.F.7.7.7.9.F.F.9.3.5.i.F.F.S.i.i.S.a.a.a.5.i.F.F.a.S.F.i.i.S.S.S.S.i.a.i.i.S.i.F.F.S.S.S.S.S.S.i.i.a.5.5.5.a.F.F.a.a.a.a.9.5.5.a.a.a.9.9.3.9.F.E.9.7.5.i.a.p.p.i.i.a.a.a.i.5.5.a.F.F.a.a.F.F.i.5.a.a.a.F.F.S.n.n.n.n.M.9.9.7.7.a.a.F.F.a.a.9.9.7.7.5.a.W._.)._.I.I.",
"P.P.P.P.)._.a.2.2.2.3.y.uXdXfXk._ 2.2.2.2.2.2.2.2.2.2.2.2.2.2.2.2.2.2.2.2.2.2.2.2.2.2.2.2.2.2.2.2.2.2.2.2.2.2.2.2.2.2.2.2.2.2.2.2.2.2.2.2.2.2.2.2.2.2.2.2.2.2.2.2.2.2.2.2.2.2.2.2.2.2.2.2.2.2.2.2.2.2.2.2.2.2.2.2.2.2.2.2.2.2.2.2.2.2.2.2.2.2.2.2.2.2.2.2.2.2.2.2.2.2.2.2.2.2.2.2.2.2.2.2.2.2.2.2.2.2.2.2.4.2.2.3.3.F.}._.P.I.P.a.3.2.4.8.2.2.3._._._._.P.P.P.P.G.U.F.3.3.` 3.a.p._._._._.p.' G._._._._.P.P.P.P.P.G.P.G.y.p._._.P._.P.P._.s.y.s.G.J._._._._._._.W.p.y.p.W.}.G.d.y.p.G.}.G.d.p._.P._._.P._._.J.G.y.s.G._._._._._._._._._._._._._._._._._._._._._.P._._.P.P.P.s.3.p.J._._._._._.P._.J.s.y.p.G.J.G.p.y.p._.'.s.y.p._._._._._._._._._._._._._._.I.I._._.P.P.P.P.P.P.P.P.P.P.P.'.G.d.3.5.S.G.P.P.P.P.d.7.7.7.9.F.p.p.p.i.i.i.S.S.S.i.i.a.S.S.i.i.i.i.S.S.S.S.a.i.S.S.a.F.F.5.5.a.F.F.7.4.7.9.F.F.9.3.5.i.a.F.p.i.i.S.a.a.a.5.i.F.F.a.S.S.S.i.S.S.S.S.S.S.i.i.i.i.i.i.i.i.F.F.S.S.S.S.a.5.5.5.a.F.p.a.a.a.a.i.5.5.a.a.a.9.7.3.9.F.E.9.7.5.i.a.p.i.i.i.a.a.a.i.5.5.a.F.F.a.a.F.F.i.5.a.a.a.F.F.S.n.n.n.n.n.9.9.7.7.a.a.F.F.F.a.9.9.7.7.5.p.W.).)._.I.I.",
"P.P.P.P.)._.a.2.2.2.3.i.uXdXfXg._ 2.2.2.2.2.2.2.2.2.2.2.2.2.2.2.2.2.2.2.2.2.2.2.2.2.2.2.2.2.2.2.2.2.2.2.2.2.2.2.2.2.2.2.2.2.2.2.2.2.2.2.2.2.2.2.2.2.2.2.2.2.2.2.2.2.2.2.2.2.2.2.2.2.2.2.2.2.2.2.2.2.2.2.2.2.2.2.2.2.2.2.2.2.2.2.2.2.2.2.2.2.2.2.2.2.2.2.2.2.2.2.2.2.2.2.2.2.2.2.2.2.2.2.2.2.2.2.2.2.2.2.2.4.2.2.2.3.F.}._.P.I.P.a.3.2.4.8.2.2.3._._._._.I.P.P.P.G.U.F.' 3.` 3.p.d.G._._.P.p.' G._._._._.P.P.P.P.P.P.P.G.y.y._._.P._.P.P._.s.y.s.G.J._._._._._._.W.p.y.p.W.}.G.p.d.p.G.}.G.d.p._.P._._.P._._.J.G.y.s.G._._._._._._._._._._._._._._._._._._._._._.I._._.P.P.P.s.3.p.J._._._._._.P._.J.s.y.p.G.J.G.p.y.p._.'.s.y.p._._._._._._._._._._._._._._.I.I._._._.P.P.P.I.P.P.P.P.P._.'.G.d.3.5.S.D.P.P.P.P.d.7.7.7.9.a.p.p.p.i.i.i.S.S.S.i.a.a.S.S.S.a.a.a.S.S.S.S.a.a.S.S.a.F.F.d.5.a.F.F.7.4.7.9.F.F.9.3.5.i.a.F.p.i.i.p.a.a.a.5.i.F.F.a.S.S.i.i.S.S.S.S.S.S.S.i.i.i.i.i.i.i.a.a.S.S.S.F.a.5.5.5.a.F.p.a.a.a.a.i.5.5.a.a.a.9.7.3.9.F.E.9.7.5.i.a.p.p.i.i.a.a.a.i.5.5.a.F.F.a.a.F.F.i.5.a.a.a.F.F.S.n.n.n.n.n.M.9.7.7.a.a.F.F.F.a.9.9.7.7.5.p.W.).)._.I.I.",
"P.P.I.P.)._.a.2.2.) ` i.uXdXhXg.3.2.2.2.2.2.2.2.2.2.2.2.2.2.2.2.2.2.2.2.2.2.2.2.2.2.2.2.2.2.2.2.2.2.2.2.2.2.2.2.2.2.2.2.2.2.2.2.2.2.2.2.2.2.2.2.2.2.2.2.2.2.2.2.2.2.2.2.2.2.2.2.2.2.2.2.2.2.2.2.2.2.2.2.2.2.2.2.2.2.2.2.2.2.2.2.2.2.2.2.2.2.2.2.2.2.2.2.2.2.2.2.2.2.2.2.2.2.2.2.2.2.2.2.2.2.2.2.4.4.2.2.2.2.2.2.3.3.a.W._.P.I.P.p.7.2.4.4.4.2.3.W._._.`.I.P.P.P.P.G.S.5.4.4.9.a.s.p.p._.}.p.' J._._._._.P.P.P.P.P.G.P.J.y.p.W._.P.)._._._.s.y.G.W.W._.P.P.P._._._.p.3.p.W._.G.s.d.3.s.}.G.p.G._.P._._.P._._.J.G.y.G._._.P._._._._._._._._._._._._._._._._._._._.P._._.P._._.s.3.s.J._._.P._._._._.J.p.y.p.J.'.W.p.p.y.G.}.G._ p._._._._._._._._._._._._._._.`._._._._._.P.P.P.P.P.P.G.G._._.G.5.7.5.p.P.P.P.P.P.a.7.7.7.9.a.S.p.p.i.i.i.i.S.S.S.i.i.S.S.F.a.i.i.S.S.S.S.i.i.S.S.a.a.a.i.5.5.a.a.7.7.9.9.a.a.9.5.5.i.a.F.p.i.p.F.a.a.a.5.i.F.F.a.i.i.i.i.S.S.S.S.S.S.i.i.i.i.i.i.F.F.F.S.S.S.a.a.a.5.5.5.a.F.F.a.a.a.a.F.a.5.5.a.9.5.3.9.F.F.9.7.7.5.i.a.p.S.S.i.a.a.a.i.5.5.a.F.F.a.a.F.F.i.5.a.a.a.F.F.S.n.n.n.n.n.M.9.7.7.a.a.a.F.a.a.9.9.7.7.d.a.W._._.P.I.I.",
"P.P.P.P.)._.a.2.2.) ` p.uXdXhXj.3.2.2.2.2.2.2.2.2.2.2.2.2.2.2.2.2.2.2.2.2.2.2.2.2.2.2.2.2.2.2.2.2.2.2.2.2.2.2.2.2.2.2.2.2.2.2.2.2.2.2.2.2.2.2.2.2.2.2.2.2.2.2.2.2.2.2.2.2.2.2.2.2.2.2.2.2.2.2.2.2.2.2.2.2.2.2.2.2.2.2.2.2.2.2.2.2.2.2.2.2.2.2.2.2.2.2.2.2.2.2.2.2.2.2.2.2.2.2.2.2.2.2.2.2.2.2.2.4.4.2.2.2.2.2.2.3.3.a.W._.P.I.P.p.7.2.4.4.4.2.3.^._._.`.`.P.P.P.P.G.S.5.4.4.9.a.a.p.p._._.p._ J._._._._.P.P.P.P.P.G.P.J.y.p.W._.P.)._.P._.s.y.G.W.W._._.P.P._._._.p.3.p.W._.G.s.d.3.s.}.G.p.G._.P._._.P._._.J.G.y.G._._.P._._._._._._._._._._._._._._._._._._._.I._._.P._._.s.3.s.J._._.P._._.P._.G.p.y.p.J.'._.s.d.y.G.}.s.} s._._._._._._._._._._._._._._.`._._._._._._.P.P.P.P.P.G.G._.}.G.5.7.5.p.P.P.P.P.P.a.7.7.7.9.a.S.S.p.i.i.i.i.S.S.S.i.i.S.S.F.a.i.i.S.S.S.S.i.i.i.i.a.a.a.i.5.5.a.a.7.7.9.9.a.a.9.5.5.i.a.F.p.i.p.F.a.a.a.5.i.F.F.a.i.i.i.i.S.S.S.S.i.i.i.i.i.i.S.S.S.S.F.S.i.i.i.i.a.5.5.5.a.F.F.a.a.a.a.F.a.5.5.a.9.5.3.9.F.F.9.7.7.5.9.a.p.S.S.i.a.a.a.i.5.5.a.F.F.a.a.F.F.i.5.a.a.a.F.F.S.n.n.n.n.n.M.9.7.7.a.a.a.F.a.a.9.9.7.7.d.a.W._._.P.I.I.",
"P.P.I.P._.W.a.2.2.) ` p.uXdXzX&X3.2.2.2.2.2.2.2.2.2.2.2.2.2.2.2.2.2.2.2.2.2.2.2.2.2.2.2.2.2.2.2.2.2.2.2.2.2.2.2.2.2.2.2.2.2.2.2.2.2.2.2.2.2.2.2.2.2.2.2.2.2.2.2.2.2.2.2.2.2.2.2.2.2.2.2.2.2.2.2.2.2.2.2.2.2.2.2.2.2.2.2.2.2.2.2.2.2.2.2.2.2.2.2.2.2.2.2.2.2.2.2.2.2.2.2.2.2.2.2.2.2.2.2.2.2.2.2.4.4.2.2.2.2.2.2.3.3.a.W._.P.I.P.p.7.2.4.8.4.2.3.W._._.`.I.P.P.P.P.G.F.5.4.4.9.a.a.p.p.s._.p.3.J._._._._.P.P.P.P.P.G.P.J.y.p.W._.P.{._.P._.s.y.G.W.W._._.P._._._._.p.y.p.W._.G.G.p.3.s.'.s.d.G._.P._._.P._._.J.G.y.G._._.I._._._._._._._._._._._._._._._._._._._.I._._.P._._.s.y.s.J._._.P._._.P._.G.p.y.p.J.'.W.p.d.y.G.}.s.} G._._._._._._._._._._._._.`.`.`._._._._._._.P.P.P.P.P.P.G._.!.G.5.7.5.p.P.P.P.P.P.a.d.7.7.9.a.p.S.p.i.i.i.S.F.i.S.i.S.S.S.i.i.i.i.S.S.S.S.i.i.i.i.a.a.a.i.5.5.a.a.7.7.9.9.a.a.9.5.5.i.a.F.i.i.p.F.a.a.a.5.i.F.F.a.i.i.i.i.S.S.S.S.S.a.a.i.S.S.S.F.i.S.i.i.i.i.i.i.a.5.5.5.a.F.F.a.a.a.a.F.a.5.5.a.9.5.3.9.F.F.9.7.7.5.i.a.p.p.S.i.a.a.a.i.5.5.a.F.F.a.a.F.F.i.5.a.a.a.F.F.S.n.n.n.n.n.9.9.7.7.a.a.a.F.a.9.9.9.7.7.d.a.W._._.P.I.I.",
"P.P.I.P._.W.a.3.2.) ` p.uXtXzX&X3.2.2.2.2.2.2.2.2.2.2.2.2.2.2.2.2.2.2.2.2.2.2.2.2.2.2.2.2.2.2.2.2.2.2.2.2.2.2.2.2.2.2.2.2.2.2.2.2.2.2.2.2.2.2.2.2.2.2.2.2.2.2.2.2.2.2.2.2.2.2.2.2.2.2.2.2.2.2.2.2.2.2.2.2.2.2.2.2.2.2.2.2.2.2.2.2.2.2.2.2.2.2.2.2.2.2.2.2.2.2.2.2.2.2.2.2.2.2.2.2.2.2.2.2.2.2.2.4.4.2.2.2.2.2.2.3.3.a.W._.P.I.P.p.7.2.4.8.4.2.3.W._._.`.I.P.P.P.P.G.F.5.4.4.9.F.a.p.p.s.P.p.3.J._._._._.P.P.P.P.P.P.P.J.y.p.W._.P._._.P._.s.y.G.W.W._._.P._._._._.p.3.p.W._.G.G.p.3.s.'.s.d.G._.P._._.P._._.J.G.y.G._._.P._._._._._._._._._._._._._._._._._._._.I._._.P._._.s.y.s.J._._._._._.P._.G.p.y.p.J._.J.G.p.y.G.'.p.y.G._._._._._._._._._._._._.`.`.`._._._._._._._.P.P.P.P._.J._.W.p.3.7.5.p.P.P.P.P.P.a.d.7.7.9.a.p.S.S.S.i.a.a.F.i.i.i.i.S.S.i.i.i.i.S.S.S.S.i.i.i.i.a.a.a.i.5.5.a.a.7.9.9.9.a.a.9.5.5.i.a.F.S.i.p.F.a.a.a.5.i.F.F.a.S.i.i.i.S.S.S.S.F.F.i.i.S.S.F.F.i.i.i.i.i.i.i.i.a.5.5.5.a.F.F.a.a.a.a.F.a.5.5.a.9.5.3.9.F.F.9.7.3.5.i.a.p.p.S.i.a.a.a.i.5.5.a.F.F.a.a.F.F.i.5.a.a.a.F.F.S.n.n.n.n.n.9.9.7.7.a.a.a.F.a.9.9.9.7.7.d.a.W._._.P.I.I.",
"P.P.P.P._.W.a.3.3.) ` S.uXwXzX1X3.2.2.2.2.2.2.2.2.2.2.2.2.2.2.2.2.2.2.2.2.2.2.2.2.2.2.2.2.2.2.2.2.2.2.2.2.2.2.2.2.2.2.2.2.2.2.2.2.2.2.2.2.2.2.2.2.2.2.2.2.2.2.2.2.2.2.2.2.2.2.2.2.2.2.2.2.2.2.2.2.2.2.2.2.2.2.2.2.2.2.2.2.2.2.2.2.2.2.2.2.2.2.2.2.2.2.2.2.2.2.2.2.2.2.2.2.2.2.2.2.2.2.2.2.2.2.2.4.4.2.2.2.2.2.2.3.3.a.W.).P.I.P.p.7.2.4.8.4.2.3.W._._.`.I.P.P.P.P.J.F.5.4.4.9.9.a.p.p.s.G.p.y.J._._._._.P.P.P.P.P.P.P.J.y.p._._.P.)._.P._.s.y.G._._._._._._._._._.p.3.p.W._.G.G.p.y.s.}.p.d.G._.P._._.P._._.J.G.y.G._._.P._._._._._._._._._._._._._._._._._._._.I._._._._._.s.3.s.J._._.P._._.P.P.G.p.y.p.J._.J.G.p.3.s.'.s.y.G._._._._._._._._._._._._.`._._._._.W._._._._.P.P.P.)._.J.J.G.a.2.7.3.p.P.P.P.P.P.a.7.7.7.9.a.p.p.S.F.S.S.a.a.a.i.i.a.i.i.i.S.F.F.S.S.S.S.i.i.i.i.a.a.a.i.5.5.i.a.7.9.9.M.a.a.9.5.5.i.a.F.S.i.S.F.a.a.a.5.i.F.F.a.S.S.S.S.S.S.S.S.i.S.S.S.S.i.i.i.i.i.i.i.i.i.i.i.a.5.5.5.a.F.F.a.a.a.a.F.a.5.5.a.9.7.7.9.a.F.9.7.7.5.i.a.a.i.i.i.a.a.a.i.5.5.a.F.F.a.a.F.F.i.5.a.a.a.F.F.S.n.n.n.n.M.9.9.7.7.a.a.F.F.a.a.9.9.7.7.d.a.W._._.P.I.I.",
"P.P.I.P._.W.a.3.3.) ` G.uXwXzX3X3.2.2.2.2.2.2.2.2.2.2.2.2.2.2.2.2.2.2.2.2.2.2.2.2.2.2.2.2.2.2.2.2.2.2.2.2.2.2.2.2.2.2.2.2.2.2.2.2.2.2.2.2.2.2.2.2.2.2.2.2.2.2.2.2.2.2.2.2.2.2.2.2.2.2.2.2.2.2.2.2.2.2.2.2.2.2.2.2.2.2.2.2.2.2.2.2.2.2.2.2.2.2.2.2.2.2.2.2.2.2.2.2.2.2.2.2.2.2.2.2.2.2.2.2.2.2.2.4.4.2.2.2.2.2.2.3.3.a.W.).P.I.P.p.7.2.4.8.4.2.3.W._.`.`.I.P.P.P.P.G.F.5.4.4.9.M.9.a.p.p.G.p.y.G._._._._.P.P.P.P.P.P.P.J.y.p._._.P.)._.P._.s.y.G._._._._.P._._._._.d.3.p.W._.W.G.p.y.s._.p.d.G._.P._._.P._._.J.G.y.G._._.P._._._._._._._._._._._._._._._._._._._.P._._.P._._.s.3.s.J._._.P._._.P.J.G.p.y.p.G._.J.G.p._ p._.p.y.G._._._._._._._._._._._._._._._._._.W._._._._.P.P.P._._.G.F.F.5.3.7.3.p.P.P.P.I.P.d.7.7.7.9.a.p.p.F.F.S.S.i.i.i.i.S.a.a.i.S.S.S.F.S.S.S.S.i.i.i.i.a.a.a.i.5.5.i.a.7.9.9.M.a.a.9.5.5.i.a.F.S.i.S.F.a.a.a.5.i.F.F.a.S.S.S.S.S.S.S.S.i.S.S.S.S.i.i.i.a.a.i.i.i.i.i.i.a.5.5.5.a.F.F.a.a.a.a.F.a.5.5.a.9.7.7.9.a.F.9.7.7.5.i.a.p.p.S.i.a.a.a.i.5.5.a.F.F.a.a.F.F.i.5.a.a.a.F.F.S.n.n.n.n.M.9.9.7.7.a.a.F.F.a.a.9.9.7.7.d.a.W._._.P.I.I.",
"P.P.I.P._.W.a.2.3.) ` G.uXwXzX3X3.2.2.2.2.2.2.2.2.2.2.2.2.2.2.2.2.2.2.2.2.2.2.2.2.2.2.2.2.2.2.2.2.2.2.2.2.2.2.2.2.2.2.2.2.2.2.2.2.2.2.2.2.2.2.2.2.2.2.2.2.2.2.2.2.2.2.2.2.2.2.2.2.2.2.2.2.2.2.2.2.2.2.2.2.2.2.2.2.2.2.2.2.2.2.2.2.2.2.2.2.2.2.2.2.2.2.2.2.2.2.2.2.2.2.2.2.2.2.2.2.2.2.2.2.2.2.2.4.4.2.2.2.2.2.2.2.3.a.W._.P.I.P.p.7.2.4.8.4.2.3.W._._.).I.P.P.P.P.J.F.5.4.4.8.m.9.F.p.p.s.p.y.G._._._._.P.P.P.P.P.P.P.G.y.p._._.P.)._.P._.s.y.G._._._._.P._._._.W.d.3.p.W._.W.G.p.3.s._.p.d.G._.P._._.P._._.J.G.y.G._._.P._._._._._._._._._._._._._._._._._._._.P._.P.P._._.s.3.s.G._._.P._._.P.J.G.p.y.p.G._.J.G.p._ p._.p.y.J._._._._._._._._._._._._._._._._._._._._._._.P.P.P.P.G.s.a.a.5.3.7.3.p.P.I.P.P.P.a.7.7.7.9.a.p.p.p.i.S.S.i.i.S.S.S.S.i.i.i.i.S.S.S.S.S.S.i.i.i.i.a.a.a.i.5.5.i.F.7.9.9.M.a.a.9.5.5.i.a.F.p.i.p.F.a.a.a.5.i.F.F.a.a.a.S.S.S.S.S.S.i.i.S.S.a.a.i.i.S.F.S.S.i.S.i.i.a.5.5.5.a.F.F.a.a.a.a.F.a.5.5.a.9.7.7.9.a.F.9.7.7.5.i.a.p.p.p.i.a.a.a.i.5.5.a.F.F.a.a.F.F.i.5.a.a.a.F.F.S.n.n.n.n.n.9.9.7.7.a.a.F.F.F.a.9.9.7.7.d.a.W._.).P.I.I.",
"I.P.I.P._.W.a.2.2.) ` G.gX5XhX3X3.2.2.2.2.2.2.2.2.2.2.4.2.2.2.2.2.2.2.2.2.2.2.2.2.2.2.2.2.2.2.2.2.2.2.2.2.2.2.2.2.2.2.2.2.2.2.2.2.2.2.2.2.2.2.2.2.2.2.2.2.2.2.2.2.2.2.2.2.2.2.2.2.2.2.2.2.2.2.2.2.2.2.2.2.2.2.2.2.2.2.2.2.2.2.2.2.2.2.2.2.2.2.2.2.2.2.2.6.2.2.2.2.2.2.2.2.2.2.2.2.2.2.2.2.2.2.2.2.4.2.2.2.2.2.2.2.3.d.W._.P.P.P.p.3.) 4.4.4.2.3.W._._.).I.I.P.P.P.J.F.9.4.4.8.9.9.F.a.p.s.i.d.G._._._._.P.P.P.P.P.P.P.J.y.p.P._.P.)._.P._.s.y.G._._._._._._._._.W.d.3.p.W._.W.G.p.3.s._.p.d.G.).P._._.P._._.J.G.y.G._._.P._._._._._._._._._._._._._._._._._._._.I._.P.P.P._.s.y.s.G._._.P._._.P.G.G.p.y.p.G.W.J.G.p._ p._.p.y.J._._._._._._._._._._._._._._.I._._.W._._._._.P.P.G.G.G.i.i.a.a.7.7.3.p.P.I.P.P.P.i.7.7.7.9.9.p.p.p.i.i.S.i.i.S.S.S.S.i.i.i.i.S.S.S.S.S.S.S.S.i.i.a.F.a.9.3.7.9.F.3.5.9.a.a.a.i.5.5.i.a.F.p.i.S.p.a.a.a.5.i.F.F.a.i.a.i.S.S.S.S.S.a.i.S.i.i.a.i.i.S.S.S.S.S.S.i.i.a.5.5.5.a.F.F.a.a.a.a.p.a.5.5.a.9.7.7.9.F.F.9.7.7.5.i.a.p.p.p.i.a.a.a.i.5.5.a.F.F.a.a.F.F.i.5.a.a.a.a.F.F.S.n.n.n.n.M.9.7.7.9.F.F.F.F.a.9.9.7.7.d.a.W._.).P.I.I.",
"I.L.I.p._.!.2.8.2.7.) _.gXaXfXdX3.8.4.2.4.8.8.:.:.:.4.4.4.4.` 3.2.2.2.2.2.2.2.2.2.2.2.2.2.2.2.2.2.2.2.2.2.2.2.2.2.2.2.2.2.2.2.2.2.2.2.2.2.2.2.2.3.3.3.2.2.2.2.2.2.2.6.2.6.2.6.2.6.2.6.2.6.2.6.6.6.2.6.2.6.2.6.2.6.2.6.6.6.2.6.2.6.2.6.2.6.2.6.6.6.2.6.2.6.2.6.2.6.2.6.2.6.2.6.2.6.2.6.2.6.2.6.2.2.2.6.2.2.2.2.2.3.3.a.G.P.P.I.U.G.4.4.4.^ ! 4.) s.{.{.j.`.`.I.I.P.G.G.i.5.7.9.9.9.9.a.a.a.i.i.G._.I.I.P.I.P.P.P.P.P.P.G.u.u.G.).P.).P.P.P.p.} s.P.P.P.P.P.P.P.P.P.p.y.p.G.'._.G.y.} p.p.y.p.J.G.P.P.P.P.P.).P.G.y.s.P.P.P.)._.P.P.I.I.I.P.P.P.P.I.I.I.I.I.I.I.P.P.P.P.P.P.P.p.} G.P.P.P.P.P.P._._.G.d.y.p.G._.}._.p.y.p.p.p.p.G.G.G.P.P._._._.)._.P.P.P._._._.G.!.J.G.F.p.S.S.F.p.i.i.a.a.a.5.3.7.5.p.P._.P.P.P.d.9.9.7.9.9.F.F.S.S.S.S.S.S.p.i.i.S.S.S.S.S.S.p.S.S.S.S.S.S.S.S.S.F.F.9.9.7.7.9.3.5.i.a.F.a.i.d.5.d.p.p.p.a.a.F.a.F.a.5.i.F.F.i.i.i.S.S.S.S.S.S.S.S.S.S.S.S.S.S.S.S.S.S.S.S.S.i.F.i.5.5.a.F.a.a.a.a.a.a.a.i.5.5.9.7.a.a.F.F.a.7.7.5.d.a.a.a.a.a.a.5.a.a.3.7.F.F.F.a.a.F.a.5.5.a.a.F.F.F.F.F.n.n.n.n.F.9.9.9.9.a.a.F.a.9.9.9.7.7.a.a.W.).).I.I.I.",
"L.g.I.p.}.^.2.8.2.7._ _.gXaXfXaXy.3.2.2.8.8.8.6.6.2.4.4.2.2.` 3.2.2.2.2.2.2.2.6.2.2.2.2.2.2.2.2.2.2.2.2.2.2.2.2.2.2.2.2.2.2.2.2.2.2.2.2.2.2.2.2.3.3.3.3.2.2.2.2.2.6.6.6.6.6.6.6.6.6.6.6.6.6.6.6.6.6.6.6.6.6.6.6.6.6.6.6.6.6.6.6.6.6.6.6.6.6.6.6.6.6.6.6.6.6.6.6.6.6.6.6.6.6.6.6.6.6.6.6.6.6.6.2.2.2.2.2.2.2.2.2.3.3.a.J.P.P.I.P.F.` ` 4.^ ^ 4.) s.{.`.j.{.`.j.I._.G.G.i.7.7.7.9.9.9.9.a.a.d.i.G.P.I.I.I.I.P.P.P.P.P.P.G.u.u.G.).P.).P.P.P.p.} s.P.P.P.P.P.P.P.P.G.p._ y.G._._.G.p.y.p.p.y.p._.J.P.P.P.P.P.P.P.p.y.s.P.P.P.P.P.P.I.I.I.I.I.I.I.I.I.I.I.I.I.I.I.P.P.P.P.P.P.P.p.} s.P.P.P.P.P.P.P._.G.p.d.p.G._.}._.p.y.p.p.p.p.G.P.P._._._._._._.P.G.s.G.P.G.G.G.F.S.S.i.5.5.i.i.i.i.i.a.a.a.5.3.7.5.p._._.P.P.P.d.5.9.4.9.9.a.F.p.S.S.S.S.S.p.p.S.S.S.S.S.S.p.p.S.S.S.S.S.S.S.S.S.S.M.M.9.9.9.9.3.5.d.p.p.p.i.d.5.d.p.p.p.a.a.F.i.F.i.5.i.F.F.i.i.i.i.i.S.S.S.S.S.S.S.S.S.S.S.S.S.S.S.S.S.S.S.i.F.i.5.5.a.F.a.a.a.a.a.a.a.i.5.5.d.7.a.a.F.F.a.7.7.5.d.a.a.a.a.a.a.5.a.a.3.5.F.F.F.a.a.F.a.5.5.a.a.a.F.F.F.F.n.n.n.n.F.9.9.9.9.F.a.F.a.a.9.9.7.7.a.a.W.).).I.I.I.",
"I.L.P.G.!.^.2.2.2.7._ _.gXiXpXdXp.7.2.7.9.7.2.6.6.6.2.2.2.3.3.2.2.4.2.2.2.2.2.2.2.2.2.2.2.2.2.2.2.2.2.2.2.2.2.2.2.2.2.2.2.2.2.2.2.2.2.2.3.3.3.3.2.2.2.2.2.2.2.2.2.2.2.2.2.2.2.2.2.2.2.2.2.2.2.2.2.2.2.2.2.2.2.2.2.2.2.2.2.2.2.2.2.2.2.2.2.2.2.2.2.2.2.2.2.2.2.2.2.2.2.2.2.2.2.2.2.2.2.2.2.2.2.2.2.2.2.2.2.2.2.2.2.3.d.G.P.P.I.P.G.` ) 4.^ :.8.3.a.[.`.h.{.`.I.I._.P.G.i.7.7.7.a.9.9.9.a.a.5.i.G.P.P.P.P.P.P.P.P.P.P.P.G.u.p.G.'.J.U.P.G.P.p.y.G.P.P.P.P.P.P.P.P.G.i._ 5.F.W.!.J.F.y.p.p.y.F.'._.J.P.P.J.P.'.P.p.y.G.P.P.P.P.P.P.I.I.I.P.P.P.P.P.P.P.P.P._.P.P.P.P.P._.P.P.P.G.y.G.P._.'.P.P.P._._.G.d.d.d.G.W.}.W.a.7.d.a.d.d.G.J.J.G.G.G.G.s.s.p.p.p.p.s.s.p.p.i.i.i.5.5.5.5.i.a.a.i.a.a.a.5.3.7.5.p._._.P.P.P.d.5.9.8.8.9.a.F.p.S.p.p.p.p.p.p.p.S.S.S.p.S.S.S.S.S.S.S.S.S.S.S.F.F.M.n.9.9.9.9.3.5.d.p.p.a.i.5.5.d.p.a.p.a.a.F.i.F.i.5.i.F.F.i.i.i.i.i.a.i.S.i.S.S.S.S.S.S.S.S.S.S.S.S.S.S.S.i.F.i.5.5.a.F.a.a.a.a.a.a.a.i.5.5.d.7.d.a.a.a.a.7.7.5.a.a.a.a.a.a.a.5.a.a.3.5.F.F.F.a.a.F.a.5.5.a.a.a.a.a.a.F.F.S.S.S.F.a.9.9.9.a.a.F.a.a.9.9.7.7.a.s.W.).).P.I.I.",
"I.I.P.G.!.^.-.2.2.7.( I.gXiXpXpXh.*.T 7.a.2.&.7.6.6.6.6.6.2.3.2.2.4.4.4.4.4.4.4.4.4.4.4.2.4.2.2.2.2.2.2.2.2.2.2.2.2.2.2.2.2.2.2.2.2.2.2.3.3.3.3.2.2.2.2.2.2.2.2.2.4.4.4.4.4.4.4.4.4.2.2.2.2.2.4.4.4.4.4.4.4.2.2.2.2.2.4.4.4.4.4.4.4.2.2.2.2.2.4.4.4.4.4.4.4.2.2.2.2.2.2.2.2.2.2.2.2.2.2.2.2.2.2.2.2.2.2.2.2.2.2.3.3.d.G.P.P.I.P.G.` ! 4.! :.4.3.a.).`.h.{.`.I.P.P.P.G.i.7.7.7.a.9.9.9.a.a.5.i.F.P.P.P.P._._._._.P.P.P.G.p.p.G.'.J.'.P.G.P.p.y.G.P.U.P.U.P.U.P.U.G.p.5.y.G.!.'.!.G.i.i.i.y.S.'.!._.'.'.P.P.'.P.G.p.G.P.J.P.U.P.J.I.I.I.P.P.P.P.P.P.P.P.P._.P.P.P.J.U.P.J.P.P.G.p.G.G.P.P.P.J.P._.G.p.d.5.d.F.E.W.G.5.3.5.d.3.5.G.F.F.p.p.p.i.d.d.i.d.y.i.i.p.i.y.i.i.i.i.i.i.i.i.a.a.i.a.a.a.5.3.7.5.p._._.I.P.P.d.5.9.8.8.9.F.F.a.p.p.p.p.p.p.p.p.S.S.S.p.p.S.S.S.S.S.S.S.S.S.S.F.F.M.n.9.9.9.9.3.5.i.p.p.a.i.5.5.d.p.a.p.a.a.F.a.F.i.5.i.F.F.i.i.i.i.i.a.i.i.i.i.S.S.S.S.S.S.S.S.S.S.S.S.S.S.a.F.i.5.5.a.F.a.a.a.a.a.a.a.i.5.5.d.7.d.a.a.a.a.7.7.5.a.a.a.a.a.a.a.5.a.a.3.5.F.F.F.a.a.F.a.5.5.a.l.l.a.a.a.F.F.F.S.S.F.a.9.9.9.a.a.F.a.a.9.9.7.7.a.s.W.).).P.I.I.",
"I.P.P.G.!.Q.-.-.2.5.T I.hXpXpXpXI.3.Y 3.7.2.6.7.6.6.6.6.6.6.6.2.4.:.4.4.4.:.:.:.:.:.:.:.4.:.4.4.2.2.2.2.2.2.2.2.2.2.2.2.2.2.2.2.2.2.2.2.3.2.2.2.2.2.2.2.2.2.2.2.4.4.:.:.:.:.:.:.:.:.:.:.4.4.4.:.:.:.:.:.:.:.:.:.4.4.:.:.:.:.:.:.:.:.:.:.4.4.4.:.:.:.:.:.:.4.:.:.4.4.4.4.4.4.4.4.4.4.4.4.4.4.4.2.2.3.3.2.3.3.2.2.3._ 5.G.P.P.P.P.G.` ) 4.:.4.8.2.a.)._.h.`.{.P.P._.G.G.a.d.7.7.a.9.9.9.a.a.5.y.p.P.P.P._._._._._.J._._.G.S.p.G.'.G.!.J.J._.p.y.G._.!._.!.'.!._.!.G.i.5.5.F.W.!.!.F.5.d.i.5.F.!.G.G.J.P.J.J.!.J.F.y.F.G.G.G.G.G.G.G.G.G.G.G.G.G.G.G.G.G.G.G.G.G.G.s.G.G.F.G.G.p.5.y.i.p.p.p.i.p.p.F.a.5.5.5.a.F.F.p.5.3.5.5._ 3.p.i.i.i.i.d.i.i.i.a.d.d.i.i.a.i.5.S.i.S.S.S.S.F.F.F.9.9.a.F.a.9.3.7.7.p._._.I.P.P.y.5.9.8.8.9.l.E.a.i.i.i.i.i.S.S.i.i.S.S.S.i.i.i.S.S.i.i.S.S.F.F.M.F.M.M.9.9.9.9.3.5.a.a.a.a.5.5.5.a.a.F.a.a.a.F.a.F.i.5.i.F.F.i.a.a.a.a.a.a.a.i.i.i.i.i.i.i.i.i.i.i.i.S.S.S.i.i.F.i.5.5.a.F.a.a.a.a.a.a.a.i.5.5.d.7.d.a.a.a.a.d.7.7.d.a.a.a.a.a.p.d.a.a.3.5.F.p.p.a.p.F.p.5.5.a.a.a.a.a.F.a.i.i.i.i.F.a.a.9.a.a.F.F.F.a.9.9.7.7.a.a.W.)._.P.I.I.",
"P.P.'.G.^.Q.! ! 2.5.U T.hXpXkXpX1Xs.T 3.3.2.2.6.6.6.6.6.6.6.6.6.4.4.4.4.4.4.4.4.4.4.4.4.4.4.4.4.2.2.2.2.2.2.2.2.2.2.2.2.2.2.2.2.2.2.2.2.3.3.2.2.2.2.2.2.2.2.2.2.4.:.:.:.:.:.:.:.:.:.:.:.4.:.:.:.:.:.:.:.:.:.:.:.4.:.:.:.:.:.:.:.:.:.:.:.4.:.:.:.:.:.:.:.:.:.:.:.4.4.2.4.2.4.2.4.2.4.2.4.2.4.2.4.3.3.3.3.3.3.2.2.3._ 3.G._.P.P.P.G.` ) 4.2.:.4.P a._._.h._.).P.P.P.G.G.a.d.7.d.a.9.9.9.a.9.5.5.p.G.G.G.G.J._.J.W.G.J.W.G.i.i.F.J.F.G.G.G.G.i.5.F.F.F.F.F.F.F.F.F.i.9.5.3.i.F.F.F.F.3.5.9.5.a.G.F.F.F.F.F.F.G.F.i._ i.S.i.i.p.F.p.p.p.p.p.p.p.p.p.p.p.p.p.p.p.p.p.y.i.i.y.y.i.5._ 5.y.i.i.i.5.i.i.a.5.5.3.5.9.a.F.a.3.3.5.5.) 3.9.i.9.i.a.a.F.F.F.a.a.i.9.a.F.i.9.9.5.9.9.9.9.9.9.F.9.9.a.F.a.9.3.7.7.p._._.I.P.P.d.5.9.8.8.9.l.E.F.i.i.i.i.S.i.S.i.i.S.S.i.i.i.i.i.S.i.i.S.S.F.F.M.F.M.M.9.9.9.9.7.5.a.a.F.a.5.5.5.a.a.F.a.a.a.F.a.F.i.5.i.F.F.i.a.a.a.a.a.a.a.a.S.S.i.i.p.i.p.i.i.i.i.i.S.S.a.i.F.i.5.5.a.F.a.a.a.a.a.a.a.i.5.5.d.7.d.a.a.a.a.d.7.7.d.a.a.a.a.a.p.d.a.p.3.5.F.p.p.a.p.F.p.5.5.a.a.a.a.a.F.a.i.i.i.i.F.a.9.9.a.a.F.F.F.a.9.9.7.7.a.a.W.)._.P.I.I.",
"P.K.'.G.^.Q.P ! 2.5.U T.fXpXkXpXeX'.y./ ` 8.8.2.:.1.1.1.1.:.:.:.2.2.2.2.2.2.2.2.4.4.4.4.4.4.4.4.2.2.2.2.2.2.2.2.2.2.2.2.2.2.2.2.2.2.2.2.2.2.2.2.2.2.2.2.2.2.2.2.4.:.4.:.4.:.4.:.4.:.4.:.4.:.4.:.4.:.4.:.4.:.4.:.4.:.4.:.4.:.4.:.4.:.4.:.4.:.4.:.4.:.4.:.4.:.4.4.4.4.2.4.2.4.2.4.2.4.2.4.2.4.2.2.3.3.3.3.3.3.3.3.3.) 3.G.'.U.K.P.G.3.2.4.4.:.:.G a._._.h._._.P.P.P.G.G.i.d.7.7.a.9.9.9.a.9.5.5.i.p.p.s.F.G.G.G.G.F.F.G.F.5.5.i.F.i.F.i.i.F.5._ i.i.i.i.i.i.i.9.9.9.7.3.9.9.F.a.9.M.` 3.3.3.9.F.9.9.i.i.i.i.F.i.5._ 5.i.9.5.i.i.i.i.i.i.i.i.i.i.i.i.i.i.i.i.i.i.i.5.i.i.5.5.i.5._ 5.i.i.F.i.i.S.F.a.9.7.7.5.9.9.9.a.7.7.9.7.) 3.9.i.9.a.9.F.M.F.F.F.F.i.9.F.F.F.9.9.9.9.9.9.9.9.9.a.9.9.a.F.a.9.7.7.7.p.W._.P.P.P.y.5.9.8.9.9.l.E.a.F.a.a.a.a.F.F.a.a.a.a.a.a.a.i.i.i.i.i.F.F.F.F.M.F.M.M.9.7.7.9.7.7.a.a.a.a.7.5.5.d.a.a.a.a.a.F.a.F.i.5.i.F.F.i.a.a.a.a.a.a.F.F.S.S.F.F.i.i.i.i.i.i.i.i.S.S.S.i.F.i.5.5.a.F.a.a.a.a.a.a.a.i.5.5.a.7.d.a.a.a.a.d.7.7.d.a.a.a.a.a.p.d.p.p.3.5.a.a.p.a.p.G.p.d.d.a.a.a.a.a.p.a.p.p.p.i.p.a.a.d.a.a.a.F.F.a.9.9.7.7.a.a.W._._.P.I.I.",
"P.P.'.G.(.Q.P P 2.5.T I.fXpXkXpXgXqXD.( / 3.4.! 4.:.:.:.:.:.:.4.2.2.2.2.2.2.2.2.2.2.2.2.2.2.2.2.2.2.2.2.2.2.2.2.2.2.2.2.2.2.2.2.2.2.2.2.2.2.2.2.2.2.2.2.2.2.2.2.2.4.4.4.4.4.4.4.4.4.4.4.4.4.4.4.4.4.4.4.4.4.4.4.4.4.4.4.4.4.4.4.4.4.4.4.4.4.4.4.4.4.4.4.4.4.2.4.2.2.2.2.2.2.2.2.2.2.2.2.2.2.2.2.3.3.3.3.2.2.2.2.2.) 3.F.'.'.P.G.G.3.2.8.:.:.:.D a._._.h._._.P.P._.G.G.i.7.7.d.a.a.9.9.a.i.5.5.i.d.d.i.i.p.F.F.F.i.F.F.S.3.' 5.S.5.i.9.9.S.' / 5.S.S.F.F.F.F.F.F.9.9.9.9.F.F.9.9.9.) ` 3.` 9.F.3.9.S.S.9.i.F.i.3.3.9.F.9.9.S.F.S.i.i.p.i.p.i.p.a.F.F.F.F.F.F.S.S.i.F.S.9.9.F.i.3.5.9.i.9.9.9.9.9.9.9.7.7.9.9.9.9.F.9.9.9.9.3.3.F.9.9.9.9.9.9.9.9.F.F.9.9.F.F.F.n.F.S.S.S.F.i.9.9.a.a.9.a.F.a.9.7.7.7.p.W._.P.P.P.y.5.9.8.9.9.l.E.a.a.a.a.a.a.F.F.a.a.a.a.a.a.a.a.F.i.i.i.F.F.F.F.M.F.M.M.9.7.7.9.7.7.a.a.a.a.5.7.5.d.a.a.a.a.a.a.a.F.i.5.i.F.F.i.a.a.a.a.a.a.F.F.F.S.F.F.S.S.i.i.i.i.i.i.S.S.S.F.F.i.5.5.a.F.a.a.a.a.a.a.a.i.5.5.a.7.d.a.a.a.a.7.7.7.d.a.a.a.a.a.p.d.p.p.3.5.a.a.a.a.p.F.p.d.d.p.a.a.a.a.a.a.p.p.p.p.p.a.a.a.a.a.a.F.F.a.9.9.7.7.a.a.W._._.P.I.I.",
"K.D.U.G.(./.G J 9.) _ ].gXpXpXkXwXeXeXY...( I ( I ) ) ` ` 3.3.3.3.3.3.3.7.3.3.3.3.3.3.3.3.3.2.2.2.2.2.2.2.2.2.2.2.2.2.2.2.2.2.2.2.2.2.2.2.2.2.2.2.2.2.2.2.2.2.2.2.2.2.2.2.2.2.2.2.2.2.2.2.2.2.2.2.2.2.2.2.2.2.2.2.2.2.2.2.2.2.2.2.2.2.2.2.2.2.2.2.2.2.2.2.2.2.2.2.2.2.2.2.2.2.2.2.2.2.2.2.2.2.3.3.3.3.2.4.4.2.2.8.4.3.3.F.!.'.G.F.7.:.:.m.8.Q r a.W._.s._.P.P.U._.P.G.i.7.7.7.a.a.F.F.F.a.i.i.i.a.a.a.a.a.a.a.a.F.a.9.9.3.9.F.F.M.M.n.M.i.9.9.n.F.F.F.F.F.F.F.F.9.5.4.5.9.n.9.9.9.4.4.4.9.9.9.9.F.F.F.F.F.F.M.F.3.9.9.F.F.F.F.i.a.a.a.a.i.S.i.a.i.9.i.9.i.9.i.9.F.F.F.F.F.F.F.F.9.9.9.9.9.9.9.9.F.9.9.9.9.9.9.M.9.9.8.8.8.7.9.9.9.9.9.9.n.n.n.n.9.9.9.9.n.n.n.n.9.n.9.9.n.n.M.M.9.9.9.F.F.9.9.7.7.5.p.W._.I.P.P.y.3.5.9.9.9.9.9.a.a.a.a.a.a.a.a.a.a.a.a.a.a.a.a.F.F.F.F.F.F.F.F.F.F.9.9.9.9.9.9.7.7.9.a.F.9.9.7.7.9.a.F.F.F.a.9.a.a.a.a.a.a.p.p.a.a.a.a.a.a.a.i.a.i.a.a.a.F.F.F.a.a.a.a.a.a.a.a.F.a.5.5.a.F.F.a.F.a.a.a.a.a.i.5.7.5.7.a.a.a.d.5.7.d.d.a.a.a.a.a.a.a.a.a.p.p.p.p.F.a.a.F.p.5.5.d.a.a.a.a.a.a.i.i.p.i.i.p.a.5.d.a.a.9.9.9.9.9.9.9.a.G._._._._.P.I.",
"P.P.U.G.(./.L J 8.! _ ].gXhXpXpXiXiXiXwX&XL.I.I.s.p.u.} T U R R T *.*.7.d.d.d.7.&.&.2.3.3.3.3.3.2.2.2.2.2.2.2.2.2.2.2.2.2.2.2.2.2.2.2.2.2.2.2.2.2.2.2.2.2.2.2.2.2.2.2.2.2.2.3.2.2.2.2.2.2.2.2.2.2.2.2.2.2.2.3.3.2.2.2.2.2.2.2.2.2.2.2.2.2.2.2.2.2.2.2.2.2.2.2.2.2.2.3.2.3.2.3.2.2.2.3.2.2.2.2.2.2.) 2.2.:.:.:.:.2.2.2.3.9.!.!.H.9.8.:.:.,.,.L r 9.W._.P._._.P.U.'._.G.p.7.5.7.a.9.F.F.F.i.9.i.i.a.a.a.a.a.a.a.a.F.F.9.9.3.3.9.F.M.M.M.M.i.9.9.n.9.9.9.9.n.S.n.n.9.5.4.5.9.M.M.M.9.5.4.4.9.9.9.9.9.9.9.9.9.9.9.9.3.9.9.F.F.F.F.9.F.F.F.F.F.F.F.F.a.a.9.9.S.S.a.i.9.9.9.9.M.n.n.n.9.M.9.9.9.9.i.a.M.9.9.9.9.9.9.9.9.9.9.9.9.9.9.9.9.M.M.M.M.M.M.M.9.9.9.9.9.9.9.9.9.9.9.9.9.9.9.9.3.3.9.9.9.9.7.7.7.7.p.W._.I.P.P.y.5.5.9.9.9.9.9.9.9.9.9.9.9.9.9.9.9.9.9.9.9.9.9.F.F.a.a.F.F.a.a.F.F.9.9.9.9.9.9.7.7.9.a.F.9.9.7.5.9.a.F.F.F.F.a.a.a.a.F.a.a.a.p.a.a.a.F.F.a.a.a.a.a.a.F.F.F.F.F.a.a.a.a.a.F.a.p.F.5.3.5.i.a.a.i.a.a.a.a.i.i.5.5.5.5.7.a.F.a.a.5.7.7.d.a.a.a.a.a.a.F.a.a.p.a.a.F.p.a.a.F.a.5.3.d.a.a.a.a.a.a.i.i.p.i.i.p.a.5.d.F.a.9.9.9.9.9.7.7.a.G._._._._.I.I.",
"P.P.).G.(.Q.L a 1.:.3.G.rXgXhXiXlXlXzXzXfXfXhXhXhXdXdXtX5X1X&XI.u.u.y.y.*.T T I 7.7.7.7.3.3.7.7.2.2.2.2.2.2.2.2.2.2.2.2.2.2.2.2.2.4.2.4.2.4.2.:.2.4.2.4.2.4.2.2.2.2.2.2.2.2.2.2.2.2.2.2.2.2.2.2.2.2.2.2.2.2.2.2.2.2.2.2.2.2.2.2.2.2.2.2.2.2.2.2.2.2.2.2.2.2.2.2.2.2.2.2.6.2.6.2.2.2.2.2.2.2.2.2.4.4.:.:.:.:.,.:.:.:.:.:.8.H.F.9.2.4.1.1.;.=.i r 9.W._._.).].P.P.)._.G.i.7.5.d.a.9.a.F.a.i.9.y.i.i.a.a.a.a.a.a.a.a.a.9.9.3.3.9.M.9.M.9.9.a.9.M.M.9.9.9.9.9.9.9.9.9.7.7.7.9.M.F.F.9.9.7.7.9.9.9.9.9.9.9.9.9.9.9.9.9.9.9.F.F.F.9.9.M.F.F.F.F.F.F.F.9.9.9.9.M.M.M.M.9.9.9.9.9.9.9.9.M.M.M.9.M.F.F.F.9.9.7.7.7.7.9.9.9.9.9.7.7.9.9.9.9.9.9.9.9.9.9.9.9.9.9.9.9.9.9.9.3.5.5.5.9.9.9.9.4.3.7.7.7.7.7.4.7.3.a.W._.I.P.P.i.5.5.4.9.9.9.7.7.7.7.7.7.5.7.5.7.5.7.5.7.5.7.7.a.i.i.i.9.9.9.9.9.9.9.9.9.9.9.9.7.9.9.a.a.9.9.7.9.9.a.F.E.E.F.F.a.a.a.a.a.a.a.a.a.a.a.a.a.a.a.a.a.a.a.F.F.F.F.F.F.F.F.F.F.F.F.F.F.i.5.5.a.a.p.a.F.a.a.a.i.i.5.3.5.d.a.a.F.F.a.5.5.5.d.a.a.a.a.a.a.a.a.a.a.a.F.F.a.9.a.F.a.3.5.5.a.a.a.F.a.a.a.i.F.i.a.a.a.5.7.F.F.F.9.5.7.7.7.7.d.E._._._._.I.I.",
"I.I.).G.^.E.a i ,.1.2.3.G.rXgXgX8X8X8X8X0X0X0X9XdXdXdXdXfXfXfXdXtXyXrXrX|.}._.W.5.5.3.2.) H H F 2.:.2.:.:.:.2.:.2.:.2.:.2.:.2.:.4.4.4.4.:.:.:.:.4.:.4.:.:.:.:.4.2.2.6.2.6.2.6.2.6.2.6.2.6.2.6.2.6.2.6.2.6.2.6.2.6.8.6.2.6.2.6.6.6.2.6.2.6.2.6.2.6.2.6.2.6.2.6.2.8.8.8.8.8.8.8.8.6.8.6.8.6.8.6.8.4.:.:.:.1.1.1.1.1.1.,.,.,.4.4.:.-.,.,.<.;.h i # 7.W._._.{.).I.P.)._.G.i.7.3.7.9.9.9.F.a.i.5.y.y.a.a.a.a.a.a.a.a.a.a.9.9.3.3.7.9.9.9.9.a.a.9.M.M.9.9.9.9.9.9.9.M.9.7.7.7.9.F.F.F.9.9.7.7.9.9.9.9.F.F.F.F.F.F.F.F.9.9.9.9.9.9.9.9.9.9.9.9.9.9.9.9.9.9.9.9.9.9.9.9.9.7.7.7.9.9.9.7.9.9.9.9.9.9.9.9.9.7.7.7.7.7.7.9.7.7.7.7.7.7.7.7.7.8.8.8.8.8.8.8.8.7.7.8.7.9.9.8.3.3.3.3.3.3.3.3.4.3.7.7.7.7.7.2.7.3.i.W._._.P.U.p.5.5.4.8.9.9.7.7.7.7.7.7.7.7.7.7.7.7.7.7.7.7.7.5.5.5.5.5.5.5.5.9.9.9.9.9.9.9.7.7.7.9.9.9.9.7.7.7.9.9.a.F.F.a.a.d.d.a.a.a.d.d.d.d.a.a.a.a.a.a.d.a.a.a.a.a.a.a.a.a.a.a.F.a.F.p.p.F.a.i.i.a.F.F.a.F.F.F.F.F.a.5.5.5.7.a.F.F.F.a.7.5.5.d.a.a.a.F.F.a.F.a.M.a.M.F.F.F.M.F.F.F.9.5.a.F.a.a.a.a.a.a.a.F.i.a.a.a.7.7.a.F.F.9.5.9.7.7.7.d.E._._._._.I.I.",
"T.I._.G.^.V.a i b 1.1.-.2.W.rXtXhXzXfXhXhXhXhXgXgXgXgXhXhXhXhXhXuXyXyXyXyXyXyXyX@X@X+XoX(.Q.E.E.:.:.:.:.:.:.:.:.4.:.4.:.4.:.4.:.8.1.1.1.:.:.8.1.8.1.1.1.1.1.4.:.8.1.8.1.8.1.8.1.8.1.8.8.8.1.8.1.8.8.8.1.8.1.8.1.8.1.8.1.8.1.8.1.8.1.,.1.,.1.1.1.1.1.,.1.1.1.1.1.1.1.1.1.1.1.1.1.,.,.,.,.,.,.,.,.=.Q Q =.>.b b b b >.b a a Q Q a =.=.b b b a i # 7.W._._.).I.I.I.P.J.G.i.7.3.7.7.7.9.a.9.9.5.5.y.a.a.i.i.i.i.a.a.i.a.9.5.3.3.7.9.9.i.i.i.9.9.9.9.a.a.a.a.a.a.a.a.7.5.7.5.9.a.a.a.9.9.7.7.5.9.9.9.a.a.a.9.a.a.a.a.5.9.5.9.9.9.9.9.5.5.5.9.9.9.5.5.5.5.5.5.5.5.5.5.3.3.3.3.7.3.3.3.5.5.5.5.5.5.5.5.7.7.7.7.7.7.7.7.7.7.3.3.3.3.7.7.3.3.4.4.3.3.3.3.7.7.7.7.7.7.7.7.5.5.4.4.4.4.7.7.8.8.7.7.7.7.8.8.7.7.p.W._._.P.P.S.9.9.8.9.9.9.9.7.7.7.7.7.7.7.7.7.7.7.7.7.7.7.7.5.5.5.5.5.5.5.5.9.9.9.9.9.9.7.7.7.7.9.9.9.9.7.7.7.7.7.9.9.9.9.9.7.7.5.7.5.5.5.5.5.5.d.d.d.7.5.5.5.d.d.d.i.i.a.a.a.a.a.a.a.a.a.a.a.a.i.a.a.a.a.a.F.F.a.a.a.a.5.5.5.7.d.a.F.a.a.7.5.5.7.a.a.a.a.a.9.M.9.M.9.M.M.M.F.M.F.F.F.9.7.9.a.a.a.a.a.S.S.S.S.9.9.9.9.7.7.F.a.a.9.5.7.7.7.7.d.E._._._._.I.I.",
"L.I._.G.^.E.a p u m ,.-.-.7.p.s.f.f.p.s.s.s.s.s.G.G.G.s.s.s.f.s.G.E.E.G.E.F.H.E.E.H.M.m.n.4.4.4.:.:.:.:.:.:.:.:.:.:.:.:.:.:.:.:.:.,.,.,.,.,.:.,.:.,.,.,.,.,.:.,.>.>.,.>.<.>.<.>.<.<.<.<.,.>.<.>.<.>.<.>.<.>.<.>.=.=.=.=.=.=.=.=.=.=.@.=.@.=.=.=.x a x a x a x a x a x a x a x a a a a a a p a p t t t t t t q q 9 p p u e t i t p i t t p p e e 9.W._.c.).I.I.I.P.J.G.p.d.7.3.7.7.7.9.9.9.5.5.y.d.d.d.d.d.d.5.5.5.i.9.7.3.3.3.9.5.5.5.5.5.5.9.9.a.a.a.a.a.a.a.a.7.7.7.7.7.9.9.9.9.5.7.3.7.7.7.7.5.5.5.5.5.5.5.5.5.5.5.5.5.5.5.5.7.7.3.3.3.3.7.7.3.3.3.3.3.3.3.3.3.3.3.3.7.7.3.3.3.3.3.3.3.3.3.3.7.7.7.7.7.7.7.7.7.7.7.7.7.7.7.7.7.7.7.7.7.7.7.7.7.7.7.7.7.7.3.3.9.9.9.9.9.9.9.9.7.7.7.7.8.8.7.7.9.9.F._.]._.P.P.F.i.9.4.8.9.9.9.7.7.7.7.9.9.7.9.9.7.9.7.7.7.7.7.5.5.5.5.5.5.5.5.9.7.9.9.9.9.7.7.7.7.9.9.9.9.7.7.7.7.7.7.7.7.7.7.5.5.5.5.5.5.5.5.7.5.5.5.5.5.5.7.5.5.5.5.5.5.d.5.5.5.5.5.d.d.5.d.5.5.5.5.5.5.5.5.i.5.5.5.5.5.5.3.7.5.5.a.a.a.d.7.5.5.7.d.d.a.a.9.9.9.9.9.9.9.9.9.9.5.9.M.9.4.4.9.9.9.9.9.9.9.5.5.9.5.9.9.9.3.7.a.9.9.5.5.7.7.7.7.d.E._._._._.I.I.",
"L.j.).G.^.~.p i 9 p x =.-.P P K H H ! ! ! -.-.-.:.:.:.:.4.4.` 4.3.` ` ) ) H H H ! ^ ^ ^ ! E E E Q Q Q Q Q Q Q Q L Q L Q L Q L Q L L L a L a L Q L L L L L a L h p p p p p p z p p p p p p p p p p p p p p p p p p p u p u p p p p p u p u p p p u 7 u 7 u 7 u 7 9 9 9 9 9 9 9 9 9 9 9 9 9 9 9 8 8 8 8 8 8 8 9 9 w 9 9 w 7 t p t i t 9 w w 7 i L V.}.[._.`.I.I.P.P._._.G.a.7.3.7.7.7.9.9.5.5.y.y.7.7.7.7.5.5.5.5.5.5.5.5.3.3.7.5.7.7.5.5.7.7.7.7.5.5.5.5.5.5.9.5.7.5.7.7.5.7.5.5.d.5.3.3.7.5.5.5.3.3.3.3.3.3.3.3.5.5.5.5.5.5.5.5.7.7.7.3.3.3.7.7.3.3.3.3.3.3.3.3.3.3.3.3.7.7.7.7.3.3.3.3.3.3.3.3.5.5.7.7.7.7.5.5.5.5.7.7.7.7.7.7.7.7.7.7.7.7.7.7.7.7.7.7.7.7.7.7.5.5.5.4.4.4.7.7.7.7.7.8.8.8.7.7.9.a.G.}.]._.P.P.G.S.9.4.8.8.9.7.9.9.9.9.9.9.9.9.9.9.9.9.9.9.9.7.5.5.5.5.5.5.5.5.7.7.7.7.7.8.8.8.7.7.7.7.7.7.7.7.7.7.7.7.7.7.7.7.5.5.7.7.5.5.5.5.7.5.5.5.7.5.5.7.5.5.5.5.5.5.5.5.5.5.5.5.5.5.5.5.3.5.5.5.5.5.5.5.5.5.5.5.5.5.5.3.7.5.5.5.7.d.d.7.5.5.7.7.d.5.5.5.9.9.9.9.4.9.9.9.4.4.4.9.9.4.4.9.7.7.9.9.9.9.5.5.5.5.7.9.7.3.3.9.5.9.5.7.7.9.7.9.d.E._._._._.P.I.",
"I.g.P.G.^.E.a p p 9 u p a a i i r t y y t t p t t t t t t e 2 2 r r r r y y y y r 2 r t t t t t r r r r r r r r r r r r r r r r i i i i r r r i i i i i r r r i p p p p p t p t u p p p p p u u p p p p p p p p p p p u u p p p p p p p p p p p p p p p p p p p p t p t p t p t p p p p p p p t t t t t t p p p p p p u 7 i t i r y i e , e L 1.~.}.|._.{.`.I.)._.}.}._.G.a.5.7.7.7.7.5.5.5.d.d.3.3.3.3.3.3.3.3.3.5.5.5.5.3.5.5.5.3.5.3.3.3.3.3.5.7.5.7.5.7.5.5.i.5.5.3.5.5.5.3.5.5.3._ 3.5.5.3.5.5.5.5.5.5.5.5.5.5.5.5.5.5.5.5.5.5.5.5.5.5.5.5.5.5.5.5.5.5.7.7.5.5.5.5.5.5.5.5.5.5.5.5.5.5.5.5.7.5.5.5.5.7.5.7.3.3.3.7.3.3.3.3.3.3.3.3.3.3.3.3.7.3.7.3.7.3.7.3.3.3.3.3.3.3.3.3.7.7.7.3.3.7.7.7.F.F.G.}.]._.P._.G.a.9.3.7.7.7.7.9.9.9.9.9.9.7.7.7.7.7.7.9.7.7.7.5.5.5.d.5.5.5.5.7.7.7.7.7.7.7.7.7.7.7.7.7.7.7.7.7.7.7.7.7.7.7.7.7.7.7.7.7.7.7.d.5.5.5.7.7.7.7.5.5.5.5.5.5.5.i.i.5.5.5.5.7.7.7.7.3.5.5.5.5.5.5.5.5.5.5.5.9.9.9.7.d.5.7.7.5.7.d.7.5.5.7.7.5.5.5.7.3.3.7.3.4.4.4.5.9.4.9.9.9.4.4.9.7.7.9.9.9.5.5.5.9.3.3.9.3.3.3.9.3.3.3.3.7.5.9.a.d.G._._._._.P.I.",
"P.P.J.G.!.(.:.+ i p p p p p p q q q 9 9 q q q q q q q q 9 9 9 9 i t t t t t i p p p p p p t t p p p p p i p i i 7 9 e t p p i i i i i i i i i i i i i i i i i i i i t t t t t t t t t t i i i i i i i i i i i i i i i i i i i i e e e e e e e e i i e e i i i r 2 2 3 2 r r i r r r r r r i r y r r r r r G J J r r r r r D D G G G G G ! 8.F.W.W.W._._._.I._._._._._._.W.p.7.3.7.7.7.7.7.7.7.5.3.3.5.5.3.3.3.3.3.3.5.5.5.5.5.5.5.5.5.5.5.5.5.5.3.3.3.3.3.3.3.3.5.5.5.5.5.5.5.5.5.5.5.5.5.5.5.5.5.5.5.5.5.5.5.5.d.d.y.y.d.d.d.d.5.5.7.7.d.d.y.y.p.p.d.y.d.d.5.5.d.d.d.d.d.d.d.d.d.d.d.y.d.d.d.d.p.p.p.p.p.p.d.d.d.d.d.d.y.y.y.y.d.d.d.d.d.d.d.d.d.i.d.i.a.p.d.i.i.i.i.i.p.i.p.i.i.i.i.i.p.p.p.p.W.W._._._._._._.G.p.d.5.5.d.d.d.d.d.d.d.d.d.d.d.d.d.d.d.d.d.d.d.7.7.7.7.7.7.7.7.7.7.7.7.7.7.7.7.d.d.d.d.d.d.d.d.d.d.d.d.d.d.d.5.d.d.d.d.5.5.5.5.d.d.7.d.7.d.d.5.5.5.5.5.5.5.5.5.5.5.5.7.7.7.7.7.7.7.5.5.5.5.5.5.3.3.3.5.' ' ` 3.5.7.7.7.7.7.7.7.7.7.7.7.7.7.7.7.3.' 3.' 3.3.3.3.3.3.3.3.3.3.3.3.7.7.7.7.7.7.7.3.7.7.7.7.7.7.7.7.5.3.3.3.5.5.9.i.G.G._._.)._.P.P.",
"P.P.J.G.!.!.8.r i i i p p 9 q q 9 9 9 9 9 9 q q q q q q q q q q p t t t t t p p 7 7 7 7 7 7 7 7 e e e e e e e e 7 7 7 7 e e e i r r i i r r r r r r e e e e e e r r r r r 5 r r 5 r r i i i i i J J J J J J J J G G G G G G G G -.-.-.-.-.-.-.-.:.:.:.:.:.:.:.2.8.4.8.7.7.7.9.9.7.7.9.9.9.9.9.9.F.F.F.F.E.F.E.E.E.E.~.W.^.^.^.^.H.F.F.F.G.!.}.}._.P._.P._.I._._._.W._._._.G.p.p.s.s.s.s.s.s.s.s.p.F.F.F.F.p.p.p.F.F.G.G.F.F.F.F.F.F.F.F.F.F.F.F.F.F.G.G.F.F.F.F.G.G.G.G.G.G.F.G.G.G.G.G.G.G.G.G.G.G.G.G.G.J.G.G.G.G.G.G.J.W.W.W.E.E.W.W._.P.P.P._._.P.G.J.J.G.J.G.G.P.G._.G.P.G.G.G.P.G.P.G.P.G.P.G.P.G._.G._.G._.P._.P._.P._.P.W.J.W.J.G.J.G.J._.J.W.J._.P._.J.P.J.P.J.P.P.P.P.P.J.J.J.P.U.P.U._._._._._.P._._.W.G.p.p.p.p.s.p.s.a.s.a.s.a.s.a.s.a.s.a.s.a.s.a.z.s.z.s.z.s.z.s.z.s.z.s.s.s.s.s.s.s.s.s.s.s.s.s.s.s.s.s.s.s.s.s.a.p.a.p.a.p.a.p.a.p.a.p.a.a.a.p.p.p.p.p.p.p.p.p.a.a.a.a.a.a.z.a.a.a.a.a.p.p.p.F.S.S.S.S.S.S.S.S.F.a.a.a.a.a.a.F.F.F.F.F.a.a.a.F.i.i.i.i.i.i.i.i.i.i.i.i.i.i.i.i.a.a.a.a.a.a.a.F.F.F.F.F.F.F.F.F.S.S.S.S.S.S.S.F.G.G.P._.)._.P.P.",
"I.P.P.P.P.!.p.) 3 r r i i i i i i i i e i i i i i i i i i i i i y y y y y y y a L L L L L L L L -.-.-.-.-.-.-.-.-.-.-.-.-.,.:.:.:.:.:.:.:.:.:.:.m.m.m.m.8.m.8.8.9.m.m.n.M.M.M.M.M.M.V.V.V.V.E.E.~.~.~.~.~.~.~.~././././.Q.Q.Q.Q.^.^.^.^.^.^.^.^.~.~.~.~.~.~.~.~.!.W.!.!.^.^.^.^.^.^.^.^.!.!.^.!.!.!.!.}.}.}.}.}.W.W.W.W.W.W.W.W.!.!.'.'.}.'.'.P._.P.P.P.I.I.I.I._.W._._._._._.W._._._._._._._.W._._.W._._._._._.J.J.P.P.J.J.J.J.P.J.J.J.J.J.J.J._.U._.U._.U._._.'.'.'.'.'._._._._._._._._._._._.J.J.P.P._._._._._._._.P._._._._._._._._._._._.)._._._._._._.U.U._._._._._._._._._._.P.P.P._._._.P.P._.P._.P._.P._.)._.)._.)._.)._.P._.P._.P._.P._.P._.P._.P._.U._.'.).'._.'._.'.P.P.P.'._.'.).'.P.P._.P.P.P.P.P._.J.G.G.G.G.P.G._.W._.W._.W._.W._.W._.W._.W._.W._._._._._._._._._._._._._._._._._.W._.W._.W._.G._.W._.W._.W._.G.W.W.W.W.W.J.W.J.W.W.W.W.W.G.W.G.G.G.G.G.G.G.G.G.s.G.E.E.z.z.z.z.s.s.s.G.G.W._.J.J.G.G.G.G.G.D.G.J.J.J.J.J.J.J.J.W._._._.P._._._.J.J.J.J.J.J.J.J.J.J.J.J.J.J.J.J.G.G.G.G.G.G.J.J.J.W.W.W.W.W.W.W.G.G.F.G.G.J.J.P.G.J.P.P._._.P.P.",
"I.I.I.I.P._.W.s.d.7.9.9.9.V.V.m.m.m.m.m.n.m.M.M.V.V.V.V.V.V.V.V.E.E.E.E.E.E.E.E.E.E.E.E.E.~.~.~.^.^.^.^.^.^.^.^.^.^.^.^.^.^.^.^.^.(.^.(.^.^.^.^.^.^.^.^.^.^.Q.^.W.^.!.^.!.!.!.!.}.}.}.}.}.}.}.}.^.^.^.!.!.!.^.!.!.!.!.!.!.!.!.!.!.!.!.!.!.!.!.!.!.!.!.!.!.!.W.W.W.W.W.W.W.!.!.!.!.!.W.W.W.W.W.W.G.G.G.G.G.W.W.W._._._.W.W.W.W.W.G.D.G.G.P.P.P.P.P.P.P.I.I.I.I.I._._._.P._._.).)._._._._._._._._._._._._._._._._._._._._._._._.P.P.P.P.P.P.P.P.P.P.P.P.P.P.P.P.P.).).).).)._._._._.P._._._._._._.P.P.P.P.P.P.P.P.P.P.J.J.J.P.P.P._._._._._._._._.I.I.I.P.P.P.P.P.P.P.I.P.I.P.I.P.I.P.I.P.I.P.I.P.P.P.P.P.P.P.P.P.I.P.I.P.I.P.I.P.P.P.P.P.P.P.P.P.P.P.P.P.P.P.P.P.P.P.P.P.P.P.P.P.P.P.P.P.P.P.P.P.P.P.P.P.P.P.P.P.).U.P.P.P.P.P.P._._._._._._._._._._._._._._._._._._._._._._._._.).).).).).)._._._._._._._._._._._._._._._._._._._._._._._._._._._._._._._._._._.P.P._._._._._._._._._._._._._._._._._._._._._._.P.P.P.P.U.U.U.P.P.P.P.P.P.P.P.P.P.P.P.P.P.P.P.P.).).).)._._._._._._.).).).).)._._._._._._._._._._._._._._._._._.J.J.J.J.J.U.P.'.P.P.P._.P.I.I.I.",
"j.I.I.j.h.`.).)._._._.}.}.}.}.}.}.'.'.'.'.'.'.'.'.'.'.'.}.}.}.}.}.}.}.}.}.}.}.}._._._._._._._._._._._._._._._._._._._._._.).)._._.!.!.!.!.!.!.!.J.J.J.J.J.J.J.J.G.G.G.G.G.G.P.G.P.P._._.W.^.^.W._.W.W.W.W.W.W.W.W.W.W.W.J.J.W.W.W.W.W.W.J.J.J.J.W.W._.W.W.W.W.W.P.P._._._._._._._.P._._._._.P.J.P.P._._._._._._.).).)._._._._.P.P.P.P.P.P.U.P.P.P.P.I.I.I.I.I.I._.P._.P.I.P._._.I.P.I.I.I.P.I.P.P.P.P.P.P.P.P.P.P.P.P.P.P.P.P.P.P.P.P.P.P.P.P.P.P.P.P.P.P.P.P.P.P.P.P.P.P.P.P.P.P.P.P.P._._.P.P._._._._._._._._._._._._._._._.'._.P._.P._.P.I.I.I.I.I.P.P.P.P.P.P._.)._.)._.)._.)._.)._.I.P.)._.I.P.I.P.I.P.I.P.I.P.I.P.I.P.I.P.P.P.P.P.P.P.P.P.P.P.P.P.P.P.P.P.P.P.P.P.P.P.P.P.P.P.P.P.P.P.P.P.P.P.P.P.P.P.P.P.I.P.P.P.P.P.P.P.P._._._._._._._._._._._._._._._._.P.I.P.P.P.P.P._._._._._._._.P.P.P.P.P.P.P.P.P.P.P.P.P.P.P.P.P.P.P.P.P.P.P.P.P.P.P.P.P.P.P.P.P.P.P.P.P.P.P._._._._._._._._._._.`.`.`.`.`.).).).P.P.P.P.P.P.P.P.P.P.P.P.P.P.P.P.P.P.P.P.P.P.P.P.P.P.I.I.I.I.).).I.I.I.I.I.I.I.I.`.`.`.`.`.`.`.`.`.`.`.`.`.`.`._.U.J.U.G.G.P.P.P.P.P.P.P.I.I.I.I.",
"j.I.j.j.j.I.`.{.h.s.h.s.s.G.G.G.P.K.D.D.D.D.K.K.K.K.K.K.K.K.K.K.h.h.h.h.h.h.h.h.I.I.I.I.I.I.I.I.I.I.I.I.h.h.h.h.I.I.I.I.I.I.I.I.P.P.P.P.P.P.P.P.P.P.P.P.P.P.P.P._._._.P.I.I.I.I.I.I.)._.).).).)._._._._._._._._._._._._._._.).).].].).).].].].].P.P.P.P.P.P.P.P.P.P.P.P.P.P.P.P._.P.P.P.P.P.P.P.)._._._._._._._.P.I.P.P.P.P.P.P.U.I.P.P.P.P.P.P.P.P.I.I.I.I.I.I.I._.P.I.P.P.I.I.P.P.P.P.I.I.P.P.P.P.P.P.P._.P.P.P.P.P.P.P.P.P.P.P.P.P.P.P.P.P.P.P.P.P.P.P.P.P.P.P.P.P.P.P.P.P.P.P.P.P.P.P.P.P.P.P.P.P.P.P.P.P.P.P.P.P.P.P.P.P.P.P.P.P.P.P.P.I.I.I.I.I.I.P.P.P.P.I.I.I.I.I.I.I.I.I.I.I.I.I.I.P.I.I.P.P.P.P.P.P.P.P.P.P.P.P.P.P.P.P.P.P.P.P.P.P.P.P.P.P.P.P.P.P.P.P.P.P.P.P.P.P.P.P.P.P.P.I.I.I.P.P.P.P.P.P.P.P.P.P.P.K.I.P.P.P.P.P.P.P.P.P.P.P.P.P.P.P.P.P.P.P.P.P.P.P.P.P.P.P.P._._.P.P.P.P.P.P.I.I.P.I.I.I.I.I.I.I.I.I.I.I.I.P.P.P.I.I.I.I.I.I.P.P.P.P.P.P.P.P.P.P.P.P.P.I.)._._._._._._._._._.{.{.`.`.`.I.I.I.P.P.P.P.P.P.P.P.I.I.I.I.I.L.L.L.I.I.I.I.I.I.I.I.I.I.I.I.I.I.I.I.I.I.I.I.P.P.I.I.`.`.`.`.`.`.`.`.I.I.j.I.j.j.j.I.P.P.G.G.P.P.P.P.P.P.I.I.I.I.I.I.",
"`.j.j.I.I.I.I.I.I.I.I.I.P.P.P.P.I.I.I.I.I.I.I.I.I.I.I.I.I.I.I.I.I.`.&X1XI.I.`.`.I.I.I.I.I.I.I.I.I.I.I.I.I.I.I.I.I.I.I.I.I.I.I.L.I.I.P.P.I.P.I.I.I.I.I.I.L.L.L.L.I.I.I.I.L.L.L.L.L.L.I.I.I.P._._.I.I.I.I.I.I.I.I.I.I.I.I.h.h.I.I.h.h.h.h.g.g.h.h.I.I.I.I.I.I.I.I.I.P.I.I.I.I.P.P.P.P.P.P.P.P.I.I.I.I.I.I.I.I.I.I.I.I.I.I.I.I.I.I.P.K.K.K.K.f.K.K.P.P.I.I.I.I.I.I.I.I.I.P.I.I.I.I.I.P.I.I.I.I.I.P.P.P.P.P.P.P.P.P.P.P.P.P.P.P.P.P.P.P.P.P.P.P.P.P.P.P.P.P.P.P.P.P.P._._._._._._._.P.P.P.P.P.P.P.P.I.I.I.I.I.I.P.P.P.P.P.P.P.P.P.P.P.P.P.P.P.P.I.I.I.I.I.I.I.I.I.I.I.I.I.I.I.I.I.I.I.I.I.I.I.I.I.I.I.L.L.L.L.L.I.I.I.I.I.I.I.I.I.I.L.I.L.L.L.L.L.L.I.P.I.P.I.I.I.I.I.I.I.I.I.I.I.I.I.I.I.I.I.I.h.h.P.P.P.P.I.I.I.I.I.L.L.I.P.I.I.L.I.I.I.I.I.I.I.I.I.I.I.I.I.I.I.I.I.I.I.I.I.P.I.I.I.I.I.I.P.P.P.I.I.P.P.P.P.P.P.P.P.P.P.P.P.P.P.P.P.P.P.P.I.P.P.P.I.I.I.I.P.P.P.P.I.I.I.I.I.I.I.I.I.I.I.P._.P._._._.`.`.).)._._._._._._._._.P.P.P.P.P.P.P.P.P.P.P.P.P.P.P.P.P.P.P.P._._._._._._._._._._._._._._._.`.`.`.`.`.`.`.`.`.`.`.`.`.`.`._._.P.P.P.P.P.I.I.P.P.I.I.I.I.I.I.",
"`.I.I.I.I.I.I.I.I.P.I.I.P.P.P.P.I.I.I.L.L.I.I.I.I.I.I.I.I.I.I.I.L.L.g.I.j.L.g.L.I.I.I.I.j.I.I.I.I.I.I.I.L.I.L.I.I.I.j.I.L.L.L.g.I.I.I.I.I.I.I.I.I.I.I.I.I.I.I.I.P.P.I.I.L.L.L.L.I.I.I.I.P._._._.I.I.I.I.T.T.I.I.I.I.I.I.I.I.I.I.I.I.I.I.I.I.I.I.I.I.I.I.I.I.I.I.I.P.I.I.I.I.I.P.).P.I.P.I.P.I.I.).I.).I.I.I.I.I.I.I.I.I.I.I.I.I.P.P.P.U.U.U.P.P.P.P.I.P.I.I.I.I.I.P._.P._.P.P.P.P.P.P.P.I.I.I.P.I.P.P.P.P.P.P.P.P.P.P.P.I.I.I.P.P.P.P.P.P.P.P.P.P.P.P.P.P.P.P.P._._._._._._._._.)._.)._.)._.)._._._._._._._._.P.P.P.P.P.P.P.P.P.P.P.P.P.P.P.P.P.P.P.P.P.P.P._.P.P.P.P.P._.P.P.P.P.P.P.P._.P._.P.P.P.P.P.P.P.P.P.P.P.P.P.P.P.P.P.P.P.P.P.P.P.P.P.I.P.P.P.I.I.I.P.P.P._.P._.P._.P._._._.P._.I.I.I.P.P.P.P.P.P.P.P.P.K.P.I.P.P.I.P.P.P.P.P.P.P.P.P.I.I.I.P.P.P.P.P.P.P.P.P.P.P.P.P.I.I.I.I.P.P.P.P.P.P.P.P.P.P.P.P.P.P.P.P.P.P.P.P.P.P.P.P.P.P.P.P.P.P.P.P.P.P.P.P.P.P.P.I.I.I.I.I.I.I.I.I.I.P.P.P.P.P.I._._._.}.}.}.'.}.'.}.'._._._.P._.P._.P._.P.P.P.P.P.P.P.P.P._._._._._._._._._._._._._._._._.)._.)._.)._.)._._._._._._._._._.).'._.P._.P._.P._.P.I.I.I.I._.I.",
"_._._._._._._.P.P.G.P.P.P.P.K.P.P.P.P.P.I.P.P.P.P.P.P.P.P._.P.P.P.P.I.P.I.P.P.P.P.P.P.P.I.I.I.I.I.I.I.P.I.P.I.P.I.I.I.I.I.I.I.I.I.I.I.I.I.I.I.I.L.I.I.L.f.f.I.Y.Y.P.P.L.L.L.L.K.I.L.L.P.U.).'.P.I.I.I.I.I.I.I.I.I.I.I.I.I.I.I.I.I.I.I.I.I.I.I.I.I.I.I.I.I.I.I.I.P.P.I.P.I.P.I.P._.P._.P.I.P._.P._.P._.P._.P._.P.P.I.I.I.I.I.I.P.P.G.P.P.P.P.P.P.I.P.I.I.P.P.P.P.P.P._.P._.P._.P.P.P.P.P.P.P.P.P.P.P.P.P.P.P._.P.P.P.P.P.P.P.P.P.P.P.P.P.P.P.P.P.P.P.P.P.P.P.P.P._._._._._._._._._._._._._._._._._._.).).)._._.P.P._.P._.P.P.P.P.p.I.I.I.P.K.P.P.P.P.P.P.P._._._.P.P.P.P.P.P.P.P.P.P.P.P.P.P._.P.P.P.P.P.P.P.P.P.P.P.P.P.P.P.P.P.P.P.P.P.P.P.P.P.P.P.P.P.I.P.P.P.P.P._._._.I._.P._.P.P.P.P.P._.P.P.P.P.P.P.P.P.P.P.P.P.P.P.P.P.P.P.P.P.P.P.P.P.P.P.P.P.P.P.P.P.P._.P._.P._.P._.P.P.P.P.P.P.P.P.P.P.P.P.P.P.P.P.P.P.P.P.P.P.P.P.P.P.P.P.P.P.P.P.P.P.P.P.P.P.P.P.P.P.P.P.P.I.I.I.I.I.I.I.I.I.P.P.P.G._._.W.G.F.F.F.F.F.F.H.H.W.W.W.!.!.!.!.!.!.W.!.W.!.W.!.!.!.!.!.!.!.!.!.!.!.!.!.!.!.!.!.!.!.!.!.E.W.W.W._._._.}._._.W.W._._._._.W.J._._._._._._._.P._.P._.P._.P.",
"!.!.!.!.!.!.!.!.}.'.'.'.'.'.'.'.W._.W._._._._.G.G.G.W.G.W.W.W.G.J.G.P.G.G.P.P.P.P.P.P.P.P.P.P.P.P.P.P.P.G.G.P.P.D.D.D.D.P.P.P.K.I.L.L.L.L.K.I.I.I.I.I.I.P.P.I.K.P.G.P.P.P.L.L.L.I.P.P.P.U.J.G.F.G.P.P.I.I.P.P.P.I.I.P.P.I.I.I.I.P.P.P.P.P.P.P.P.I.I.P.P.P.P.I.I.P.W._._._._._._.P.G.G.G.G.G.G.G.G.G.G.G.G.G.G.G.}.}.}.}.}.}.}.}.}.}.}.}.).).'.'.P.P.P.P.J.J.J.P.W.W.W.W.W.G.G.J._._._._._._._.}.}.}.}.}.}.}.}.}.}.}.}.}.}.}.}.}.'.'.'.'.'.'.'.'.'.'.'.'.'.'.'.}._.W._.}.[.}.[.^.}.}.}.}.}.}.}.}.W.W.W.W.W._._._.}._.P.P.P._.P.P.I.I.P.P.P.P.P.'.P._.J.W.W.W.W._.W.W.W.W.W.W.W.W._.}.}.}.}.}.}.}.'.'.'.'.'.'.'.'._.'.'.'.'.'.'.'.'.'.).'.).'.).'.}.}.}.}.}.}.).).}.}.}.}.}.}.}.).}.}.}.}.}.}.}.}.G.J.G.J.G.J.G.J._.'._.'._.'._.'._.}._.}._.}._.}.}.}._.}.}.}.}.}.G.G.G.G.G.G.G.G._.W._.W._.W._.W.P.J.P.J.P.J.P.J.P.U.P.U.U.U.U.U.G.G.J.G.G.J.J.J.G.G.G.G.G.G.G.J.S.G.J.P.P.I.).`.I.I.I.I.I.P.P.P.W.G.a.7.) ! ! ^ W W W ! ! ) 2.2.2.2.2.2.2.2.2.2.2.2.2.2.2.2.2.8.9.9.4.9.9.9.9.9.E.E.E.E.E.E.E.E.E.F.E.E.W.W.^.W.^.!.^.!.^.!.^.!.!.!.W.!.}.}.}.}.W.W._._._._.}.}.",
"9.9.9.9.9.9.9.9.H.H.H.F.F.F.F.H.^.^.^.^.^.^.^.^.(.(.(.(.(.(.(.(.G.G.J.J.J.J.J.J.J.J.J.J.J.J.J.J.!.!.!.J.J.J.J.J.J.J.!.!.!.'.'.'.U.P.P.P.P.P.P.P.).P.P.P.U.).P.G.D.G.G.P.P.P.P.K.K.P.P.U.!.!.(.!.!._._.).)._._._._._._._._._._._.P.P.P.P.P.P._._.P.P.P.P.J.J.J.W.W.W.W.W.W.W.W.W.}.}.}.}.}.}.}.}.}.}.}.}.}.}.}.}.W.W.W.W.W.W.W.W.W.W.W.W.W.W.W.W.!.!.W.!.!.!.!.!.W.^.W.^.W.^.W.W.E.E.E.E.E.E.E.E.F.F.F.F.F.F.F.F.F.F.F.F.F.F.F.F.a.9.a.9.a.9.a.9.a.a.a.a.a.9.a.a.a.9.a.9.a.9.a.9.a.a.a.9.a.a.a.a.7.7.7.7.7.a.a.a.|.}.W.G._._._.P.I.I.P.P.P.P._.J.i.i.5.5.5.5.5.5.5.5.5.5.5.5.5.5.5.5.5.5.5.d.i.i.a.a.a.a.a.a.a.a.a.a.a.a.a.a.a.a.F.F.p.F.p.F.p.F.F.F.F.F.F.F.F.F.F.F.F.F.F.F.a.a.G.F.E.E.E.E.E.E.W.W.W.W.W.W.W.W.F.F.G.F.G.F.F.F.W.W.W.G.W.W.W.W.W.W.W.W.W.W.W.W.}.!.}.!.}.!.}.}.W.!.W.!.W.W.W.W.W.W.W.W.W.W.W.W.!.!.!.!.!.!.!.!.W.!.W.!.!.}.}.}.!.!.!.!.}.}.}.}.!.!.}.}._.P.I.).`.I.I.I.I.P.P.P.}.H.4.W G G L a y y a L L G P P L L L L L J L L P P @.@.@.@.@.@.P Q Q Q Q Q Q Q L L G G G L L L G P P P ! W ! ! :.! :.! :.! ! ! 7.7.7.7.7.7.7.7.3.3.7.5.7.d.a.a.",
"! W ! ! Q ! W W ! ! ! ! ! ! ! ! :.:.2.2.2.2.2.2.8.8.8.8.8.8.8.8.9.n.n.n.n.n.n.n.n.n.n.n.n.n.n.n.H.H.H.H.H.H.H.H.H.H.Q.Q.Q.Q.(.!.!.!.J.J.J.J.!.!.'.W.J.J.!.'.'.!.J.J.J.G.P.P.P.P.D.P.U.J.J.H.Q.Q.E.F.E.F.F.F.F.F.F.F.F.F.F.F.a.F.a.a.a.a.a.a.a.a.a.a.a.a.a.a.d.9.9.9.9.9.9.9.9.9.7.7.7.7.7.3.3.7.8.8.8.7.7.8.8.8.8.8.8.8.8.8.8.8.2.2.2.2.3.3.3.3.2.2.2.2.2.2.2.2.2.2.2.2.2.2.2.2.2.2.2.2.2.2.2.2.! ! ! ! ! ! ! ! ! ! ! ! ! ! ! ! ! ! ! ! ! ! ! ! ! ! ! ! ! ! ! ! P P P #.#.#.#.#.P P P #.#.P P P #.P P P P P 2.2.^.W.W._._._._._.).I.K.P.P.J.G.9.I W P P P P P P P P P P P P P P P H P P P P P P ! P P P P P P P P P ! ! ! ! ! ! P P P P P P P P ! ! ! ! ! ! ! ! -.-.-.2.2.-.-.#.2.2.2.2.2.2.2.2.-.2.2.) ) ! 2.2.2.2.2.2.2.2.2.2.2.2.2.2.2.2.2.2.2.2.3.3.2.2.2.2.8.8.8.8.8.8.8.8.9.7.7.7.7.7.7.7.9.9.9.9.9.9.9.9.9.9.9.9.9.9.M.M.9.F.F.F.F.F.E.E.F.F.E.E.E.E.!.Q.Q.Q.Q.E.W._._.P._.`.`.I.P.P.P._.E.9.! G E Q =.k b b =.=.-.-.-.-.-.=.=.=.=.=.=.=.=.=.=.=.=.=.=.=.L Q Q Q Q Q Q Q Q Q Q Q Q Q Q Q L G L L L E Q Q L E L E L E L G G G G G G G G K G G G K P P P P ",
"Q E Q Q Q Q Q Q Q Q Q Q Q Q Q Q a L L L L L L L L L L L L L L L Q Q Q Q Q ~ ~ ~ Q Q Q Q Q Q Q Q ^ ^ ^ ^ ^ ^ ^ ^ ^ -.:.:.:.:.:.4.9.7.8.8.8.8.7.7.9.9.9.9.7.9.E.!.!.'.'.P.P.P.P.U.P.).'.G.7.! W ! -.-.-.! P P -.-.-.! -.! P ! -.P -.! -.! -.! -.-.! ! -.! -.! -.-.-.-.-.-.-.-.-.-.G G G G G G G G L G G G L L L L Q Q Q Q P Q P P P P P P P P P P L L L L P P P P J J J J J J J J L L L L L L L L Q Q Q Q Q Q Q Q L E L E L L L L Q Q Q Q Q Q Q Q L L L L L L L L =.-.-.-.-.-.-.-.L L L L L L L L >.=.=.L L P -.-.7.E.}.}._.W._._.I.I.P._.'.G.3.! P G G G G Q Q ! Q Q Q Q Q Q Q Q Q ~ Q ~ -.~ Q Q L L L L L L L L Q Q Q Q Q Q Q Q L P P P P P P P P P P P P P P P P P P Q ! P P P P P P P P P P P J J J J J J J J G G J L G G G G P P P P P P P P P P P P P P P P G G G G G G G G P P P P P P P P ! ! ! ! ! ! ! ! -.-.-.-.-.! ! -.G G P P P ! -.-.P P ! ! -.-.:.:.-.E Q ) 9.W._._._._._._._.P.P._.3.! L a Q =.=.k b b >.>.=.=.=.=.=.=.=.=.=.=.=.=.=.=.=.=.=.=.=.=.=.=.-.=.-.=.-.=.>.>.,.>.>.>.>.>.Q Q =.~ =.~ =.=.-.Q -.Q Q Q Q Q Q Q Q Q Q -.-.-.-.Q -.Q Q Q Q Q ",
"~ ~ ~ Q -.-.=.-.=.=.=.=.=.=.=.=.>.>.>.>.>.>.,.;.-.=.=.=.-.=.-.=.h h h h h Q Q Q h h h a a a a a L L L L L L L a a a L L L Q Q Q Q P P G P P P ! ! -.-.! P ! :.8.W.!.'.P.P.P._.].P.).}.H.3.P G L L @.L a J L @.L @.=.@.=.@.@.@.@.@.@.@.@.@.@.@.@.@.@.@.@.@.@.@.@.@.@.@.@.@.@.@.@.=.=.=.=.=.=.=.>.=.=.=.=.=.=.=.=.=.=.=.=.=.=.=.=.=.=.@.@.@.@.@.@.<.<.<.<.,.,.,.,.,.,.,.<.,.,.,.,.=.=.=.=.=.=.=.=.Q Q Q Q =.Q =.Q Q Q Q Q Q Q Q Q =.=.=.=.=.=.=.=.=.=.=.=.b b =.=.=.=.=.=.=.=.=.=.>.>.=.=.>.>.>.>.<.<.>.=.=.-.-.-.-.7.^.}._.W._._._.I._.'.!.F.) F Q Q Q Q Q =.>.>.=.Q =.Q =.Q Q Q =.Q =.=.=.=.=.=.=.>.>.>.>.>.>.>.=.=.=.=.=.=.=.=.=.-.-.=.-.-.=.=.=.=.=.=.=.=.=.=.-.-.-.-.-.-.-.-.=.=.-.-.-.-.-.-.,.,.,.,.,.>.,.,.-.-.=.=.-.-.-.-.=.=.=.=.=.=.=.=.=.=.=.=.=.=.-.-.=.=.=.=.=.=.=.=.@.@.@.@.@.@.@.L Q Q L L L L Q L L L L L L L L L L L L L L L P L L L L L L L L Q Q h r G 4.F.W._._._._._._._.P._.Y P G Q =.=.b v b n m m =.@.@.@.=.h b b =.=.=.=.=.=.=.=.=.=.=.=.=.=.=.=.=.=.=.=.x @.@.=.b b b b L L L L L L Q Q Q Q Q Q Q Q Q Q -.=.=.=.=.>.>.>.>.>.=.=.=.=.=.=.",
"Q Q Q =.=.=.=.=.=.=.=.=.=.=.=.=.Q h Q h h h h h h h h h h h Q h >.>.>.>.>.>.>.>.>.>.=.=.>.>.>.=.>.>.>.=.>.>.>.>.=.=.-.=.=.=.>.>.-.=.L L L L =.-.L L L L L L =.Q 9.G._._._.P._._.s._.}.W.7.-.! ,.>.>.=.=.=.>.<.<.<.<.<.<.<.<.<.<.=.>.=.=.=.>.=.>.>.>.>.>.>.>.>.>.>.>.>.>.>.>.>.>.m m b b b b m m b v b v b v b v b b b b b b b b >.=.=.=.=.=.=.=.b b v b v v b b m x m m m m m x >.>.>.>.>.>.>.>.b k b k b k b k b b b b b b b b b b b b b b b b b b m m m m m m m b m b m b m b m b m b m b m m n n n b b =.=.-.P 2.7.E._._.)._._._._._.W.M.! G Q Q Q b h b b b b k b k b k b k h h k k b k b b b b b b b b b b b b b b b b b b >.>.>.>.>.>.>.>.>.>.>.>.>.>.>.>.b b >.>.=.>.=.=.b b b b =.b =.=.b b b b b b b b >.>.>.>.>.>.>.>.>.>.>.>.>.>.>.>.>.>.>.>.>.>.>.>.b b m m b b b b >.>.>.>.>.>.>.>.>.>.>.>.>.>.>.>.>.>.>.>.>.>.>.>.>.>.>.>.>.>.>.>.-.>.>.=.>.>.>.=.;.;.k Q ! 8.a._._._._._._._._._.Y -.-.=.=.>.b b b m m >.>.>.%.-.=.Q =.=.-.-.-.-.=.=.=.Q -.Q =.=.=.=.=.=.=.=.=.=.>.>.<.>.<.>.<.>.>.>.>.=.>.=.>.=.>.>.>.>.>.>.>.>.b b b b b b b b h h h b v v v v ",
"=.=.=.=.=.=.=.=.=.=.=.=.=.=.=.=.>.=.=.=.=.=.=.=.=.=.b b =.=.=.=.b b b b b b b >.b b b b m b b =.b =.m m m =.=.=.=.=.=.=.=.=.=.=.=.>.=.=.=.=.>.>.>.=.=.>.>.>.b a 2.d.W.}._.I.I._.s._.}.^.2.P L =.>.b m m m m b >.b b m m x x m x m m m m m m m m m m m m m m m m m m m b m m m m >.>.>.>.m m m m b b b b b b b b b b m m m m b b m m m m m m m m =.m m m m m m m m m >.m >.m >.m m m m m m m m m b b h h b b b b b b b b b b b b b m m m m m m m m b b m m m m m m m m m m m m b m m m m m b =.=.a v b b >.=.>.-.-.P 2.5._.|.{._.`.I._._.W.9.:.Q =.=.=.h b b b b k b b b b k b k b b b b b b b b m m m m m m m m b b b b n b b b m m m m m m =.m >.m >.m >.m >.b b b b b b b b b b b b b b b b b >.m >.m >.m >.m m m m m m m m m >.m >.m >.m >.m =.m m m >.m >.m m m >.>.>.>.>.>.m m b m m m m m b b >.b >.b >.b =.b =.b =.b =.=.=.=.b b b b b b =.=.=.=.=.=.=.h h k b h L :.E.}._._._._._._._.W.K P -.-.=.=.=.>.m m m >.>.>.,.>.=.=.=.-.-.-.-.-.=.=.Q =.Q Q L L =.=.=.=.=.=.=.=.=.@.=.=.=.=.=.=.=.=.b b b b b b b b b b =.=.=.b b b =.b b b b >.b b b b b b ;.;.",
"=.=.=.=.=.=.=.=.=.=.=.=.=.=.=.=.=.=.=.=.=.=.=.=.=.=.=.=.=.=.=.=.=.=.=.=.m m m =.=.=.=.m m m =.=.=.=.=.=.=.=.=.=.=.=.=.=.=.=.=.=.=.=.>.b b b =.h =.,.,.L a N N k G 7.W.}._.P.P.I.P.G.}.E.-.L -.b b h a ,.a <.>.b =.=.=.=.=.=.=.=.=.=.=.m =.=.=.=.m m m m =.=.=.=.=.m m m =.=.=.=.=.m =.=.=.=.=.=.=.=.=.=.=.=.=.=.=.=.=.=.=.=.=.=.=.=.=.=.=.=.=.=.=.=.=.=.=.=.=.=.=.=.=.=.=.=.>.=.>.=.=.=.=.=.=.=.=.=.=.=.=.=.=.=.=.=.=.=.=.=.=.=.=.=.=.=.=.=.=.=.=.=.=.=.=.=.=.=.=.=.=.=.=.=.=.m b n b b y Q 2.) M.9.` Q L Q =.=.=.L ! a._._.I.I.I.I.I.P.}.9.W Q =.a =.=.>.,.a >.=.=.=.=.=.=.=.=.=.=.=.=.=.=.=.=.=.=.=.=.=.=.=.=.=.=.=.=.=.=.=.=.=.=.=.=.=.=.=.=.=.=.=.=.=.=.=.=.=.b =.b =.=.=.=.=.=.=.=.=.=.=.=.=.=.=.=.=.=.=.=.=.=.=.=.=.=.=.=.=.=.=.=.=.=.=.=.=.=.=.=.=.=.=.=.=.m m m =.=.=.=.m m m =.=.=.=.m =.m =.m =.=.=.=.=.=.=.=.=.=.=.=.=.=.=.=.=.=.=.=.=.x =.>.=.L Q ,.h =.h h =.G 2.!.G._._.I._._.P.F.2.=.=.a P 6.#.@.b n n m =.$.=.=.=.=.=.=.=.=.=.=.=.=.=.=.=.=.=.=.=.=.=.=.=.=.=.=.=.=.=.=.=.=.=.=.=.=.=.=.=.=.=.=.=.=.=.=.=.=.=.=.=.=.=.=.=.=.=.=.=.=.=.=.=.=.=.=.",
"=.=.=.=.=.=.=.=.=.=.=.=.=.=.=.=.=.=.=.=.=.=.=.=.=.=.=.=.=.=.=.=.=.=.=.=.m =.m m =.=.=.=.m m =.=.=.m =.=.=.=.m m =.=.=.=.=.=.m =.=.>.>.b b b b a L -.-.L h b N k L 8.W.!.P.P.P.P.I.W.}.E.:.@.>.b h h h 1.a ;.=.h =.=.=.=.=.=.=.=.=.=.m m =.=.=.=.m m =.=.=.=.=.=.=.m =.m =.=.=.=.m m =.=.=.=.m b =.=.=.=.=.=.=.=.=.=.=.=.=.=.=.=.=.=.=.=.=.=.=.=.=.=.=.=.=.=.=.=.=.=.=.=.=.=.=.=.=.=.=.=.=.=.=.=.=.=.=.=.=.=.=.=.=.=.Q =.=.=.=.=.=.=.=.=.=.=.=.=.=.=.=.=.=.=.=.=.=.=.=.=.=.=.=.m m v b Q L 4.F.p.J.G.S.` Q E h h =.L ! a._.I.I.I.L.I.I.P.}.9.W Q >.a >.=.>.,.L =.=.=.=.=.=.=.Q Q =.=.=.=.=.=.=.=.=.=.=.=.=.=.=.=.=.=.=.=.=.=.=.=.=.=.=.=.=.=.=.=.=.=.=.=.=.=.=.=.=.=.=.=.=.=.=.=.=.=.Q =.=.=.=.=.=.=.=.=.=.=.=.=.=.=.=.=.=.=.=.=.=.=.=.=.=.=.=.=.=.=.=.=.=.=.=.=.=.=.m m =.=.=.=.m m =.=.=.=.=.=.=.=.=.=.=.=.=.=.=.=.=.=.=.=.=.=.=.Q =.=.=.=.=.=.=.>.<.>.-.-.-.-.L =.Q b =.E 2.^.W._._.I.I._.P.F.! Q n h P 6.6.#.b N n m $.$.=.b =.=.=.=.=.=.=.=.=.=.=.=.=.=.=.=.=.=.=.=.=.=.=.=.=.=.=.=.=.=.=.=.=.=.=.=.=.=.=.=.=.=.Q =.=.=.=.=.=.=.=.=.=.=.Q Q =.=.=.=.=.=.=.=.",
"=.=.=.=.=.=.=.=.=.=.=.=.=.=.=.=.=.=.=.=.=.=.=.=.=.=.=.=.=.=.=.=.m =.=.=.=.=.=.=.=.=.=.=.=.=.=.=.m m =.=.=.=.=.m m =.=.=.=.=.=.=.=.=.m b b b h L G P P L =.b n k L 8.W.!.P.P.P.P._.W.}.E.-.@.>.b b h h 1.a ;.=.Q =.=.=.=.=.=.=.=.=.=.=.=.=.=.=.=.=.=.=.=.=.=.=.=.=.=.=.=.=.=.=.=.m =.=.=.=.=.m b =.=.=.=.=.=.=.=.=.=.=.=.=.=.=.=.=.=.=.=.=.=.=.=.=.=.=.=.=.=.=.=.=.=.=.=.=.=.=.=.=.=.=.=.=.=.=.=.=.=.=.=.=.=.=.=.=.=.=.Q Q =.=.=.=.=.=.=.=.=.=.=.=.=.=.=.=.=.=.=.=.=.=.=.$.=.>.m m v b =.Q 9.!.!.'.U.!.M.^ E h Q =.L ! a.}.P.I.I.L.I.I.P.}.9.! Q =.a >.b >.1.Q -.=.=.=.=.=.=.=.Q Q =.=.=.=.=.=.=.=.=.=.=.=.=.=.=.=.=.=.=.=.=.=.=.=.=.=.=.=.=.=.=.=.=.=.=.=.=.=.=.=.=.=.=.=.=.=.=.=.=.=.Q Q =.=.=.=.=.=.=.=.=.=.=.=.=.=.=.=.=.=.=.=.=.=.=.=.=.=.=.=.=.=.=.=.=.=.=.=.=.=.=.=.=.=.=.=.=.=.=.=.=.=.=.=.=.=.=.=.=.=.=.=.=.=.=.=.=.=.=.=.Q =.=.=.=.=.=.x >.>.=.-.-.-.L =.=.=.b =.E :.^.W._._.I.P.).P.F.P Q k k @.7.l.#.b v n m $.$.=.b =.=.=.=.=.=.=.=.=.=.=.=.=.=.=.=.=.=.=.=.=.=.=.=.=.=.=.=.=.=.=.=.=.=.=.=.=.=.=.=.=.=.=.Q Q =.=.=.=.=.=.=.=.=.=.Q Q =.=.=.=.=.=.=.",
"=.=.=.=.=.=.=.=.=.=.=.=.=.=.=.=.=.=.=.=.=.=.=.=.=.=.=.=.=.=.=.=.m =.=.=.=.=.=.=.=.=.=.=.=.=.=.=.m m =.=.=.=.m m m =.=.=.=.=.=.=.>.=.=.>.>.b Q -.2.2.-.P Q >.M k L 8.W.!.P.P.P.I._.W.W.E.-.@.>.m =.h h v.a =.=.=.=.=.=.=.=.=.=.=.=.=.=.=.=.=.=.=.=.=.=.=.=.=.=.=.=.=.=.=.=.=.=.m m =.=.=.=.=.=.m =.=.=.=.=.=.=.=.=.=.=.=.=.=.=.=.=.=.=.=.=.=.=.=.=.=.=.=.=.=.=.=.=.=.=.=.=.=.=.=.=.=.=.=.=.=.=.=.=.=.=.=.=.=.=.=.=.=.=.Q Q =.=.=.=.=.=.=.=.=.=.=.=.=.=.=.=.=.=.=.=.=.=.=.$.=.=.m b N b Q L 8.^.!.P.P.'.H.4.~ Q ;.=.L ! 9.}.P.I.I.I.I.I.P.}.9.! Q =.a >.b >.8.-.=.=.=.=.=.=.=.=.=.Q =.=.=.=.=.=.=.=.=.=.=.=.=.=.=.=.=.=.=.=.=.=.=.=.=.=.=.=.=.=.=.=.=.=.=.=.=.=.=.=.=.=.=.=.=.=.=.=.=.=.Q Q =.=.=.=.=.=.=.=.=.=.=.=.=.=.=.=.=.=.=.=.=.=.=.=.=.=.=.=.=.=.=.=.=.=.=.=.=.=.=.=.=.=.=.=.=.=.=.=.=.=.=.=.=.=.=.=.=.=.=.=.=.=.=.=.=.=.=.=.Q =.=.=.=.=.=.x <.=.a Q 4.4.P -.>.=.b =.Q 2.^.W._._.I.P.).P.F.G Q k =.@.7.^.#.b N n m $.$.=.b =.=.=.=.=.=.=.=.=.=.=.=.=.=.=.=.=.=.=.=.=.=.=.=.=.=.=.=.=.=.=.=.=.=.=.=.=.=.=.=.=.=.Q =.Q =.=.=.=.=.=.=.=.=.=.=.Q =.=.=.=.=.=.=.",
"=.=.=.=.=.=.=.=.=.=.=.=.=.=.=.=.=.=.=.=.=.=.=.=.=.=.=.=.=.=.=.=.m m =.=.=.=.=.=.m m =.=.=.=.m m =.=.=.=.=.=.=.=.m m =.=.=.=.=.=.>.@.=.>.=.=.-.4.V.9.2.P L =.b b L 8.^.!._.P.P.I._.W.W.E.-.@.>.m =.Q Q m.L =.Q -.=.=.=.=.=.=.=.=.=.m m =.=.=.m m =.=.=.=.=.=.m m =.=.=.=.=.=.m m =.=.=.=.=.=.=.=.=.=.=.=.=.=.=.=.=.=.=.=.=.=.=.=.=.=.=.=.=.=.=.=.=.=.=.=.=.=.=.=.=.=.=.=.=.=.=.=.=.=.=.=.=.=.=.=.=.=.=.=.=.=.=.=.=.=.=.=.=.=.=.=.=.=.=.=.=.=.=.=.=.=.=.=.=.=.=.=.=.=.=.=.=.=.>.m <.b b h L 8.^.W.P.P.'.!.n.-.Q ;.=.L ! M.!.P.I.I.I.I.I.P.}.9.Q Q =.a >.h >.B.-.-.=.=.=.=.=.=.=.=.=.=.=.=.=.=.=.=.=.=.=.=.=.=.=.=.=.=.=.=.=.=.=.=.=.=.=.=.=.=.=.=.=.=.=.=.=.=.=.=.=.=.=.=.=.=.=.=.=.=.=.=.=.=.=.=.=.=.=.=.=.=.=.=.=.=.=.=.=.=.=.=.=.=.=.=.=.=.=.=.=.=.=.=.=.=.=.=.m =.=.=.=.=.=.m =.=.=.=.=.=.m =.=.=.=.=.=.=.=.=.=.=.=.=.=.=.=.=.=.=.=.=.=.=.=.=.=.,.>.L :.V.E.8.-.>.Q h =.L :.^.W._._.I.P.).U.F.! =.k ;.P 7.}.#.=.N N =.$.$.=.b =.=.=.=.=.=.=.=.=.=.=.=.=.=.=.=.=.=.=.=.=.=.=.=.=.=.=.=.=.=.=.=.=.=.=.=.=.=.=.=.=.=.=.=.=.=.=.=.=.=.=.=.=.=.=.=.=.=.=.=.=.=.=.=.",
"=.=.=.=.=.=.=.=.=.=.=.=.=.=.=.=.=.=.=.=.=.=.=.=.=.=.=.=.=.=.=.=.m m =.=.=.=.=.=.m =.=.=.=.=.m m =.=.=.=.=.=.=.=.=.m =.=.m =.=.=.>.@.@.>.-.Q :.V.^.^.l.2.P Q b =.L 8.^.!._.P.P.I._.W.W.E.-.@.>.>.=.Q Q B.Q -.L =.=.=.=.=.=.=.=.=.m m =.=.=.=.=.m =.=.=.=.=.=.m m =.=.=.=.=.=.m m =.=.=.=.=.=.=.=.=.=.=.=.=.=.=.=.=.=.=.=.=.=.=.=.=.=.=.=.=.=.=.=.=.=.=.=.=.=.=.=.=.=.=.=.=.=.=.=.=.=.=.=.=.=.=.=.=.=.=.=.=.=.=.=.=.=.=.=.=.=.=.=.=.=.=.=.=.=.=.=.=.=.=.=.=.=.=.=.=.=.=.=.=.=.>.m b N b Q L 9.!.}.I.I._.}.F.-.L =.=.a ! M.!.U.I.I.I.I.I.P.}.9.Q Q =.h >.a >.B.,.L =.=.=.=.=.=.=.=.=.=.=.=.=.=.=.=.=.=.=.=.=.=.=.=.=.=.=.=.=.=.=.=.=.=.=.=.=.=.=.=.=.=.=.=.=.=.=.=.=.=.=.=.=.=.=.=.=.=.=.=.=.=.=.=.=.=.=.=.=.=.=.=.=.=.=.=.=.=.=.=.=.=.=.=.=.=.=.=.=.=.=.=.=.=.=.=.m m =.=.=.=.=.m =.=.=.=.=.=.m m =.=.=.=.=.=.=.=.=.=.=.=.=.=.=.=.=.=.=.=.=.=.=.=.=.=.L P 8.Q.(.E.-.>.Q Q -.L :.^.W._._.I.P.).U.F.! =.h ;.J 7.OX2.=.N b =.$.$.=.b =.=.=.=.=.=.=.=.=.=.=.=.=.=.=.=.=.=.=.=.=.=.=.=.=.=.=.=.=.=.=.=.=.=.=.=.=.=.=.=.=.=.=.=.=.=.=.=.=.=.=.=.=.=.=.=.=.=.=.=.=.=.=.=.",
"=.=.=.=.=.=.=.=.=.=.=.=.=.=.=.=.=.=.=.=.=.=.=.=.=.=.=.=.=.=.=.=.m =.=.=.=.m m =.m m =.=.=.=.m =.=.=.m m =.=.=.=.=.=.=.=.m m =.=.,.@.@.>.-.Q 8.Q.W.}.^.7.-.L b =.L 8.^.!._.P.P.I._._.W.E.-.L >.=.=.Q Q V.Q Q a =.=.=.=.=.=.=.=.=.=.m =.=.=.=.m m =.m m =.=.=.=.m =.m m =.=.=.=.m =.=.=.=.m m =.=.=.=.=.=.=.=.=.=.=.=.=.=.=.=.=.=.=.=.=.=.=.=.=.=.=.=.=.=.=.=.=.=.=.=.=.=.=.=.=.=.=.=.=.=.=.=.=.=.=.=.=.=.=.=.=.=.=.=.=.=.=.=.=.=.=.=.=.=.=.=.=.=.=.=.=.=.=.=.=.=.=.=.=.=.=.>.>.m b v b Q Q 9.^._.).I._.}.H.:.L Q =.a ! M.!.U.P.I.I.I.P.P.!.9.Q Q =.h >.a -.V.:.P =.=.=.=.=.=.=.=.=.=.=.=.=.=.=.=.=.=.=.=.=.=.=.=.=.=.=.=.=.=.=.=.=.=.=.=.=.=.=.=.=.=.=.=.=.=.=.=.=.=.=.=.=.=.=.=.=.=.=.=.=.=.=.=.=.=.=.=.=.=.=.=.=.=.=.=.=.=.=.=.=.=.=.=.=.=.=.=.=.=.=.=.=.=.=.=.m m =.=.=.=.m m =.m m =.=.=.=.m =.=.=.=.=.=.=.=.=.=.=.=.=.=.=.=.=.=.=.=.=.=.=.=.=.a J -.V.^.^.E.-.>.=.Q Q L -.Q.W._._.I.P.).U.F.! =.g ;.G 7.uX2.Q k b =.-.$.=.b =.=.=.=.=.=.=.=.=.=.=.=.=.=.=.=.=.=.=.=.=.=.=.=.=.=.=.=.=.=.=.=.=.=.=.=.=.=.=.=.=.=.=.=.=.=.=.=.=.=.=.=.=.=.=.=.=.=.=.=.=.=.=.=.",
"=.=.=.=.=.=.=.=.=.=.=.=.=.=.=.=.=.=.=.=.=.=.=.=.=.=.=.=.=.=.=.=.=.=.=.=.m m =.=.=.=.=.=.=.=.=.=.=.=.m m m m =.=.=.=.=.=.m m =.=.,.@.@.=.-.-.9.}.E.}.}.a.-.L b =.G 8.^.!._.P.P.P._._.W.E.-.L >.>.=.Q Q V.Q Q a >.-.=.=.=.=.=.=.=.=.=.=.=.=.=.=.=.=.m m m =.=.=.=.=.=.m m =.=.=.=.=.=.=.=.m m m =.=.=.=.=.=.=.=.=.=.=.=.=.=.=.=.=.=.=.=.=.=.=.=.=.=.=.=.=.=.=.=.=.=.=.=.=.=.=.=.=.=.=.=.=.=.=.=.=.=.=.=.=.=.=.=.=.=.=.=.=.=.=.=.=.=.=.=.=.=.=.=.=.=.=.=.=.=.=.=.=.=.=.=.=.=.>.>.m b v b Q L 4.E.G.).h.P.}.W.4.Q -.=.a ! M.!.J.P.P.I.).P._.!.9.Q Q ~ h =.a -.V.:.P =.=.=.=.=.=.=.=.=.=.=.=.=.=.=.=.=.=.=.=.=.=.=.=.=.=.=.=.=.=.=.=.=.=.=.=.=.=.=.=.=.=.=.=.=.=.=.=.=.=.=.=.=.=.=.=.=.=.=.=.=.=.=.=.=.=.=.=.=.=.=.=.=.=.=.=.=.=.=.=.=.=.=.=.=.=.=.=.=.=.=.=.=.=.=.=.=.=.=.=.=.=.m =.m m m =.=.=.=.m =.=.=.=.=.=.=.=.=.=.=.=.=.=.=.=.=.=.=.=.m =.=.=.=.a G 7.^.}.!.E.! >.=.=.Q L -.^.W._._.I.P.).U.F.! =.t ;.D 7.gX7.Q k k =.#.-.=.b =.=.=.=.=.=.=.=.=.=.=.=.=.=.=.=.=.=.=.=.=.=.=.=.=.=.=.=.=.=.=.=.=.=.=.=.=.=.=.=.=.=.=.=.=.=.=.=.=.=.=.=.=.=.=.=.=.=.=.=.=.=.=.=.",
"=.=.=.=.=.=.=.=.=.=.=.=.=.=.=.=.=.=.=.=.=.=.=.=.=.=.=.=.=.=.=.=.=.=.m m =.=.=.=.=.=.m m m =.=.=.=.=.=.=.=.=.=.=.=.m m m =.=.=.=.>.>.>.-.L ! 7.!._._.}.E.2.P >.=.G 7.W.!.P.P.P.P._.W.W.9.P @.<.=.=.a -.Z.L -.=.L -.-.=.=.m m =.=.=.=.m m m m =.=.=.=.=.=.m m =.=.m m =.=.=.=.m m m m =.=.=.=.=.m =.=.=.=.=.=.=.=.=.=.=.=.=.=.=.=.=.=.=.=.=.=.=.=.=.=.=.=.=.=.=.=.=.=.=.=.=.=.=.=.=.=.=.=.=.=.=.=.=.=.=.=.=.=.=.=.=.=.=.=.=.=.=.=.=.=.=.=.=.=.=.=.=.=.=.=.=.=.=.=.=.=.=.=.=.>.>.m b N b h L 4.^._.I.I.P._.!.8.L Q =.a Q 9.!.J.P.P.I.P.P.W.!.9.Q Q =.a Q Q Q .X! -.=.=.=.=.=.=.=.=.=.=.=.=.=.=.=.=.=.=.=.=.=.=.=.=.=.=.=.=.=.=.=.=.=.=.=.=.=.=.=.=.=.=.=.=.=.=.=.=.=.=.=.=.=.=.=.=.=.=.=.=.=.=.=.=.=.=.=.=.=.=.=.=.=.=.=.=.=.=.=.=.=.=.=.=.=.=.=.=.=.=.=.=.=.=.=.=.=.=.m m m =.=.=.=.=.=.=.m m =.=.=.=.=.=.=.=.=.=.=.=.=.=.=.=.=.=.=.=.=.=.=.b b =.=.a P 9.^.W.W.W.8.@.=.=.Q Q -.^.^.s._._.P._.U.9.P =.h Q G a.yX}.L h k =.-.-.>.b =.=.=.=.=.=.=.=.=.=.=.=.=.=.=.=.=.=.=.=.=.=.=.=.=.=.=.=.=.=.=.=.=.=.=.=.=.=.=.=.=.=.=.=.=.=.=.=.=.=.=.=.=.=.=.=.=.=.=.=.=.=.=.=.",
"=.=.=.=.=.=.=.=.=.=.=.=.=.=.=.=.=.=.=.=.=.=.=.=.=.=.=.=.=.=.=.=.=.=.=.m =.=.=.=.=.=.=.=.m m =.=.m m =.=.=.=.m m =.m m m =.=.=.=.>.>.>.-.L ! 7.!._._.}.W.2.P >.=.G 9.W.!._.P.P.P.P.W.W.9.P @.>.=.-.J -./.P -.-.L -.=.=.=.=.=.=.=.=.=.m m =.=.=.=.=.=.=.=.m =.=.=.m =.=.=.=.m m m m m =.=.=.=.m m =.=.=.=.=.=.=.=.=.=.=.=.=.=.=.=.=.=.=.=.=.=.=.=.=.=.=.=.=.=.=.=.=.=.=.=.=.=.=.=.=.=.=.=.=.=.=.=.=.=.=.=.=.=.=.=.=.=.=.=.=.=.=.=.=.=.=.=.=.=.=.=.=.=.=.=.=.=.=.=.=.=.=.=.=.>.>.m b N b Q L 4.^._.I.I.h.).!.8.L Q -.a Q 9.!.J.P.P.I._._.W.!.9.Q Q =.a -.Q Q .X-.! -.=.=.=.=.=.=.=.=.=.=.=.=.=.=.=.=.=.=.=.=.=.=.=.=.=.=.=.=.=.=.=.=.=.=.=.=.=.=.=.=.=.=.=.=.=.=.=.=.=.=.=.=.=.=.=.=.=.=.=.=.=.=.=.=.=.=.=.=.=.=.=.=.=.=.=.=.=.=.=.=.=.=.=.=.=.=.=.=.=.=.=.=.=.=.=.=.=.m m =.=.=.=.=.=.=.=.m m m =.=.=.=.=.=.=.=.=.=.=.=.=.=.=.=.=.=.=.=.=.=.b b =.=.L P 9.!._.P.W.8.@.=.=.Q Q -.^.^.s._._.P._.U.9.Q b h Q K a.uX}.G h k -.-.-.=.b =.=.=.=.=.=.=.=.=.=.=.=.=.=.=.=.=.=.=.=.=.=.=.=.=.=.=.=.=.=.=.=.=.=.=.=.=.=.=.=.=.=.=.=.=.=.=.=.=.=.=.=.=.=.=.=.=.=.=.=.=.=.=.=.",
"=.=.=.=.=.=.=.=.=.=.=.=.=.=.=.=.=.=.=.=.=.=.=.=.=.=.=.=.=.=.=.=.=.=.m m =.=.=.=.=.=.=.=.=.=.=.=.m m =.=.=.=.=.m =.=.=.=.=.=.m m >.>.>.=.Q W 3.!._.P.}.E.2.P =.=.P 9.^.!._.P.P.P.I.W.W.9.P @.<.=.-.J :./.Q -.-.L -.-.=.=.=.=.=.=.=.=.=.=.=.=.=.=.=.=.=.=.m m =.=.m m =.=.=.=.=.=.m =.=.=.=.=.m m =.=.=.=.=.=.=.=.=.=.=.=.=.=.=.=.=.=.=.=.=.=.=.=.=.=.=.=.=.=.=.=.=.=.=.=.=.=.=.=.=.=.=.=.=.=.=.=.=.=.=.=.=.=.=.=.=.=.=.=.=.=.=.=.=.=.=.=.=.=.=.=.=.=.=.=.=.=.=.=.=.=.=.=.=.=.>.m b v b Q L 4.^._.I.I.h._.!.8.L Q =.a ! 9.!.P.P.P.I._._.W.^.9.Q Q =.a -.Q Q .X! ! -.=.=.=.=.=.=.=.=.=.=.=.=.=.=.=.=.=.=.=.=.=.=.=.=.=.=.=.=.=.=.=.=.=.=.=.=.=.=.=.=.=.=.=.=.=.=.=.=.=.=.=.=.=.=.=.=.=.=.=.=.=.=.=.=.=.=.=.=.=.=.=.=.=.=.=.=.=.=.=.=.=.=.=.=.=.=.=.=.=.=.=.=.=.=.=.=.=.=.=.=.=.=.=.=.m =.=.m =.=.=.=.=.=.=.=.=.=.=.=.=.=.=.=.=.=.=.=.=.=.=.=.b b =.-.L ! a.}._.P._.9.=.=.=.Q Q -.^._.P._.`.P._.P.9.Q =.k =.P s.uX|.E k Q =.#.-.m b =.=.=.=.=.=.=.=.=.=.=.=.=.=.=.=.=.=.=.=.=.=.=.=.=.=.=.=.=.=.=.=.=.=.=.=.=.=.=.=.=.=.=.=.=.=.=.=.=.=.=.=.=.=.=.=.=.=.=.=.=.=.=.=.",
"=.=.=.=.=.=.=.=.=.=.=.=.=.=.=.=.=.=.=.=.=.=.=.=.=.=.=.=.=.=.=.=.=.=.=.=.=.=.m m =.=.=.=.=.=.=.=.m m m =.=.=.=.m =.=.=.=.=.=.=.=.>.>.>.=.Q W 3.J.P.P.).E.2.P =.=.P 9.^.!._.P.P.P._.W.W.9.P @.<.=.-.P :./.-.-.@.L -.-.=.=.=.=.=.=.=.=.=.=.=.=.=.=.=.=.=.=.m m =.=.=.=.=.=.=.=.=.=.=.=.=.=.=.=.=.=.=.=.=.=.=.=.=.=.=.=.=.=.=.=.=.=.=.=.=.=.=.=.=.=.=.=.=.=.=.=.=.=.=.=.=.=.=.=.=.=.=.=.=.=.=.=.=.=.=.=.=.=.=.=.=.=.=.=.=.=.=.=.=.=.=.=.=.=.=.=.=.=.=.=.=.=.=.=.=.=.=.=.=.=.$.=.>.m b v b h L 4.^._.I.I.I._.!.8.L Q Q a ! 9.!.P.P.I.I._._.W.^.8.P Q =.h =.L ! +X2.! -.=.=.=.=.=.=.=.=.=.=.=.=.=.=.=.=.=.=.=.=.=.=.=.=.=.=.=.=.=.=.=.=.=.=.=.=.=.=.=.=.=.=.=.=.=.=.=.=.=.=.=.=.=.=.=.=.=.=.=.=.=.=.=.=.=.=.=.=.=.=.=.=.=.=.=.=.=.=.=.=.=.=.=.=.=.=.=.=.=.=.=.=.=.=.=.=.=.=.=.=.=.=.=.m m =.=.=.=.=.=.=.=.=.=.=.=.=.=.=.=.=.=.=.=.=.=.=.=.=.=.=.b b =.=.L ! F._._.I._.9.=.=.Q Q ~ -.^._.h._.`.P._.U.9.Q =.k Q H G.gXOXE Q Q Q #.$.m b =.=.=.=.=.=.=.=.=.=.=.=.=.=.=.=.=.=.=.=.=.=.=.=.=.=.=.=.=.=.=.=.=.=.=.=.=.=.=.=.=.=.=.=.=.=.=.=.=.=.=.=.=.=.=.=.=.=.=.=.=.=.=.=.",
"=.=.=.=.=.=.=.=.=.=.=.=.=.=.=.=.=.=.=.=.=.=.=.=.=.=.=.=.=.=.=.=.=.=.=.=.=.=.=.m m m =.=.=.m m m =.=.=.=.=.=.=.=.=.=.=.=.=.=.m =.m m m =.Q W 5.J.P.P.).G.2.P >.=.P 7.^.!._.P.P.P._.W.W.9.P @.<.=.-.P 8. X-.-.@.-.-.-.=.=.=.=.=.=.m m =.=.=.=.m m m m =.=.=.=.=.=.=.=.=.=.=.=.=.=.=.=.=.=.=.=.=.=.>.>.=.=.=.=.=.=.=.=.>.>.=.=.=.=.=.=.=.=.=.=.=.=.=.=.=.=.=.=.=.=.=.=.=.=.=.=.=.=.=.=.=.=.=.=.=.=.=.=.=.=.>.>.>.>.=.=.=.=.=.=.=.=.=.=.=.=.=.=.=.=.=.=.=.=.=.=.=.=.=.=.=.=.=.=.=.m b v b k L 4.W._.I.I.I._.!.8.L Q Q L W 9.W.P.I.I.I._.W.W.^.9.P Q -.h =.L -.+X4.P =.>.>.=.=.=.=.=.=.=.=.=.>.>.>.>.=.=.=.=.=.=.=.=.=.=.=.=.=.=.=.=.=.=.=.=.=.=.=.=.=.=.=.=.=.=.=.=.=.=.=.=.>.>.>.>.=.=.=.=.=.=.=.=.=.=.=.=.=.=.=.=.=.=.=.=.=.=.=.=.=.=.=.=.=.=.=.=.=.=.=.=.=.=.=.=.m m =.=.=.=.m m m =.=.=.=.=.=.=.=.=.=.=.=.=.=.=.=.=.=.=.=.=.=.=.-.=.=.=.=.b b =.=.P 2.F.}._.j._.V.=.-.=.Q =.-.^._.P._.).P.P.P.5.-.=.k Q H G.gXOXW E Q Q #.#.m b =.=.=.=.=.=.=.=.=.=.=.=.=.=.=.=.>.>.>.=.=.=.=.=.=.=.=.=.>.>.>.>.=.=.=.=.>.>.>.>.=.=.=.=.=.=.=.=.>.>.>.=.=.=.=.=.=.=.=.=.>.>.>.>.",
"=.=.=.=.=.=.=.=.=.=.=.=.=.=.=.=.=.=.=.=.=.=.=.=.=.=.=.=.=.=.=.=.=.=.m =.=.=.m m m m =.=.=.=.m m =.=.=.=.=.=.=.=.=.=.=.=.=.=.m m m m m =.Q W 5.J.P.P.).G.2.P >.=.P 7.^.!._.P.P.P._.W.W.9.P @.<.=.#.P 8..X-.-.P -.-.-.=.=.=.=.=.=.m m =.=.=.=.m m m m =.=.=.=.=.=.=.=.=.=.=.=.=.=.=.=.=.=.=.=.=.=.>.>.=.=.=.=.=.=.=.=.>.>.=.=.=.=.=.=.=.=.=.=.=.=.=.=.=.=.=.=.=.=.=.=.=.=.=.=.=.=.=.=.=.=.=.=.=.=.=.=.>.=.>.>.>.>.=.=.=.>.=.=.=.=.=.=.=.=.=.=.=.=.=.=.=.=.=.=.=.=.=.=.=.=.=.=.=.m b v b k L 4.W._.I.I.P._.^.8.L Q Q L W 9.!.P.I.I.I._.W.W.^.9.P Q Q h =.L -.+X8.P =.>.>.>.=.=.=.=.=.=.>.=.>.>.>.>.=.=.=.=.=.=.=.=.=.=.=.=.=.=.=.=.=.=.=.=.=.=.=.=.=.=.=.=.=.=.=.=.=.=.>.=.>.>.>.>.=.=.=.>.=.=.=.=.=.=.=.=.=.=.=.=.=.=.=.=.=.=.=.=.=.=.=.=.=.=.=.=.=.=.=.=.=.=.=.=.m m =.=.=.=.=.m m =.=.=.=.=.=.=.=.=.=.=.=.=.=.=.=.=.=.=.=.=.=.=.-.=.=.=.=.b b =.=.P 2.F.}.I.j._.E.=.-.h Q =.-.^._.P._.).P.P.P.5.-.>.k Q H G.gXrXW Q Q Q #.$.m b =.=.=.=.=.=.=.=.=.=.=.=.=.=.=.=.>.>.>.>.=.=.=.=.=.=.>.=.>.>.>.>.=.=.>.=.>.>.>.>.=.=.=.>.=.=.=.=.>.>.>.>.=.=.=.=.=.=.>.=.>.=.>.>.",
"=.=.=.=.=.=.=.=.=.=.=.=.=.=.=.=.=.=.=.=.=.=.=.=.=.=.=.=.=.=.=.=.=.=.m m =.=.=.=.m =.=.=.=.=.=.=.=.=.m m =.=.=.=.m m =.=.=.=.=.m m m m b Q Q 5.J.P.P.).G.2.P >.=.P 7.^.}._.P.P.P.I._.W.9.Q @.<.=.@.P 9..X-.-.@.-.-.-.=.=.=.=.=.=.=.=.=.=.=.=.=.=.=.=.=.=.=.=.=.=.m =.=.=.=.=.m m =.=.=.=.m m =.=.>.>.>.>.=.=.=.=.>.>.=.>.=.=.=.=.=.=.=.=.=.=.=.=.=.=.=.=.=.=.=.=.=.=.=.=.=.=.=.=.=.=.=.=.=.=.=.=.>.>.>.>.>.>.=.=.=.=.>.>.>.>.>.>.=.=.=.=.=.=.=.=.=.=.=.=.=.=.=.=.=.=.=.=.=.=.=.m b v b h L 4.W._.I.I.P._.^.4.L Q -.L W 9._.I.h.I.c.).W.W.^.9.P Q Q h -.L :.@X8.G =.>.>.=.=.=.>.>.>.>.>.>.>.>.=.=.=.=.=.=.=.=.=.=.=.=.=.=.=.=.=.=.=.=.=.=.=.=.=.=.=.=.=.=.=.=.=.=.>.>.>.>.>.>.=.=.=.=.>.>.>.>.>.>.=.=.=.=.=.=.=.=.=.=.=.=.=.=.=.=.=.=.=.=.=.=.=.=.=.=.=.=.=.=.=.=.=.m =.=.=.=.m m =.=.=.=.m =.=.=.=.=.=.=.=.=.=.=.=.=.=.=.=.=.=.=.-.=.=.=.=.b b b =.Q 3.G._.I.g.I.E.=.=.h Q =.-.^._.P._.).P.P.P.5.-.=.k Q H G.gXrX! E Q Q P $.m b >.=.=.=.=.=.=.=.=.=.=.=.=.=.=.=.>.>.>.=.=.=.>.>.>.>.>.>.>.>.=.=.>.>.>.>.>.>.=.=.=.=.>.>.>.>.>.>.>.>.>.=.=.=.>.>.>.>.>.>.=.=.=.=.",
"=.=.=.=.=.=.=.=.=.=.=.=.=.=.=.=.=.=.=.=.=.=.=.=.=.=.=.=.=.=.=.=.=.=.m m =.=.=.=.=.=.=.=.=.=.=.=.=.=.=.=.=.=.=.=.=.m m m =.=.=.m m m b =.E Q 5.J.P.P.'.G.2.L >.b P 7.W.}._.P.I.I.I.G.!.9.Q Q <.=.P P 9..X-.-.@.-.-.=.=.=.=.=.=.=.=.=.=.=.=.=.=.=.=.=.=.=.>.=.>.=.m =.=.=.=.=.m m m =.=.=.=.m m m >.>.>.>.>.=.=.>.>.=.>.=.=.=.=.=.=.=.=.=.=.=.=.=.=.=.=.=.=.=.=.=.=.=.=.=.=.=.=.=.=.=.=.=.=.=.=.=.>.>.>.>.>.>.>.=.=.=.>.>.>.>.>.>.=.=.=.=.=.=.=.=.=.=.=.=.=.=.=.=.=.=.=.=.=.=.=.m b v b h L 4.W._.I.I.P._.!.4.L Q -.L P 9._.I.h.I.c.)._.W.^.9.P Q Q Q -.L :.@X9.G =.>.>.=.=.=.>.>.>.>.>.>.=.=.=.=.=.=.=.=.=.=.=.=.=.=.=.=.=.=.=.=.=.=.=.=.=.=.=.=.=.=.=.=.=.=.=.=.>.>.>.>.>.>.>.=.=.=.>.>.>.>.>.>.=.=.=.=.=.=.=.=.=.=.=.=.=.=.=.=.=.=.=.=.=.=.=.=.=.=.=.=.=.=.=.=.=.=.=.=.=.=.=.=.=.=.=.=.m m m =.=.=.=.=.=.=.=.=.=.=.=.=.=.=.=.=.=.=.=.=.b b b =.=.Q 3.G.).I.g.P.E.=.=.h Q -.:.^._.P._.).P.P.P.3.Q =.h Q H P.hXrX! E Q Q #.@.m b >.=.=.=.=.=.=.=.=.=.=.=.=.=.=.=.>.>.>.=.=.=.>.>.>.>.>.>.>.=.=.=.>.>.>.>.>.>.>.=.=.=.>.>.>.>.>.>.>.>.>.=.=.=.>.>.>.>.>.>.=.=.=.=.",
"=.=.=.=.=.=.=.=.=.=.=.=.=.=.=.=.=.=.=.=.=.=.=.=.=.=.=.=.=.=.=.=.=.=.=.=.=.=.=.=.=.=.=.=.=.=.=.=.=.=.>.>.>.>.>.>.>.>.>.>.m m >.=.m >.b =.y G F.G.J.P.}.F.! Q =.h G F.W.G.P.P.I.I.P.D.!.9.G >.b >.Q P V.+X-.Q -.=.=.=.=.=.=.=.=.=.=.=.>.>.>.>.>.>.>.=.>.>.>.>.>.=.=.=.=.=.=.=.=.=.=.=.=.=.=.=.>.>.>.>.=.=.=.=.=.=.=.=.=.=.=.=.=.=.b =.=.=.=.>.=.=.@.-.=.=.=.=.=.=.=.=.=.=.=.=.=.=.=.=.=.=.=.=.>.>.=.=.=.=.=.=.=.=.=.=.=.=.=.=.=.=.=.=.=.=.=.=.=.=.=.=.=.=.=.=.=.=.=.=.=.=.=.=.=.=.>.v b Q G 7.!._.I.I.P.J.!.n.Q Q Q Q G a._.P.).j.I._._.W.^.9.P =.Q Q Q Q W +XF.D -.=.=.=.=.=.=.=.=.=.=.=.=.=.=.=.=.=.=.=.=.=.=.=.=.=.=.=.=.=.=.=.=.=.>.>.>.=.>.b =.b m m m m b m =.=.=.=.=.=.=.=.=.=.=.=.=.=.=.=.=.=.=.=.=.=.=.=.=.=.=.=.=.=.=.=.=.=.>.>.>.=.=.=.>.>.>.>.>.>.=.=.=.=.=.=.=.=.=.=.=.=.=.=.=.=.=.=.=.=.=.=.=.=.=.=.>.>.=.=.>.>.$.=.=.=.=.=.b m =.=.=.L 8.!.P.I.I.P.V.=.=.h Q ^ ) !.}._.)._.P.}.}.8.@.=.;.E Z 3XdXgX` E Q ,.#.$.>.m >.>.m m =.=.=.>.>.>.>.m m m =.=.=.=.>.>.>.>.m m >.>.>.m m m =.=.>.>.>.>.>.>.>.>.>.>.>.>.>.>.>.>.=.=.=.=.=.=.=.=.=.=.=.=.=.=.=.=.",
"=.=.=.=.=.=.=.=.=.=.=.=.=.=.=.=.=.=.=.=.=.=.=.=.=.=.=.=.=.=.=.=.=.=.=.=.=.=.=.=.=.=.=.=.=.=.=.=.=.>.>.>.>.>.>.>.>.>.>.>.m m >.=.b >.b =.y G H.G.J.J.}.F.! E ;.h G F.W.G.P.P.I.I.P.D.!.9.G >.b =.Q H M.+X-.Q =.=.=.=.=.=.=.=.=.=.=.>.>.>.>.>.>.>.>.>.>.>.>.>.>.=.=.=.=.=.=.=.=.=.=.=.=.=.=.=.>.>.>.>.=.=.=.=.=.=.=.=.=.=.=.=.=.=.h Q Q =.=.-.@.@.@.@.=.=.=.=.=.=.=.=.=.=.=.=.=.=.=.=.=.=.=.=.>.>.=.=.=.=.=.=.=.=.=.=.=.=.=.=.=.=.=.=.=.=.=.=.=.=.=.=.=.=.=.=.=.=.=.=.=.=.=.=.>.>.>.v =.Q G 7.!._.I.I.P.J.!.n.Q Q Q Q G a.}.P.{.I.I.I._.W.^.9.P =.Q Q Q Q ! @XH.D -.=.=.=.=.=.=.=.=.=.=.=.=.=.=.=.=.b =.=.=.=.=.=.=.=.=.=.=.=.=.=.=.=.=.=.=.=.=.b b b b b b b m b =.=.=.=.=.=.=.=.=.=.=.=.=.=.=.=.=.=.=.=.=.=.=.=.=.=.=.=.=.=.=.=.=.=.>.>.>.>.=.=.=.=.>.>.=.>.=.=.=.=.=.=.=.=.=.=.=.=.=.=.=.=.=.=.=.=.=.=.=.=.=.=.>.>.>.>.>.$.$.$.=.Q =.=.m m >.=.=.L 8.!._.P.L.P.m.h =.h Q ^ ) !.)._.)._.P.}._.2.@.=.=.E S 3XdXgX_ E Q ,.#.$.>.m m =.m m =.=.>.>.>.=.>.>.m m =.=.=.=.>.>.>.>.=.=.>.=.>.m m m =.=.>.>.>.>.>.>.>.>.>.>.>.>.>.>.>.>.=.=.=.=.=.=.=.=.=.=.=.=.=.=.=.=.",
"=.=.=.=.=.=.=.=.=.=.=.=.=.=.=.=.=.=.=.=.=.=.=.=.=.=.=.=.=.=.=.=.=.=.=.=.=.=.=.=.m m =.=.=.=.=.=.=.=.=.>.=.=.=.=.=.=.=.=.m m m m b >.b =.y G H.G.J.J.}.F.! E =.h G F.!.G.P.P.I.I.P.D.!.9.G >.b =.Q P V.+X-.Q =.=.=.=.=.=.=.=.=.=.=.=.=.=.=.=.>.=.=.=.=.=.>.=.=.=.=.=.=.=.=.=.=.=.=.=.=.=.=.>.>.>.=.=.=.=.=.=.=.=.=.=.=.=.=.=.=.=.h h Q Q =.=.L L @.@.@.=.=.=.=.=.=.=.=.=.=.=.=.=.=.=.=.=.=.>.>.>.=.=.=.=.=.=.=.=.=.=.=.=.=.=.=.=.=.=.=.=.=.=.=.=.=.=.=.=.=.=.=.=.=.=.=.=.>.>.>.>.>.b =.Q G 7.!._.I.I.P.J.!.n.Q L Q Q G F.}.P.{.I.I.I._.W.^.8.P =.Q Q Q Q ! @XH.G -.=.=.=.=.=.=.=.=.=.=.=.=.=.=.=.=.b b b m m =.=.=.=.=.=.=.=.=.=.=.=.=.=.=.=.=.=.b b m m b b b m =.=.=.=.=.=.=.=.=.=.=.=.=.=.=.=.=.=.=.=.=.=.=.=.=.=.=.=.=.=.=.=.=.>.>.>.=.=.=.=.=.=.=.=.=.=.=.=.m =.=.=.=.=.=.=.m m =.=.=.=.=.=.=.=.=.=.=.=.=.=.>.>.>.>.>.>.>.=.=.Q =.=.m m =.=.=.L 8.!._.P.P.P.m.h =.h Q ! ! !.)._.`._.P.}.W.2.@.b ;.E S 3XdXgX' Q Q >.$.$.>.m m =.=.m =.=.=.=.=.=.=.=.m m m =.=.=.>.>.m m =.=.=.=.=.=.m =.=.=.=.m =.=.m m =.=.>.>.=.=.>.>.>.>.=.=.=.=.=.=.=.=.=.m =.=.=.=.=.=.",
"=.=.=.=.=.=.=.=.=.=.=.=.=.=.=.=.=.=.=.=.=.=.=.=.=.=.=.=.=.=.=.=.=.=.=.=.=.=.=.=.=.=.=.=.=.=.=.=.=.=.=.>.=.=.=.=.=.=.=.=.m m m m m >.b =.L E H.G.J.J.}.F.! E =.h G F.W.G.P.P.I.I.P.p.!.9.G >.b =.G H E.+X-.Q -.=.=.=.=.=.=.=.=.=.=.=.=.=.=.=.=.=.=.=.=.=.=.=.=.=.=.=.=.=.=.=.=.=.=.=.=.=.=.=.>.>.=.=.=.=.=.=.=.=.=.=.=.=.=.=.=.=.h h Q -.-.-.-.-.@.@.@.@.@.=.=.=.=.=.=.=.=.=.=.=.=.=.=.=.=.=.>.>.=.=.=.=.=.=.=.=.=.=.=.=.=.=.=.=.=.=.=.=.=.=.=.=.=.=.=.=.=.=.=.=.=.=.=.=.$.>.>.>.>.v =.Q G 7.!._.I.I.P.J.!.n.Q Q Q Q G F.}.P.{.I.I.`._.W.^.8.P =.=.Q Q Q ! @XJ.H -.=.=.=.=.=.=.=.=.=.=.=.=.=.=.=.=.b b b m m =.=.=.=.=.=.=.=.=.=.-.=.=.=.=.=.=.=.m b m m m m b m =.=.=.=.=.=.=.=.=.=.=.=.=.=.=.=.=.=.=.=.=.=.=.=.=.=.=.=.=.=.=.=.=.>.>.>.=.=.=.=.>.>.=.=.=.>.=.=.m m =.=.=.=.=.=.=.=.=.=.=.=.=.=.=.=.=.=.=.=.=.=.>.>.>.>.>.>.>.=.=.Q =.=.m m =.=.=.L 8.^.W.P.P.P.8.h =.Q Q ! ! !._.I.`._._.}.W.2.@.b =.E S wXdXgX3.E Q >.$.$.>.m m =.=.=.>.=.=.=.=.=.=.=.m m =.=.=.=.m m m m m m =.=.=.=.m m =.=.=.=.m =.=.m m m =.=.=.=.=.=.=.=.=.=.=.=.=.=.=.=.=.=.=.=.=.=.=.=.",
"=.=.=.=.=.=.=.=.=.=.=.=.=.=.=.=.=.=.=.=.=.=.=.=.=.=.=.=.=.=.=.=.=.=.=.=.=.=.=.b =.=.=.=.=.=.=.=.=.=.=.=.=.=.=.=.=.=.b b b b b b >.>.a =.E W Q.J._._.}.F.W E ;.k G F.W.J.P.P.I.I.Y.G.}.9.G >.b =.G H Q.+X-.Q -.-.=.=.=.=.=.=.=.=.=.=.=.=.=.=.=.=.=.=.=.=.=.m =.=.=.=.=.=.=.=.=.=.=.=.=.=.>.>.>.>.>.=.>.=.=.=.=.=.=.=.=.=.=.=.=.=.h Q -.=.-.:.,.1.-.-.@.@.@.b m =.=.=.=.=.=.=.=.=.=.=.=.=.>.>.>.>.=.=.=.=.=.=.=.=.=.=.=.=.=.=.=.=.=.=.=.=.=.=.=.=.=.=.=.=.=.=.=.=.=.=.=.=.$.$.=.=.>.N =.Q G 7.!._.I.I.P.J.!.n.Q Q Q Q K F.}.P.{.I.I.I.P.W.^.8.Q =.=.Q Q Q ) yX!.H -.=.=.=.=.=.=.=.=.=.=.=.=.=.=.=.=.b b b b b =.=.b b =.=.=.=.=.=.=.=.=.=.-.=.=.=.=.=.=.=.=.m m m =.=.=.=.=.=.=.=.=.=.=.=.=.=.=.=.=.=.=.=.=.=.=.=.=.=.=.=.=.=.=.=.=.=.=.=.=.=.=.=.=.=.=.=.=.=.=.=.=.=.=.=.=.=.=.=.=.=.=.=.=.=.=.=.=.=.=.=.=.=.=.=.=.=.=.=.>.>.>.>.=.Q =.=.=.=.>.=.=.L 8.^.!.J.P.J.8.a =.Q Q Q ! !._.P.`.`._.}.W.2.@.v k E A wXdXdX9.E Q >.$.=.>.v =.=.=.=.=.=.=.=.=.=.=.=.=.=.=.=.=.=.=.=.=.=.=.=.=.=.=.=.=.=.=.=.=.=.=.=.=.=.=.=.=.=.=.=.=.=.=.=.=.=.=.=.=.=.=.b =.=.=.=.=.=.=.=.",
"=.=.=.=.=.=.=.=.=.=.=.=.=.=.=.=.=.b =.=.=.=.=.=.=.=.=.=.=.=.=.=.=.=.=.=.=.=.b b =.=.=.=.=.=.=.=.=.=.=.=.=.=.=.=.=.=.b b b b b b >.>.a =.E ! !.J._._.}.F.P E ;.h G F.W.G.P.P.I.I.Y.G.}.9.G >.b =.G H Q.@X:.Q -.-.=.=.=.=.=.=.=.=.=.=.=.=.=.=.=.=.=.=.=.=.=.m =.=.=.=.=.=.=.=.=.=.=.=.=.=.>.>.>.>.>.>.>.>.=.=.=.=.=.=.=.=.=.=.=.=.Q =.=.,.:.1.8.8.,.-.=.@.@.@.@.=.=.=.=.=.=.=.=.=.=.=.=.=.>.>.>.>.=.=.=.=.=.=.=.=.=.=.=.=.=.=.=.=.=.=.=.=.=.=.=.=.=.=.=.=.=.=.=.=.=.=.=.=.$.$.=.=.>.N =.Q G 7.!._.I.I.P.J.!.n.! Q -.Q K F.}.P.{.I.I.I._.W.^.8.Q =.=.Q Q Q 2.yX'.H -.=.=.=.=.=.=.=.=.=.=.=.=.=.=.=.=.b b b b b =.=.b b =.=.=.=.>.>.Q Q Q Q =.=.=.=.=.=.=.=.=.=.=.=.=.=.=.=.=.=.=.=.=.=.=.=.=.=.=.=.=.=.=.=.=.=.=.=.=.=.=.=.=.=.=.=.=.b =.=.=.=.=.=.=.=.=.=.=.=.=.=.=.=.=.=.=.=.b b =.=.=.=.=.=.=.=.=.=.=.=.=.=.=.=.=.=.=.>.>.m >.>.=.=.=.=.=.=.=.=.>.L 8.^.!.G.U.!.4.a =.Q Q Q ! !._.P.`.`._.}.W.2.x v k E A aXdXgXS.E h >.$.>.>.v =.=.=.=.=.=.=.=.=.=.=.=.=.=.=.=.=.=.=.=.=.=.=.=.=.=.=.=.=.=.=.=.=.=.=.=.=.=.=.=.b m b b b b b b =.=.=.=.=.=.b b =.=.=.=.=.=.=.=.",
"=.=.=.=.=.=.=.=.=.=.=.=.=.=.=.=.b b b b b b b b b b =.=.=.=.b b =.=.=.=.=.=.=.=.=.=.=.=.=.=.=.=.=.=.=.=.=.=.=.=.=.=.b b b b b b >.>.a =.Q ! !.J._._.}.F.P E ;.Q G F.W.G.P.P.I.I.Y.G.}.9.G >.b =.D H Q.@X! L -.-.=.=.=.=.=.-.=.=.=.=.=.=.=.=.=.=.=.=.=.=.=.=.=.=.=.=.=.=.=.=.=.=.=.=.=.=.>.>.=.>.>.>.=.>.=.=.=.=.=.=.=.=.=.=.=.=.=.=.,.,.1.8.8.8.6.:.-.-.@.@.=.=.=.=.=.=.=.=.=.=.=.=.=.=.>.>.=.>.=.=.=.=.=.=.=.=.=.=.=.=.=.=.=.=.=.=.=.=.=.=.=.=.=.=.=.=.=.=.=.=.=.=.=.=.=.=.=.=.>.N =.Q G 7.!._.I.I.P.J.!.m.! Q Q Q P F.}.P.{.I.I.I._.W.^.9.Q =.=.h L W 4.uX}.I -.=.=.=.=.=.=.=.=.=.=.=.=.=.=.=.=.b b b =.=.=.=.=.b =.-.=.=.>.>.-.Q Q Q -.-.-.-.=.=.=.=.=.=.=.=.=.=.=.=.=.=.=.=.=.=.=.=.=.=.=.=.=.=.=.=.=.=.=.=.=.=.=.=.=.=.=.=.b b b b b b b b b b =.=.=.=.=.=.=.=.=.=.=.=.=.=.=.=.=.=.=.=.=.=.=.=.=.=.=.b b b b b m m m m m b =.=.m =.=.=.=.=.>.L 8./.!.G.!.!.:.a =.Q E Q ! !._.h.`.)._.}.W.2.h k k E A dXdXtXS.E h >.=.=.>.v =.=.=.=.=.=.=.=.=.=.=.=.=.=.=.=.=.=.=.=.=.=.=.=.=.=.=.=.=.=.=.=.=.=.=.=.=.=.=.=.=.=.=.=.=.=.=.=.=.=.=.=.=.=.=.=.=.=.=.=.=.=.=.=.",
"=.=.=.=.=.=.=.=.=.=.=.=.=.=.=.=.b b b b b b b b b b =.=.=.=.b =.=.=.=.=.=.=.=.=.=.=.=.=.=.=.=.=.=.=.=.=.=.=.=.=.=.=.=.b b b b b >.=.a =.E ! ^.J._._._.p.P E ;.Q G F.W.J.P.P.I.I.Y.G.}.9.G >.b =.D H Q.@X^ G -.-.=.=.=.=.-.-.=.=.=.=.=.=.=.=.=.=.=.=.=.=.=.=.=.=.=.=.=.=.=.=.=.=.=.=.=.=.>.>.=.=.>.>.=.=.=.=.=.=.=.=.=.=.=.=.=.Q ,.,.:.:.:.:.:.:.8.6.-.-.@.@.@.=.=.=.=.=.=.=.=.=.=.=.=.=.>.>.=.=.=.=.=.=.=.=.=.=.=.=.=.=.=.=.=.=.=.=.=.=.=.=.=.=.=.=.=.=.=.=.=.=.=.=.=.=.=.$.=.=.>.v =.Q G 7.!._.I.I.P.W.!.m.! Q -.-.P F.}.P.{.I.I.I._.W.^.8.Q =.=.h E W 3.uX}.I -.=.=.=.=.=.=.=.=.=.=.=.=.=.=.=.=.b =.=.=.=.=.=.=.=.=.=.=.=.=.-.,.,.:.-.,.,.,.,.-.=.=.=.=.=.=.=.=.=.=.=.=.=.=.=.=.=.=.=.=.=.=.=.=.=.=.=.=.=.=.=.=.=.=.=.=.=.=.=.b b b b b b b b b b =.=.=.=.=.=.=.=.=.=.=.=.=.=.=.=.=.=.=.=.=.=.=.b =.=.=.b =.b b b m m b b b b =.=.b m =.=.=.=.>.L 8./.Q.E.!.Q.:.a =.Q E Q ! !._.P.`.)._.}.W.2.h h k E U dXfXuXS.E h =.-.=.<.v =.=.=.=.=.=.=.=.=.=.=.=.=.=.=.=.=.=.=.=.=.=.=.=.=.=.=.=.=.=.=.=.=.=.=.=.=.=.=.=.=.=.=.=.=.=.=.=.=.=.=.=.=.=.=.=.=.=.=.=.=.=.=.=.",
"=.=.=.=.=.Q =.Q =.=.=.=.=.=.=.=.=.b b b b b b b =.=.=.=.=.=.=.=.-.Q Q Q Q Q Q Q :.,.:.,.,.,.:.,.>.>.=.-.=.Q Q h =.=.=.=.=.=.=.=.>.=.=.Q L 4.!.G._._.}.i.P Q ;.h P F.W.G.P.P.L.I.I.P.}.3.G ;.v =.G C +X@X4.L L -.=.=.-.-.-.-.-.=.=.=.=.=.=.=.=.=.=.-.-.=.-.-.-.=.=.=.=.=.=.=.=.=.=.=.=.=.=.=.=.=.>.=.=.=.=.=.=.=.x =.>.>.=.=.=.;.,.:.:.:.:.4.2.2.8.8.:.,.-.-.=.=.Q =.=.=.=.=.b a =.=.=.=.=.=.=.=.=.=.=.=.=.=.=.=.=.=.=.=.=.=.=.=.=.=.=.=.=.=.=.=.=.=.=.=.=.=.=.=.=.=.=.=.=.=.=.=.b v =.Q P 7.W._.I.I.P.P.!.n.! Q =.L -.F._._._.`.j.I._._.^.4.L =.h =.Q G 9.yXrXI -.=.=.=.=.=.=.=.=.b b b b =.=.=.=.=.=.=.=.=.Q L =.=.-.>.,.,.,.1.:.:.4.:.1.1.1.1.1.,.=.=.@.=.=.=.=.=.=.=.=.=.=.=.=.=.=.=.=.=.=.=.=.=.=.=.=.=.=.=.=.=.=.=.=.=.=.=.b b b b b b b b >.=.=.b b =.=.=.a L Q Q Q =.-.-.-.=.=.=.Q Q Q Q Q h h b h h b b b b b b b b b b =.=.b b =.=.=.=.a L -.V.(.(.F.4.-.h b =.Q G 4.!.P._.h.)._._.W.P a h ~ V  .aXdXeXJ.Q =.=.@.,.v b >.=.=.=.=.=.x =.=.-.-.=.=.=.=.=.=.=.=.=.=.=.=.=.=.=.-.-.=.=.=.=.=.Q L Q L L L L =.=.=.=.>.,.,.,.,.-.-.-.,.-.,.,.=.=.=.=.=.=.=.=.",
"Q Q Q =.=.=.=.=.h h h h h h h h b b b b h h h h =.=.=.=.=.=.@.L L E Q Q -.-.:.:.:.:.:.:.:.,.:.:.,.,.,.,.=.=.-.-.=.Q =.=.=.=.=.=.>.b -.Q G 4.!.W._._._.d.P Q ;.h P F.!.G.P.P.L.I.I.J.}.3.G >.v =.G C +X@X4.L P -.-.-.=.=.-.Q -.-.=.=.=.=.=.Q =.=.L L L =.-.-.-.=.=.=.=.=.=.=.=.=.=.=.=.=.=.=.=.=.=.=.=.=.=.=.=.=.b =.>.=.h =.>.,.:.:.:.:.:.:.2.2.8.2.6.:.-.-.-.=.Q Q =.=.=.=.=.b =.=.=.=.=.=.=.=.=.=.=.=.=.=.=.=.=.=.=.=.=.=.=.=.=.=.=.=.=.=.=.=.=.=.=.=.=.=.=.=.=.=.=.=.$.$.=.=.b v =.Q P 7.W._.I.I.P.P.!.n.! Q =.L -.F._._._.`.j.I._._.^.8.L =.h =.Q G 9.yXrXI -.=.=.=.=.=.=.=.=.=.=.b b =.=.=.=.=.=.=.-.-.-.-.-.=.,.,.,.,.,.1.4.4.2.4.8.1.6.1.1.,.,.=.-.@.$.=.=.=.=.=.=.=.=.=.=.=.=.=.=.=.=.=.=.=.=.=.=.=.=.=.=.=.=.=.=.=.=.=.b b b b b b b =.=.=.=.=.=.=.=.>.=.=.-.-.,.,.:.:.:.:.:.,.,.-.-.-.Q =.Q Q =.b =.b =.b m b m b b b =.=.=.=.=.=.=.=.=.Q -.:.m.8.2.Q -.h b =.Q G 4.!.P._.h.)._._.W.P =.b ;.V | aXfXeXJ.E Q h L -.v b =.=.=.=.=.=.=.=.=.=.=.=.=.=.=.=.=.=.=.=.=.=.=.=.=.=.=.-.=.=.=.=.=.=.-.-.-.-.,.>.,.,.,.,.1.1.1.1.:.,.,.,.:.,.:.,.1.:.,.-.-.Q L L ",
"h h Q Q =.=.=.=.h h h h h h h h k k b h h h b =.=.=.=.=.@.L L L L Q Q ^ :.:.8.4.:.:.:.:.:.:.:.:.:.:.:.,.,.-.-.-.Q Q Q Q Q Q Q -.>.=.=.Q G 4.!.!._._.).d.P Q ;.h P F.!.G.P.P.I.I.P.J.!.2.G ;.h =.G H +X@X4.G P -.-.-.=.Q Q Q -.-.-.-.-.-.-.-.-.-.Q Q Q Q Q Q Q Q =.Q =.=.=.=.=.=.=.=.=.=.=.=.>.>.=.=.=.=.=.=.=.=.=.=.=.=.h =.;.,.:.:.:.4.4.4.2.2.2.2.2.:.:.-.-.-.Q h Q Q =.=.=.=.=.=.=.=.=.=.>.>.=.=.=.=.=.=.=.=.=.=.=.=.=.=.=.=.=.=.=.=.=.=.=.=.=.=.=.=.=.=.=.=.=.=.=.=.$.$.=.>.b v =.Q P 7.W._.I.I.P.P.!.n.Q Q =.L -.F.}._.I.I.j.`._._.^.8.a =.b =.Q H a.uXrXY @.=.=.=.=.=.=.=.=.=.=.=.=.=.=.=.-.-.Q L -.,.,.1.:.,.,.1.6.6.6.6.2.2.2.2.2.4.2.4.6.,.:.,.-.=.@.@.=.=.=.=.=.=.=.=.=.=.=.=.=.=.=.=.=.=.=.=.=.=.=.=.=.=.=.=.=.=.=.=.b b b b b b b =.=.=.=.-.=.>.,.,.:.:.:.:.:.:.4.:.8.:.4.:.:.:.:.,.-.-.Q Q @.=.=.=.=.=.=.b b b b b =.=.=.=.=.=.=.=.=.=.Q Q Q Q P L -.h b =.Q G 8.!._._.h.)._.W.W.P -.b ~ V | aXfXaXJ.E Q Q P -.h b x =.=.=.=.>.-.-.=.=.=.=.=.=.=.=.=.=.=.=.=.=.=.=.=.=.=.-.=.=.=.=.-.Q -.-.:.:.4.1.:.:.1.1.8.8.8.1.4.:.4.:.:.:.:.:.8.4.4.-.-.Q Q E ",
"=.=.=.=.=.=.=.=.=.=.=.=.=.=.=.b k b b b b =.=.-.Q =.-.-.-.-.-.-.:.:.:.:.:.:.4.4.4.4.4.4.:.:.:.:.4.4.4.:.:.:.:.,.-.-.-.Q Q Q Q =.=.L =.Q G 8.!.!._._._.d.H Q ;.h ! F.!.G.P.P.I.I.P.J.!.2.G ;.h =.H C @X@X4.G Q -.-.=.Q Q Q -.-.:.:.:.4.:.4.:.4.:.8.:.:.-.! P G L =.Q Q =.=.=.=.=.=.=.=.=.=.>.>.>.>.=.=.=.=.=.=.=.>.=.=.b b =.;.,.:.:.4.4.4.4.2.2.2.2.2.8.6.:.-.-.Q Q Q Q =.=.=.=.=.=.=.=.=.>.>.>.=.=.=.=.=.=.=.=.=.=.=.=.=.=.=.=.=.=.=.=.=.=.=.=.=.=.=.=.=.=.=.=.=.=.=.=.$.$.=.>.>.v =.Q P 7.W._.I.I.P.P.!.n.Q Q =.L -.F._._.I.I.j.I._._.^.8.a =.b =.Q H a.uXtXT @.=.=.=.=.=.=.=.=.=.=.=.=.=.=.=.Q P -.-.-.:.6.8.6.6.6.6.6.6.6.2.2.2.2.2.2.2.2.2.6.6.6.,.,.-.-.@.=.=.=.=.=.=.=.=.=.=.=.=.=.=.=.=.=.=.=.=.=.=.=.=.=.=.=.=.=.=.=.=.b b b b b b =.=.=.=.-.=.,.,.1.8.4.4.4.4.:.:.:.:.4.4.4.4.:.:.:.:.4.:.-.Q @.@.-.-.=.=.=.=.=.b b b =.=.=.=.=.=.=.=.=.=.Q Q L Q Q =.-.h b =.Q G 8.!._._.h.)._.W.W.H -.h ~ V | dXfXdXJ.E ~ -.#.-.b =.=.=.=.>.>.>.=.-.=.=.=.=.=.=.=.=.=.=.=.=.=.=.=.=.=.=.=.-.-.-.=.-.-.:.:.:.2.4.8.8.4.4.:.:.:.:.:.:.4.4.4.4.4.4.4.4.4.4.:.:.:.:.:.:.",
"=.=.=.=.Q Q Q Q Q Q Q Q Q Q Q Q h h h h Q Q -.-.Q Q -.-.:.:.:.2.8.8.8.4.4.4.4.4.4.4.4.4.4.4.4.4.2.2.2.:.:.:.:.:.:.:.:.-.-.Q L Q =.a -.L G 4.!.J._._._.d.F Q ;.E ! H.!.G.P.P.I.I.P.J.}.3.G >.h =.P H @X@X4.G Q Q Q Q Q Q -.,.:.4.4.4.4.4.4.4.4.4.8.8.4.:.-.-.P P =.=.=.=.=.=.=.=.=.=.=.=.=.=.>.>.>.>.=.=.=.=.=.=.>.=.b b =.=.,.:.:.:.4.4.2.2.2.2.2.2.2.6.6.:.-.-.=.=.=.Q =.=.=.>.=.=.=.=.=.=.>.>.=.=.=.=.=.=.=.=.=.=.=.=.=.=.=.=.=.=.=.=.=.=.=.=.=.=.=.=.=.=.=.=.=.=.=.=.=.=.>.>.>.b =.Q P 7.W._.I.I.P._.!.n.Q Q =.P 2.F.}._.I.I.j.`._._.^.8.a =.h =.Q P p.uXtXT @.=.=.=.=.=.=.=.=.=.=.=.=.=.=.=.P ! -.:.2.2.6.6.2.2.2.6.2.2.2.2.2.2.2.2.2.2.2.2.2.8.6.8.,.-.-.@.=.=.=.=.=.=.=.=.=.=.=.=.=.=.=.=.=.=.=.=.=.=.=.=.=.=.=.=.=.=.=.=.=.=.=.=.=.=.=.=.Q -.-.-.:.,.6.8.4.4.4.4.4.2.2.2.4.4.2.2.2.2.:.:.8.4.:.-.-.-.-.-.-.=.=.b m m =.=.=.=.=.=.=.=.=.=.L =.-.=.=.Q =.=.=.h b =.Q G 8.!._.).h.)._.W.W.H L a Q V | dXfXdXU.W -.-.-.6.=.;.>.,.,.,.=.-.-.Q -.-.=.=.=.=.Q -.-.-.=.=.=.=.-.-.Q =.-.-.=.=.-.-.:.:.2.2.2.2.2.4.2.2.2.2.2.2.:.:.4.4.4.4.4.4.4.4.2.4.2.2.4.4.4.4.",
",.,.;.;.=.Q Q Q Q Q Q Q Q Q h h h h h Q Q Q Q -.Q -.-.:.2.6.8.8.2.2.3.8.2.8.8.8.2.4.2.2.2.2.2.2.2.2.2.2.2.2.2.:.4.4.4.:.-.-.Q Q =.=.-.Q G 4.W.J._._._.d.F Q ;.E ! H.}.J.P.P.I.I.P.J.}.3.L >.h =.! H @X@X4.G P -.L Q -.=.,.:.:.4.2.2.2.2.2.2.2.2.2.2.2.2.2.2.2.:.Q =.=.=.=.=.=.=.=.=.=.=.=.=.>.>.>.>.=.=.=.=.=.=.>.=.b =.=.;.,.,.:.4.4.4.2.2.2.2.2.2.2.6.6.2.:.,.>.=.=.=.=.=.=.=.=.=.=.=.=.=.>.>.=.=.=.=.=.=.=.=.=.=.=.=.=.=.=.=.=.=.=.=.=.=.=.=.=.=.=.=.=.=.=.=.=.=.=.=.=.=.>.>.b b =.Q P 7.W._.I.I.P.P.!.n.Q Q =.L 2.F.}._.I.I.j.`._._.^.8.a =.h Q Q H p.gXdX} #.=.=.=.=.=.=.=.=.=.=.=.=.=.>.>.#.-.-.2.8.6.2.2.2.2.2.2.2.2.2.2.2.2.2.2.2.2.2.2.2.8.6.6.6.:.-.-.=.=.=.=.=.=.=.=.=.=.=.=.=.=.=.=.=.=.=.=.=.=.=.=.=.=.=.=.=.=.=.=.=.=.=.=.=.=.=.-.-.-.-.:.6.6.6.6.2.8.2.8.2.4.2.8.8.8.2.8.2.2.2.2.2.2.2.2.:.-.-.-.-.-.=.=.=.m =.=.=.=.=.=.=.=.=.=.Q =.=.=.=.Q h h =.h b =.Q G 4.!._.).h.)._.W.W.H a a ~ V | fXlXfX'.^ :.:.2.8.,.,.1.1.,.,.,.>.-.-.=.-.=.=.=.=.-.-.-.-.=.=.=.=.-.-.-.-.-.,.,.,.,.-.2.2.2.2.2.2.2.2.2.2.2.2.2.2.2.2.2.4.2.2.3.2.2.2.8.8.8.2.3.2.2.2.",
",.;.,.;.;.;.=.=.Q Q Q Q Q Q Q Q Q Q Q =.=.-.-.,.:.:.:.2.2.2.6.2.2.) ` 2.3.3.3.4.3.3.3.2.3.2.3.3.2.2.2.2.2.2.2.4.4.4.4.:.:.:.:.:.,.=.>.-.G 4.W.J.P._._.d.F G =.h ! E.}.J.P.P.I.I.P.P.}.3.L >.h =.! H @X@X4.G ! -.Q -.,.:.:.:.:.:.2.2.2.2.2.2.2.2.2.2.3.2.3.4.8.8.Q =.=.=.=.=.=.=.=.=.=.=.=.=.>.>.>.>.>.>.=.=.=.=.=.=.b =.>.,.,.,.:.4.4.4.2.3.3.3.2.2.2.2.2.2.4.:.,.>.=.=.b b =.=.=.=.=.=.=.=.>.>.=.=.=.=.=.=.=.=.=.=.=.=.=.=.=.=.=.=.=.=.=.=.=.=.=.=.=.=.=.=.=.=.=.=.=.=.=.>.>.>.b v =.Q P 7.W._.I.I.P.P.!.n.Q L =.P 2.F.}._.I.I.j.I._._.^.8.a b h =.Q P a.gXgX} #.=.=.=.=.=.=.=.=.=.=.=.=.=.<.,.2.2.2.2.2.2.2.2.2.2.2.2.3.3.3.2.2.2.2.2.2.2.2.2.2.2.6.6.6.6.2.,.=.=.=.=.=.=.=.=.=.=.=.=.=.=.=.=.=.=.=.=.=.=.=.=.=.=.=.=.=.=.=.=.=.=.=.=.=.-.-.-.:.:.,.6.6.6.6.2.2.3.3.3.3.3.3.3.4.3.3.3.3.3.3.2.2.2.6.8.2.:.-.-.-.-.=.=.=.=.=.=.=.=.=.=.=.=.=.=.b h =.=.=.=.b h =.h h =.Q G 4.!._.).h.)._._.W.H @.Q -.W ..fXlXdX#X` 4.4.2.8.,.1.1.1.1.1.,.,.,.=.-.-.-.=.=.=.=.-.-.-.-.=.=.=.=.-.-.=.>.,.,.,.,.:.2.2.2.2.3.2.2.2.3.2.2.2.3.2.2.2.2.3.3.3.3.2.3.2.7.4.3.3.3.2.) ) ",
",.;.,.;.;.;.;.,.=.=.=.=.=.=.=.=.;.;.;.,.:.1.1.1.4.4.2.2.2.2.2.2.2.3.3.3.3.3.3.3.3.3.3.3.3.3.3.3.2.2.2.2.8.8.8.8.2.4.4.4.4.4.4.4.1.,.,.-.! 9.!.W.P._._.d.F G ;.h ! E.}.J.P.P.I.I.P.P.}.3.L >.h =.! H @XyX5.E ! -.-.,.1.1.1.:.:.:.2.3.2.2.2.2.2.2.2.2.2.2.2.2.2.2.Q =.=.=.=.=.=.=.=.=.=.=.=.=.>.>.>.>.>.>.=.=.=.=.=.=.b =.;.,.,.-.:.4.4.4.3.3.3.3.2.2.2.2.2.2.8.8.,.;.=.=.b b =.=.=.=.=.=.=.=.>.>.=.=.=.=.=.=.=.=.=.=.=.=.=.=.=.=.=.=.=.=.=.=.=.=.=.=.=.=.=.=.=.=.=.=.=.=.>.>.>.>.b v =.Q P 7.W._.I.I.P.J.!.n.Q L =.P -.F.}._.I.I.j.`._._.^.8.a b h =.Q P G.gXgXy.#.=.=.=.=.=.=.=.x b b =.=.<.<.,.8.6.2.2.2.2.2.6.2.2.2.7.7.7.7.2.2.2.2.2.2.2.2.2.2.2.6.6.6.6.6.1.=.=.=.=.=.=.=.=.=.=.=.=.=.=.=.=.=.=.=.=.=.=.=.=.=.=.=.=.=.=.=.=.=.=.=.=.-.-.-.-.6.6.6.6.8.6.6.2.2.3.3.3.3.2.3.3.3.3.3.3.3.3.3.3.2.2.8.8.8.2.-.-.-.-.=.=.=.=.=.=.=.m =.=.=.=.=.=.b h h Q >.>.>.b =.h h =.Q G 4.!._.).h.)._._.W.H -.,.b.W f.hXlXiX#X` 4.4.6.9.1.1.1.1.1.1.1.1.,.,.-.-.-.-.=.=.=.-.-.-.-.-.=.=.=.-.=.>.,.,.1.1.,.:.2.3.2.2.2.2.2.2.2.2.2.3.2.3.2.2.4.4.4.3.3.3.3.3.4.3.3.3.3.3.3.3."
};
