/* XPM */
static char *_20bffcd67cc4a709fb879c069365a96dxBryliRGkuvCJXk[] = {
/* columns rows colors chars-per-pixel */
"512 512 238 2 ",
"   c #6DBDCB",
".  c #6DBBC7",
"X  c #74BDCD",
"o  c #7BBDCD",
"O  c #78BDC7",
"+  c #76BFD1",
"@  c #7BBED1",
"#  c #6ABFD3",
"$  c #5FC4CC",
"%  c #6DC4CE",
"&  c #6DC9CE",
"*  c #6AC3CB",
"=  c #74C3CE",
"-  c #7AC3CE",
";  c #72C8CF",
":  c #7AC9CF",
">  c #70C4C6",
",  c #6EC6D5",
"<  c #66CAD4",
"1  c #6DCAD5",
"2  c #6DC6D9",
"3  c #66CBDB",
"4  c #6DCBDB",
"5  c #66C7D5",
"6  c #74C5D4",
"7  c #7AC5D4",
"8  c #73CAD5",
"9  c #7BCAD5",
"0  c #73C6DA",
"q  c #7AC6D9",
"w  c #73CADB",
"e  c #7CCCDB",
"r  c #6DD1DC",
"t  c #6BD1D6",
"y  c #7DD1D6",
"u  c #75D2DB",
"i  c #7DD3DD",
"p  c #74D8DC",
"a  c #7BD9DE",
"s  c #75D5D5",
"d  c #6DCDE1",
"f  c #74CEE1",
"g  c #7CCEE2",
"h  c #7BCDE8",
"j  c #6CD1E1",
"k  c #74D3E2",
"l  c #7ED3E3",
"z  c #77D9E2",
"x  c #7DD9E2",
"c  c #7ED3E8",
"v  c #7ED9E9",
"b  c #80BEC9",
"n  c #84C4CD",
"m  c #85CBCD",
"M  c #8ACBCE",
"N  c #8BC6CD",
"B  c #94CBCE",
"V  c #94C6CD",
"C  c #82C5D4",
"Z  c #8AC6D4",
"A  c #83CBD5",
"S  c #8BCCD5",
"D  c #83C6DA",
"F  c #8AC7D9",
"G  c #84CEDC",
"H  c #8ACDDC",
"J  c #94C7D3",
"K  c #93CCD5",
"L  c #9BCDD5",
"P  c #94CEDB",
"I  c #9BCEDB",
"U  c #98C7D7",
"Y  c #83D1D6",
"T  c #8CD2D5",
"R  c #83D2DE",
"E  c #8BD2DD",
"W  c #83D9DE",
"Q  c #8DD9DE",
"!  c #93D2D6",
"~  c #9BD2D6",
"^  c #94D3DD",
"/  c #9AD3DD",
"(  c #93D9DE",
")  c #9CD9DD",
"_  c #97D9D6",
"`  c #8AD2CF",
"'  c #A2CDD6",
"]  c #A2CEDC",
"[  c #A9CFD8",
"{  c #A1D2D6",
"}  c #A3D4DC",
"|  c #AAD5DD",
" . c #A4DADE",
".. c #AADADE",
"X. c #B3D4DD",
"o. c #B3D9DD",
"O. c #83CFE2",
"+. c #8ACEE2",
"@. c #86CFE9",
"#. c #89CEE8",
"$. c #94CEE0",
"%. c #9CCFE1",
"&. c #81D2E4",
"*. c #8CD5E3",
"=. c #84D9E4",
"-. c #8DD9E5",
";. c #82D3E8",
":. c #8CD6E9",
">. c #85DAEA",
",. c #8DDAEA",
"<. c #93D6E6",
"1. c #9AD5E3",
"2. c #92D9E5",
"3. c #9BDAE5",
"4. c #93D6E9",
"5. c #9AD6E9",
"6. c #93DAE9",
"7. c #9BDCEB",
"8. c #8CDDF1",
"9. c #86D8F0",
"0. c #95D6F1",
"q. c #94DCF1",
"w. c #9DDEF1",
"e. c #A5CBE1",
"r. c #A3D5E2",
"t. c #ABD5E3",
"y. c #A2DBE5",
"u. c #ABDBE4",
"i. c #A1D7EA",
"p. c #A3DDEB",
"a. c #ABDDEB",
"s. c #B4DEE5",
"d. c #BADDE6",
"f. c #B4DFEB",
"g. c #BADEEB",
"h. c #B6D6E1",
"j. c #A3DEF1",
"k. c #ACDEF1",
"l. c #B4DEF1",
"z. c #BBDEF1",
"x. c #8EE1ED",
"c. c #8EE1E5",
"v. c #94E0E7",
"b. c #9BE1E6",
"n. c #94E1EC",
"m. c #9CE2EC",
"M. c #9FEAEF",
"N. c #94E2F1",
"B. c #9DE3F1",
"V. c #9DE9F3",
"C. c #9FE4F8",
"Z. c #9BE9F7",
"A. c #87E3F2",
"S. c #A4E1E6",
"D. c #ADE2E6",
"F. c #A4E2ED",
"G. c #ADE4ED",
"H. c #A4E9EE",
"J. c #ADE9ED",
"K. c #B3E2E6",
"L. c #B9E2E7",
"P. c #B4E4EC",
"I. c #B9E3EC",
"U. c #B3E9ED",
"Y. c #BBE9ED",
"T. c #B6E8E6",
"R. c #AFF0EE",
"E. c #B9F1EE",
"W. c #A5E5F3",
"Q. c #ACE5F2",
"!. c #A5EAF4",
"~. c #ADE9F4",
"^. c #A4E6F9",
"/. c #ACE6F9",
"(. c #A6EAF9",
"). c #ACEBF9",
"_. c #B6E6F1",
"`. c #B4E5F2",
"'. c #BAE4F2",
"]. c #B2EAF4",
"[. c #BAEAF3",
"{. c #B4E6F9",
"}. c #BBE5F9",
"|. c #B3EBFA",
" X c #BBECFA",
".X c #A6F0FC",
"XX c #ACF3FE",
"oX c #ABF5F9",
"OX c #B4F1F5",
"+X c #BCF1F5",
"@X c #B4F3FD",
"#X c #BCF3FD",
"$X c #B4FBFF",
"%X c #BCFDFF",
"&X c #C2DEEC",
"*X c #C2DEF0",
"=X c #C2E3EC",
"-X c #C8E5EE",
";X c #C3EBED",
":X c #CBEBED",
">X c #C1E1E6",
",X c #D3EDEE",
"<X c #DAEDEE",
"1X c #CDF3EF",
"2X c #D3F1ED",
"3X c #DAF2EE",
"4X c #C3E6F2",
"5X c #C3ECF4",
"6X c #CBEDF4",
"7X c #C2E5F8",
"8X c #C4EDFB",
"9X c #CBEDFC",
"0X c #CBE5F7",
"qX c #D3EEF3",
"wX c #DBEDF4",
"eX c #D3EEFA",
"rX c #DBEEFA",
"tX c #C4F2F5",
"yX c #CBF3F5",
"uX c #CEF9F6",
"iX c #C4F4FD",
"pX c #CCF4FC",
"aX c #C5FCFF",
"sX c #CCFBFF",
"dX c #D4F3F5",
"fX c #DBF3F5",
"gX c #D4F9F6",
"hX c #DBF9F6",
"jX c #D3F5FC",
"kX c #DBF5FC",
"lX c #D4FBFE",
"zX c #DAFBFE",
"xX c #E3EDF6",
"cX c #E2EFFA",
"vX c #E1F4F4",
"bX c #E2F4FC",
"nX c #E2FAFE",
"mX c #ECF6FF",
/* pixels */
"<.<.<.<.<.<.<.<.<.<.<.<.<.<.<.<.<.<.<.<.<.<.<.<.<.<.<.<.<.<.<.<.<.<.<.<.<.<.<.<.<.<.<.<.<.<.<.<.<.<.<.<.<.<.<.<.<.<.<.<.<.<.<.<.4.6.<.1.3.G.P.P.P._.Q.3.^ <.<.*.3.Q.`.P._.I.I.`.P.Q.].6.G *.i a C y.sXsXp.Z Y *.1.1.<.2.-.-.1.1.<.<.<.<.<.<.<.<.<.<.<.<.<.<.<.2.-.:.R R &.*.;.;.&.&.&.&.&.&.&.&.&.&.&.&.l l l l l l e *.-.6.6.<.<.<.<.<.<.<.<.<.<.<.<.<.<.<.<.<.<.<.-.-.*.*.R R *.&.&.&.l l l l &.&.&.&.&.&.&.&.&.&.&.&.&.&.&.&.;.;.;.;.&.&.l l l &.l l l l l a i W *.*.R e G G *.H <.<./ a.|._.I.I.P.G.~.F.1.^ E H K p.G.P.f.`.f.`.`.Q./.6.G R a a W 9 !.aXsX} A R W W R R R R G R *.-.2.2.-.-.<.<.<.<.<.<.<.<.<.<.<.<.<.<.<.<.<.<.<.<.<.<.<.<.<.<.<.<.<.<.<.<.:.*.R R G &.&.;.&.&.&.&.;.&.&.l &.&.&.&.&.&.&.&.l l &.&.l l l &.G G R *.-.2.2.6.<.<.<.<.1.1.1.<.<.<.<.<.<.<.<.<.<.<.<.<.<.<.<.<.<.<.<.<.<.<.<.<.*.*.*.E H H H G &.l l l a a R R 9 G <.F.).|.a.P H E *.*.E Q 7.J.P.f.'.'.`.`.f.1.6.-.1.L L.lXdXgX5X{ 1.<.4.6.-.6.<.<.<.<.<.<.<.<.*.*.*.*.H H H H H H H H +.*.*.*.<.<.<.<.<.<.<.<.<.<.<.<.<.<.<.<.<.<.<.<.<.<.<.<.<.<.<.<.<.<.<.<.<.<.<.<.<.<.<.<.",
"<.<.<.<.<.<.<.<.<.<.<.<.<.<.<.<.<.<.<.<.<.<.<.<.<.<.<.<.<.<.<.<.<.<.<.<.<.<.<.<.<.<.<.<.<.<.<.<.<.<.<.<.<.<.<.<.<.<.<.<.<.<.<.<.4.6.<.1.3.G.`.P.P._.Q.3.^ <.<.*.3.Q.`.P._.I.I.`.P.J.).2.G =.i W C y.sXsXS.A R -.1.1.<.2.-.-.1.1.<.<.<.<.<.<.<.<.<.<.<.<.<.<.<.<.-.:.*.R &.&.&.&.&.&.&.&.&.&.&.&.&.&.&.&.l l l l l l G *.-.6.6.<.<.<.<.<.<.<.<.<.<.<.<.<.<.<.<.<.<.<.2.-.-.*.*.R &.&.&.&.&.l l l &.&.&.&.&.&.&.&.&.&.&.&.&.&.&.&.;.;.;.;.&.&.l &.l l l l l l l W R W R R R R W *.*.*.<.1.P y.`.P.I.I.P.G.~.F.1.^ <.E / a.`.`.P.`.P.`.`.Q./.5.G R a a W 9 ~.sXsXt.A i W W R R R R R *.*.-.2.2.-.<.<.<.<.<.<.<.<.<.<.<.<.<.<.<.<.<.<.<.<.<.<.<.<.<.<.<.<.<.<.<.<.<.:.:.*.R &.R &.&.l &.&.&.;.&.&.&.&.&.&.&.&.&.&.&.l l &.&.&.l &.R R R *.*.-.2.2.2.<.<.<.<.1.1.1.1.<.<.<.<.<.<.<.<.<.<.<.<.<.<.<.<.<.<.<.<.<.<.<.<.*.*.*.*.*.E H R i l i i i i R R G *.7.W.).|.G.1.P *.*.-.E ^ 7.J.P.f.'.'.`.`.f.1.6.-.1.L L.lXdXgXtX{ 1.<.4.6.-.6.<.<.<.<.<.<.<.<.<.<.<.<.<.<.*.*.*.*.<.<.<.<.<.<.<.<.<.<.<.<.<.<.<.<.<.<.<.<.<.<.<.<.<.<.<.<.<.<.<.<.<.<.<.<.<.<.<.<.<.<.<.<.<.<.",
"<.<.<.<.<.<.<.<.<.<.<.<.<.<.<.<.<.<.<.<.<.<.<.<.<.<.<.<.<.<.<.<.<.<.<.<.<.<.<.<.<.<.<.<.<.<.<.<.<.<.<.<.<.<.<.<.<.<.<.<.<.<.<.<.4.6.<.1.3.G.`.P.P._.Q.3.1.<.6.*.3.Q.`.P.`.I.I.`.P.G.).<.G *.l *.C y.pXsXF.H W -.1.1.<.2.-.-.1.1.<.<.<.<.<.<.<.<.<.<.<.<.<.<.<.<.-.-.*.*.*.*.&.R &.&.&.&.&.&.&.&.&.&.&.&.l l l l &.i &.*.2.6.6.<.<.<.<.<.<.<.<.<.<.<.<.<.<.<.<.<.2.2.2.2.-.-.*.*.R R l l &.&.l l &.&.&.&.&.&.&.&.&.&.&.&.&.&.&.&.;.;.&.&.&.&.&.&.&.&.&.&.l l l W *.R e e R *.-.-.-.<.<.1.P i.Q.G.I.I.P.G.~.F.1.^ 6.^ 1.G.|.`.I.`.f.`.`.Q.Q.5.G *.R a W C ~.sXlXD.Z Y R W R R *.*.*.*.-.2.2.<.<.<.<.<.<.<.<.<.<.<.<.<.<.<.<.<.<.<.<.<.<.<.<.<.<.<.<.<.<.<.<.<.<.<.-.-.:.*.*.&.R e &.&.&.&.&.&.&.&.&.&.&.&.&.&.&.&.&.&.&.&.&.l &.R *.*.*.-.-.2.2.2.<.<.<.<.1.1.1.<.<.<.<.<.<.<.<.<.<.<.<.<.<.<.<.<.<.<.<.<.<.<.<.<.<.<.<.<.*.*.*.*.&.l &.&.R R R R R 6.F.Q.|.|.Q.a.<.*.<.2.E ( y.~.P.f.'.'.`.`.G.1.6.-.1.L Y.zXdXgXpX{ 1.<.<.6.-.6.<.<.<.<.<.<.<.<.6.6.6.<.<.<.<.<.<.<.<.<.<.6.6.6.<.<.<.<.<.<.<.<.<.<.<.<.<.<.<.<.<.<.<.<.<.<.<.<.<.<.<.<.<.<.<.<.<.<.<.<.<.<.<.<.",
"<.<.<.<.<.<.<.<.<.<.<.<.<.<.<.<.<.<.<.<.<.<.<.<.<.<.<.<.<.<.<.<.<.<.<.<.<.<.<.<.<.<.<.<.<.<.<.<.<.<.<.<.<.<.<.<.<.<.<.<.<.<.<.<.4.6.<.1.3.G.`.P.P._.Q.3.1.<.2.*.3.Q.`.P.`.I.I.`.P.Q.).^ D *.i *.S y.pXsXG.E *.2.1.1.<.2.-.-.<.1.<.<.<.<.<.<.<.<.<.<.<.<.<.<.<.<.2.-.-.:.:.:.*.R &.&.&.&.&.&.&.&.&.&.&.&.l l l &.&.&.*.:.<.6.4.<.<.<.<.<.<.<.<.<.<.<.<.<.<.<.<.<.6.6.6.2.<.-.-.*.&.&.&.l &.&.&.&.&.&.&.&.&.&.&.&.&.&.&.&.&.&.&.&.;.;.;.&.&.&.&.&.&.&.&.&.&.l &.W W Y e e *.-.,.,.6.<.6.1.P i.Q.G.I.I.P.G.~.F.1.^ 5.1.1.G.|.`.I.`.f.`.`.`.Q.5.*.*.*.W W A ].sXlXP.S R *.*.*.*.*.-.-.2.2.2.2.<.<.<.<.<.<.<.<.<.<.<.<.<.<.<.<.<.<.<.<.<.<.<.<.<.<.<.<.<.<.<.<.<.<.<.6.-.-.-.;.*.G e &.&.&.&.&.&.&.&.&.&.&.&.&.&.&.&.&.&.&.&.&.&.&.*.:.:.-.-.2.2.<.<.<.<.<.<.1.1.1.<.<.<.<.<.<.<.<.<.<.<.<.<.<.<.<.<.<.<.<.<.<.<.<.<.2.2.<.<.<.<.<.-.:.:.:.:.*.*.*.*.E 7.W.~.Q.`.`.Q.1.<.<.2.-.( S.~.P.I.'.'.`.`.G.1.2.-.1.~ I.zXdXgXyX} 1.<.<.6.-.6.<.<.<.<.<.<.<.<.<.<.<.<.<.<.<.<.<.<.<.<.<.<.<.<.<.<.<.<.<.<.<.<.<.<.<.<.<.<.<.<.<.<.<.<.<.<.<.<.<.<.<.<.<.<.<.<.<.<.<.<.<.<.<.<.",
"<.<.<.<.<.<.<.<.<.<.<.<.<.<.<.<.<.<.<.<.<.<.<.<.<.<.<.<.<.<.<.<.<.<.<.<.<.<.<.<.<.<.<.<.<.<.<.<.<.<.<.<.<.<.<.<.<.<.<.<.<.<.<.<.4.6.<.1.3.G.`.P.P.].G.3.1.<.6.*.3.Q.`.P.`.I.I.`.`.Q.).^ C R e R S u.pXsXF.E *.2.1.1.<.2.-.-.<.1.<.<.<.<.<.<.<.<.<.<.<.<.<.<.<.<.<.-.-.2.-.:.*.&.&.&.&.&.&.l l l l l l l l l &.&.&.*.*.-.4.4.4.<.<.<.<.<.<.<.<.<.<.<.<.<.<.<.<.<.2.6.6.6.2.-.-.:.R R &.&.&.&.&.&.&.&.&.&.&.&.&.&.*.&.&.&.&.&.&.&.&.l l &.&.&.l &.&.&.&.&.&.&.&.R R G G R -.,.,.-.<.<.<.1./ y.`.P.I.I.P.G.~.F.^ ^ 5.1.1.G.|.`.I.'.f.`.`.`.`.7.*.-.-.*.*.S  XsXjXI.H *.*.-.-.-.2.6.2.2.2.<.<.<.<.<.<.<.<.<.<.<.<.<.<.<.<.<.<.<.<.<.<.<.<.<.<.<.<.<.<.<.<.<.<.<.<.<.6.,.,.-.:.*.&.G *.&.&.&.&.&.&.&.&.l &.&.&.&.R R &.&.&.O.&.*.*.*.,.-.6.2.2.2.<.<.<.<.<.<.1.1.<.<.<.<.<.<.<.<.<.<.<.<.<.<.<.<.<.<.<.<.<.<.<.<.<.<.6.6.2.2.2.<.<.2.,.,.-.-.-.-.-.-.E 7.~.).Q.`.`.`.3.<.2.2.2.( S.~.P.I.'._.`.`.G.1.2.-.1.~ I.zXdXgXpX} 1.<.<.6.*.6.<.<.<.<.<.<.<.<.<.<.<.<.<.<.<.<.<.<.<.<.<.<.<.<.<.<.<.<.<.<.<.<.<.<.<.<.<.<.<.<.<.<.<.<.<.<.<.<.<.<.<.<.<.<.<.<.<.<.<.<.<.<.<.<.",
"<.<.<.<.<.<.<.<.<.<.<.<.<.<.<.<.<.<.<.<.<.<.<.<.<.<.<.<.<.<.<.<.<.<.<.<.<.<.<.<.<.<.<.<.<.<.<.<.<.<.<.<.<.<.<.<.<.<.<.<.<.<.<.<.4.4.<.1.3.G.`.P.P.].G.3.1.<.6.<.3.Q.`.P.`.I.I.`.`.`.|.<.G *.i *.T u.sXlXQ.^ *.2.1.1.<.2.-.-.<.1.<.<.<.<.<.<.<.<.<.<.<.<.<.<.<.<.<.<.<.<.2.-.:.*.*.&.&.l &.l l l l l l l l &.&.&.&.*.*.<.4.4.<.<.<.<.<.<.<.<.<.<.<.<.<.<.<.<.<.<.2.2.2.6.2.2.-.-.*.*.*.*.*.&.&.&.&.&.&.&.&.&.&.&.*.&.&.&.&.&.&.&.&.l l &.&.&.&.&.&.&.&.&.&.&.&.R R Y *.-.,.,.-.-.-.<.<.1.<.p.|.P.I.I.P.G.~.F.^ ^ 5.1.1.F.`.`.f.'.I._.`.`.`.i.<.6.-.*.2.E  XsXjXI.^ -.2.2.2.2.6.6.<.<.<.<.<.<.<.<.<.<.<.<.<.<.<.<.<.<.<.<.<.<.<.<.<.<.<.<.<.<.<.<.<.<.<.<.<.<.<.<.<.-.-.-.-.*.*.*.*.*.&.&.O.&.&.;.l l l l &.&.&.&.&.*.O.O.*.*.-.-.,.6.2.6.2.2.<.<.<.<.<.<.1.1.1.<.<.<.<.<.<.<.<.<.<.<.<.<.<.<.<.<.<.<.<.<.<.<.<.<.2.2.2.2.<.2.2.2.-.,.-.-.-.-.-.2.E 7.Q.Q.`.`.`.`.i.6.<.<.2.2.S.Q.P.I.'._.`.`.G.1.-.-.1.~ I.zXdXdXjXr.1.<.<.6.*.6.<.<.<.<.<.<.<.<.<.<.<.<.<.<.<.<.<.<.<.<.<.<.<.<.<.<.<.<.<.<.<.<.<.<.<.<.<.<.<.<.<.<.<.<.<.<.<.<.<.<.<.<.<.<.<.<.<.<.<.<.<.<.<.<.",
"<.<.<.<.<.<.<.<.<.<.<.<.<.<.<.<.<.<.<.<.<.<.<.<.<.<.<.<.<.<.<.<.<.<.<.<.<.<.<.<.<.<.<.<.<.<.<.<.<.<.<.<.<.<.<.<.<.<.<.<.<.<.<.<.4.6.<.1.3.G.`.P.P.P.G.3.1.<.6.<.3.Q.`.P._.I.I._.I.`.|.5.E -.;.-.^ u.lXlX`.^ *.2.1.1.<.2.-.>.<.<.<.<.<.<.<.<.<.<.<.<.<.<.<.<.<.<.<.<.<.<.4.6.-.:.*.&.&.&.&.l l l l l l l &.&.&.&.G *.<.<.<.<.<.<.<.<.<.<.<.<.<.<.<.<.<.<.<.<.<.<.<.2.2.2.2.2.-.-.-.:.*.*.*.&.&.R &.&.&.&.&.*.&.&.*.&.&.&.&.&.&.&.&.l &.&.&.&.&.&.&.&.&.&.R R R R R W :.-.-.-.-.-.2.<.6.1.<.p.|.P.I.I.P.G.~.F.^ ^ 6.1.1.G._.`.I.'.I._.l.`._.p.<.6.-.*.2./ +XlXzXI./ <.6.6.<.<.<.6.<.<.<.<.<.<.<.<.<.<.<.<.<.<.<.<.<.<.<.<.<.<.<.<.<.<.<.<.<.<.<.<.<.<.<.<.<.<.<.<.-.-.-.-.-.-.:.:.*.*.R G O.&.&.;.l l l l &.&.&.&.*.*.O.O.*.*.4.6.-.2.2.2.2.2.<.<.<.<.<.<.<.<.<.<.<.<.<.<.<.<.<.<.<.<.<.<.<.<.<.<.<.<.<.<.<.<.<.<.<.<.<.<.<.<.<.<.-.-.-.-.-.-.<.<.^ 7.Q.`.`.`.I.`.p.6.<.<.<.( p.J.P.I.'.'.`.`.G.1.-.-.1.~ Y.zXdXdXjXt.1.<.<.6.*.6.<.<.<.<.<.<.<.<.<.<.<.<.<.<.<.<.<.<.<.<.<.<.<.<.<.<.<.<.<.<.<.<.<.<.<.<.<.<.<.<.<.<.<.<.<.<.<.<.<.<.<.<.<.<.<.<.<.<.<.<.<.<.<.<.",
"<.<.<.<.<.<.<.<.<.<.<.<.<.<.<.<.<.<.<.<.<.<.<.<.<.<.<.<.<.<.<.<.<.<.<.<.<.<.<.<.<.<.<.<.<.<.<.<.<.<.<.<.<.<.<.<.<.<.<.<.<.<.<.<.4.6.<.1.3.G.`.P.P.P.G.3.1.6.6.<.3.Q.`.P.`.I.I._.P.`.|.7.<.6.:.6.! D.lXlX`.^ E 2.5.5.<.-.-.>.<.<.<.<.<.<.<.<.<.<.<.<.<.<.<.<.<.<.<.<.<.<.4.6.2.-.*.*.&.&.&.l l l l l l &.&.&.&.*.G *.<.4.<.<.<.<.<.<.<.<.<.<.<.<.<.<.<.<.<.<.<.<.<.<.2.2.2.2.<.<.2.-.-.*.*.*.*.G *.&.&.&.&.*.&.&.&.&.&.&.&.&.&.&.&.&.&.&.&.&.&.&.&.&.&.&.R R R R E *.2.-.:.:.-.6.6.<.6.1.<.y.`.G.I.I.P.G.~.F.^ ^ 6.<.1.G.|._.`._.I._.I.`._.p.<.6.*.E 2./ iXlXzX4X1.<.6.6.<.<.<.<.<.<.<.<.<.<.<.<.<.<.<.<.<.<.<.<.<.<.<.<.<.<.<.<.<.<.<.<.<.<.<.<.<.<.<.<.<.<.<.<.<.-.-.-.-.-.-.-.*.*.R G O.&.&.*.&.l l &.&.&.&.*.*.O.O.+.*.<.6.6.<.-.2.2.2.2.<.<.<.<.<.<.<.<.<.<.<.<.<.<.<.<.<.<.<.<.<.<.<.<.<.<.<.<.<.<.<.<.<.<.<.<.<.<.<.<.<.<.<.2.2.2.-.2.<.1.^ y.`.`.`._.'.`.p.5.<.^ <.2.7.F.P.f.`.'.`.`.G.1.-.<.1.~ Y.zXdXdXlXt.1.1.<.4.*.6.<.<.<.<.<.<.<.<.<.<.<.<.<.<.<.<.<.<.<.<.<.<.<.<.<.<.<.<.<.<.<.<.<.<.<.<.<.<.<.<.<.<.<.<.<.<.<.<.<.<.<.<.<.<.<.<.<.<.<.<.<.<.<.<.",
"<.<.<.<.<.<.<.<.<.<.<.<.<.<.<.<.<.<.<.<.<.<.<.<.<.<.<.<.<.<.<.<.<.<.<.<.<.<.<.<.<.<.<.<.<.<.<.<.<.<.<.<.<.<.<.<.<.<.<.<.<.<.<.<.4.<.<.^ 3.G.`.P.P.].G.1./ <.6.*.3.`.`.P.`._.f._.I.`.G.3.<.-.,.-.K [.jXpX#XH 2.2.1.1.5.4.-.-.<.<.<.<.<.<.<.<.<.<.<.<.<.<.<.<.<.<.<.<.<.<.<.<.<.-.-.-.-.;.&.l i i l l &.&.&.*.*.*.2.<.<.<.<.<.<.<.<.<.<.<.<.<.<.<.<.<.<.<.<.<.<.<.<.<.2.2.2.2.<.2.-.-.-.-.-.-.-.*.G G G G R &.*.*.*.*.&.&.&.&.*.&.&.&.&.&.&.&.&.&.*.&.R R R *.*.*.-.2.-.-.,.-.-.2.<.<.<.1./ i.`.G.I.Y.P.J.].F.2.^ 6.<.1.F.|.`.I.'.I.I.I.'.`.i.<.<.2.<.1.! iXpXkX9XI <.<.<.<.<.<.<.<.<.<.<.<.<.<.<.<.<.<.<.<.<.<.<.<.<.<.<.<.<.<.<.<.<.<.<.<.<.<.<.<.<.<.<.<.<.<.<.2.2.<.2.2.2.2.-.-.:.:.:.*.*.*.&.&.W W W R R R R *.*.*.<.<.6.4.6.<.<.<.<.<.<.<.<.<.<.<.<.<.<.<.<.<.<.<.<.<.<.<.<.<.<.<.<.<.<.<.<.<.<.<.<.<.<.<.<.<.<.<.<.<.<.<.<.<.<.<.<.<.<.<.1.1.G.`.`.}._.f.'.W.<.<.6.<.^ S.J.P.I.I.I._.`.p.1.<.<.1.~ tXdXkXdXyXf.I <.4.4.-.<.<.<.<.<.<.<.<.<.<.<.<.<.<.<.<.<.<.<.<.<.<.<.<.<.<.<.<.<.<.<.<.<.<.<.<.<.<.<.<.<.<.<.<.<.<.<.<.<.<.<.<.<.<.<.<.<.<.<.<.<.<.<.<.<.",
"<.<.<.<.<.<.<.<.<.<.<.<.<.<.<.<.<.<.<.<.<.<.<.<.<.<.<.<.<.<.<.<.<.<.<.<.<.<.<.<.<.<.<.<.<.<.<.<.<.<.<.<.<.<.<.<.<.<.<.<.<.<.<.<.4.<.<.1.3.G.`.P.P.].G.1.<.<.6.*.3.Q.`.P.`.I.f.I.I.`.G.3.<.2.,.2.K [.zXpXiXK 2.2.5.5.5.4.-.-.<.<.<.<.<.<.<.<.<.<.<.<.<.<.<.<.<.<.<.<.<.<.<.<.<.-.,.,.:.-.;.;.&.&.l i l l &.*.G H <.<.<.<.<.<.<.<.<.<.<.<.<.<.<.<.<.<.<.<.<.<.<.<.<.<.2.2.2.2.<.<.<.2.<.-.<.-.-.-.G G G &.&.&.*.&.*.*.&.&.*.*.*.*.&.&.&.&.&.&.&.i &.&.R R R *.*.*.-.2.-.-.,.,.-.2.<.<.<.1./ i.Q.G.P.Y.P.J.].F.2.^ 6.<.1.F.|.`.I.I.I.I.I._.Q.i.<.<.2.<.1.! iXjXkXeX/ <.<.<.<.<.<.<.<.<.<.<.<.<.<.<.<.<.<.<.<.<.<.<.<.<.<.<.<.<.<.<.<.<.<.<.<.<.<.<.<.<.<.<.<.<.<.<.2.2.<.<.<.2.2.2.2.-.:.:.:.:.:.*.R R R R R R R R *.*.-.<.4.4.4.4.<.<.<.<.<.<.<.<.<.<.<.<.<.<.<.<.<.<.<.<.<.<.<.<.<.<.<.<.<.<.<.<.<.<.<.<.<.<.<.<.<.<.<.<.<.<.<.<.<.<.<.<.<.<.1.1.1.G.`.P._._.f.'.W.<.<.6.<.1.S.J.P.P.I.I._.|.F.1.<.<.1.~ tXdXkXdXpXf.I <.4.4.<.<.<.<.<.<.<.<.<.<.<.<.<.<.<.<.<.<.<.<.<.<.<.<.<.<.<.<.<.<.<.<.<.<.<.<.<.<.<.<.<.<.<.<.<.<.<.<.<.<.<.<.<.<.<.<.<.<.<.<.<.<.<.<.<.<.",
"<.<.<.<.<.<.<.<.<.<.<.<.<.<.<.<.<.<.<.<.<.<.<.<.<.<.<.<.<.<.<.<.<.<.<.<.<.<.<.<.<.<.<.<.<.<.<.<.<.<.<.<.<.<.<.<.<.<.<.<.<.<.<.<.4.<.<.<.3.G.`.P.P.].G.1.<.4.6.*.3.Q.`.P.`._.f.I.`.`.G.3.<.<.6.2.! [.zXpXiX^ 6.6.5.5.5.4.:.:.4.<.<.<.<.<.<.<.<.<.<.<.<.<.<.<.<.<.<.1.<.<.1.<.<.<.6.6.,.-.:.-.-.=.&.&.&.&.R E H H <.<.<.<.<.<.<.<.<.<.<.<.<.<.<.<.<.<.<.<.<.<.<.<.<.<.<.<.<.<.<.<.<.2.<.<.<.<.<.<.*.*.*.*.*.&.&.&.R R G &.&.*.*.*.;.l ;.&.&.&.&.R R R R *.*.*.-.-.2.2.<.2.6.6.2.2.<.<.<.1./ i.~.J.I.I.P.J.].F.2.^ 6.^ 1.F.|.`.I.I.I.I.I.`.Q.i.<.<.2.^ ^ ~ iXjXkXeX/ <.<.<.<.<.<.<.<.<.<.<.<.<.<.<.<.<.<.<.<.<.<.<.<.<.<.<.<.<.<.<.<.<.<.<.<.<.<.<.<.<.<.<.<.<.<.<.<.<.<.2.2.2.<.2.6.6.-.-.:.:.-.:.-.*.-.-.-.:.:.-.*.*.<.<.<.<.<.<.<.<.<.<.<.<.<.<.<.<.<.<.<.<.<.<.<.<.<.<.<.<.<.<.<.<.<.<.<.<.<.<.<.<.<.<.<.<.<.<.<.<.<.<.<.<.<.<.<.<.<.<.<.<.<.1.1.F.`.I._._.f.`.Q.1.<.6.<.^ F.J.P.I.I.I.`.|.F.1.<.<.1.{ yXdXkXdXjXI.%.<.4.4.<.<.<.<.<.<.<.<.<.<.<.<.<.<.<.<.<.<.<.<.<.<.<.<.<.<.<.<.<.<.<.<.<.<.<.<.<.<.<.<.<.<.<.<.<.<.<.<.<.<.<.<.<.<.<.<.<.<.<.<.<.<.<.<.<.<.",
"<.<.<.<.<.<.<.<.<.<.<.<.<.<.<.<.<.<.<.<.<.<.<.<.<.<.<.<.<.<.<.<.<.<.<.<.<.<.<.<.<.<.<.<.<.<.<.<.<.<.<.<.<.<.<.<.<.<.<.<.<.<.<.<.4.<.<.<.3.G.`.P.P.].G.1./ <.6.*.3.Q.`.P.`.I.f.I.I.`.G.3.<.<.6.2.! [.zXjXiX! 6.6.1.5.5.4.:.:.4.4.<.<.<.<.<.<.<.<.<.<.<.<.<.<.<.<.<.<.<.<.1.<.<.<.<.2.-.-.,.,.,.,.:.:.:.-.-.<.<.<.<.<.<.<.<.2.2.2.<.<.<.<.<.<.<.<.<.<.<.<.<.<.<.<.<.<.<.<.<.<.<.<.<.<.<.<.4.4.4.6.-.:.:.:.*.*.&.&.G G G O.G *.*.*.;.;.;.&.&.R R R R R *.*.*.-.-.2.<.<.<.<.<.2.2.<.<.<.<.1./ y.Q.J.I.I.P.P.].F.2.^ 2.^ 1.F.|.`.I.I.I.I.I.`.P.i.<.<.2.^ ^ ~ iXjXkXeX1.<.<.<.<.<.<.<.<.<.<.<.<.<.<.<.<.<.<.<.<.<.<.<.<.<.<.<.<.<.<.<.<.<.<.<.<.<.<.<.<.<.<.<.<.<.<.<.<.<.<.<.<.2.<.<.<.2.2.-.4.6.6.,.,.,.,.,.,.6.6.6.-.<.<.<.<.<.<.<.<.<.<.<.<.<.<.<.<.<.<.<.<.<.<.<.<.<.<.<.<.<.<.<.<.<.<.<.<.<.<.<.<.<.<.<.<.<.<.<.<.<.<.<.<.<.<.<.<.<.<.2.<.<.<.1.1.Q.`.P._._.f._.Q.1.1.6.<.^ F.Q.P.I.`.I._.|.F.1.6.<.1.{ uXdXkXdXjXI.%.<.5.4.<.4.<.<.<.<.<.<.<.<.<.<.<.<.<.<.<.<.<.<.<.<.<.<.<.<.<.<.<.<.<.<.<.<.<.<.<.<.<.<.<.<.<.<.<.<.<.<.<.<.<.<.<.<.<.<.<.<.<.<.<.<.<.<.<.<.",
"<.<.<.<.<.<.<.<.<.<.<.<.<.<.<.<.<.<.<.<.<.<.<.<.<.<.<.<.<.<.<.<.<.<.<.<.<.<.<.<.<.<.<.<.<.<.<.<.<.<.<.<.<.<.<.<.<.<.<.<.<.<.<.<.4.<.<.^ i.G.`.P.P._.G.1.1.6.6.*.3.Q.`.P.`.I.f.I.`.`.a.3.<.<.6.<.~ ;XzXjXiX/ 3.6.1.5.4.4.,.:.4.4.<.<.<.<.<.<.<.<.<.<.<.<.<.<.<.<.<.1.1.1.<.<.<.<.<.-.-.-.-.6.6.,.-.2.2.2.4.4.<.1.<.<.1.<.2.2.2.2.<.<.<.<.<.<.<.<.<.<.<.<.<.<.<.<.<.^ ( ( 2.2.<.<.<.<.<.<.<.6.6.6.-.,.-.:.*.*.R *.G G G G G G R &.&.l l &.&.&.R R R R *.*.-.-.2.2.<.<.<.<.<.<.<.<.<.*.<.1./ y.~.J.I.I.P.J.].F.1.^ 6.1.1.Q._.`.P.I.I.I.I.`.G.i.<.<.2.^ ^ ~ pXjXkXeXr.1.<.<.<.<.<.<.<.<.<.2.2.2.2.2.<.<.<.<.<.<.<.<.<.<.<.<.<.<.<.<.<.<.<.<.<.<.<.<.<.<.<.<.<.<.<.<.<.1.<.<.<.<.<.<.<.<.<.2.2.2.6.6.-.-.-.-.-.-.-.-.2.2.2.2.2.<.<.<.<.<.<.<.<.<.<.<.<.<.<.<.<.<.<.<.<.<.<.<.<.<.<.<.<.<.<.<.<.<.<.<.<.<.<.<.<.<.<.<.<.<.<.<.<.<.<.<.<.2.2.2.2.<.1.1.1.Q.`.P._.I.f._.`.1.1.5.^ ^ S.J.P.P.`.`._.|.F.1.6.<.1.} uXdXfXdXjXI.1.<.4.4.<.6.<.<.<.<.<.<.<.<.<.<.<.<.<.<.<.<.<.<.<.<.<.<.<.<.<.<.<.<.<.<.<.<.<.<.<.<.<.<.<.<.<.<.<.<.<.<.<.<.<.<.<.<.<.<.<.<.<.<.<.<.<.<.<.<.",
"<.<.<.<.<.<.<.<.<.<.<.<.<.<.<.<.<.<.<.<.<.<.<.<.<.<.<.<.<.<.<.<.<.<.<.<.<.<.<.<.<.<.<.<.<.<.<.<.<.<.<.<.<.<.<.<.<.<.<.<.<.<.<.<.4.<.<.^ i.G.`.P.P.].G.1.<.6.6.*.5.Q.`.P.`.I.I.I.I.`.a.i.<.<.6.<.~ ;XzXjXiX/ 7.6.1.5.5.4.:.:.4.4.<.<.<.<.<.<.<.<.<.<.<.<.<.<.<.<.<.1.<.1.<.<.<.<.-.<.<.-.<.2.6.6.2.2.2.<.4.4.<.<.<.<.1.2.2.2.-.-.<.<.<.<.<.<.<.<.<.<.<.<.<.<.<.<.<.^ ( ( <.2.<.<.<.<.<.<.<.6.6.6.,.,.-.-.:.:.*.:.R R R R R R R R l l l l &.&.R R R *.*.-.-.2.2.<.<.<.<.<.<.<.<.<.<.*.<.1./ y.~.J.I.I.P.J.].F.1.^ 6.<.1.Q._.`.f.I.P.P.P.`.G.i.1.<.2.E ^ ~ pXjXbXjXr.5.<.<.<.<.<.<.<.2.2.2.2.-.-.2.<.<.<.<.<.<.<.<.<.<.<.<.<.<.<.<.<.<.<.<.<.<.<.<.<.<.<.<.<.<.<.<.<.1.<.<.<.<.<.<.<.<.<.<.2.2.-.-.-.-.<.-.<.-.2.2.2.2.2.2.2.2.<.<.<.<.<.<.<.<.<.<.<.<.<.<.<.<.<.<.<.<.<.<.<.<.<.<.<.<.<.<.<.<.<.<.<.<.<.<.<.<.<.<.<.<.<.<.<.<.<.<.<.2.2.2.2.2.^ <.5.Q.].P.P.I.I._.`.5.1.5.^ ^ S.Q.P.P.`.`._.|.S.1.6.<.1.} lXdXfXdXjXI.1.<.4.4.<.6.<.<.<.<.<.<.<.<.<.<.<.<.<.<.<.<.<.<.<.<.<.<.<.<.<.<.<.<.<.<.<.<.<.<.<.<.<.<.<.<.<.<.<.<.<.<.<.<.<.<.<.<.<.<.<.<.<.<.<.<.<.<.<.<.",
"<.<.<.<.<.<.<.<.<.<.<.<.<.<.<.<.<.<.<.<.<.<.<.<.<.<.<.<.<.<.<.<.<.<.<.<.<.<.<.<.<.<.<.<.<.<.<.<.<.<.<.<.<.<.<.<.<.<.<.<.<.<.<.<.4.<.<.1.i.G.`.P.P.].G.1.1.6.6.*.3.Q.`.P.`.I.I.I.`.`.a.i.<.<.4.<.~ ;XzXjXpX1.7.<.1.5.5.4.:.:.4.4.<.<.<.<.<.<.<.<.<.<.<.<.<.<.<.<.<.1.1.<.<.<.<.<.<.<.<.<.<.<.6.6.<.<.<.<.<.<.<.<.1.1.1.2.2.-.-.-.<.<.<.<.<.<.<.<.<.<.<.<.<.<.<.<.<.^ ^ ( <.<.1.1.<.<.<.<.<.1.1.6.-.-.-.-.-.,.,.,.*.:.:.*.*.*.*.*.i i i l &.&.*.*.*.*.*.-.2.2.2.<.<.<.<.<.<.<.<.<.<.<.<.1./ y.~.J.P.I.P.J.].F.1.^ 2.^ 1.Q.|.`.I.I.P.P.P.`.G.3.1.2.2.Q ^ / pXjXbXjXi.5.6.<.<.<.<.<.<.2.2.-.-.-.-.-.<.<.<.<.<.<.<.<.<.<.<.<.<.<.<.<.<.<.<.<.<.<.<.<.<.<.<.<.<.<.<.<.<.1.1.1.<.<.<.<.<.<.<.<.<.<.-.-.6.6.6.6.6.6.6.6.2.2.2.6.6.2.2.2.<.<.<.<.<.<.<.<.<.<.<.<.<.<.<.<.<.<.<.<.<.<.<.<.<.<.<.<.<.<.<.<.<.<.<.<.<.<.<.<.<.<.<.<.<.<.<.<.2.2.-.-.2.2.<.1.7.~.].G.`.I.I.`.`.5.<.5.^ ^ S.Q.P.P.`.I.`.|.F.1.6.*.1. .lXdXfXdXzXI.1.<.4.4.<.6.<.<.<.<.<.<.<.<.<.<.<.<.<.<.<.<.<.<.<.<.<.<.<.<.<.<.<.<.<.<.<.<.<.<.<.<.<.<.<.<.<.<.<.<.<.<.<.<.<.<.<.<.<.<.<.<.<.<.<.<.<.<.<.<.",
"<.<.<.<.<.<.<.<.<.<.<.<.<.<.<.<.<.<.<.<.<.<.<.<.<.<.<.<.<.<.<.<.<.<.<.<.<.<.<.<.<.<.<.<.<.<.<.<.<.<.<.<.<.<.<.<.<.<.<.<.<.<.<.<.<.<.<.1.i.G.P.P.P.].G.1.<.6.6.*.3.Q.`.P.`.I.f.I.`.`.a.i.1.<.6.1.{ ;XzXjXpX/ 3.1.1.5.4.:.,.:.4.4.<.<.<.<.<.<.<.<.<.<.<.<.<.<.<.<.<.1.<.<.<.<.<.<.<.<.<.<.4.<.4.4.4.4.4.<.4.4.<.<.1.<.<.2.2.-.-.-.<.<.<.<.<.<.<.<.<.<.<.<.<.<.<.<.<.<.2.2.<.<.1.<.<.<.<.<.<.<.1.<.-.-.-.,.6.6.6.6.6.6.-.-.-.:.*.*.G i i R &.*.*.*.*.-.-.-.2.2.2.<.<.<.<.<.<.<.<.<.<.<.<.1./ y.~.J.P.I.P.J.].F.2.^ 2.^ 1.Q.|.`.f.I.I.I.P.`.F.3.1.2.2.^ ^ ~ pXjXnXjXi.5.6.<.<.<.<.<.2.2.2.2.-.-.2.2.<.<.<.<.<.<.<.<.<.<.<.<.<.<.<.<.<.<.<.<.<.<.<.<.<.<.<.<.<.<.<.<.<.1.1.1.<.<.<.<.6.6.6.6.6.<.<.<.<.<.<.<.<.<.<.<.<.2.2.6.6.6.6.2.<.<.<.<.<.<.<.<.<.<.<.<.<.<.<.<.<.<.<.<.<.<.<.<.<.<.<.<.<.<.<.<.<.<.<.<.<.<.<.<.<.<.<.<.<.<.<.<.<.2.2.2.2.2.<.2.7.~.].P.`.P.P.`.|.5.<.5.^ ^ S.J.P.P.`.`._.|.F.1.6.*.1.u.jXdXfXfXzXI.r.<.4.<.2.6.<.<.<.<.<.<.<.<.<.<.<.2.<.2.<.<.<.<.<.<.<.<.<.<.<.<.<.<.<.<.<.<.<.<.<.<.<.<.<.<.<.<.<.<.<.<.<.<.<.<.<.<.<.<.<.<.<.<.<.<.<.<.<.<.",
"<.<.<.<.<.<.<.<.<.<.<.<.<.<.<.<.<.<.<.<.<.<.<.<.<.<.<.<.<.<.<.<.<.<.<.<.<.<.<.<.<.<.<.<.<.<.<.<.<.<.<.<.<.<.<.<.<.<.<.<.<.<.<.<.-.6.^ ^ S.U.P.P.P.P.a.1.1.6.<.H 1.J._.P.`.I.I.'.I.`.G.3.1.<.2.<.~ 1XdXzXpX} I 1.<.<.<.-.,.2.<.<.<.2.2.2.2.2.<.2.2.2.2.2.2.2.2.2.<.<.<.<.<.<.<.<.<.<.<.<.<.<.<.<.<.<.<.<.<.<.<.<.<.<.<.<.<.2.<.<.<.<.<.<.<.<.<.<.<.<.<.<.<.<.<.<.<.<.<.<.<.<.<.<.<.<.<.<.<.<.<.<.<.<.<.<.<.<.<.<.<.<.<.<.<.<.<.<.2.2.2.2.2.2.2.<.<.<.<.<.<.<.<.<.<.<.<.<.4.<.<.<.4.<.<.1./ i.~.J.P.I.P.J.].F.2.( 2.^ 5.Q.].P.P._.I.I.I.G.Q.H 6.-.<.<.^ ~ sXgXdXjXG.^ ^ 6.<.<.2.<.<.<.2.<.<.1.1.1.<.<.<.<.<.<.<.2.<.<.2.2.2.2.-.2.<.<.<.<.<.<.<.<.<.<.<.<.<.<.<.<.<.<.<.<.<.<.<.<.<.<.<.<.<.<.<.<.<.<.<.<.<.<.<.<.<.<.<.<.<.<.<.<.<.<.<.<.<.<.<.<.<.<.<.<.<.<.<.<.<.<.<.<.<.<.<.<.<.<.<.<.<.<.<.<.<.<.<.<.<.<.<.<.<.<.<.<.<.<.<.<.<.<.<.6.2.<.1.^ i.`.`.P.P.P.G.`.Q.5.1.5.<.^ F.].P.`.`.I._.`.p.1.<.6.K P.dXdXfXfXzX8XI $.7.-.-.-.<.<.<.<.<.<.2.2.2.2.2.2.-.-.-.2.<.<.<.<.<.<.<.<.<.<.<.<.<.<.<.<.<.<.<.<.<.<.<.<.<.<.<.<.<.<.<.<.<.<.<.<.<.<.<.<.<.<.<.<.<.<.<.<.",
"<.<.<.<.<.<.<.<.<.<.<.<.<.<.<.<.<.<.<.<.<.<.<.<.<.<.<.<.<.<.<.<.<.<.<.<.<.<.<.<.<.<.<.<.<.<.<.<.<.<.<.<.<.<.<.<.<.<.<.<.<.<.<.<.*.6.^ ^ S.P.P.P.P.P.y.1.1.6.<.F 1.J._.P.P.I.I.'.I.`.G.3.1.2.2.^ { yXdXjXpXt.I 1.<.2.-.-.4.<.<.<.<.<.<.<.<.<.<.<.<.<.<.<.<.<.<.<.<.<.<.<.<.<.<.<.<.<.<.<.<.<.<.<.<.<.<.<.<.<.<.<.<.<.<.<.<.<.<.<.<.<.<.<.<.<.<.<.<.<.<.<.<.<.<.<.<.<.<.<.<.<.<.<.<.<.<.<.<.<.<.<.<.<.<.<.<.<.<.<.<.<.<.<.<.<.<.<.<.<.<.<.<.<.<.<.<.<.<.<.<.<.<.<.<.<.<.<.4.<.<.<.4.<.<.1./ i.~.J.P.U.P.G.].F.2.( 2.^ 5.F.|.P.P._.I.I.I.G.Q.H 6.-.<.1./ ~ sXgXdXgXG.^ / 5.1.<.2.<.<.<.<.<.<.1.1.1.<.<.<.<.<.<.<.<.<.<.2.2.2.2.-.2.<.<.<.<.<.<.<.<.<.<.<.<.<.<.<.<.<.<.<.<.<.<.<.<.<.<.<.<.<.<.<.<.<.<.<.<.<.<.<.<.<.<.<.<.<.<.<.<.<.<.<.<.<.<.<.<.<.<.<.<.<.<.<.<.<.<.<.<.<.<.<.<.<.<.<.<.<.<.<.<.<.<.<.<.<.<.<.<.<.<.<.<.<.<.<.<.<.<.<.6.6.<.1.^ y.`.`.f.P.P.G.Q./.5.1.5.<.^ F.~.P.`.'.I._.`.p.1.<.6.K P.dXfXfXfXkX9XI $.5.-.-.-.<.<.<.<.<.<.2.2.2.2.2.2.-.-.-.2.<.<.<.<.<.<.<.<.<.<.<.<.<.<.<.<.<.<.<.<.<.<.<.<.<.<.<.<.<.<.<.<.<.<.<.<.<.<.<.<.<.<.<.<.<.<.<.<.",
"<.<.<.<.<.<.<.<.<.<.<.<.<.<.<.<.<.<.<.<.<.<.<.<.<.<.<.<.<.<.<.<.<.<.<.<.<.<.<.<.<.<.<.<.<.<.<.<.<.<.<.<.<.<.<.<.<.<.<.<.<.<.<.<.<.6.^ / S.P.P.P.P.P.y./ 1.6.-.A 3.J._.P.P.I.I.'.I.`.G.3.1.2.,.<.{ uXgXjXpXu.r.1.<.,.,.,.,.4.4.4.<.1.1.1.1.1.1.1.1.1.1.1.1.1.1.<.<.<.<.<.<.<.<.<.<.<.<.<.<.<.<.<.<.<.<.<.<.<.<.<.<.<.<.<.<.<.<.<.<.<.<.<.<.<.<.<.<.<.<.<.<.<.<.<.<.<.<.<.<.<.<.<.<.<.<.<.<.<.<.<.<.<.<.<.<.<.<.<.<.<.<.<.<.<.<.<.<.<.<.<.<.<.<.<.<.<.<.<.<.<.<.<.<.<.<.<.4.4.<.<.4.<.<.1.P i.~.J.P.I.P.G.].F.2.<.6.<.1.F.`.P.P._.I.I.P.G.Q.Z 2.-.<.<./ ~ sXgXfXgXP./ ^ 5.6.<.2.<.<.<.<.<.<.<.<.<.<.4.<.<.<.<.4.4.<.<.<.<.<.<.<.<.<.<.<.<.<.<.<.<.<.<.<.<.<.<.<.<.<.<.<.<.<.<.<.<.<.<.<.<.<.<.<.<.<.<.<.<.<.<.<.<.<.<.<.<.<.<.<.<.<.<.<.<.<.<.<.<.<.<.<.<.<.<.<.<.<.<.<.<.<.<.<.<.<.<.<.<.<.<.<.<.<.<.<.<.<.<.<.<.<.<.<.<.<.<.<.<.<.<.<.2.2.2.1.^ y.`.`.P.P.P.G.Q.Q.5.1.5.^ ^ F.~.P.P.`.I._.`.p.1.<.6.K I.gXfXfXfXkXpXr.$.6.-.-.-.<.<.<.<.<.<.<.<.<.<.2.2.<.<.2.2.<.<.<.<.<.<.<.<.<.<.<.<.<.<.<.<.<.<.<.<.<.<.<.<.<.<.<.<.<.<.<.<.<.<.<.<.<.<.<.<.<.<.<.<.<.<.<.<.",
"<.<.<.<.<.<.<.<.<.<.<.<.<.<.<.<.<.<.<.<.<.<.<.<.<.<.<.<.<.<.<.<.<.<.<.<.<.<.<.<.<.<.<.<.<.<.<.<.<.<.<.<.<.<.<.<.<.<.<.<.<.<.<.<.<.6.^ / S.P.P.P.P.P.y./ 1.6.*.C 3.J.].P.P.I.I.I.I.`.G.3.1.2.,.<.{ uXlXjXjXf.r.<.<.,.,.,.,.4.4.4.1.1.1.1.1.1.1.1.1.1.1.1.1.1.1.1.<.<.<.<.<.<.<.<.<.<.<.<.<.<.<.<.<.<.<.<.<.<.<.<.<.<.<.<.<.<.<.<.<.<.<.<.<.<.<.<.<.<.<.<.<.<.<.<.<.<.<.<.<.<.<.<.<.<.<.<.<.<.<.<.<.<.<.<.<.<.<.<.<.<.<.<.<.<.<.<.<.<.<.<.<.<.<.<.<.<.<.<.<.<.<.<.2.<.<.<.4.6.<.<.4.<.<.1.P i.~.J.P.I.P.J.|.F.2.<.2.^ 1.G.`.`.I.I.I.I.P.Q.Q.C <.<.<.<.1.{ lXgXfXkXP./ ! 1.5.<.6.<.<.<.<.<.<.<.<.<.<.4.<.<.<.4.4.4.<.<.<.<.<.<.<.<.<.<.<.<.<.<.<.<.<.<.<.<.<.<.<.<.<.<.<.<.<.<.<.<.<.<.<.<.<.<.<.<.<.<.<.<.<.<.<.<.<.<.<.<.<.<.<.<.<.<.<.<.<.<.<.<.<.<.<.<.<.<.<.<.<.<.<.<.<.<.<.<.<.<.<.<.<.<.<.<.<.<.<.<.<.<.<.<.<.<.<.<.<.<.<.<.<.<.<.2.2.2.1.^ y.`.`.P.P.P.G.~.Q.5.1.6.^ ^ F.Q.P.P.`.I._.].p.1.<.6.K I.gXfXfXfXkXpXr.$.6.-.,.-.<.<.<.<.<.<.<.<.<.<.<.<.<.<.<.<.<.<.<.<.<.<.<.<.<.<.<.<.<.<.<.<.<.<.<.<.<.<.<.<.<.<.<.<.<.<.<.<.<.<.<.<.<.<.<.<.<.<.<.<.<.<.<.<.",
"<.<.<.<.<.<.<.<.<.<.<.<.<.<.<.<.<.<.<.<.<.<.<.<.<.<.<.<.<.<.<.<.<.<.<.<.<.<.<.<.<.<.<.<.<.<.<.<.<.<.<.<.<.<.<.<.<.<.<.<.<.<.<.<.<.6.^ / S.P.P.P.P.J.y./ <.6.*.7 y.J.U.P.P.I.I.I.I.`.a.3.1.2.-.<.{ lXjXjXjX'.t.$.<.4.,.,.,.4.4.4.<.<.<.<.<.<.<.<.<.<.<.<.1.<.<.<.<.<.<.<.<.<.<.<.<.<.<.<.<.<.<.<.<.4.4.4.4.4.4.4.4.4.4.4.4.4.4.<.<.<.<.<.<.<.<.<.<.<.<.<.<.<.<.<.<.<.<.<.<.<.<.<.<.<.<.<.<.<.<.<.<.<.<.<.<.<.<.<.<.<.<.<.<.<.<.<.<.<.<.<.<.<.<.<.<.<.<.<.<.<.<.<.2.<.<.<.<.<.<.<.4.<.<.1./ i.~.J.P.I.P.J.|.F.1.1.1.^ 1.a._.`.I.I.I.I.P.Q.Q.C <.<.<.1.1.} lXjXkXfXY./ K 1.1.1.6.<.<.4.:.4.4.<.4.<.4.4.4.4.4.4.4.4.5.5.4.<.4.<.4.<.<.<.<.<.<.<.<.<.<.<.<.<.<.<.<.<.<.<.<.<.<.<.<.<.<.<.<.<.<.<.<.<.<.<.<.<.<.<.<.<.<.<.<.<.<.<.<.<.<.<.<.<.<.<.<.<.<.<.<.<.<.<.<.<.<.<.<.<.<.<.<.<.<.<.<.<.<.<.<.<.<.<.<.<.<.<.<.<.<.<.<.<.<.<.<.<.<.<.1.2.2.2.<.^ i.`.`.P.P.P.G.J.Q.1.1.6.^ ^ S.Q.P.`.`.I._.`.a.1.<.5.L I.kXfXfXfXkXpXt.$.6.-.6.-.<.<.<.<.<.<.<.<.<.<.<.<.<.<.1.<.<.<.<.<.<.<.<.<.<.<.<.<.<.<.<.<.<.<.<.<.<.<.<.<.<.<.<.<.<.<.<.<.<.<.<.<.<.<.<.<.<.<.<.<.<.<.<.<.",
"<.<.<.<.<.<.<.<.<.<.<.<.<.<.<.<.<.<.<.<.<.<.<.<.<.<.<.<.<.<.<.<.<.<.<.<.<.<.<.<.<.<.<.<.<.<.<.<.<.<.<.<.<.<.<.<.<.<.<.<.<.<.<.<.<.6.^ / S.U.P.P.P.J.i./ <.6.*.- S.].P.G.P.I.I.I.I.`.a.3.1.<.,.<.{ lXjXjXjX8Xf.1.1.<.2.,.4.4.4.<.<.<.<.<.<.<.<.<.<.<.<.<.<.<.<.<.<.<.<.<.<.<.<.<.<.<.<.<.<.<.<.<.4.4.4.4.4.4.4.4.4.4.4.4.4.4.4.<.<.<.<.<.<.<.<.<.<.<.<.<.<.<.<.<.<.<.<.<.<.<.<.<.<.<.<.<.<.<.<.<.<.<.<.<.<.<.<.<.<.<.<.<.<.<.<.<.<.<.<.<.<.<.<.<.<.<.<.<.<.<.<.<.<.<.<.<.<.<.<.<.4.<.<.1./ i.~.P.P.I.I.P.|.F.1.1.<.P <.p._.`.`.I.I.I.`.`.Q.C *.<.<.1.1.} jXkXfXfX5X .~ / / 1.5.<.<.4.4.4.4.4.4.4.4.4.4.4.4.4.4.4.4.5.4.4.4.4.4.4.<.<.<.<.<.<.<.<.<.<.<.<.<.<.<.<.<.<.<.<.<.<.<.<.<.<.<.<.<.<.<.<.<.<.<.<.<.<.<.<.<.<.<.<.<.<.<.<.<.<.<.<.<.<.<.<.<.<.<.<.<.<.<.<.<.<.<.<.<.<.<.<.<.<.<.<.<.<.<.<.<.<.<.<.<.<.<.<.<.<.<.<.<.<.<.<.<.<.1.2.2.2.<.^ i._.`.P.P.P.G.~./.1.<.1.E ^ S.Q.P.P.`.I._.`.S.1.<.1.L L.kXfXfXfXkXpXt.$.<.<.6.-.<.<.<.<.<.<.<.<.<.<.<.<.1.1.1.1.<.<.<.<.<.<.<.<.<.<.<.<.<.<.<.<.<.<.<.<.<.<.<.<.<.<.<.<.<.<.<.<.<.<.<.<.<.<.<.<.<.<.<.<.<.<.<.<.",
"<.<.<.<.<.<.<.<.<.<.<.<.<.<.<.<.<.<.<.<.<.<.<.<.<.<.<.<.<.<.<.<.<.<.<.<.<.<.<.<.<.<.<.<.<.<.<.<.<.<.<.<.<.<.<.<.<.<.<.<.<.<.<.<.-.6.^ ^ S.U.P.P.].J.i.<.<.6.R X S.].P.G.I.I.I.I.I.`.a.3.1.2.6.1.} jXjXeXkXjX7X`.1.1.1.<.<.1.1.<.2.-.-.-.-.-.-.-.-.-.-.-.-.-.-.-.<.<.<.<.<.<.<.<.<.<.<.<.<.<.<.<.4.4.4.4.4.4.4.4.4.4.4.4.4.4.4.<.<.<.<.<.<.<.<.<.<.<.<.<.<.<.<.<.<.<.<.<.<.<.<.<.<.<.<.<.<.<.<.<.<.<.<.<.<.<.<.<.<.<.<.<.<.<.<.<.<.<.<.<.<.<.<.<.<.<.<.<.<.<.<.<.<.<.<.<.<.<.<.<.4.<.<.1./ i.~.P.I.I.I.P.|.G.1.1.<.P P a._._.`.I.'.I.`.`./.o *.<.<.1.r.} jXkXfXkXlXD.{ / / / 1.<.<.4.4.4.4.4.4.4.4.<.<.<.<.<.<.<.4.4.4.4.4.4.4.4.<.<.<.<.<.<.<.<.<.<.<.<.<.<.<.<.<.<.<.<.<.<.<.<.<.<.<.<.<.<.<.<.<.<.<.<.<.<.<.<.<.<.<.<.<.<.<.<.<.<.<.<.<.<.<.<.<.<.<.<.<.<.<.<.<.<.<.<.<.<.<.<.<.<.<.<.<.<.<.<.<.<.<.<.<.<.<.<.<.<.<.<.<.<.<.<.<.<.<.2.2.2.<.^ i.`.`.P.P.P.G.~./.1.<.1.E ^ S.J.P.`.`.`._.`.S.1.<.1.L L.zXfXfXfXkXjXu.1.1.<.6.<.<.<.<.<.<.<.<.<.<.<.<.<.<.<.5.<.<.<.<.<.<.<.<.<.<.<.<.<.<.<.<.<.<.<.<.<.<.<.<.<.<.<.<.<.<.<.<.<.<.<.<.<.<.<.<.<.<.<.<.<.<.<.<.<.",
"<.<.<.<.<.<.<.<.<.<.<.<.<.<.<.<.<.<.<.<.<.<.<.<.<.<.<.<.<.<.<.<.<.<.<.<.<.<.<.<.<.<.<.<.<.<.<.<.<.<.<.<.<.<.<.<.<.<.<.<.<.<.<.<.-.6.<.^ S.`.P.P.].J.i.1.<.6.O.X S.].P.G.P.I.I.I.I.`.a.3.1.2.6.1.| zXjX6XkXkXjX5X{ / / / / / 1.1.2.-.-.-.-.-.-.-.-.-.-.-.-.-.-.-.<.<.<.<.<.<.<.<.<.<.<.<.<.<.<.<.<.<.4.<.4.<.4.<.4.<.4.<.4.<.4.<.<.<.<.<.<.<.<.<.<.<.<.<.<.<.<.<.<.<.<.<.<.<.<.<.<.<.<.<.<.<.<.<.<.<.<.<.<.<.<.<.<.<.<.<.<.<.<.<.<.<.<.<.<.<.<.<.<.<.<.<.<.<.<.<.<.<.<.<.<.<.<.<.4.<.<.1./ i.~.P.I.I.I.P.|.G.1.1.<.P P a.{._.`.`.'.I.`.|./.o +.4.<.1.r.r.lXkXfXkXzXY.| { ~ / 1.<.<.4.4.4.4.4.4.4.2.-.2.2.2.2.<.<.4.4.4.4.4.4.4.4.<.<.<.<.<.<.<.<.<.<.<.<.<.<.<.<.<.<.<.<.<.<.<.<.<.<.<.<.<.<.<.<.<.<.<.<.<.<.<.<.<.<.<.<.<.<.<.<.<.<.<.<.<.<.<.<.<.<.<.<.<.<.<.<.<.<.<.<.<.<.<.<.<.<.<.<.<.<.<.<.<.<.<.<.<.<.<.<.<.<.<.<.<.<.<.<.<.<.<.2.2.2.<.^ i.`.`.P.P.P.G.J./.<.<.2.E ^ S.J.P.`.`.`._.~.S.1.<.5.L I.zXfXfXfXdXjXa.I 1.<.5.<.2.2.2.2.2.<.<.<.<.<.<.<.<.<.4.<.<.<.<.<.<.<.<.<.<.<.<.<.<.<.<.<.<.<.<.<.<.<.<.<.<.<.<.<.<.<.<.<.<.<.<.<.<.<.<.<.<.<.<.<.<.<.<.<.",
"<.<.<.<.<.<.<.<.<.<.<.<.<.<.<.<.<.<.<.<.<.<.<.<.<.<.<.<.<.<.<.<.<.<.<.<.<.<.<.<.<.<.<.<.<.<.<.<.<.<.<.<.<.<.<.<.<.<.<.<.<.<.<.<.<.4.<./ G.`.P.P.P.J.3.<.6.,.e q F.F.P.P.P.I.I.I.I.f.`.1.^ 6.*.1.u.dXzXfXkXkXfXdXY...~ B L { ' L ^ *.*.2.*.2.2.2.2.2.2.2.*.-.*.<.<.<.<.<.<.1.<.1.1.6.6.<.1.1.<.<.<.<.<.<.<.<.<.<.<.<.<.<.<.<.<.<.<.<.<.<.<.<.<.<.<.<.<.<.<.<.<.<.<.<.<.<.<.<.<.<.<.<.<.<.<.<.<.<.<.<.<.<.<.<.<.<.<.<.<.<.<.<.<.<.<.<.<.<.<.<.<.<.<.<.<.<.<.<.<.<.<.2.<.<.<.2.2.2.<.<.<.<.1.1.S.P.P._.`.`.|.p./ 1.7.Z F W._.`.`.'._.f.`.G./.A q *.4.<./ a.pXzXfXkXgXlXiX..K K 3.p.5.5.5.6.4.<.<.*.*.Q Q *.-.2.2.2.2.-.-.*.*.<.4.4.<.<.<.<.<.<.<.<.<.<.<.<.<.<.<.<.<.<.<.<.<.<.<.<.<.<.<.<.<.<.<.<.<.<.<.<.<.<.<.<.<.<.<.<.<.<.<.<.<.<.<.<.<.<.<.<.<.<.<.<.<.<.<.<.<.<.<.<.<.<.<.<.<.<.<.<.<.<.<.<.<.<.<.<.<.<.<.<.<.<.<.<.<.<.<.<.<.<.2.2.-.-.2.1.y.J._.`.P.J.J.~.p.<.<.<.6.2.7.J.P.P.P.P.`.Q.p.1.5.H I Y.zXhXfXnXdXjX}.r.P 1.7.5.2.-.*.-.2.2.2.<.<.<.<.<.<.<.<.<.<.<.<.<.<.<.<.<.<.<.<.<.<.<.<.<.<.<.<.<.<.<.<.<.<.<.<.<.<.<.<.<.<.<.<.<.<.<.<.<.<.<.<.<.<.<.<.<.",
"<.<.<.<.<.<.<.<.<.<.<.<.<.<.<.<.<.<.<.<.<.<.<.<.<.<.<.<.<.<.<.<.<.<.<.<.<.<.<.<.<.<.<.<.<.<.<.<.<.<.<.<.<.<.<.<.<.<.<.<.<.<.<.<.<.6.<./ a.`.`.P.G.G.1.^ 6.:.q q W.J.P.P.P.I.I.I.I.P.`.1.P 6.*.<.| :XfXqXwXwXqXdXlXyXT.K.L.L.s.u.r.1.1./ / / P K / / / 1.1.1.1.1.1.1.1.1.1.1.1.1.1.1.<.1.<.1.6.6.<.<.<.<.<.6.6.6.<.<.<.<.<.2.6.6.<.<.<.<.<.<.<.<.<.<.<.<.<.<.<.<.<.<.<.<.<.<.<.<.<.<.<.<.<.<.<.<.<.<.<.<.<.<.<.<.<.<.<.<.<.<.<.<.<.<.<.<.<.<.<.<.<.<.<.<.<.<.<.<.<.2.<.<.<.<.<.<.<.<.<.1.1.i.F.|.P.I.P.`.|.p.<.<.5.C P W._.`.`.'._.f._.G./.C q :.6.<./ G.lXzXdXdXdXlXsXI.} ~ I K $.<.<.<.5.7.p.p.m.v.3.2.3.2.2.-.*.-.2.6.6.6.6.6.<.<.<.<.<.<.<.<.<.<.<.<.<.<.<.<.<.<.<.<.<.<.<.<.<.<.<.<.<.<.<.<.<.<.<.<.<.<.<.<.<.<.<.<.<.<.<.<.<.<.<.<.<.<.<.<.<.<.<.<.<.<.<.<.<.<.<.<.<.<.<.<.<.<.<.<.<.<.<.<.<.<.<.<.<.<.<.<.<.<.<.<.<.<.<.<.<.<.2.-.-.-.2.2.3.G._.`.P.J.J.~.p.<.<.<.6.2.7.~.J.P.P.P.`.~.S.1.4.P / [.gXfXfXkXdX9XI.I U / i.3.1.2.2.2.2.2.2.2.2.2.2.2.6.<.<.<.<.<.<.<.<.<.<.<.<.<.<.<.<.<.<.<.<.<.<.<.<.<.<.<.<.<.<.<.<.<.<.<.<.<.<.<.<.<.<.<.<.<.<.<.<.<.<.<.",
"<.<.<.<.<.<.<.<.<.<.<.<.<.<.<.<.<.<.<.<.<.<.<.<.<.<.<.<.<.<.<.<.<.<.<.<.<.<.<.<.<.<.<.<.<.<.<.<.<.<.<.<.<.<.<.<.<.<.<.<.<.<.<.<.<.6.<./ G.|.P.`.G.G.1.E -.*.q q W.J.P.P.P.I.I.I.I.P.Q./ H 6.-.<.u.uXzXfXkXfXfXkXzXlXlXlXlXgXgXyXpX8X8X8X8X[.}.}.t.t.t.t.t.] ] ] I I I I P P P P 1.1.1.1.1.1.1.1.1.<.1.<.<.1.<.2.<.<.<.<.1.<.1.<.<.<.<.<.<.<.<.<.<.<.<.<.<.<.<.<.<.<.<.<.<.<.<.<.<.<.<.<.<.<.<.<.<.<.<.<.<.<.<.<.<.<.<.<.<.<.<.<.<.<.<.<.<.<.<.<.<.<.<.<.<.<.<.<.<.<.<.<.<.<.<.<.<.<.<.<.1.3.G.|.P.P.P.|.|.W.<.6.6.C H W.|.`.`.'.'.f.|.W.^.7 7 -.6.<.^ G.sXzXdXdXdXlXlXyX5X[.`.a.i.1.1.P P P I / ^ Q Q ^ 2.2.2.<.2.6.6.6.6.-.*.*.<.<.<.<.<.<.<.<.<.<.<.<.<.<.<.<.<.<.<.<.<.<.<.<.<.<.<.<.<.<.<.<.<.<.<.<.<.<.<.<.<.<.<.<.<.<.<.<.<.<.<.<.<.<.<.<.<.<.<.<.<.<.<.<.<.<.<.<.<.<.<.<.<.<.<.<.<.<.<.<.<.<.<.<.<.<.<.<.<.<.<.<.<.<.<.<.<.<.2.2.-.-.2.^ 1.a.`.`.G.G.J.~.7.<.<.2.2.( 7.~.J.P.P.`.|.).S.<.4.*.1.[.dXdXdXfXzXjX8Xu.} } { L / ! ! ^ 2.3.7.1.<.<.<.<.<.<.<.<.<.<.<.<.<.<.<.<.<.<.<.<.<.<.<.<.<.<.<.<.<.<.<.<.<.<.<.<.<.<.<.<.<.<.<.<.<.<.<.<.<.<.<.<.<.<.<.<.",
"<.<.<.<.<.<.<.<.<.<.<.<.<.<.<.<.<.<.<.<.<.<.<.<.<.<.<.<.<.<.<.<.<.<.<.<.<.<.<.<.<.<.<.<.<.<.<.<.<.<.<.<.<.<.<.<.<.<.<.<.<.<.<.<.<.5.<.1.G.|.P.`.G.F.1.*.-.&.q q W.J.P.P.P.I.I.I.'.P.G.K F 6.-.<. .;XgXdXfXdXdXhX1XyXuXgXgXgXgXjXjXjXjXjXjXjXjXjXzXzXzXjXjX9X9X9X_.`.`.P.a.a.a.a.i.i.3.3./ ^ ^ / ^ 1.1.^ 1.^ <.^ 1.1.1.1.1.^ 1.1.<.<.<.<.<.<.<.<.<.<.<.<.<.<.<.<.<.<.<.<.<.<.<.<.<.<.<.<.<.<.<.<.<.<.<.<.<.<.<.<.<.<.<.<.<.<.<.<.<.<.<.<.<.<.<.<.<.<.<.<.<.<.<.<.<.<.<.<.<.<.<.<.6.6.<./ / 1.a.`.P.P.P.~.].F.<.6.<.C H /.|.`.`.`.'.I.[.W.^.7 q :.,.6.<.p.iXlXgXzXdXgXgXgXsXlXsXsXiXiX X`.a.r.r.} / ^ ! ^ 1.1.1.1.1.<.6.2.<.<.-.*.<.<.<.<.<.<.<.<.<.<.<.<.<.<.<.<.<.<.<.<.<.<.<.<.<.<.<.<.<.<.<.<.<.<.<.<.<.<.<.<.<.<.<.<.<.<.<.<.<.<.<.<.<.<.<.<.<.<.<.<.<.<.<.<.<.<.<.<.<.<.<.<.<.<.<.<.<.<.<.<.<.<.<.<.<.<.<.<.<.<.<.<.<.<.<.<.<.<.2.2.-.-.2.^ / a.`.`.J.J.J.~.5.<.<.2.<.! 7.~.J.P.`.`.`.~.S.<.4.*.1.`.gXkXfXfXfXzXjXpX4XI.s.} / / ~ ~ / / ! ! / 1.1.<.6.5.5.5.<.<.<.<.<.<.<.<.<.<.<.<.<.<.<.<.<.<.<.<.<.<.<.<.<.<.<.<.<.<.<.<.<.<.<.<.<.<.<.<.<.<.<.<.<.<.<.<.",
"<.<.<.<.<.<.<.<.<.<.<.<.<.<.<.<.<.<.<.<.<.<.<.<.<.<.<.<.<.<.<.<.<.<.<.<.<.<.<.<.<.<.<.<.<.<.<.<.<.<.<.<.<.<.<.<.<.<.<.<.<.<.<.<.<.5.<.<.G.|.P.`.Q.F.1.<.-.l w e W.J.P.P.P.I.I.I._.I.G.K C 6.-.*.! U.iXsXlXjXgXzXlXlXlXlXlXsXlXjXjXjXjXjXzXzXzXzXjXjXjXjXjXjXjXjXlXlXlXlXsXsXsXaXaXaX#X#X#X#X@X@XF.F.F.S.p.y.y.7./ / / ! K K Z Z <.<.<.<.<.<.<.<.<.<.<.<.<.<.<.<.<.<.<.<.<.<.<.<.<.<.<.<.<.<.<.<.<.<.<.<.<.<.<.<.<.<.<.<.<.<.<.<.<.<.<.<.<.<.<.<.<.<.<.<.<.<.<.<.<.<.<.<.<.<.<.4.4.<.<.<.<.1.G.].`.`.Q.Q.).7.*.-.*.7 H /.|.Q.`.`.'.I.[.W.^.7 q :.,.6.<.^ G.[.uXzXgXgXdXuXjXlXlXsXsXsXsXpXiX8X[.Y.P.G.u. .} ~ K K P ! ^ <.1.6.5.7.<.<.<.<.<.<.<.<.<.<.<.<.<.<.<.<.<.<.<.<.<.<.<.<.<.<.<.<.<.<.<.<.<.<.<.<.<.<.<.<.<.<.<.<.<.<.<.<.<.<.<.<.<.<.<.<.<.<.<.<.<.<.<.<.<.<.<.<.<.<.<.<.<.<.<.<.<.<.<.<.<.<.<.<.<.<.<.<.<.<.<.<.<.<.<.<.<.<.2.-.-.-.2.^ / a.J.`.P.J.J.F.5.<.<.2.E Q 7.~.J.P.`.`.`.Q.7.E 6.:.<.a.yXzXkXfXqXjXzXjXjXjXyX6XY.I.K.u.u.{ I K I I P P P P P P <.<.<.<.<.<.<.<.<.<.<.<.<.<.<.<.<.<.<.<.<.<.<.<.<.<.<.<.<.<.<.<.<.<.<.<.<.<.<.<.<.<.<.<.<.<.<.<.",
"<.<.<.<.<.<.<.<.<.<.<.<.<.<.<.<.<.<.<.<.<.<.<.<.<.<.<.<.<.<.<.<.<.<.<.<.<.<.<.<.<.<.<.<.<.<.<.<.<.<.<.<.<.<.<.<.<.<.<.<.<.<.<.<.4.5.<.<.p.`.G.J.Q.F.1.*.-.e w e ~.J.P.P.P.P.I.I.I.I.`.S C <.-.2.E 7.~. XpXpXtXuXuXuXsXuXsXpXpXlXpXuXpXpXpXuXpXuXpXpXpXpXsXlXlXlXpXiXpXpXiXiXsXaXsXsXaXaXaXaXaXaXsXsXsXaXaXaXaXaX#X#X#X@X|.].].].W.B.7.7.5.6.<.<.<.<.<.<.<.<.<.<.<.<.<.<.<.<.<.<.<.<.<.<.<.<.<.<.<.<.<.<.<.<.<.<.<.<.<.<.<.<.<.<.<.<.<.<.<.<.<.<.<.<.<.<.<.<.<.<.<.<.<.<.<.<.6.2.<.<.<.1.1.i.F.|.[. X`.Q./.m.2.6.E 7 H /.|.Q.`.`.'.I.[.W.^.7 7 &.=.n.-.E ) D.Y.gXdXdXdXjXjXlXlXpXsXsXsXlXlXlXlXlXpXyX5X[.I.I.u.t.r.1./ / P P <.<.<.<.<.<.<.<.<.<.<.<.<.<.<.<.<.<.<.<.<.<.<.<.<.<.<.<.<.<.<.<.<.<.<.<.<.<.<.<.<.<.<.<.<.<.<.<.<.<.<.<.<.<.<.<.<.<.<.<.<.<.<.<.<.<.<.<.<.<.<.<.<.<.<.<.<.<.<.<.<.<.<.<.<.<.<.<.<.<.<.<.<.<.<.<.<.<.<.<.2.-.-.-.2.^ / i.G.J.].].F.S.<.<.2.2.E Y 3.~.J.P.`.`.`.G.5.H q.,.<.i.4XgXkXfXdXdXjXjXjXzXzXzXzXjXjXyXpX5X5X[.P.P.a.a.i.1.1.1.1.<.<.<.<.<.<.<.<.<.<.<.<.<.<.<.<.<.<.<.<.<.<.<.<.<.<.<.<.<.<.<.<.<.<.<.<.<.<.<.<.<.<.<.<.<.<.<.",
"<.<.<.<.<.<.<.<.<.<.<.<.<.<.<.<.<.<.<.<.<.<.<.<.<.<.<.<.<.<.<.<.<.<.<.<.<.<.<.<.<.<.<.<.<.<.<.<.<.<.<.<.<.<.<.<.<.<.<.<.<.<.<.<.<.6.<.<.p.Q.G.G.G.S.1.*.-.e , i ~.J.P.P.P.I.I.I.f.`.`.Z o E -.6.G E E / y.u.} ..{ { {  .u.u.u.u.u. .u. . . . . .D. .u. . . . . .| | | | t.u.u.u.}  . . . .y.y.y.) ) / / / / / / y.y.y.y.i.y.y.3.m.B.7.7.7.6.6.6.<.<.<.<.<.<.<.<.<.<.<.<.<.<.<.<.<.<.<.<.<.<.<.<.<.<.<.<.<.<.<.<.<.<.<.<.<.<.<.<.<.<.<.<.<.<.<.<.<.<.<.<.<.<.<.<.<.<.<.<.<.<.4.4.<.<.1.1.1.3.a.G.`.`.S.p.W.3.*.,.G 7 H (.|.Q.`.`.'.f._.W./.7 7 l ;.x.-.E ^  ...K.L.L.=X6X6X6X6XtXuXuXpXuXgXgXgXjXzXzXkXjXzXjXjXlX[._.`.a.i.1.P P <.<.<.<.<.<.<.<.<.<.<.<.<.<.<.<.<.<.<.<.<.<.<.<.<.<.<.<.<.<.<.<.<.<.<.<.<.<.<.<.<.<.<.<.<.<.<.<.<.<.<.<.<.<.<.<.<.<.<.<.<.<.<.<.<.<.<.<.<.<.<.<.<.<.<.<.<.<.<.<.<.<.<.<.<.<.<.<.<.<.<.<.<.<.<.<.<.<.2.-.-.-.2.^ ^ 3.y.G.P.].F.1.1.<.6.2.E S 1.~.P.P.`.P.Q.G.1.A 8.8.4./ s.-XdXfXzXkXdXjXdXqXdXdXkXfXkXkXkXzXjXjXlXpXpXiXiX X X|.F.B.7.7.6.<.<.<.<.<.<.<.<.<.<.<.<.<.<.<.<.<.<.<.<.<.<.<.<.<.<.<.<.<.<.<.<.<.<.<.<.<.<.<.<.<.<.<.",
"<.<.<.<.<.<.<.<.<.<.<.<.<.<.<.<.<.<.<.<.<.<.<.<.<.<.<.<.<.<.<.<.<.<.<.<.<.<.<.<.<.<.<.<.<.<.<.<.<.<.<.<.<.<.<.<.<.<.<.<.<.<.<.<.<.6.*.E p.Q.F.F.F.7.<.*.*.8 , e /.`.`.P.P.I.I.I.P.`.|.F o *.:.x.N.N.:.*.1.1.K ! / / ^ 1.1.1.P K ! T T ! ! ! ! ! T T ! ! _ _ _ ) / } } I I I I I / / ! ! P P ^ ^ 1.1./ 1.1.1.1.1.P ! ! / / / / ^ *.*.*.*.<.-.<.<.<.<.<.<.<.<.<.<.<.2.2.2.2.2.2.2.2.2.2.2.2.2.-.-.2.2.2.2.2.2.2.2.2.2.2.2.2.2.2.2.2.2.2.2.2.2.2.2.2.2.2.2.2.2.2.2.2.-.,.,.,.,.,.,.,.6.6.<.*.^ 1.5.5.6.E E -.R 9 R G 6 +./.|.Q.`.`.'.f._.W.).9 6 e ;.x.,.W 2.2.! ! ~ L ~ { ~ ~ r.y.r.r.} r.u.u.P.P.I.I.I._.[.8X X XiXiX#X#X@X/./.^.<.<.4.<.4.<.4.<.4.<.4.<.4.<.4.<.:.2.4.2.4.2.4.2.4.2.4.2.4.2.4.2.2.2.2.2.2.2.2.2.2.2.2.2.2.2.2.2.2.2.2.2.2.2.2.2.2.2.2.2.2.2.2.2.2.-.2.-.2.-.2.-.2.-.2.-.6.,.-.2.2.2.2.2.2.2.2.2.2.2.2.2.2.2.2.2.<.2.-.-.-.-.-.2.^ 1.3.S.~.~.m.E *.-.-.-.E A ( ].P.P.P.P.Q.S./ C ,.q.6./ { L.yXgXgXyXuXpXuXyX6X6X6X6X4X4X4X4X4X'.}._.`.`.`.`.G.W./.(.W.m.7.6.<.*.<.<.<.<.<.<.<.<.<.<.<.<.<.<.<.<.<.<.<.<.<.<.<.<.<.<.<.<.<.<.<.<.<.<.<.<.<.<.<.<.",
"1.1.1.2.1.1.1.1.1.<.1.<.1.<.1.<.2.2.2.2.2.2.2.2.<.<.<.<.<.<.<.<.<.1.<.1.1.1.1.1.1.1.1.1.1.1.1.1.<.1.<.1.<.1.<.1.<.1.1.1.1.1.<.1.-.-.-.-.-.2.-.2.2.*.,.*.R 9   R ).`.`.P.P.P.P.P.u.~.W.E 6 e l k ;.;.>.>.:.:.:.:.:.:.:.:.:.:.:.-.-.*.*.*.*.*.-.-.*.Q *.Q *.*.*.-.4.4.4.4.4.4.4.4.4.4.4.4.4.4.6.6.4.4.4.4.4.4.5.4.4.4.4.4.4.4.4.4.4.6.4.6.4.6.4.6.4.6.4.6.4.6.4.6.,.-.-.-.-.-.-.-.-.-.-.-.-.:.:.-.,.,.,.,.,.,.,.,.,.,.,.,.,.,.,.,.-.-.-.-.-.-.-.-.-.-.:.*.*.R R &.g h h k h l h h f w w w w w w w 0 2 w 2 2 1 1 8 7 7 *.^.|.`.l.`.}.f.Q.|.W.C 6 e l l l l ;.;.:.-.*.*.*.;.;.-.:.:.-.-.-.-.-.-.-.:.*.*.*.*.*.*.-.-.-.:.,.,.,.,.6.6.4.4.0.4.4.4.4.4.4.,.4.,.4.:.4.:.,.,.,.,.,.,.,.,.>.>.>.>.>.>.>.>.;.;.:.:.:.,.,.,.,.,.,.,.,.,.,.,.>.>.>.>.>.>.>.>.>.-.-.-.>.>.>.>.,.,.,.:.:.>.:.>.=.=.=.=.=.=.=.=.-.-.-.-.-.-.-.-.-.-.-.-.-.-.-.-.,.,.,.,.,.,.,.,.,.,.6.6.6.,.,.,.>.A.>.=.7 : S.J.U.P.G.J.F.S.^ n <.5.5.1./ 1.i.r.r.1.1.1.1.1.r.r.1.1.1.1.1.1./ / I P I / / / / / E E E E E E E E <.<.<.<.^ ^ ^ <.<.<.<.<.<.<.<.<.<.6.1.6.5.6.1.<.<.<.<.<.2.2.2.2.2.2.2.2.2.2.2.2.",
"<.<.<.<.1.1.1.1.<.<.<.<.<.<.<.<.2.2.2.2.2.2.2.<.*.*.*.*.*.*.*.<.<.<.<.<.<.<.<.<.<.<.<.<.<.<.<.<.6.6.6.6.6.6.6.6.6.6.6.6.6.6.6.6.-.-.-.-.-.-.-.-.=.&.=.R R e = *./.`.`.P.P.P.P.P.G.~.W.E 6 , 2 2 2 0 0 0 w w w w g g g g g g g e l i i i i a l a i i i i i i i i &.&.O.&.O.&.&.&.&.&.&.&.&.&.&.&.;.&.*.&.:.&.:.&.#.&.#.&.&.&.&.&.;.&.;.&.;.&.;.&.;.&.;.&.;.&.;.&.&.&.&.&.&.&.&.&.=.=.=.=.;.*.;.&.&.&.&.W &.&.&.&.&.&.&.W &.&.&.&.e e e e e e e e 8 8 8 6 7 6 6 0 2 2 2 2 2 2 2 2 f w f w f w f w d 3 d 3 4 4 4 w e e *.W.{.`.l.}.}.l.Q.|.W.G = 6 , , , 1 , 2 0 w w 4 4 4 4 w w f 4 4 4 4 w w w w w q 0 q w q w q w q w w w w w w q q q q q q q q g g g g g g g g g g g g g g g f g g g f g f f f w e w e g g h l g e g e g e g e i i i i i i i i 9 9 8 9 u u y u i u i w w w u u i i i i i i i i i e e e e i e e e e e e e i e e e w e w q w q w q w e w q w q w 4 k w i 6 C F.J.G.P.G.J.~.F.P O F <.<.<.*.<.<.<.<.<.<.<.<.<.<.<.<.<.<.<.<.<.<.<.<.<.<.<.<.<.<.<.3.3.3.3.3.3.3.3.<.<.<.2.( ( ( 2.<.<.<.<.<.<.<.<.<.<.<.<.<.<.<.<.-.-.-.-.-.2.2.2.-.-.-.-.-.-.-.-.",
"6.6.6.6.6.6.6.6.6.6.2.2.6.6.6.,.,.,.,.,.,.,.,.,.,.,.,.,.,.,.,.,.,.,.6.,.,.,.:.,.6.,.6.,.6.,.6.,.,.:.,.:.,.:.,.:.*.*.*.*.*.*.*.*.g l l l l l l l q q e q w q , :./.`.`.P.P.P.P.P.P.~.W.6.9 , 0 w 0 0 w w w w w w 2 , 2 , 2 , 2 0 0 6 6 6 0 6 0 0 0 6 0 6 0 6 0 0 , , , , , , , , 2 1 w 8 w 8 2 1 2 1 w 1 w 8 w 8 0 , 0 1 w 1 0 1 w w w w w 8 w 8 w w w w w w w 8 0 0 7 7 8 7 7 8 7 7 8 8 7 7 7 7 8 8 8 8 7 7 7 7 8 8 0 0 7 7 7 7 0 6 0 6 0 0 0 6 q q q 8 q 8 q 7 w w w w w w f w 2 2 2 2 0 2 2 2 2 2 4 2 2 2 1 0 9 D <.W.{.l.z.}.`.`.`.|.W.<.7 = 9 q q q q w w w q w w w w w q q w w w w w w w w q q q q q q q q 0 8 q q q q q w w w 4 2 w w w w 2 2 2 , 2 , 2 , 2 , 2 , 2 , 2 , 2 , 2 , , , , , , , 6 , 0 0 0 0 q w q 8 q 8 q 8 6 8 8 8 8 8 8 8 8 8 8 8 8 8 8 8 8 1 1 1 8 8 1 1 8 8 8 8 8 8 8 8 , , , , 6 , , , , , , , 6 , , , q 8 w w 8 w q 8 8 8 8 8 8 8 8 w 5 < * 8 ; C F.G.G.P.P.P.].F.K o A *.,.6.6.6.6.,.6.6.6.6.6.6.6.6.6.6.6.6.6.6.6.6.-.-.:.-.-.-.-.-.*.*.*.*.*.*.*.*.6.2.6.2.-.2.2.2.,.,.,.,.6.,.,.,.,.,.,.,.,.,.,.,.,.,.,.,.,.,.,.,.,.,.,.,.,.,.,.,.",
":.:.:.:.:.:.:.:.,.:.,.,.,.,.,.:.,.,.,.>.,.,.:.,.,.>.,.,.,.,.,.,.,.,.>.>.>.>.;.;.;.;.;.;.;.;.;.;.e g g g g g g g w w w w w w w w w w 0 w 0 w 0 w 0 , w , 0 0 , :./.`.`.P.P.P.P.P.P.J.~.F.*.6 6 g q q q q w w w w w e w w w w w w q q q q q q q q q q q q q q q w w w w w w w w w w w w w w w w w 1 1 1 1 8 1 8 1 w 4 w r w r w w 4 w w w 1 1 1 1 4 1 4 4 4 4 4 8 q q q q q q q q 7 7 7 7 7 7 7 7 q q q q q q q q q q q q q q q q w w w w w w w w q q q q q q q q w w w w w w w w w w w w w w w w w w w w w w q 9 X C 5.|. X`.l.z.f.`.`.`.Q.7.E 9 6 6 6 6 6 6 6 6 q q q 7 7 7 7 q q q q q q q 7 7 8 8 8 8 8 8 8 8 8 8 8 q q q 9 8 w w 4 4 4 4 w w u u w u u u u w w e e e e e e e e e e e w w w w q w e w e e e e q q q q w w w w 8 8 w 8 w 8 w 8 q w q w q w w w 8 8 8 8 w w w w 8 8 8 8 8 8 8 8 8 8 8 8 8 8 8 8 8 8 8 8 8 8 8 8 8 1 8 8 8 8 8 8 8 8 8 8 8 8 8 1 w w , 8 - m F.G.P.P.P.P.|.~.1.C X 0 w e O.&.&.&.O.l O.l O.l O.l &.&.&.&.&.;.&.&.:.>.:.>.:.>.:.:.,.,.,.,.,.,.,.,.:.:.:.:.:.:.:.:.:.>.,.>.,.>.>.>.,.,.,.,.,.>.,.:.>.>.:.>.,.>.:.:.:.>.:.>.:.>.:.>.",
"h g g g l h h h &.l l l &.l &.l h h h h h h h h h h h h h h h h g g f f f w w w w w w w w w w 4 2 2 4 4 4 4 4 4 4 4 4 4 4 4 4 4 w w w w w w w w w 2 f 2 w w 2 ,./.`.`.P.P.I.P.I.P.P.|.Q.4.7 + q 6 6 6 6 6 6 6 6 6 6 6 6 6 6 6 6 7 7 7 7 q 7 q q q q q q q q q 7 8 1 1 1 1 1 1 1 1 1 1 1 1 1 1 1 & & & 1 1 1 1 1 1 1 1 1 1 1 1 1 1 1 & & & 1 1 1 1 1 1 1 1 1 1 , 0 q q q 7 7 7 7 q q q q q q q q 6 6 6 6 6 6 6 6 6 6 6 6 6 6 6 6 6 6 6 6 7 7 6 6 6 6 6 6 6 6 6 6 6 6 6 6 6 6 6 6 7 7 7 q 7 7 7 7 7 7 q q 7 6 7 - C ^ F.|. X`.l.z.f.`.`.Q.Q.).H.3.C C C C C C D C C 7 7 7 7 7 7 7 7 7 7 7 7 7 7 7 6 6 6 6 6 6 6 6 6 6 6 6 6 6 6 6 , 1 1 1 , , , 1 1 , , , 1 1 1 , 6 6 6 6 6 6 6 6 7 7 7 6 7 6 6 6 6 6 6 8 6 6 6 6 6 6 6 6 6 6 6 6 0 0 0 0 0 0 0 0 0 w 0 0 q w q w 6 , , 1 8 8 8 8 8 8 8 8 8 8 8 8 8 8 8 8 8 8 8 8 8 8 8 8 8 8 8 8 8 8 8 8 8 8 8 8 8 8 8 8 8 8 8 8 w e 7 9 - n G.U.P.P.P.P._.|.a.<.7 , 2 0 w w w w w w w w w w w w w w w w w w w w 0 , 0 , 0 , 0 0 q q q q q q q q e e e e e e e e g k g k f k f k g l l l k l l g g g g g g g g l g g g g g g g g ",
"0 0 0 0 0 0 0 0 q 0 0 0 q 0 q q q q q q q q 0 0 0 0 0 0 0 0 0 0 w 4 2 2 2 2 2 2 4 4 4 4 4 4 4 4 4 4 4 4 4 4 4 4 4 4 w w w w 4 w w w w w w w w w w 0 w 2 w w 2 ,./.`.P.P.I.I.I.I.I.P.`.|.Q.<.+.*.G R R R R R R R G G e e G D G G G D D D D D D D G D D G D D D G G Y Y Y Y Y Y Y 9 9 9 9 9 9 9 9 y y i i e i i i 9 9 y y y y 9 9 e e 9 9 e G e i e e i e e e 9 G G G G G G G G G G G G O.G G G G G G G G D D G G G G G G G G G D D D D D G G D D O.O.O.O.O.O.O.O.G R G R G R G R G G G G G G G G A F G A A A A Z F.W.Q.`.`.l.'.'.I.`.`.P.`.|.~./.H.F.H.W.W.F.j.p.7.7.7.5.5.5.5.5.1.1.1.1.1.1.1.1.2.-.-.-.-.-.-.-.*.*.*.*.*.*.*.*.*.*.&.&.R W R W e e e e e e e e 9 9 9 9 9 9 9 7 7 7 7 7 7 7 7 7 6 ; 6 6 7 7 7 7 7 7 7 7 7 7 7 7 q q q q q q q q q 0 0 q 7 7 q 7 = = 6 = 6 = 6 6 6 6 6 6 6 6 6 = 6 , 6 , 6 , 6 , 6 , 6 , 6 6 6 , 8 8 8 8 8 8 8 8 8 8 6 8 6 8 8 8 % 6 = 7 O n G.P.P.P.I.P.`._.`.F.;.g w w 0 , 0 w w w w w w w w w 0 0 w w w w w 0 g w e w e w g g w w w w w w w w 0 0 0 6 0 6 0 0 0 , , , , , , , , , , , , , , , 0 6 6 0 0 0 7 7 0 0 6 0 0 0 0 0 ",
"q q q q q q q q q q q q q q q q q q q q q q q q 0 0 0 0 0 0 0 0 w w w w w w w w w w f f w w w w w w w w w w w w w w w w w w w w q q q q q q 7 7 q 6 q 6 7 7 6 6.).`.P.P.I.I.I.I.I.P.`._.{.{./.Q.W.W.W.W.W.W.W.W././././././././.(.(.(.^.^.^.W.W.(.(.(.(.^.^.^.^././././././././.Q.Q.Q.Q.Q.Q.Q.Q././././././././.W.W.W.!.W.W.W.Q.Q.Q./.Q.Q.Q.Q.).Q.Q.Q.Q.Q.Q.Q./.(.(.^.(.(.(.(.(.W.^.^.^.^.^.^.W.(.(.(.(.(.(.(.(.(.(.(.(.(.(.(.(././.(.(.(.(.(.(.W.W.W.W.W.W.W.W.^.W.^.^.^.^.^.^./.(./.(./.(./././.Q./././././.~.].|.|.P.P.I.'.I.I.I.P.P.P.J.~.|.~.~.~.).Q.`.`.`.|.|.].].].].].|.).).).).|.|.|.).~.).).)././././.(.(.(.(.(.(.(./.W.Q.Q.Q.Q.Q.Q.Q.).).Q.Q.).).)./.^.!.!.!.!.W.W.W.H.H.H.m.m.m.m.m.m.m.m.m.m.m.m.m.2.2.2.2.2.2.2.2.-.:.:.:.:.:.:.:.*.*.-.-.-.-.-.-.*.W *.Q *.W *.R R R R R R R R R R Y R Y R Y R Y R Y R Y R Y R Y 9 9 e 9 9 9 9 9 e 9 9 7 9 9 9 e e G Z E Z K P.P.I.I._.I.P.`.`.Q.6.&.e q 9 7 6 8 9 8 q 8 9 8 9 8 7 7 7 7 7 0 7 7 6 6 6 6 6 6 6 6 q 7 q q q q q q e e e e e e e e q q q q q q q q 7 8 8 8 8 8 8 7 7 q q q q q q q q q q q q q q q ",
"G G G G G G G G D D D D G G D D D G G G G G G G D D D D D D D D e e e e e e e e q q q q q q q q q q q q q q q q q q q q q 7 q q q q 7 q 7 9 7 7 9 7 9 6 7 9 7 m.Q.`.P.I.I.I.I.I._.I.f.f.`.{.{.Q.Q.Q.Q.Q.~.~.Q.Q.Q.Q.Q.Q.Q.Q.Q.Q.).).).).Q.Q./.Q./.Q./.Q.Q.Q.Q.Q._.`._.`._.`._.`._.`._.`._.`._.`.`.`.`.`.`.`.`.`._.`._.`._.`._.`._.`.`.`._.`._.`._.`.`.`.`.`.`.`.Q.Q./.Q./.Q.Q.Q.).)./.).).).).).).).).).Q.).Q.).).).).).).).).).Q.Q.Q.Q./.Q./.Q./.~./.).).).).).Q.Q.Q.Q.Q.Q.`.`.Q.Q.Q.Q.Q.Q.Q.`.`.`.`.`.Q.Q.Q.Q.Q.`.P.P.`._.I.f.I.I.P.`.P.u.a.`.`.`.`.`.`.`.`.`.P.J.G.G.G.G.G.J.J.J.P.P.P.P.P.Q.].~.Q.Q.Q.Q.Q.F.Q.Q.Q.Q.Q.Q.Q.Q.`.`._.`._.`._.`.`.`.`.`.`.`.`.`.Q.~.).~.).~.~.~.).).).).).~.).~.~.~.~.~.~.~.~.~.~.~.~.~.~.~.~.~.).).).).).).).).).).).).).).).).).).).)./.(.(.(./.(.).).).)./.).!.!.!.!.!.!.!.!.!.!.!.!.!.!.!.!.(.!.(.!.(.!.(.!.(.(.(.!.(.!.(.(.!.!.W.).F.G.[.I.f.I.'.I.f.P.`.Q.XX!.B.m.B.6.6.m.n.n.7.7.7.m.m.7.6.6.6.6.6.6.6.3.6.6.6.6.6.6.6.6.6.6.6.6.6.6.6.6.4.<.<.<.<.<.-.-.*.Q *.Q *.Q *.Q *.Q *.*.*.Q *.Q G G G G G E E E G G G G G G R G ",
"(.(.(.(.(.(.(.(.(.(.(.(.(.(.(.(././././././././././././././././././././././././.^.^.^.^.^.^.^.^.^.^.^.^.^.^.^.^.^.^.^.^.^.^.^.^.W.W.W.W.W.W.W.F.W.F.W.F.W.W.W.Q.`.`.`.`.I.I.I.I.I.I.'.`.`.`.`.`.`.`.`.`.`.`.`.`.`.`.`.`.`.`.`.`.`.P.P.P.`.P.P.P.`.P.P.P.P.P.`.`.'.'.z.'.z.'.z.'.z.'.z.'.z.'.z.'.'.'.'.'.'.'.'.'.'.'.'.'.'.'.'.'.'.'.z.z.z.'.z.'.z.'.z.'.z.'.z.'.P.G.P.P.P.P.P.P.P.P.P.P.P.P.P.P.P.P.G.G.G.G.G.P.P.P.P.P.P.P.P.P.`.P.P.P.P.P.P.P.P.P.P.P.P.P.P.P.`.`.`.`._.`._.`.`.`.`.`.`.`.`.`.`.`.`.`.`.`.`.`.`.`.`.`.I.I.I.I.I.P.P.P.P.P.P.P.P.`.`.`.`.`.`.`.P.P.P.P.P.P.P.P.P.P.P.P.P.P.P.P.`.`.`.`.`.`.`.`.`.`.`.`.`.`.`.`.'.I.z.z.z.'.z.'.'.'.'.'.z.'.z.'.`.`.`.`.`.`.`.`.`.`.`.`.`.`.`.`.`.`.`.`.`.`.Q.Q.`.Q.`.Q.`.`.`.`.`.`.`.Q.`.Q.`.`.`.`.Q.Q.Q.`.`.Q.Q.Q.Q.Q.Q.Q.Q.Q.Q.Q.Q.Q.Q.Q.Q.Q.).~.Q.~.Q.~.Q.~.Q.~.Q.~.Q.~.Q.~.Q.~.Q.~.Q.~.Q.~.Q.~.Q.~.Q.~.Q./././.Q.Q.`.`.P.I.I.I.I.I.`.`.`.`.Q.Q.Q.Q.Q.Q.Q.Q.Q.Q.Q.Q.Q.Q.Q.Q.).).).~.).).|.|.).].|.].).).).).).)./.)./.)./.)./.)./.)./.)./.).).).).~.).~.).~.).).).~.).~.).~.~.~.~.~.~.~.~.~.~.~.~.~.~.~.~.~.",
"~.~.~.~.~.~.~.~.~.~.~.~.~.~.~.~.Q.Q.`.Q.`.Q.`.Q.`.Q.`.Q.`.Q.`.`.`.`.`.`.`.`.`.`.`.`.Q.Q.`.`.`.`.Q.Q.Q.Q.Q.Q.Q.Q.Q.Q.Q.Q.Q.Q.Q.Q.~.~.~.~.~.~.~.~.~.~.~.~.~.Q.Q.`.`.`.`.`.I.I.I.I.I.I.'.'.`.`.`.`.'.'.'.'.'.'.'.'.'.'.'.'.'.'.'.I.I.P.I.I.I.I.I.I.I.I.I.I.I.I.I.I.I.'.'.z.'.I.I.'.'.'.'.'.'.'.'.'.'.'.'.'.'.'.'.'.'.'.'.'.'.'.I.'.'.'.z.z.'.'.'.'.I.I.'.'.'.'.'.I.I.P.P.P.P.P.P.P.I.I.I.I.I.P.I.P.I.I.I.I.I.U.I.P.I.I.I.P.Y.U.I.I.I.P.P.P.I.I.I.I.I.P.I.I.I.I.Y.I.'.'.'.'.'.'.'.'.'.'.'.'.'.'.'.'.'.`.`.`.`.`.`.`.P.P.P.P.I.I.I.I.P.P.P.P.P.P.P.P.`.P.`.`._._.'.I.P.P.I.I.I.I.I.I.I.I.I.I.I.I.I.I.I.'.'.'.'.'.'.'.'.I.'.'.'.'.'.'.'.I.'.'.'.'.'.'.'.'.'.'.'.'.z.z.'.`.`.`.`.`.`.`.`.`.`.`.`.`.`.`.`.`.`.`.`.`.`.`.`.`.`.`.`.`.`.`.P.P.P.P.P.P.P.P.I.I.P.P.P.P.P.`.`.`.`.`.`.`.`.`.`.`.`.`.`.`.`.`.`.`.`.Q.`.`.`.`.`.`.`.`.`.`.`.`.`.`.`.`.`.`.`.`.`.`.`.`.`.`.`.`.Q.Q.Q.Q.`.`.I.I.I.I.I.I.`.`.`.`.P.P.P.P.P.P.P.P.I.P.P.P.P.P.P.P.P.P.P.P.P.P.P.P.P.P.P.P.P.P.P.P.`.`.`.`.`.`.`.`.`.`.`.`.`.`.`.`.`.P.P.P.P.P.P.P.P.P.P.P.P.P.P.P.P.J.P.J.P.J.P.J.P.J.P.J.P.J.J.J.",
"U.U.U.U.U.U.U.U.P.P.P.P.U.P.P.P.P.P.P.P.P.P.P.P.P.P.P.P.P.P.P.P.P.I.I.I.I.I.I.I._._._._._._._.`.P.P.P.P.P.P.P.P.`.`.P.P.P.P.P.P.P.P.P.P.P.P.P.P.P.P.P.P.P.P.P.P.`.`.`.`.`.`.I.I.I.I.`.`.`.`.`.`.'.I.I.I.I.I.I.I.I.I.I.I.I.I.I.I.I.I.I.I.I.I.I.I.I.I.I.I.I.I.I.I.I.P.P.I.P.P.P.P.P.P.P.P.I.I.P.P.P.P.P.P.P.I.I.I.P.P.P.I.P.P.I.I.P.P.P.I.P.P.P.P.P.P.P.P.I.I.P.I.P.P.I.P.I.P.I.I.L.L.L.L.L.K.L.K.d.L.L.L.L.L.L.L.d.K.d.K.K.K.L.K.I.I.I.I.I.P.I.I.L.K.L.K.L.L.L.L.'.'.'.'.'.'.'.'.'.'.'.'.'.'.'.'.'.'.'._._._._.`.`.`.`.`.`.`.`.P.P.P.P.P.P.P.P.P.`.`.P.P.I.I.I.I.I.I.I.I.I.I.I.I.I.I.I.I.I.I.I.I.I.I.I.I.I.I.I.I.I.I.I.I.I.I.I.I.I.P.P.P.P.I.P.P.P.P.P.P.P.I.I.I.I.I.I.I.I.I.I.I.I.I.I.I.I.I.I.I.I.I.I.I.I.I.I.I.I.I.I.I.I.I.I.I.I.I.I.I.I.I.I.I.I.I.I.I.I.I.I.I.`.`.`.`.`.`.`.`.`.`.`.`.`.`.`.I.`.`.`.`.`.`.`.`.`.`.`.`.`.`.`.`.`.`.`.`.`.`.`.`.`.`.`.`.`.`.`.`.`.`.`.`.`.`.I.I.I.I.'.'.`.`.`.I.I.I.I.I.I.I.I.I.I.I.I.I.I.I.I.I.I.I.I.I.I.I.I.I.I.I.I.I.I.I.I.I.I.P.I.P.I.P.I.P.I.P.I.P.I.P.I.I.I.I.I.I.I.I.I.I.I.I.I.I.I.I.I.I.P.P.P.P.P.P.P.P.P.P.P.P.P.P.P.P.",
"P.P.P.P.P.P.P.P.P.P.P.P.P.P.P.P.P.I.P.P.P.P.P.P.P.P.P.P.P.P.P.P.I.I.I.I.I.I.I.I.I.I.I.I.I.I.I.I.I.I.I.I.I.I.I.I.I.I.I.I.I.I.I.I.I.I.I.I.I.I.I.I.I.I.I.I.I.I.I.I.I.`.`.`.`.`.I.I.I.I.'.`.`.`.`.I.I.I.I.I.I.I.I.I.I.I.I.I.I.I.I.I.I.I.I.I.I.I.I.I.I.I.I.I.I.I.I.I.P.P.P.P.P.P.P.P.P.P.P.P.P.P.P.P.P.P.P.P.P.P.P.P.P.P.P.P.P.P.P.P.P.P.P.P.P.P.P.P.P.P.P.P.P.P.P.P.P.L.L.L.L.I.I.I.P.I.I.I.P.P.I.I.I.I.I.I.I.I.I.I.I.I.I.I.P.P.I.P.P.P.P.P.P.P.P.P.P.P.P.P.I.P.P.I.I.'.'.'.I.'.'.'.'.'.'.'.I.I.I.'.'.`.'.'.'.I.`.`.`.`.`.`.`.`.`.`.`.P.P.P.P.P.P.P.P.P.P.P.P.P.P.P.P.P.'.P.`.P.`.P.`.P.`.P.`.P.`.I.I.I.I.I.I.I.I.I.I.I.I.I.I.I.I.I.P.P.P.P.P.P.P.P.P.P.P.P.P.P.P.P.I.I.I.I.I.I.I.I.I.I.I.I.I.I.I.I.I.I.I.I.I.I.I.I.I.I.I.I.I.I.I.I.I.I.I.I.I.I.I.I.I.I.I.I.I.I.I.I.I.'.'.'.'.'.'.'.'.'.'.'.'.'.'.'.`.`.`.`.`.`.`.`.`.`.`.`.`.`.`.`.I.`.`.`.`.`.`.`.`.`.`.`.`.`.`.`.`.`.`.`.`.`.I.I.I.I.'.`.`.`.`.I.I.L.L.I.L.I.L.I.L.I.L.I.L.I.L.I.L.I.L.I.L.I.L.L.L.I.L.I.L.I.L.I.I.I.I.I.I.I.I.I.I.I.I.I.I.I.I.I.I.I.I.I.I.I.I.I.I.I.I.I.I.I.I.I.P.P.P.P.P.P.P.P.P.P.P.P.P.P.P.P.",
"P.P.P.P.P.P.P.P.P.P.P.P.P.P.P.P.P.I.I.I.I.P.I.I.I.I.I.I.I.I.I.I.I.I.I.I.I.I.I.I.I.I.I.I.I.I.I.I.I.I.I.I.I.I.I.I.I.I.I.I.I.I.I.I.I.I.I.I.I.I.I.I.I.I.I.I.I.I.I.I.I.I.`.`.`.`.'.'.`.`.I.I.I.I.I.I.I.I.I.I.I.I.I.I.I.I.I.I.I.I.I.I.I.I.I.I.I.I.I.I.I.I.I.I.I.I.I.P.P.`.`.`.Q.`.`.Q.`.`.`.`.`.`.`.`.`.`.`.`.`.`.`.`.Q.`.`.`.`.`.`.`.`.`.`.`.Q.Q.`.`.P.`.`.`.`.`.`.P.P.P.P.I.P.P.P.P.P.P.P.P.I.I.I.I.P.P.P.P.P.P.P.P.P.P.P.P.P.P.P.P.P.P.P.P.P.P.P.P.I.I.I.I.P.P.P.P.P.P.P.P.P.P.P.P.P.P.P.P.P.P.P.P.P.I.I.P.`.`.`.`.`.`.`.`.`.`.`.`.`.P.P.P.P.P.P.P.`.`.`.`.P.P.P.P.`.`.`.`.`.`.`.`.`.`.`.`.`.`.`.`.`.`.'.'.'.'.'.'.`.`.`.'.'.`.`.P.P.P.P.J.P.P.P.P.J.P.P.P.P.J.J.P.P.I.I.I.I.I.I.I.I.I.I.I.I.I.I.I.I.`.'.`.'.`.'.`.'.`.'.`.'.`.'.I.I.I.I.I.I.I.I.I.I.I.I.I.I.I.I.I.I.I.I.I.I.I.I.I.I.I.I.I.I.I.I.I.I.I.I.I.I.I.I.I.I.I.I.I.I.I.I.I.I.I.I.I.I.I.I.I.I.I.I.I.I.I.I.I.P.P.P.P.P.I.'.'.'.'.'.`.`.`.I.P.I.I.I.I.I.I.I.I.I.I.I.I.I.I.I.I.I.I.I.I.I.I.I.I.I.I.I.I.I.I.I.I.I.I.I.I.I.I.I.I.I.I.I.I.I.I.I.I.I.I.I.I.I.I.I.I.I.I.I.I.I.I.I.I.I.P.I.P.I.P.I.P.I.P.I.P.I.P.I.I.",
"P.I.P.P.I.I.I.I.P.P.P.P.P.P.P.P.P.P.I.P.I.P.I.P.I.P.I.P.I.P.I.I.I.I.I.I.I.I.I.I.I.I.I.I.I.I.I.I.I.I.I.I.P.P.I.I.I.I.I.P.I.I.I.I.`.'.'.'.'.'.'.'.'.'.I.'.`.`.'.'.I.I.'.`.`.`.'.'.`.`.I.I.I.I.I.I.I.I.I.I.I.I.I.I.I.I.I.I.I.I.I.I.`.`.`.`.I.`.I.I.`.`.`.`.`.`.`.`.`.`.`.`.`.`.`.`.`.`.`.`.`.`.`.`.`.`.`.`.`.`.`.`.`.`.`.`.`.`.`.`.`.`.`.`.`.`.`.`.P.`.`.`.`.`.`.`.P.`.`.`._.`._._.G.G.G.G.P.G.P.G.P.G.P.G.P.G.P.J.P.P.P.P.P.P.P.P._.]._.`.`.`.`.`.P.G.P.G.G.G.G.G.`.`.`.`.`.`.`.`.`.`.`.`._._._._.`._._._.}.}.}.}._._._._._._._._._.`.`.`.`.`.`.`.`.`.`.`.`.].].`.`.`.`.`.`.`.`.`.`.`.`.`.`.`.`.`.`.`.`.`.`.`.`.`.`.`.`.`.`.`.`.`.P.P.P.P.P.P.P.P.P.P.P.P.P.P.P.P.P.P.P.P.P.P.P.P.P.P.P.P.P.P.P.I.`.`.`.`.`.`.`.`.`.`.`.`.`.`.`.`.I.I.I.I.I.I.I.I.I.I.I.I.I.I.I.I.P.P.P.P.P.P.P.P.P.P.P.P.P.P.P.P.I.I.I.I.I.I.I.I.I.I.I.I.I.I.I.I.I.I.I.I.I.I.I.I.I.I.I.I.I.I.I.I.P.P.P.P.I.P.'.'.'.`.`.`.`.`.I.I.I.I.I.I.I.I.I.I.I.I.I.I.I.I.I.I.I.I.I.I.I.I.I.I.I.I.I.I.I.P.I.I.I.I.'.I.'.I.'.I.'.I.'.P.'.I.'.I.P.P.P.P.I.P.I.P.P.P.P.P.I.P.I.P.I.P.I.P.I.P.P.P.I.P.I.I.I.P.I.P.",
"I.P.P.P.P.P.P.P.P.P.P.P.P.P.P.P.`.`.`.`.`.`.`.`.`.`.`.`.`.`.`.`.`.`.`.`.`.`.`.`.I.I.I.P.`.`.`.P.`.`.`.`.`.`.`.`.`.`.`.`.`.`.`.`.`.`.`.`.`.`.`.`.`.`.`.`.`.`.`.`.'.I.'.'.`.`.`.I.`.`.I.I.I.I.I.I.P.P.P.P.I.I.I.I.P.P.P.P.P.P.P.`.`.`.`.`.`.`.`.`.`.`.`.`.`.`.`.`.`.`.`.`.I.`.I.I.`.`.`.`.`.`.`.`.I.'.'.'.'.'.I.`.`.`.'.'.`.`.'.'.`.`.`.`.`.`.`.`.I.I.`.`.`.`.`.`.`.Q.Q.Q.Q.Q.Q.Q.|.|.|./.|.|.|./.|.|.|.|.|.|.|./.|.|.|.|.|.|.|.|.Q.Q.Q.Q.Q.Q.Q.Q.|.|.|.|.|./.|.).Q.Q.Q.~.J.J.J.~.Q.~.Q.~.].~.~.~.`.`.`.`._._.`.`.`.`.`.`.`.`.`.`.`.`.`.`.`.`.`.`.`.`.`.`.`.`.Q.Q.`.`.`.`.`.`.`.`.`.`.`.`.`.`.`.`.`.`.`.`.`.`.`.`.P.`.`.`.`.`.`.`.P.P.P.P.P.P.P.P.P.P.P.P.P.P.P.P.P.P.P.P.J.P.P.P.J.J.J.J.P.P.P.P.`.`.`.`.`.`.P.`.`.`.`.`.`.`.`.`.`.`.`.`.`.`.`.`.`.`.`.`.`.`.`.`.P.P.P.P.P.P.P.P.P.P.P.P.P.P.P.P.P.P.P.P.P.P.P.P.P.P.P.P.P.P.P.P.P.P.P.P.P.P.P.P.P.P.P.P.P.P.P.P.P.P.P.P.P.I.`.`.`.`.`.`.`.`.I.I.`.`.`.`.`.`.`.`.`.`.`.`.`.`.`.`.`.`.`.`.`.`.`.`.`.`.`.`.`.`.`.`.`.P.`.P.`.I.`.`.`.P.`.P.`.I.`.`.`.Q.`.`.`.`.`.`.`.`.`.`.`.`.`.`.`.`.`.`.`.`.`.`.`.`.`.`.`.`.`.`.",
"P.P.P.I.I.P.I.`.`.`.`.`.`.`.`.Q.Q.`.`.`.`.`.`.`.Q.Q.Q.Q.Q.Q.Q.Q.Q.Q.Q.Q.Q.Q.Q.Q.Q.Q.Q.Q.Q.Q.Q.Q.).).).).).).).).).).).).).).).).|.{.{.{.{.{.{.{.{.{.{.{.{.{.{.{.`.`.`.`.`.`.`.`.`.`.`.`.`.`.`.`.`.Q.Q.Q.Q.Q.Q.Q.Q.Q.Q.Q.Q.Q.Q.Q.Q././././././././././././././.Q.`.`.`.`.`.`.`.`.`.`.`.`.`.`.`.`.`.`.`.`.`.`.`.`.`.`.`.`.`.`.`.`.`.`.`.`.`.`.`.I.I.I.'.'.`.`.`.`.)./.^.W.W.B.B.7.5.5.5.6.5.5.5.6.5.6.6.6.6.6.6.6.6.6.6.6.6.6.6.6.7.7.7.5.5.5.5.5.5.5.5.5.6.6.5.5.7.7.7.7.7.7.7.7.7.7.7.7.7.7.7.7.p.p.i.i.i.i.i.i.p.p.p.p.p.p.p.p.F.F.F.F.F.F.F.F.G.G.F.F.F.F.F.F.Q.Q.Q.Q.Q.Q.Q.Q.Q.Q.Q.Q.Q.Q.Q.Q.~.~.Q.Q.Q.Q.Q.Q.~.~.~.~.~.~.~.Q.`.`.`.`.`.`.`.`.`.`.`.`.`.`.`.`.Q.~.~.~.~.~.~.~.~.~.~.~.~.~.Q.Q.P.P.P.P.P.P.P.P.`.`.Q.Q.Q.Q.Q.Q.Q.Q.Q.Q.Q.Q.Q.Q.Q.Q.Q.Q.Q.Q.Q.Q.~.~.~.~.~.~.~.~.~.Q.~.~.~.~.~.J.Q.`.Q.Q.`.`.`.`.`.Q.`.Q.Q.Q.`.`.`.`.Q.Q.`.`.`.`.Q.Q.Q.`.`.`.Q.Q.P.P.`.`.`.`.`.`.`.`.`.`.`.`.`.Q.Q.Q.Q.Q.Q.Q.Q.Q.Q.Q.Q.Q.Q.Q.Q.Q.Q.Q.Q.Q.Q.Q.Q.Q.Q.Q.Q.Q.Q.Q.Q.W.Q.Q.Q.Q.Q.Q.Q.Q.Q.Q.Q.Q.Q.Q.Q.Q.Q.Q.Q.Q.Q.Q.Q.Q.Q.Q.Q.Q.Q.Q.Q./.Q.Q.`.`.`.`.Q.Q.Q.`.`.`.`.`.`.`.",
"P.P.I.I.'.`.`.a.W.W.W.W.W.W.W.W.B.B.B.B.B.B.m.m.m.m.m.m.m.m.m.m.7.7.7.7.7.7.7.7.7.7.7.7.7.7.7.7.B.B.B.B.B.B.B.B.N.n.B.m.B.m.m.7.7.7.7.w.w.w.w.w.7.7.7.7.7.7.7.7.7.7.7.7.7.7.7.7.7.7.7.7.7.7.7.7.7.7.7.7.7.7.7.7.7.7.7.7.7.7.7.7.7.m.7.w.w.w.w.B.7.7.7.7.7.7.7.7.7.7.7.7.7.7.7.7.7.7.7.7.7.7.7.7.W.W.W.W.W.W.W.W.j.^.Q./././././.^.^././.Q.|. XP.I.'.'.g.I.`.|.).).V.-.R G R R i &.&.&.*.*.*.*.O.*.*.*.*.*.*.*.*.*.*.O.O.O.*.*.*.*.*.*.*.*.*.O.O.O.*.*.*.*.*.*.*.R R R R R R R R R R R R R R R R G G G G G G G G H R R R R R R R R R R R R R R R R R R R R R R R R R R R R R R R R R R R E E E E -.-.-.-.-.-.-.-.6.,.2.-.2.,.6.6.6.5.5.6.6.6.5.5.7.7.7.7.7.7.7.7.m.m.V.V.V.B.V.V.(.(.(./.).~.Q.J.|.`.P.I.I.I.I.|.|./.^.W.B.B.V.m.m.m.B.m.B.m.B.m.m.m.m.m.m.m.m.m.!.W.W.W.W.W.W.W.(.(.(.(.(.(.(.(.(.(.(.(.(.(.(.(.).).).).).).).).).).).(.(.(.W.W.m.m.m.m.m.m.m.m.m.m.F.m.m.B.B.W.m.B.W.B.B.B.B.B.B.B.B.B.B.B.B.B.B.B.w.w.w.B.B.w.7.7.7.7.7.7.w.w.w.7.7.7.7.7.7.7.7.7.7.7.7.7.7.7.7.7.7.7.7.7.7.7.B.V.B.V.B.V.B.m.B.V.B.V.m.V.B.B.(.(./././.^.(.(.V./.[.'.g.g.P.P.",
"P.P.I.I.'.'.`.G.P E :.:.:.:.:.*.*.*.*.*.*.*.*.*.*.*.*.*.*.*.*.*.*.*.*.*.*.*.*.*.*.*.*.*.*.*.*.*.G G G G G G G G e e G G G G G G G G G G G G G G *.*.*.*.*.*.*.*.*.*.*.*.*.*.*.*.*.*.*.*.*.*.*.*.*.*.*.*.*.*.*.*.G G G G G G G G G G G G G G G G *.*.*.*.*.*.*.*.*.*.*.*.*.*.*.*.*.*.*.*.*.*.*.*.:.:.:.*.*.*.*.*.+.+.H H H H H H -.*.-.2.<.p.`.f.I.4XI.g.`.`.).F.6.-.R G R W l i l l l l &.&.&.&.&.&.&.&.&.&.&.&.&.&.&.&.&.&.&.&.&.&.&.&.&.&.&.&.&.&.&.&.&.&.&.&.&.R R R R R R R W R R R R R R R R R R R R R i R R R R R R R R R R W R R R R R R R R R R R R W W W R R R R R R R R R R R R W R R R R R R R R &.&.&.&.&.&.&.&.&.&.*.O.O.*.*.*.*.*.*.*.*.*.*.*.*.*.*.*.*.*.*.=.=.=.W R *.2.5.F.Q.|.|.`.I.I.I.I.I._.i.5.4.:.>.;.*.*.*.=.=.=.=.=.W *.W =.=.=.W =.W *.*.*.*.*.*.*.*.*.*.*.-.*.*.-.*.*.-.-.-.-.-.-.-.*.-.-.-.-.-.-.-.-.2.2.-.-.-.*.*.*.*.*.*.*.*.*.*.*.*.*.*.*.*.*.*.*.*.*.*.*.*.*.*.*.:.:.:.:.:.:.:.:.*.*.*.*.*.*.*.*.*.*.*.*.*.*.*.*.*.*.*.*.*.*.*.*.*.*.E *.*.*.*.*.*.*.*.*.E *.*.*.*.*.*.*.*.*.*.*.*.*.*.*.*.*.*.*.W &.+.+.+.+.R W ,.m.`.'.g.g.L.K.",
"P.P.P.I.`.`.`.G.F A G G e G G G G G G G G G G G R R R R R R R R G G G G G G G G G G G G G G G G *.*.*.*.*.*.*.*.&.*.*.*.*.*.*.*.*.*.*.*.*.*.*.*.G G G G G G G G G G G G G G G G G G G G G G G G G G G G G G G G *.*.*.*.*.*.*.*.*.*.*.*.*.*.*.*.G G G G G G G G G G G G G G G G G G G G G G G G G G G G G G G G *.*.*.*.E E *.*.*.D G G G 5.~.P.I.I.g.g.`.`.G.7.G G G R R i l i l l l l &.&.&.&.&.&.&.&.&.&.&.&.&.&.&.&.&.&.&.&.&.&.&.&.&.&.&.&.&.&.&.&.&.&.&.&.&.R R R R R R R R R R R R R R R &.&.&.&.W W &.W R R R R R R R R R R R R R R R R R R R R R R R R R R R R R R R R i i R i R R i i l l R &.R R R R i i i i i i i R G G G G G G G G G G G G G G G G G G G G G i i i e G R G E <.p.Q.|.`.P.I.I.I.I.`.$.+.#.O.O.G G Y Y i i i i i i i R i R R R R R R e G G G G G G G G G G G G G G G G G G G G G G G G G G G R G G G G G G G G G e G G G G G G G G G G G G G G G G G G G G G G G G G G G G G G G G G G G G G G G G G G G G G G G G G G G G G G G G G G G G G G G G G G G G G G G G G G G G G G G G G G G G G G G G G a W *.+.+.+.R a R 3.`.'.I.L.I.K.",
"P.P.P.I.`.`.`.G.H E *.*.*.&.&.*.*.*.*.*.*.*.*.*.*.*.*.*.*.*.*.*.&.&.*.*.*.*.*.*.&.&.*.*.*.*.*.*.&.*.*.*.*.*.*.*.&.&.&.&.&.&.&.&.*.R R &.&.&.&.&.*.*.*.*.*.*.*.*.*.&.*.&.*.*.*.*.&.&.*.*.*.*.*.*.*.*.*.*.*.*.*.*.&.&.&.&.&.&.&.&.&.R R R &.&.&.&.*.*.*.*.*.*.*.*.*.*.*.*.*.*.*.*.R R R R R R R &.&.&.&.&.&.&.*.*.R R R R R R *.*.:.R *.R G 7.].`.I.I.g.I._.|.S.^ G G *.*.R i i i l l l &.&.&.&.&.&.&.&.&.&.&.&.&.&.&.&.l &.&.&.&.&.&.&.&.&.&.&.l &.&.&.&.&.&.&.&.&.R R R R W R R R R R R R R R R R R R W W W W W R R R R R R R R R R R R R R R R R R R R R R R R R R R R R R R R R R i R R R R i &.&.&.&.&.&.&.&.&.&.&.&.&.&.&.*.*.*.*.*.*.*.*.*.*.*.*.*.*.*.*.*.&.&.&.&.&.&.&.&.W *.*.R G H <.7.Q.`.P.P.I.P.P.`.$.+.&.&.&.&.W W W W &.W &.W W W &.W &.W &.W &.&.R *.*.*.*.*.*.R *.*.*.*.*.R *.R *.R *.*.*.*.*.*.*.*.*.*.*.*.*.*.*.R *.R &.R *.*.*.*.*.R *.*.*.*.*.R *.*.*.*.*.*.*.R *.*.*.*.*.*.*.*.*.*.*.*.*.*.&.*.*.*.*.&.*.&.*.*.*.*.*.*.*.*.*.*.*.*.*.*.*.*.&.R *.*.*.*.*.*.&.R *.*.*.*.*.*.*.*.*.*.*.*.*.*.*.*.*.R *.R *.*.a i O.+.+.O.i a e 2.Q.'.I.L.I.K.",
"P.P.P.P.`.`.Q.F.H R R R &.&.*.*.&.*.&.*.&.*.&.*.&.&.&.&.&.&.&.&.&.&.&.&.&.&.&.&.&.&.&.&.&.&.&.&.&.&.&.&.&.&.&.&.&.&.&.&.&.&.&.&.&.&.&.&.&.&.&.&.&.&.&.&.&.&.&.*.&.&.&.&.*.*.*.&.&.&.&.&.&.&.&.&.&.&.&.&.&.*.&.&.&.&.&.&.&.&.&.&.&.&.&.&.&.&.&.&.&.&.&.&.&.&.&.&.&.&.&.&.&.&.&.&.R R R R &.&.&.&.l l l l l l l l i i i Y G G G R *.R *.R G 2.Q.P.I.I.f.I._.].7.H R *.*.R R i l &.&.&.&.&.&.&.&.&.&.&.&.&.&.&.&.&.&.&.&.&.&.&.&.&.&.&.&.&.&.&.&.&.&.&.&.&.&.&.&.&.&.&.&.&.&.&.&.R &.&.&.&.&.&.&.&.&.&.&.&.&.&.&.&.&.&.&.&.&.&.&.&.&.R &.&.&.&.&.&.&.&.&.&.&.&.R R &.&.&.&.&.&.&.&.&.&.&.&.&.&.&.&.&.&.&.&.&.&.&.&.&.&.&.&.&.&.&.&.&.&.&.&.&.&.&.&.&.&.&.&.&.&.&.&.;.;.&.&.;.l l &.e i R R G G *.<.Q.Q.P.P.P.P.P.Q.H *.&.&.&.&.W *.&.&.&.W &.&.&.&.&.R &.R &.&.&.&.&.&.&.&.&.&.&.&.;.;.;.;.;.*.;.*.;.*.;.*.;.*.;.*.;.*.;.*.;.*.;.*.&.&.&.*.&.*.&.;.&.*.&.&.&.&.&.*.&.*.&.*.&.*.&.*.&.*.*.*.&.*.&.&.&.&.&.*.*.*.&.&.&.&.&.&.&.&.&.&.&.&.&.&.&.&.&.&.&.&.&.&.&.&.&.&.&.&.&.&.&.&.&.&.&.&.&.&.&.&.&.&.*.*.&.&.&.&.&.*.&.*.&.*.&.&.&.&.l W G H H G W a i 2.Q.'.I.I.P.P.",
"P.G.P.P.`.`.Q.F.G Y i i l R O.O.&.&.&.&.&.&.&.&.&.&.&.l &.&.&.&.l l l l &.&.&.&.l l l l &.&.&.&.;.;.;.;.;.;.;.;.;.:.:.:.;.;.;.;.;.;.;.;.;.;.;.;.&.&.&.&.&.&.&.&.&.&.&.&.&.&.&.&.&.&.&.&.&.&.&.&.&.&.&.&.&.&.&.&.;.;.;.;.>.>.;.;.;.;.;.;.;.;.;.;.l l &.l &.&.&.&.&.&.&.&.l l i i R R R i R &.&.l l x x x l l a a a W W *.*.W R R R e R R G 2.Q.`.P.I.f.I.`.~.7.H G G G G R R &.&.&.&.&.&.&.&.&.&.&.&.&.&.&.&.&.&.&.&.&.&.&.&.&.&.&.&.&.&.&.&.&.&.&.&.&.&.&.&.&.&.&.&.&.&.&.&.&.R &.&.&.&.&.&.&.&.&.&.R R R R R i &.&.&.&.&.&.&.&.R R &.&.&.&.&.&.&.&.&.&.&.&.&.&.&.&.&.&.&.&.&.&.&.&.&.&.&.&.&.&.&.&.&.&.&.&.&.&.&.&.&.&.&.&.&.&.l l l l l l l l l l &.l &.&.&.l l l l l l l l l i R &.*.R R R E W.Q.P.P.P.P.J.F.H *.&.&.;.&.W W &.&.&.&.&.&.&.&.&.R &.&.&.&.&.&.l l l l l l l l &.&.&.&.&.&.&.&.&.&.&.&.&.&.&.&.&.&.&.&.&.&.&.&.l l &.&.&.&.&.&.&.&.&.&.&.&.&.&.&.&.&.&.&.&.&.&.&.&.&.&.&.&.&.&.&.&.&.&.&.&.&.&.l l l g g g l l &.&.&.&.&.&.&.&.l l l l &.&.&.&.l l l l &.&.&.&.l l l l &.&.&.&.&.&.&.&.&.&.&.&.&.&.&.&.&.&.&.l =.=.*.+.+.*.=.=.&.6.Q.I.I.I.P.U.",
"P.G.P.P.`.`.Q.H.G Y i l &.&.&.&.&.;.;.;.;.;.;.;.;.&.;.&.;.;.;.;.&.&.l &.&.&.&.&.&.&.l &.&.&.&.&.e e e e e G G G O.O.O.O.G e e e e i i i l l l l &.&.;.&.;.;.&.;.;.;.;.;.&.&.;.;.;.;.;.;.;.;.;.;.;.;.;.;.&.&.&.&.i i i l e g e e i i i i l l l l l l l l &.&.&.&.&.&.&.&.&.&.l l &.&.&.&.&.&.&.l l l l l l l l l 9 i W *.-.-.-.-.*.R *.W G 2.~.].P.I.I.P.`.J.7.E R G G R *.*.*.&.&.&.&.&.&.&.&.&.&.&.&.&.&.&.&.&.&.&.&.&.&.&.&.&.&.&.&.&.&.&.&.&.&.&.&.&.&.&.&.&.&.&.&.&.&.&.&.&.&.&.&.&.&.&.&.&.&.&.&.&.&.&.&.&.&.&.&.&.&.&.&.&.&.&.&.&.&.&.&.&.&.&.&.&.&.&.&.&.&.&.&.&.&.&.&.&.&.&.&.&.&.&.&.&.;.;.;.;.;.;.;.;.;.;.;.;.;.;.;.;.&.&.&.&.&.&.&.&.l l l l &.&.&.&.c v c l l l &.&.;.;.;.;.*.&.R G F.Q.].P.P.U.J.F.E *.;.;.;.;.&.&.&.&.&.&.&.&.&.&.&.&.&.&.&.&.&.&.&.&.&.&.l l l l &.&.l l &.&.;.&.l l l l ;.&.&.&.;.;.;.;.;.;.;.;.;.;.;.;.&.&.;.&.;.;.;.;.;.;.;.;.;.;.;.;.;.;.;.;.;.;.;.;.;.;.;.;.;.;.;.;.&.&.&.&.&.&.&.&.&.&.&.&.&.&.&.&.&.&.&.&.l l l l &.&.&.&.&.&.l &.&.&.&.&.&.&.l &.;.&.;.&.&.;.;.l ;.;.;.;.;.;.;.;.;.;.;.l i i G H H G i i i 2.G.`.I.I.P.J.",
"P.P.P.P.`.`.Q.H.R Y l l &.&.*.&.l l l l l l l l l l l l &.&.&.&.l l l l l l l l l l l l l l l l &.&.&.&.&.&.&.&.;.;.;.;.;.;.;.&.;.;.;.;.;.;.;.;.l l l l &.&.&.&.&.l l l &.&.&.&.&.&.l l &.&.&.&.l l l l &.&.&.&.;.;.;.;.;.;.;.;.;.;.;.;.;.;.;.;.l l l l l l l l l i i i i i i i &.&.&.&.&.&.&.l l l l l a l i i R *.6.m.(.).).).:.&.*.Y 9 Q ~.].P.P.I.P.P.F.7.E *.*.R *.-.-.*.e &.&.&.&.&.&.&.&.&.&.&.&.&.&.&.&.&.&.&.&.&.&.&.&.&.&.&.&.&.&.&.&.&.&.&.&.&.&.&.&.&.&.&.&.&.&.&.&.&.&.&.&.&.&.&.&.&.&.&.&.&.&.&.&.R &.&.&.&.&.&.&.&.&.&.&.&.&.&.&.&.&.&.&.&.&.&.&.&.&.&.&.&.&.&.&.R &.&.&.R R R R &.&.&.&.&.&.&.&.&.&.&.&.&.&.&.&.l l l l l l l l l l l l l l l l c c l l l l i i i e e e &.&.;.&.W.~.].P.P.U.J.F.G &.l l l l W W &.&.&.&.&.&.&.&.&.&.&.&.&.&.&.&.;.;.;.&.&.&.&.;.l &.&.l l &.;.;.l l l l ;.;.&.&.;.;.;.&.;.;.;.;.;.;.;.;.&.&.&.l l l l l l l l l l l l l l l l l l l l l l l l l l l l l l l l l l l l l l l l l l l l l l l l l l l l l l l l l l l l l l l l l l l l l l l l l l l l l l l l l l l l l l l l l i &.2.5.5.-.=.a 9 -.W.`.'.I.P.G.",
"P.P.P.P.P.].).7.G Y =.i =.,.D &.&.c c c c c c c c c c c c c c l l l l l l l l l l l l l l l l &.&.&.&.&.&.&.&.&.&.&.&.&.&.&.&.&.&.l l l l l l l l l l l l l l l l l l l l l l l l l l l l l l l l l l l l l l l l l l l l l l l l l l l l l l l l l l l l l l l l l l l l l l l l l l l l l l &.&.&.&.&.&.&.R R 9 m.(.W.).).W.Q.B.&.i W R Q F.].P.P.P.P.J.~.m.A R R *.G G (.e *.&.&.&.&.&.&.&.&.&.&.&.&.&.&.&.&.&.&.&.&.&.&.&.&.&.&.&.&.&.&.&.&.&.&.&.&.&.&.&.&.&.&.&.&.&.&.&.&.&.&.&.&.&.&.&.&.&.&.&.&.&.&.&.&.&.&.&.&.&.&.&.&.&.&.&.&.&.&.&.&.&.&.&.&.&.&.&.&.&.&.&.&.&.&.&.&.&.&.&.&.&.&.&.&.&.&.&.&.&.&.&.&.&.&.&.&.&.&.&.&.&.l l l l l l l l l l l l l l l >.z k c ;.l G R G e e i &.;.l R 7.|.G.P.U.U.].7.R R ;.l l =.9 *.&.&.&.&.&.&.&.&.&.&.&.&.&.&.&.&.;.c l c c c c c c c c c c c c c c c c c c c c c c c c c c c c c c c c c c c c c c c c c c c c c c c c c c c c c c c c c c c c l l l l l l l l l l l l l l l l l l l l l l l l l l l l l l l l l l c c c c c c c c c c c c c c c c c c c c c c c c c c c c c c l l W XXW.^.*.i a W R Q._.g.'.P.J.",
"P.P.P.P.P.].).7.G i =.i =.,.G &.&.c c c c c c c c c c c c c c l l l l l l l l l l l l l l l l &.&.&.&.&.&.&.&.&.&.&.&.&.&.&.&.&.&.l l l l l l l l l l l l l l l l l l l l l l l l l l l l l l l l l l l l l l l l l l l l l l l l l l l l l l l l l l l l l l l l l l l l l l l l l l l l l l &.&.*.&.*.*.*.R R C 7./.Q.`.`.P.Q.B.&.i W R Q F.].P.P.P.P.J.~.m.A R R *.G R .XG *.*.*.&.&.&.&.&.&.&.&.&.&.&.&.&.&.&.&.&.&.&.&.&.&.&.&.&.&.&.&.&.&.&.&.&.&.&.&.&.&.&.&.&.&.&.&.&.&.&.&.&.&.&.&.&.&.&.&.&.&.&.&.&.&.&.&.&.&.&.&.&.&.&.&.&.&.&.&.&.&.&.&.&.&.&.&.&.&.&.&.&.&.&.&.&.&.&.&.&.&.&.&.&.&.&.&.&.&.&.&.&.&.&.&.&.&.&.&.&.&.&.l l l l l l l l l l l l l l c c c k &.&.*.*.-.B.,.*.R &.;.l e 7.|.G.P.U.P.].7.Y i x k ;.>.9 *.&.&.&.&.&.&.&.&.&.&.;.&.&.&.&.&.;.c c c c c c c c c c c c c c c c c c c c c c c l l c c c c c c c c c c c c c c c c c c c c c c c c c c c c c c c c c c c c c l l l l l l l l l l l l l l l l l l l l l l l l l l l l l l l l l l c c c c c c c c c c c c c c c c c c c c c c c c c c c c c c l &.W ).W.^.<.i a W R Q._.z.}.P.J.",
"P.P.P.P.P.`.).7.G i =.i =.6.G #.&.&.&.&.;.&.&.&.l l ;.;.&.;.&.&.&.&.&.&.&.&.&.&.&.&.&.&.&.&.&.&.&.&.&.&.&.&.&.&.&.&.&.&.&.&.&.&.&.&.&.&.&.&.&.&.&.&.&.&.&.&.&.&.&.&.&.&.&.&.&.&.&.&.&.&.&.&.&.&.&.&.&.&.&.&.&.&.;.;.&.&.&.&.&.&.&.&.&.&.&.&.&.&.&.&.&.&.&.&.&.&.&.&.&.&.&.&.&.&.&.&.&.&.&.&.&.&.&.&.*.*.*.*.R E Z F./.Q.`.`.f.`.V.*.i W R E F.].P.P.I.P.J.~.m.A R R *.G *.XXO.*.O.O.&.&.&.&.&.&.&.&.&.&.&.&.&.&.&.&.&.&.&.&.&.&.&.&.&.&.&.&.&.&.&.&.&.&.&.&.&.&.&.&.&.&.&.&.&.&.&.&.&.&.&.&.&.&.&.&.&.&.&.&.&.&.&.&.&.&.&.&.&.&.&.&.&.&.&.&.&.&.&.&.&.&.&.&.&.&.&.&.&.&.&.&.&.&.&.&.&.&.&.&.&.&.&.&.&.&.&.&.&.&.&.&.&.&.&.&.&.&.&.&.&.&.&.&.&.&.&.&.&.&.&.&.&.c c c l &.*.*.6.m.XXV.-.R *.;.l G p.|.G.P.U.P.].b.G e l l >.,.e *.&.&.&.&.&.&.&.&.&.&.&.&.&.&.&.&.&.&.&.&.&.&.&.&.&.&.&.&.&.&.&.&.;.;.&.&.&.&.&.&.l l l &.&.&.;.;.&.&.&.&.;.&.&.&.;.;.&.&.&.&.&.&.&.&.&.&.&.&.;.;.&.&.&.&.;.&.&.&.&.&.&.&.&.&.&.&.&.&.&.&.&.&.&.&.&.&.&.&.&.&.&.&.&.&.&.&.&.&.&.&.&.;.;.;.&.&.&.&.&.&.&.&.;.&.&.&.;.;.&.&.&.&.&.&.l &.&.&.&.&.;.&.W R ).W./.<.R a W G Q.}.z.}.P.J.",
"I.I.I.I.P.`.).7.G i &.i :.N.O.+.&.&.&.&.;.;.&.&.&.l ;.;.;.;.&.&.&.&.&.&.&.&.&.&.&.&.&.&.&.&.&.&.&.&.&.&.&.&.&.&.&.&.&.&.&.&.&.&.&.&.&.&.&.&.&.&.&.&.&.&.&.&.&.&.&.&.&.&.&.&.&.&.&.&.&.&.&.&.&.&.&.&.&.&.&.&.&.&.&.&.&.&.&.&.&.&.&.&.&.&.&.&.&.&.&.&.&.&.&.&.&.&.&.&.&.&.&.&.&.&.&.&.&.&.&.&.&.&.&.#.*.*.*.R R R A F.).Q.`.'.f.`.W.*.i Y Y E F.].`.P.I.P.J.~.m.A R *.*.G *.XX*.*.O.O.*.&.&.&.&.&.&.&.&.&.&.&.&.&.&.&.&.&.&.&.&.&.&.&.&.&.&.&.&.&.&.&.&.&.&.&.&.&.&.&.&.&.&.&.&.&.&.&.&.&.&.&.&.&.&.&.&.&.&.&.&.&.&.&.&.&.&.&.&.&.&.&.&.&.&.&.&.&.&.&.&.&.&.&.&.&.&.&.&.&.&.&.&.&.&.&.&.&.&.&.&.&.&.&.&.&.&.&.&.&.&.&.&.&.&.&.&.&.&.&.&.&.&.&.&.&.&.&.&.&.&.&.&.;.l c ;.&.O.*.7.(.).W.6.R R &.;.*.p.|.P.P.U.G.~.7.G e l l >.,.G :.&.&.&.&.&.&.&.&.&.&.&.&.&.&.&.&.&.&.&.&.&.&.&.&.&.&.&.&.&.&.&.&.&.;.&.;.&.&.&.&.l &.l &.&.&.&.&.&.&.&.&.&.&.&.&.&.;.&.;.&.&.&.&.l &.&.&.&.&.&.&.&.&.&.&.;.&.&.&.&.&.&.&.&.&.&.&.&.&.&.&.&.&.&.&.&.&.&.&.&.&.&.&.&.&.&.&.&.&.&.&.&.&.;.;.&.&.&.&.&.&.&.&.&.&.&.&.&.;.&.;.&.&.&.&.l &.&.&.&.&.&.&.W E ).Q./.<.R W W G Q.}.z.}.P.J.",
"I.I.'._.P.`.).7.G Y &.e ,.B.+.+.&.&.&.&.&.&.&.&.&.&.&.&.&.&.&.&.;.;.;.;.;.;.;.&.;.;.;.&.&.&.&.&.&.&.&.&.;.;.;.;.&.&.;.;.&.&.&.&.&.&.&.&.;.;.&.&.;.;.;.;.&.&.&.;.;.;.;.;.;.;.;.&.&.&.&.&.;.;.;.&.;.;.;.;.;.;.;.;.&.&.;.;.;.&.&.&.&.&.&.&.;.;.;.&.;.;.;.;.;.;.;.&.&.&.&.&.&.&.&.&.&.&.&.&.&.&.&.&.&.&.O.*.*.R R R H F.).Q.`.I.g.`.(.*.R R G E F.].`.I.I.P.G.~.m.A R *.*.e -.$X-.+.+.O.*.*.&.&.l l &.&.&.&.&.&.&.&.&.&.&.&.&.&.&.&.&.&.&.&.&.&.&.&.&.&.&.&.&.&.&.&.&.&.&.&.&.&.&.&.&.&.&.&.&.&.&.&.&.&.&.&.&.&.&.&.&.&.&.&.&.&.&.&.&.&.&.&.&.&.&.&.&.&.&.&.&.&.&.&.&.&.&.&.&.&.&.&.&.&.&.&.&.&.&.&.&.&.&.&.;.;.;.;.&.&.&.;.&.&.&.&.&.&.&.&.;.;.;.&.;.;.;.;.;.;.;.;.;.;.;.O.H <.S.).Q.Q.F.<.G R ;.*.F.|.P.P.P.G.~.7.G e l l ,.x.G *.&.&.&.&.&.&.&.&.&.&.&.&.&.&.&.&.&.&.&.&.&.&.&.&.&.&.&.&.&.&.&.&.&.&.&.&.&.&.&.&.&.&.&.&.&.&.&.&.&.&.&.&.&.&.&.&.&.&.&.&.&.&.&.&.&.&.&.&.&.&.&.&.&.&.&.&.&.&.&.&.;.;.;.;.&.&.&.;.;.;.;.;.;.;.&.&.&.&.&.&.;.;.&.&.;.;.;.;.&.&.&.;.&.&.&.&.&.&.&.&.&.&.&.&.&.&.&.&.&.&.&.&.&.&.&.&.&.&.&.&.&.&.&.&.R E |.Q.|.1.R R W H Q.'.z.}.P.J.",
"I.I.I._.I.`.).7.G Y &.e ,.B.+.+.&.&.&.&.&.&.&.&.&.&.&.&.&.&.&.&.;.;.;.;.;.;.&.&.;.;.;.;.&.&.&.;.&.&.&.&.c c ;.;.&.&.&.c &.&.&.&.&.&.&.&.;.;.;.&.;.;.;.;.&.&.&.;.;.;.;.;.;.;.&.&.&.&.&.&.;.;.;.&.;.;.;.;.;.;.;.;.&.&.;.;.;.&.&.&.&.&.&.&.;.;.;.&.;.;.;.;.;.;.;.;.&.&.&.&.&.&.&.&.&.&.&.&.&.&.&.&.&.&.*.&.&.R R R R H.).J.I.I.g.`.(.-.R R G E S.`.`.I.I.I.P.~.S.A R *.*.e 2.%X4.H +.+.*.*.&.&.l l &.&.&.&.&.&.&.&.&.&.&.&.&.&.&.&.&.&.&.&.&.&.&.&.&.&.&.&.&.&.&.&.&.&.&.&.&.&.&.&.&.&.&.&.&.&.&.&.&.&.&.&.&.&.&.&.&.&.&.&.&.&.&.&.&.&.&.&.&.&.&.&.&.&.&.&.&.&.&.&.&.&.&.&.&.&.&.&.&.&.&.&.&.&.&.&.&.&.&.&.;.;.;.;.&.&.&.;.&.&.&.&.&.&.&.&.;.;.;.&.;.;.;.;.;.&.;.;.;.>.&.G H 1.G.|.F.].).7.R G l R p.[.P.P.P.G.~.7.G e l l ,.N.G *.&.&.&.&.&.&.&.&.&.&.&.&.&.&.&.&.&.&.&.&.&.&.&.&.&.&.&.&.&.&.&.&.&.&.&.&.&.&.&.&.&.&.&.&.&.&.&.&.&.&.&.&.&.&.&.&.&.&.&.&.&.&.&.&.&.&.&.&.&.&.&.&.&.&.&.&.&.&.&.&.;.;.;.;.&.&.;.;.;.;.;.;.;.;.&.&.&.&.&.&.;.;.;.&.;.;.;.;.&.&.&.;.&.&.&.&.&.&.&.&.&.&.&.&.&.&.&.&.&.&.&.&.&.&.&.&.&.&.&.&.&.&.&.&.R H |.Q.|.7.E R R H Q.'.z.}.P.P.",
"I.g.I.'.I.`.Q.7.R Y &.e ,.B.+.+.*.&.&.&.&.&.&.&.&.&.&.&.&.&.&.&.;.;.&.;.&.&.&.&.;.;.&.&.&.&.;.;.;.;.&.;.c c &.&.&.&.c c ;.;.&.&.&.&.;.;.;.;.&.&.&.&.;.&.&.&.&.&.;.;.&.;.&.&.&.&.&.&.&.;.;.;.&.&.&.&.&.&.;.;.&.&.&.&.;.;.;.;.&.&.&.&.&.;.;.;.&.&.&.&.&.&.&.&.&.&.&.&.&.&.&.&.&.&.&.&.&.&.&.&.&.&.&.&.&.&.&.W R R R H.~.J.I.I.g.`./.-.R Y G E S.`.`.I.'.I.P.~.S.A R *.*.e 6.%X6.H +.+.*.*.&.&.l l &.&.&.&.&.&.&.&.&.&.&.&.&.&.&.&.&.&.&.&.&.&.&.&.&.&.&.&.&.&.&.&.&.&.&.&.&.&.&.&.&.&.&.&.&.&.&.&.&.&.&.&.&.&.&.&.&.&.&.&.&.&.&.&.&.&.&.&.&.&.&.&.&.&.&.&.&.&.&.&.&.&.&.&.&.&.&.&.&.&.&.&.&.&.&.&.;.;.&.;.;.;.&.&.&.&.;.;.;.;.&.&.&.&.&.;.;.;.&.&.&.&.&.&.&.&.&.&.;.;.#.G P i.Q.`.P. X).5.E R &.G p.[.P.P.P.P.~.7.G e l l ,.N.G R R &.&.&.&.&.&.&.&.&.&.&.&.&.&.&.&.&.&.&.&.&.&.&.&.&.&.&.&.&.&.&.&.&.&.&.&.&.&.&.&.&.&.&.&.&.&.&.&.&.&.&.&.&.&.&.&.&.&.&.&.&.&.&.&.&.&.&.&.&.&.&.&.&.&.&.&.&.&.&.&.&.;.&.&.&.&.&.;.;.;.;.&.&.&.&.&.&.;.;.;.;.&.&.&.&.;.&.&.&.&.&.&.&.&.&.&.&.&.&.&.&.&.&.&.&.&.&.&.&.&.&.&.&.&.&.&.&.&.&.&.&.&.R E S |.Q.|.i.E R R F k.'.z.}.P.P.",
"I.I.I.'.I._.Q.7.Y i R G 6.W.+.*.*.&.&.&.&.&.&.&.&.&.&.&.&.&.&.&.&.;.&.&.&.&.&.&.;.;.;.&.&.&.;.;.;.;.;.;.c &.&.&.&.&.c c c ;.;.;.&.&.&.;.;.;.&.&.&.&.&.&.&.&.&.&.;.;.&.&.&.&.&.&.&.&.&.;.;.;.&.&.&.&.&.&.&.&.&.&.&.&.;.;.;.;.&.&.&.&.&.;.;.;.&.&.&.&.&.&.&.&.&.&.&.&.&.&.&.&.&.&.&.&.&.&.&.&.&.&.&.&.l l l l W R E H.~.J.P.I.I.`./.-.R R G E S.`.`.I.I.I.P.~.S.A R *.*.9 6.aX5.H +.*.&.&.O.&.&.l &.&.&.&.&.&.&.&.&.&.&.&.&.&.&.&.&.&.&.&.&.&.&.&.&.&.&.&.&.&.&.&.&.&.&.&.&.&.&.&.&.&.&.&.&.&.&.&.&.&.&.&.&.&.&.&.&.&.&.&.&.&.&.&.&.&.&.&.&.&.&.&.&.&.&.&.&.&.&.&.&.&.&.&.&.&.&.&.&.&.&.&.&.&.&.&.;.;.;.;.;.;.&.&.&.&.;.;.;.;.;.;.&.&.&.;.;.;.&.&.&.&.&.&.&.&.&.&.h O.G F ^ a.`.`.P._.F.1.E *.&.e p.[.P.P.P.G.~.7.R e l l ,.n.G R R &.&.&.&.&.&.&.&.&.&.&.&.&.&.&.&.&.&.&.&.&.&.&.&.&.&.&.&.&.&.&.&.&.&.&.&.&.&.&.&.&.&.&.&.&.&.&.&.&.&.&.&.&.&.&.&.&.&.&.&.&.&.&.&.&.&.&.&.&.&.&.&.&.&.&.&.&.&.&.&.&.&.&.&.&.&.&.&.;.&.&.&.&.&.&.&.&.&.;.;.;.&.&.&.&.&.&.&.&.&.&.&.&.&.&.&.&.&.&.&.&.&.&.&.&.&.&.&.&.&.&.&.&.&.&.&.&.&.&.&.&.&.&.R S |.`.|.i.*.R R H Q.'.z.}.P.P.",
"I.P.P.`.z.}.Q.2.p u =.C p.).A W &.&.&.&.;.&.;.&.;.&.&.&.&.&.;.&.&.&.&.&.&.&.&.&.&.&.&.&.&.&.&.&.&.&.&.&.&.&.&.&.&.&.&.&.&.&.&.&.&.&.&.&.&.&.&.&.&.&.&.&.&.&.&.&.&.&.&.&.&.&.&.&.&.&.&.&.&.&.&.&.&.&.&.&.&.&.&.&.&.&.&.&.&.&.&.&.&.&.&.&.&.&.&.&.&.&.&.&.&.&.&.&.&.&.&.&.&.&.&.&.&.&.&.&.&.&.&.&.&.&.&.l l l &.R H W.`.`.`.P.P.P.(.-.R *.G E F.~.P.K.I.P.G.~.S.G &.g *.A 1.aX|.Z R l l l ;.@.&.&.&.&.&.&.&.&.&.&.&.&.&.&.&.&.&.&.l l l &.&.&.l l l &.&.&.&.&.l l &.&.&.&.&.&.&.&.&.&.&.&.&.&.&.&.&.&.&.&.&.&.&.&.&.&.&.&.&.&.&.&.&.&.&.&.&.&.&.&.&.&.&.&.&.&.&.&.&.&.&.&.&.&.&.&.&.&.&.&.&.&.&.&.&.&.&.&.&.&.&.&.&.&.&.&.&.&.&.&.&.&.&.&.&.&.&.&.&.&.&.&.&.&.&.&.g &.*.G <.G._.`.`.G.Q.F.*.G &.G p.|.G.P.U.J.~.2.R i ;.q n.!.n Q R l l &.&.&.&.l l l &.&.&.&.l l &.&.&.&.&.&.&.&.&.&.&.&.&.&.&.&.&.&.&.&.&.&.&.&.&.&.&.&.&.&.&.&.&.&.&.&.&.&.&.&.&.&.&.&.&.&.&.&.&.&.;.&.;.&.&.&.&.&.&.&.;.&.;.&.&.&.&.&.&.&.&.&.&.&.&.&.&.&.&.&.&.&.&.&.&.&.&.&.&.&.&.&.&.&.&.&.&.&.&.&.&.&.&.&.&.&.&.&.&.&.&.&.&.&.&.&.&.&.&.&.&.&.&.&.&.&.&.&.Y ^ Q.`.{.j.D &.W R p.{.'.'._.P.",
"P.P.`.`.z.}.`.2.p p =.C p.|.Y a &.&.&.&.;.&.;.;.;.;.&.&.&.&.;.;.&.&.&.&.&.&.&.&.&.&.&.&.&.&.&.&.&.&.&.&.&.&.&.&.&.&.&.&.&.&.&.&.&.&.&.&.&.&.&.&.&.&.&.&.&.&.&.&.&.&.&.&.&.&.&.&.&.&.&.&.&.&.&.&.&.&.&.&.&.&.&.&.&.&.&.&.&.&.&.&.&.&.&.&.&.&.&.&.&.&.&.&.&.&.&.&.&.&.&.&.&.&.&.&.&.&.&.&.&.&.&.&.*.&.&.l l l &.R H W.`.`.`.P.P.J.(.-.R *.G *.p.~.P.K.P.P.G.~.F.G &.g ;.A 3.sX}.K W x z c @.@.;.&.&.&.&.&.&.&.&.&.&.&.&.&.&.&.&.&.l l &.&.&.&.l &.l &.&.&.&.&.l l &.&.&.&.&.&.&.&.&.&.&.&.&.&.&.&.&.&.&.&.&.&.&.&.&.&.&.&.&.&.&.&.&.&.&.&.&.&.&.&.&.&.&.&.&.&.&.&.&.&.&.&.&.&.&.&.&.&.&.&.&.&.&.&.&.&.&.&.&.&.&.&.&.&.&.&.&.&.&.&.&.&.&.&.&.&.&.&.&.&.&.&.&.&.&.&.l &.*.H <.G._.`.`.G.`.W.*.R &.G F.|.G.P.U.J.~.2.R i ;.q v.!.m Q R l l &.&.&.&.l l l l &.&.;.;.c &.&.&.&.&.&.&.&.&.&.&.&.&.&.&.&.&.&.&.&.&.&.&.&.&.&.&.&.&.&.&.&.&.&.&.&.&.&.&.&.&.&.&.&.&.&.&.&.&.&.;.;.;.;.&.&.&.&.;.;.;.&.;.;.&.&.&.&.&.&.&.&.&.&.&.&.&.&.&.&.&.&.&.&.&.&.&.&.&.&.&.&.&.&.&.&.&.&.&.&.&.&.&.&.&.&.&.&.&.&.&.&.l l &.&.&.&.l &.&.&.&.&.&.&.&.&.Y E Q.`.{.j.D W a R 7.`.'.I._.I.",
"P.P.`.`.z.}.`.2.p p W C a.|.Y a &.&.&.&.&.&.&.&.;.&.&.&.;.;.;.;.&.&.&.&.&.&.&.&.&.&.&.&.&.&.&.&.&.&.&.&.&.&.&.&.&.&.&.&.&.&.&.&.&.&.&.&.&.&.&.&.&.&.&.&.&.&.&.&.&.&.&.&.&.&.&.&.&.&.&.&.&.&.&.&.&.&.&.&.&.&.&.&.&.&.&.&.&.&.&.&.&.&.&.&.&.&.&.&.&.&.&.&.&.&.&.&.&.&.&.&.&.&.&.&.&.&.&.&.&.&.&.&.*.&.&.l l l &.R H W.`.`.`.P.P.J.(.-.R *.G *.7.~.P.K.P.P.G.~.F.G &.g ;.A 3.sX[.K W x z c @.#.;.&.&.&.&.&.&.&.&.&.&.&.&.&.&.&.&.&.&.&.&.&.&.&.&.&.&.&.&.&.&.&.&.&.&.&.&.&.&.&.&.&.&.&.&.&.&.&.&.&.&.&.&.&.&.&.&.&.&.&.&.&.&.&.&.&.&.&.&.&.&.&.&.&.&.&.&.&.&.&.&.&.&.&.&.&.&.&.&.&.&.&.&.&.&.&.&.&.&.&.&.&.&.&.&.&.&.&.&.&.&.&.&.&.&.&.&.&.&.&.&.&.&.&.&.&.&.&.&.&.l &.*.H <.G._.P.`.P.`.W.*.R &.G p.|.G.P.U.J.~.2.R i ;.q v.(.m T R &.&.&.&.&.l l l &.&.&.&.&.;.c &.&.&.&.&.&.&.&.&.&.&.&.&.&.&.&.&.&.&.&.&.&.&.&.&.&.&.&.&.&.&.&.&.&.&.&.&.&.&.&.&.&.&.&.&.&.&.&.&.&.&.&.;.;.&.&.;.;.;.;.&.&.&.&.&.&.&.&.&.&.&.&.&.&.&.&.&.&.&.&.&.&.&.&.&.&.&.&.&.&.&.&.&.&.&.&.&.&.&.&.&.&.&.&.&.&.&.&.&.&.&.&.l l &.&.&.&.&.l l &.&.&.&.&.&.&.Y E Q.`.{.p.D &.a R 7.`.'.I._.I.",
"P.P.`.`.z.}.`.2.u s W C a. XY y &.&.&.&.&.&.&.&.;.&.&.&.&.;.;.;.&.&.&.&.&.&.&.&.&.&.&.&.&.&.&.&.&.&.&.&.&.&.&.&.&.&.&.&.&.&.&.&.&.&.&.&.&.&.&.&.&.&.&.&.&.&.&.&.&.&.&.&.&.&.&.&.&.&.&.&.&.&.&.&.&.&.&.&.&.&.&.&.&.&.&.&.&.&.&.&.&.&.&.&.&.&.&.&.&.&.&.&.&.&.&.&.&.&.&.&.&.&.&.&.&.&.&.&.&.&.&.&.*.&.&.l l l &.R +.W.`.P.`.P.P.J.(.-.R *.G *.p.~.P.K.P.P.G.~.F.G &.g &.A 3.sX[.P R x z c @.#.&.&.&.&.&.&.&.&.&.&.&.&.&.&.&.&.&.&.&.&.&.&.&.&.&.&.&.&.&.&.&.&.&.&.&.&.&.&.&.&.&.&.&.&.&.&.&.&.&.&.&.&.&.&.&.&.&.&.&.&.&.&.&.&.&.&.&.&.&.&.&.&.&.&.&.&.&.&.&.&.&.&.&.&.&.&.&.&.&.&.&.&.&.&.&.&.&.&.&.&.&.&.&.&.&.&.&.&.&.&.&.&.&.&.&.&.&.&.&.&.&.&.&.&.&.&.&.&.&.&.l &.G H 5.W._.I.`.P.`.F.*.R &.G W.|.P.P.U.J.~.2.R i ;.q n..Xm T R &.&.&.&.&.l &.&.&.&.&.&.&.;.;.&.&.&.&.&.&.&.&.&.&.&.&.&.&.&.&.&.&.&.&.&.&.&.&.&.&.&.&.&.&.&.&.&.&.&.&.&.&.&.&.&.&.&.&.&.&.&.&.&.&.&.&.;.;.&.&.;.;.;.;.&.&.&.&.&.&.&.&.&.&.&.&.&.&.&.&.&.&.&.&.&.&.&.&.&.&.&.&.&.&.&.&.&.&.&.&.&.&.&.&.&.&.&.&.&.&.&.&.&.&.&.&.l &.&.&.&.&.&.&.l &.&.&.&.&.&.&.Y E Q.`.{.p.C &.a R 7.`.'.g._.I.",
"P.P.`.`.z.}.`.2.u s W Z a.#XY y &.&.&.&.&.&.&.&.&.&.&.&.&.&.&.&.&.&.&.&.&.&.&.&.&.&.&.&.&.&.&.&.&.&.&.&.&.&.&.&.&.&.&.&.&.&.&.&.&.&.&.&.&.&.&.&.&.&.&.&.&.&.&.&.&.&.&.&.&.&.&.&.&.&.&.&.&.&.&.&.&.&.&.&.&.&.&.&.&.&.&.&.&.&.&.&.&.&.&.&.&.&.&.&.&.&.&.&.&.&.&.&.&.&.&.&.&.&.&.&.&.&.&.&.&.&.&.&.*.&.&.l l l &.R +.W.`.`.`.P.P.J.!.-.R R G *.7.~.P.K.P.P.G.~.F.G &.g &.A y.sX5XI R a z l @.#.&.&.&.&.&.&.&.&.&.&.&.&.&.&.&.&.&.&.&.&.&.&.&.&.&.&.&.&.&.&.&.&.&.&.&.&.&.&.&.&.&.&.&.&.&.&.&.&.&.&.&.&.&.&.&.&.&.&.&.&.&.&.&.&.&.&.&.&.&.&.&.&.&.&.&.&.&.&.&.&.&.&.&.&.&.&.&.&.&.&.&.&.&.&.&.&.&.&.&.&.&.&.&.&.&.&.&.&.&.&.&.&.&.&.&.&.&.&.&.&.&.&.&.&.&.&.&.&.&.&.l i G E 7.Q._.I.`.P.`.W.*.R &.G W.|.P.P.U.J.~.2.R i >.q n.oXS Y R &.&.&.&.&.&.&.&.&.&.&.&.&.&.;.&.&.&.&.&.&.&.&.&.&.&.&.&.&.&.&.&.&.&.&.&.&.&.&.&.&.&.&.&.&.&.&.&.&.&.&.&.&.&.&.&.&.&.&.&.&.&.&.&.&.&.&.&.&.&.&.&.&.&.&.&.&.&.&.&.&.&.&.&.&.&.&.&.&.&.&.&.&.&.&.&.&.&.&.&.&.&.&.&.&.&.&.&.&.&.&.&.&.&.&.&.&.&.&.&.&.&.&.&.&.&.&.&.&.&.&.&.&.&.&.l l &.&.&.&.&.&.Y E Q.`.{.p.9 W a R 7.`.'.'._.I.",
"P.P.`.`.z.}.`.-.u s W Z G.#XY y &.&.&.&.&.&.&.&.&.&.&.&.&.&.&.&.&.&.&.&.&.&.&.&.&.&.&.&.&.&.&.&.&.&.&.&.&.&.&.&.&.&.&.&.&.&.&.&.&.&.&.&.&.&.&.&.&.&.&.&.&.&.&.&.&.&.&.&.&.&.&.&.&.&.&.&.&.&.&.&.&.&.&.&.&.&.&.&.&.&.&.&.&.&.&.&.&.&.&.&.&.&.&.&.&.&.&.&.&.&.&.&.&.&.&.&.&.&.&.&.&.&.&.&.&.&.&.&.*.&.l l l l &.R +.W._.`.`.P.P.J.!.-.R R G *.7.~.P.K.P.P.G.~.F.G ;.e *.A y.sX8X/ R l z l @.#.&.&.&.&.&.&.&.&.&.&.&.&.&.&.&.&.&.&.&.&.&.&.&.&.&.&.l l &.&.&.&.&.&.&.&.&.&.&.&.&.&.&.&.&.&.&.&.&.&.&.&.&.&.&.&.&.&.&.&.&.&.&.&.&.&.&.&.&.&.&.&.&.&.&.&.&.&.&.&.&.&.&.&.&.&.&.&.&.&.&.&.&.&.&.&.&.&.&.&.&.&.&.&.&.&.&.&.&.&.&.&.&.&.&.&.&.&.&.&.&.&.&.&.&.&.&.&.&.&.;.e G E 7.Q.`.`.`.P.`.W.<.R &.R F.|.P.P.U.J.J.2.Y R >.q n.$XS S R &.&.&.&.&.&.&.&.&.&.&.&.&.&.;.&.&.&.&.&.&.&.&.&.&.&.&.&.&.&.&.&.&.&.&.&.&.&.&.&.&.&.&.&.&.&.&.&.&.&.&.&.&.&.&.&.&.&.&.&.&.&.&.&.&.&.&.&.&.&.&.&.&.&.&.&.&.&.&.&.&.&.&.&.&.&.&.&.&.&.&.&.&.&.&.&.&.&.&.&.&.&.&.&.&.&.&.&.&.&.&.&.&.&.&.&.&.&.&.&.&.&.&.&.&.&.&.&.&.&.&.&.&.&.&.&.l &.&.l &.&.&.Y E Q.`.{.p.9 W a R 7.`.'.z._.I.",
"P.P.`.`.z.}.`.-.u s W Z `.#XY Y &.&.&.&.&.&.&.&.&.&.&.&.&.&.&.&.&.&.&.&.&.&.&.&.&.&.&.&.&.&.&.&.&.&.&.&.&.&.&.&.&.&.&.&.&.&.&.&.&.&.&.&.&.&.&.&.&.&.&.&.&.&.&.&.&.&.&.&.&.&.&.&.&.&.&.&.&.&.&.&.&.&.&.&.&.&.&.&.&.&.&.&.&.&.&.&.&.&.&.&.&.&.&.&.&.&.&.&.&.&.&.&.&.&.&.&.&.&.&.&.&.&.&.&.&.&.&.&.&.&.l l l l &.R H W._.`.`.P.P.J.~.2.R R G *.F.~.P.K.P.P.G.~.F.G &.e *.A r.lX9X} R a z l @.#.;.l &.&.&.&.&.&.&.&.&.&.&.&.&.&.&.&.l l &.&.&.&.l &.l &.&.&.&.l l l &.&.&.&.&.&.&.&.&.&.&.&.&.&.&.&.&.&.&.&.&.&.&.&.&.&.&.&.&.&.&.&.&.&.&.&.&.&.&.&.&.&.&.&.&.&.&.&.&.&.&.&.&.&.&.&.&.&.&.&.&.&.&.&.&.&.&.&.&.&.&.&.&.&.&.&.&.&.&.&.&.&.&.&.&.&.&.&.&.&.&.&.&.&.&.&.;.e e E p.Q.`.P.P.P.`.W.<.R &.R F.[.P.P.U.J.J.<.G R >.q m.$XT Y R &.&.&.&.&.&.&.l l &.&.&.&.l l &.&.&.&.&.&.&.&.&.&.&.&.&.&.&.&.&.&.&.&.&.&.&.&.&.&.&.&.&.&.&.&.&.&.&.&.&.&.&.&.&.&.&.&.&.&.&.&.&.&.&.&.&.&.&.&.&.&.&.&.&.&.&.&.&.&.&.&.&.&.&.&.&.&.&.&.&.&.&.&.&.&.&.&.&.&.&.&.&.&.&.&.&.&.&.&.&.&.&.&.&.&.&.&.&.&.&.&.&.&.&.&.&.&.l l &.&.&.&.&.&.&.&.l l &.&.Y E Q.`.{.j.C W a R 7.`.'.I._.I.",
"P.P.`.`.z.}.`.<.p s W F `.#XY Y &.&.&.&.&.&.&.&.&.&.&.&.&.&.&.&.&.&.&.&.&.&.&.&.&.&.&.&.&.&.&.&.&.&.&.&.&.&.&.&.&.&.&.&.&.&.&.&.&.&.&.&.&.&.&.&.&.&.&.&.&.&.&.&.&.&.&.&.&.&.&.&.&.&.&.&.&.&.&.&.&.&.&.&.&.&.&.&.&.&.&.&.&.&.&.&.&.&.&.&.&.&.&.&.&.&.&.&.&.&.&.&.&.&.&.&.&.&.&.&.&.&.&.&.&.&.&.&.&.&.l l l l &.R H W._.`.`.P.P.J.~.-.R R G E F.~.P.K.P.P.G.~.F.G &.e *.A y.lX9X} R a x l @.#.&.l &.&.&.&.&.&.&.&.&.&.&.&.&.&.&.&.l l l &.&.&.l l l l &.&.&.&.l l &.&.&.&.&.&.&.&.&.&.&.&.&.&.&.&.&.&.&.&.&.&.&.&.&.&.&.&.&.&.&.&.&.&.&.&.&.&.&.&.&.&.&.&.&.&.&.&.&.&.&.&.&.&.&.&.&.&.&.&.&.&.&.&.&.&.&.&.&.&.&.&.&.&.&.&.&.&.&.&.&.&.&.&.&.&.&.&.&.&.&.&.&.&.&.&.&.e 9 *.p.Q.`.P.P.P.`.F.<.R &.R F. XP.P.P.J.F.^ G R :.q B.$X! S R &.&.&.&.&.&.l l &.&.&.&.&.&.c &.&.&.&.&.&.&.&.&.&.&.&.&.&.&.&.&.&.&.&.&.&.&.&.&.&.&.&.&.&.&.&.&.&.&.&.&.&.&.&.&.&.&.&.&.&.&.&.&.&.&.&.&.&.&.&.&.&.&.&.&.&.&.&.&.&.&.&.&.&.&.&.&.&.&.&.&.&.&.&.&.&.&.&.&.&.&.&.&.&.&.&.&.&.&.&.&.&.&.&.&.&.&.&.&.&.&.&.&.&.&.&.&.l l l &.&.&.&.&.&.&.&.l l &.&.R E Q.`.{.j.D &.a R 7.`.'.I._.P.",
"P.P.`.`.z.}.`.E a p Q Z `.iXQ Y R &.&.&.&.&.&.&.&.&.&.&.&.&.&.&.&.&.&.&.&.&.&.&.&.&.&.&.&.&.&.&.&.&.&.&.&.&.&.&.&.&.&.&.&.&.&.&.&.&.&.&.&.&.&.&.&.&.&.&.&.&.&.&.&.&.&.&.&.&.&.&.&.&.&.&.&.&.&.&.&.&.&.&.&.&.&.&.&.&.&.&.&.&.&.&.&.&.&.&.&.&.&.&.&.&.&.&.&.&.&.&.&.&.&.&.&.&.&.&.&.&.&.&.&.&.&.&.&.&.&.l l l &.R H W.`.`.`.P.P.J./.2.R R *.R 5.|.P.K.P.P.G.~.F.G &.=.i A u.lXjXa.A i l ;.:.:.&.l &.&.&.&.&.&.&.&.&.&.&.&.&.&.&.&.l l l &.&.&.l l &.&.&.l &.&.&.&.&.&.&.&.&.&.&.&.&.&.&.&.&.&.&.&.&.&.&.&.&.&.&.&.&.&.&.&.&.&.&.&.&.&.&.&.&.&.&.&.&.&.&.&.&.&.&.&.&.&.&.&.&.&.&.&.&.&.&.&.&.&.&.&.&.&.&.&.&.&.&.&.&.&.&.&.&.&.&.&.&.&.&.&.&.&.&.&.&.&.&.&.&.&.&.&.&.W G E F.Q.G.P.P.P.|.Q.2.R &.G F.`.P._.P.P.].^ R R &.&.m.%XS S R &.&.&.&.&.&.&.l &.&.&.&.&.c c &.&.&.&.&.&.&.&.&.&.&.&.&.&.&.&.&.&.&.&.&.&.&.&.&.&.&.&.&.&.&.&.&.&.&.&.&.&.&.&.&.&.&.&.&.&.&.&.l l l &.&.&.&.&.&.&.&.&.&.&.&.&.&.&.&.&.&.&.&.&.&.&.&.&.&.&.&.&.&.&.&.&.&.&.&.&.&.&.&.&.&.&.&.&.&.&.&.&.&.&.&.&.&.&.&.&.&.&.&.&.l l &.&.&.&.l l l l l ;.;.;.;.&.Y 3.W._.{.p.R i &.Y 5._.'.I.`.P.",
"P.P.`.`.z.7X`.E a p Q Z `.iX^ Y R &.&.&.&.&.&.&.&.&.&.&.&.&.&.&.&.&.&.&.&.&.&.&.&.&.&.&.&.&.&.&.&.&.&.&.&.&.&.&.&.&.&.&.&.&.&.&.&.&.&.&.&.&.&.&.&.&.&.&.&.&.&.&.&.&.&.&.&.&.&.&.&.&.&.&.&.&.&.&.&.&.&.&.&.&.&.&.&.&.&.&.&.&.&.&.&.&.&.&.&.&.&.&.&.&.&.&.&.&.&.&.&.&.&.&.&.&.&.&.&.&.&.&.&.&.&.&.*.&.&.l l l &.R +.W.`.`.`.P.P.J./.2.R R *.E 5.|.P.K.P.P.G.~.F.G &.;.i A u.lXjXP.A i l ;.:.*.&.l &.&.&.&.&.&.&.&.&.&.&.&.&.&.&.&.l &.l &.&.&.&.&.&.&.&.l &.&.&.&.&.&.&.&.&.&.&.&.&.&.&.&.&.&.&.&.&.&.&.&.&.&.&.&.&.&.&.&.&.&.&.&.&.&.&.&.&.&.&.&.&.&.&.&.&.&.&.&.&.&.&.&.&.&.&.&.&.&.&.&.&.&.&.&.&.&.&.&.&.&.&.&.&.&.&.&.&.&.&.&.&.&.&.&.&.&.&.&.&.&.&.&.&.&.&.&.&.W G ^ W.J.G.P.P.P.].Q.2.R &.G F.`.P.`.P.J.~.^ R *.&.R m.%XS S R &.&.&.&.&.l l l &.&.&.&.&.c c &.&.&.&.&.&.&.&.&.&.&.&.&.&.&.&.&.&.&.&.&.&.&.&.&.&.&.&.&.&.&.&.&.&.&.&.&.&.&.&.&.&.&.&.&.&.&.&.&.&.&.&.&.&.&.&.&.&.&.&.&.&.&.&.&.&.&.&.&.&.&.&.&.&.&.&.&.&.&.&.&.&.&.&.&.&.&.&.&.&.&.&.&.&.&.&.&.&.&.&.&.&.&.&.&.&.&.&.&.&.&.&.l l &.&.&.&.l l l l l ;.;.;.;.&.Y 3.Q._.{.p.R i &.Y 5._.'.I.'.P.",
"P.G.`.`.z.7XQ.E a p Q Z `.sX^ Y R &.&.&.&.&.&.&.&.&.&.&.&.&.&.&.&.&.&.&.&.&.&.&.&.&.&.&.&.&.&.&.&.&.&.&.&.&.&.&.&.&.&.&.&.&.&.&.&.&.&.&.&.&.&.&.&.&.&.&.&.&.&.&.&.&.&.&.&.&.&.&.&.&.&.&.&.&.&.&.&.&.&.&.&.&.&.&.&.&.&.&.&.&.&.&.&.&.&.&.&.&.&.&.&.&.&.&.&.&.&.&.&.&.&.&.&.&.&.&.&.&.&.&.&.&.&.&.*.&.&.l l l &.R H W.{.`.`.P.P.J./.2.R R *.E 5.|.J.K.P.P.G.~.F.G &.;.p A u.lXjXI.C i l ;.*.*.&.l &.&.&.&.&.&.&.&.&.&.&.&.&.&.&.&.&.&.&.&.&.&.&.&.&.&.l l &.&.&.&.&.&.&.&.&.&.&.&.&.&.&.&.&.&.&.&.&.&.&.&.&.&.&.&.&.&.&.&.&.&.&.&.&.&.&.&.&.&.&.&.&.&.&.&.&.&.&.&.&.&.&.&.&.&.&.&.&.&.&.&.&.&.&.&.&.&.&.&.&.&.&.&.&.&.&.&.&.&.&.&.&.&.&.&.&.&.&.&.&.&.&.&.&.&.&.&.&.W G <.Q.~.P.P.P.P.].F.<.R &.G F.`.P.`.P.J.~.^ G *.&.G m.%X! S R &.&.&.&.&.l l &.&.&.&.&.;.;.c &.&.&.&.&.&.&.&.&.&.&.&.&.&.&.&.&.&.&.&.&.&.&.&.&.&.&.&.&.&.&.&.&.&.&.&.&.&.&.&.&.&.&.&.&.&.&.&.&.&.&.&.&.&.&.&.&.&.&.&.&.&.&.&.&.&.&.&.&.&.&.&.&.&.&.&.&.&.&.&.&.&.&.&.&.&.&.&.&.&.&.&.&.&.&.&.&.&.&.&.&.&.&.&.&.&.&.&.&.&.&.&.l l &.&.&.&.&.&.l l l ;.;.;.;.&.Y v.Q._.{.p.G i =.Y 5.|.'.I.'.I.",
"P.G.`.`.z.}.Q.^ a p Q Z }.sX^ Y R &.&.&.&.&.&.&.&.&.&.&.&.&.&.&.&.&.&.&.&.&.&.&.&.&.&.&.&.&.&.&.&.&.&.&.&.&.&.&.&.&.&.&.&.&.&.&.&.&.&.&.&.&.&.&.&.&.&.&.&.&.&.&.&.&.&.&.&.&.&.&.&.&.&.&.&.&.&.&.&.&.&.&.&.&.&.&.&.&.&.&.&.&.&.&.&.&.&.&.&.&.&.&.&.&.&.&.&.&.&.&.&.&.&.&.&.&.&.&.&.&.&.&.&.&.&.&.*.&.&.l l l &.R H W._.`.`.P.P.J.).2.R R *.E 5.|.J.K.P.P.G.~.F.G &.&.y Y D.lXjX'.S i l &.*.*.&.l &.&.&.&.&.&.&.&.&.&.&.&.&.&.&.&.&.&.&.&.&.&.&.&.&.&.l l &.&.&.&.&.&.&.&.&.&.&.&.&.&.&.&.&.&.&.&.&.&.&.&.&.&.&.&.&.&.&.&.&.&.&.&.&.&.&.&.&.&.&.&.&.&.&.&.&.&.&.&.&.&.&.&.&.&.&.&.&.&.&.&.&.&.&.&.&.&.&.&.&.&.&.&.&.&.&.&.&.&.&.&.&.&.&.&.&.&.&.&.&.&.&.&.&.&.&.&.&.W G <.~.J.P.P.P.P.].F.<.R &.G F.`.P._.P.G.~.^ G *.&.G m.aX! S R &.&.&.&.&.&.l &.&.&.&.;.;.;.;.&.&.&.&.&.&.&.&.&.&.&.&.&.&.&.&.&.&.&.&.&.&.&.&.&.&.&.&.&.&.&.&.&.&.&.&.&.&.&.&.&.&.&.&.&.&.&.&.&.&.&.&.&.&.&.&.&.&.&.&.&.&.&.&.&.&.&.&.&.&.&.&.&.&.&.&.&.&.&.&.&.&.&.&.&.&.&.&.&.&.&.&.&.&.&.&.&.&.&.&.&.&.&.&.&.&.&.&.&.&.&.&.&.&.&.&.&.&.&.&.l l l ;.;.;.;.&.i 3.W._.{.p.R i =.Y 5.|.'.'._.I.",
"P.G.`.`.z.}.Q.E a u Q Z }.sX^ Y R &.&.&.&.&.R R R R &.&.&.&.&.&.&.&.&.&.&.&.&.&.&.&.&.&.&.&.&.&.&.&.&.&.&.&.&.&.&.&.&.&.&.&.&.&.&.&.&.&.&.&.&.&.&.&.&.&.&.&.&.&.&.&.&.&.&.&.&.&.&.&.&.&.&.&.&.&.&.&.&.&.&.&.&.&.&.&.&.&.&.&.&.&.&.&.&.&.&.&.&.&.&.&.&.&.&.&.&.&.&.&.&.&.&.&.&.&.&.&.&.&.&.&.&.&.*.&.&.l l l &.R H W.`.`.`.P.P.J.).6.R R *.G 5.~.P.K.P.P.G.~.F.G &.&.i Y D.lXjX5XS Y l &.*.*.&.l &.&.&.&.&.&.&.&.&.&.&.&.&.&.&.&.&.&.&.&.&.&.&.&.&.&.&.&.&.l &.l &.&.&.&.&.&.&.&.&.&.&.&.&.&.&.&.&.&.&.&.&.&.&.&.&.&.&.&.&.&.&.&.&.&.&.&.&.&.&.&.&.&.&.&.&.&.&.&.&.&.&.&.&.&.&.&.&.&.&.&.&.&.&.&.&.&.&.&.&.&.&.&.&.&.&.&.&.&.&.&.&.&.&.&.&.&.&.&.&.&.&.&.&.&.&.&.W W Y ( ~.].P.P.P.P.].F.^ R &.Y F.`.P._.P.G.~.^ G *.&.e V.aX^ S R &.&.&.&.&.&.&.&.&.&.&.;.;.&.&.&.&.&.&.&.&.&.&.&.&.&.&.&.&.&.&.&.&.&.&.&.&.&.&.&.&.&.&.&.&.&.&.&.&.&.&.&.&.&.&.&.&.&.&.&.&.&.&.&.&.&.&.&.&.&.&.&.R &.&.&.&.&.&.&.&.&.&.&.&.&.&.&.&.&.&.&.&.&.&.&.&.&.&.&.&.&.&.&.&.&.&.&.&.&.&.&.&.&.&.&.&.&.&.&.&.&.&.&.&.&.&.&.&.&.&.&.&.&.&.l l l &.&.;.;.&.i 3.W._.{.p.G i =.Y 5.|.'.I._.I.",
"P.G.`.`.z.}.Q.E a u E Z }.lX^ Y R &.&.&.&.&.R R R &.&.&.&.&.&.&.&.&.&.&.&.&.&.&.&.&.&.&.&.&.&.&.&.&.&.&.&.&.&.&.&.&.&.&.&.&.&.&.&.&.&.&.&.&.&.&.&.&.&.&.&.&.&.&.&.&.&.&.&.&.&.&.&.&.&.&.&.&.&.&.&.&.&.&.&.&.&.&.&.&.&.&.&.&.&.&.&.&.&.&.&.&.&.&.&.&.&.&.&.&.&.&.&.&.&.&.&.&.&.&.&.&.&.&.&.&.&.&.&.&.&.l l l &.R H W.{.`.`.P.P.J.).6.R R *.G 5.~.P.K.P.P.G.~.F.G &.&.i Y D.jXzX8XH R l &.+.*.&.l &.&.&.&.&.&.&.&.&.&.&.&.&.&.&.&.&.l &.&.&.&.&.&.&.&.l l &.&.l l &.&.&.&.&.&.&.&.&.&.&.&.&.&.&.&.&.&.&.&.&.&.&.&.&.&.&.&.&.&.&.&.&.&.&.&.&.&.&.&.&.&.&.&.&.&.&.&.&.&.&.&.&.&.&.&.&.&.&.&.&.&.&.&.&.&.&.&.&.&.&.&.&.&.&.&.&.&.&.&.&.&.&.&.&.&.&.&.&.&.&.&.&.&.&.&.W R Y 2.~.].P.P.P.P.U.F.E R *.R F.`.f.P.P.G.~.E G *.&.e m.aX/ S R &.&.&.&.&.&.&.&.l &.&.;.;.&.&.&.&.&.&.&.&.&.&.&.&.&.&.&.&.&.&.&.&.&.&.&.&.&.&.&.&.&.&.&.&.&.&.&.&.&.&.&.&.&.&.&.&.&.&.&.&.&.&.&.&.&.&.&.&.&.&.&.&.&.&.&.;.&.&.&.&.&.&.&.&.&.&.&.&.&.&.&.&.&.&.&.&.&.&.&.&.&.&.&.&.&.&.&.&.&.&.&.&.&.&.&.&.&.&.&.&.&.&.&.&.&.&.&.&.&.&.&.&.&.&.l l l &.&.;.;.&.Y 3.W.`.{.p.G i =.Y 5.|.'.I._.I.",
"P.G.P.`.z.}.Q.E a u E Z 7XlX/ A R &.&.&.&.&.&.&.&.&.&.&.&.&.&.&.&.&.&.&.&.&.&.&.&.&.&.&.&.&.&.&.&.&.&.&.&.&.&.&.&.&.&.&.&.&.&.&.&.&.&.&.&.&.&.&.&.&.&.&.&.&.&.&.&.&.&.&.&.&.&.&.&.&.&.&.&.&.&.&.&.&.&.&.&.&.&.&.&.&.&.&.&.&.&.&.&.&.&.&.&.&.&.&.&.&.&.&.&.&.&.&.&.&.&.&.&.&.&.&.&.&.&.&.&.&.&.&.*.&.&.l l l &.R H W.`.P.`.P.P.J.).6.R R O.G 5.~.P.K.P.P.G.~.F.G *.&.i Y G.jXzXpXH R &.&.#.*.&.l &.&.&.&.&.&.&.&.&.&.&.&.&.&.&.&.&.l l &.&.&.&.&.&.&.l l &.&.&.&.&.&.&.&.&.&.&.&.&.&.&.&.&.&.&.&.&.&.&.&.&.&.&.&.&.&.&.&.&.&.&.&.&.&.&.&.&.&.&.&.&.&.&.&.&.&.&.&.&.&.&.&.&.&.&.&.&.&.&.&.&.&.&.&.&.&.&.&.&.&.&.&.&.&.&.&.&.&.&.&.&.&.&.&.&.&.&.&.&.&.&.&.&.&.&.l i R R 2.~.].P.P.Y.P.U.F.E R *.R a.`.I.P.P.G.J.^ G *.&.e m.aX) S R &.&.&.l l &.&.l l l l ;.;.&.&.&.&.&.&.&.&.&.&.&.&.&.&.&.&.&.&.&.&.&.&.&.&.&.&.&.&.&.&.&.&.&.&.&.&.&.&.&.&.&.&.&.&.&.&.&.&.&.&.l i R &.&.;.;.;.=.=.=.=.-.>.=.=.&.&.&.&.&.&.&.&.&.&.&.&.&.&.&.&.&.&.&.&.&.&.&.&.&.&.&.&.&.&.&.&.&.&.&.&.&.&.&.&.&.&.&.&.&.&.&.&.&.&.&.&.&.&.&.&.l l l &.&.;.;.&.Y 3.W._.{.p.R i =.Y 5.|.'.I._.I.",
"P.P.P.`.z.}.Q.*.a i R Z }.lX/ A R &.&.&.&.&.&.&.&.&.&.&.&.&.&.&.&.&.&.&.&.&.&.&.&.&.&.&.&.&.&.&.&.&.&.&.&.&.&.&.&.&.&.&.&.&.&.&.&.&.&.&.&.&.&.&.&.&.&.&.&.&.&.&.&.&.&.&.&.&.&.&.&.&.&.&.&.&.&.&.&.&.&.&.&.&.&.&.&.&.&.&.&.&.&.&.&.&.&.&.&.&.&.&.&.&.&.&.&.&.&.&.&.&.&.&.&.&.&.&.&.&.&.&.&.&.&.&.&.&.&.l l l W R H W.`.P.`.P.P.J.).6.R R O.G <.~.P.K.P.P.G.~.F.G &.l i T D.jXzXpXK R R &.#.#.&.l &.&.&.&.&.&.&.&.&.&.&.&.&.&.&.&.&.&.&.&.&.&.&.&.&.&.&.&.&.&.&.&.&.&.&.&.&.&.&.&.&.&.&.&.&.&.&.&.&.&.&.&.&.&.&.&.&.&.&.&.&.&.&.&.&.&.&.&.&.&.&.&.&.&.&.&.&.&.&.&.&.&.&.&.&.&.&.&.&.&.&.&.&.&.&.&.&.&.&.&.&.&.&.&.&.&.&.&.&.&.&.&.&.&.&.&.&.&.&.&.&.&.&.&.&.&.&.l a W R 2.~._.P.P.I.P.U.F.E Y *.R F.`.f.I.P.G.Q.E G :.&.D F.sX) S R l l l l l l &.l l l l ;.;.&.&.&.&.&.&.&.&.&.&.&.&.&.&.&.&.&.&.&.&.&.&.&.&.&.&.&.&.&.&.&.&.&.&.&.&.&.&.&.&.&.&.&.&.&.&.&.&.&.&.i i R R *.*.;.*.,.-.,.-.,.,.,.,.*.&.&.&.&.&.&.&.&.&.&.&.&.&.&.&.&.&.&.&.&.&.&.&.&.&.&.&.&.&.&.&.&.&.&.&.&.&.&.&.&.&.&.*.&.*.&.*.&.&.&.&.&.&.&.&.&.&.l &.&.l ;.&.Y 3.W._.{.p.R i =.i 5.|._.I.P.P.",
"g.f.`.`.`.}.k.H i a W H 8XpXP.S R l l l l l l l l l l l l &.&.&.i i R R R &.&.&.R R R R R R R &.&.&.&.&.&.&.&.&.&.&.&.l &.l &.&.&.&.&.&.&.&.&.&.&.&.&.&.&.&.&.&.&.&.&.;.;.*.&.&.&.&.&.&.&.l l l &.R R i i i R R i i i i R &.&.W &.&.&.R l g g g &.&.&.&.&.&.&.&.&.&.&.&.&.&.&.&.&.&.&.&.&.&.&.&.&.l i l a a W R H F._.`.`.`.P.J./.2.R *.*.R 6.~.J.D.P.P.G.~.F.G l l Y C K.lXgXlX} C *.&.g >.l &.&.&.*.&.&.&.&.&.l &.l l l l l &.G G R R R R R R *.*.*.*.*.*.*.*.,.:.:.:.&.*.&.&.O.R O.&.&.&.&.&.&.&.&.&.&.&.&.&.&.&.&.&.&.&.l l &.R &.&.&.&.&.&.&.&.&.&.&.&.&.&.&.&.&.&.&.&.&.&.&.&.&.&.&.&.&.&.&.&.&.&.&.&.&.&.&.&.&.&.&.&.&.&.&.&.;.;.;.;.&.&.&.&.&.&.&.&.l l a W A m.~.G.I.I.d.P.J.7.E R R R (.`.*X*XP.].F.E *.O.&.A a.sXG.m R l l l l l l l &.&.&.&.&.&.;.;.&.&.&.&.&.&.&.&.&.&.&.&.&.&.&.&.&.&.&.&.&.&.&.&.&.&.&.&.&.&.&.&.&.&.&.&.&.&.&.&.&.&.&.&.&.&.&.&.R R R *.*.-.,.6.2.2.<.<.<.<.<.<.6.:.:.*.*.*.&.&.*.&.&.&.&.&.&.&.&.&.&.&.;.;.&.&.;.;.;.;.&.&.&.&.g &.;.*.&.G O.*.*.*.*.*.:.4.4.4.:.:.:.:.*.*.O.O.O.&.&.&.l l l l Y m.Q._.`.7.R a a i 6.Q.`.`.`.P.",
"&Xg.`.Q.`.{.k.+.i a &.H #XpX`.S R l l l l l l l l l &.&.&.&.&.&.&.W R R R i i i R R R i R R R i &.&.&.&.&.&.&.&.&.l l l l l l l &.&.&.&.&.&.&.&.&.&.&.&.&.&.&.&.&.&.&.&.&.&.&.&.&.&.&.&.&.&.&.&.R R i i i i R R i i i i i i i i i i R R l i l &.&.&.&.&.&.&.&.&.&.&.&.&.&.&.&.&.&.&.&.&.&.&.&.&.l l a a a a i Y H F.|.`.`.`.P.P./.2.R *.*.R 6.~.J.D.P.P.G.~.H.R x x Y S P.lXgXlXr.Z *.&.l >.l &.&.*.*.*.&.&.&.&.&.&.&.l &.l g G G G R E *.*.*.*.-.-.-.-.-.-.-.-.-.-.-.-.:.:.:.*.G G G &.*.*.*.*.&.&.&.&.&.&.&.&.&.&.&.&.&.&.l l &.&.&.&.&.&.&.&.&.&.&.&.&.&.&.&.&.&.&.&.&.&.&.&.&.&.&.&.&.&.&.&.&.&.&.&.&.&.&.&.&.&.&.&.&.&.&.&.&.&.;.;.;.;.&.&.&.&.&.&.&.&.&.&.a R 9 m.~.G._.I.I.P.P.y.E R R R (.G.*X*XI.|.W.E *.O.&.H f.jXD.m R l l l l l l l &.&.&.&.&.&.;.;.&.&.&.&.&.&.&.&.&.&.&.&.&.&.&.&.&.&.&.&.&.&.&.&.&.&.&.&.&.&.&.&.&.&.&.&.&.&.&.&.&.&.&.&.&.&.&.&.R R R *.*.-.2.6.<.<.<.<.<.1.1.<.<.-.-.*.*.*.O.O.*.*.&.&.&.&.&.&.&.&.&.&.;.;.&.&.;.;.;.;.&.&.&.&.l &.*.*.&.*.O.*.*.*.<.<.4.4.4.4.4.:.:.-.*.*.*.*.*.*.&.&.l l l a Y m.Q._.`.7.R a y i 3.Q.`.P.`.G.",
"&Xg.`.Q.`.{.k.+.i a &.H #XpX_.S R l l l l l l l &.&.&.&.&.&.&.&.R R R R R R R R W W *.*.*.*.*.*.*.;.*.&.*.&.&.l &.&.&.l l l l i &.l &.&.l &.&.&.l l &.&.&.&.&.&.&.&.&.&.&.&.&.&.&.&.&.&.&.&.*.*.*.*.*.*.*.*.*.*.R R R R R R R R G i R R &.&.*.*.&.&.*.&.&.&.&.&.&.&.&.&.&.&.&.&.&.&.&.&.&.&.&.&.&.&.l l a a i Y S S.`.P.`.`.P.U.).2.R E *.R 6.~.J.D.P.P.G.~.H.R x x Y S P.lXuXlXt.S R &.l >.l &.&.&.&.&.&.&.&.&.&.&.&.&.&.g O.G *.E *.*.*.-.<.2.2.2.2.2.2.2.2.2.6.6.<.<.-.-.-.-.R *.R *.*.R R &.&.&.&.&.&.&.&.&.&.&.&.&.l l l l &.R &.&.&.&.&.&.&.&.&.&.&.&.;.;.&.&.&.&.&.&.&.&.&.&.&.&.&.&.&.&.&.&.&.&.&.&.&.&.&.&.&.&.&.&.&.&.&.&.;.;.&.&.&.&.&.&.&.&.&.&.&.&.R R G m.).G._.I.I.P.P.3.E R R R !.J.*X&XP.~.W.E *.O.&.H l.jXU.m R l l l l l &.l &.&.&.&.;.;.;.;.&.&.&.&.&.&.&.&.&.&.&.&.&.&.&.&.&.&.&.&.&.&.&.&.&.&.&.&.&.&.&.&.&.&.&.&.&.&.&.&.&.&.&.&.&.&.l &.R R *.*.-.-.-.2.<.<.<.<.<.<.1.<.<.<.-.-.:.*.*.*.*.*.&.&.&.&.&.&.&.&.;.;.;.;.&.&.&.&.;.;.&.&.&.&.&.R *.R R R *.-.-.<.<.4.4.4.5.4.6.6.2.2.-.-.-.-.*.*.R i i a a a Y m.Q._.`.i.R a y y 1.Q.`.I.`.G.",
"&Xg.`.Q.`.{.k.+.i a W H iXsX[.S R l l l l l l &.&.&.&.&.&.&.&.R R R R R *.*.-.-.-.-.-.-.-.-.-.-.:.;.;.;.*.&.&.l &.&.&.&.&.l &.&.l l &.&.&.&.&.&.&.l &.&.&.&.&.&.&.&.&.&.&.&.&.&.&.*.*.&.;.:.:.:.-.-.-.-.-.-.-.-.-.-.*.*.*.*.*.*.R R R R &.&.&.*.&.&.*.*.&.&.&.&.&.&.&.&.&.&.&.&.&.&.&.&.&.&.&.&.;.;.&.l a a W R S S.`.P.P.`.P.].).3.E E *.G 6.~.J.D.P.P.G.~.F.R l x R S P.lXgXlXG.F R &.l >.l &.&.&.&.&.&.&.&.&.&.&.&.*.*.*.*.*.:.*.-.-.2.2.6.6.2.2.2.-.2.2.-.-.2.-.<.-.<.6.6.6.-.-.-.*.*.G G e &.&.&.&.&.&.&.&.&.&.&.&.l l l l &.&.&.&.&.&.&.&.&.&.&.&.;.;.;.;.&.&.&.&.&.&.&.&.&.&.&.&.&.&.&.&.&.&.&.&.&.&.&.&.&.&.&.&.&.&.&.&.&.&.;.;.&.&.&.&.&.&.&.&.&.&.&.&.R W G m.).G._.I.I.P.P.3.E R R W !.F.*X&XP.~.W.E *.O.&.H l.jXU.M R l l l l l &.l &.&.&.&.;.;.;.;.&.&.&.&.&.&.&.&.&.&.&.&.&.&.&.&.&.&.&.&.&.&.&.&.&.&.&.&.&.&.&.&.&.&.&.&.&.&.&.&.;.;.&.&.&.&.l l R R *.-.2.2.-.-.<.<.<.<.<.<.<.<.<.<.-.-.-.:.*.*.*.*.&.&.&.&.&.&.&.&.;.;.;.;.&.&.&.&.;.;.&.&.&.&.*.*.R R R *.:.-.6.6.4.6.4.4.4.4.2.-.2.2.2.6.6.6.*.*.*.R i a a a Y m.Q._.`.i.R a a y 1.Q.`.I.`.G.",
"g.g.`.~.`.{.k.H R a W S iXsX[.S R l l &.&.&.&.&.&.&.&.&.&.R R R *.*.*.*.-.-.,.,.-.-.-.-.-.-.-.,.:.:.:.*.*.*.&.&.R i R &.&.&.&.&.&.&.&.&.&.&.&.&.&.&.&.&.&.l l &.;.&.&.R R &.*.*.;.:.:.:.:.-.,.,.,.-.-.-.-.-.-.-.,.-.-.-.-.-.-.:.*.*.*.*.R R *.G &.*.&.&.&.&.&.&.&.&.&.&.&.&.&.&.&.&.&.&.&.&.&.*.&.&.&.l a a R R H F.`.P.P.`.P.].~.6.E *.*.G 6.~.J.D.P.P.P.].W.R l x R S I.zXgXlXP.Z E &.l >.l &.&.&.&.&.&.&.&.&.G G &.*.:.:.-.-.6.6.2.2.2.2.2.2.-.-.-.-.-.-.-.-.<.<.<.<.<.<.6.6.6.6.2.-.*.R G G *.&.&.&.&.&.&.&.&.&.l l l l l l &.&.&.&.&.&.&.&.&.&.&.&.&.&.;.;.&.&.&.&.&.&.&.&.&.&.&.&.&.&.&.&.&.&.&.&.&.&.&.&.&.&.&.&.&.&.&.&.&.&.&.&.&.&.&.&.&.l l &.l l l l R W G F.|.G.[.I.I.P.G.3.E R W W !.F.g.&XP.~.H.E *.O.*.H l.lXU.` R l l l &.&.&.&.&.&.&.&.&.&.&.&.&.&.&.&.&.&.&.&.&.&.&.&.&.&.&.&.&.&.&.&.&.&.&.&.&.&.&.&.&.&.&.&.&.&.&.&.&.&.&.&.&.&.&.&.&.&.&.&.*.*.:.-.2.2.-.-.<.<.<.<.<.<.<.<.<.<.4.6.2.-.:.;.*.&.&.&.&.&.&.&.&.&.&.&.&.&.&.&.&.&.&.&.&.&.&.&.*.R R R *.*.-.-.6.6.4.4.<.<.<.<.-.-.-.2.<.<.6.6.-.*.*.*.R W a W Y m.Q._._.i.R a y i 3.~.`.I.`.P.",
"g.I.P.~.`._.k.H R a W S iXlX[.S R &.&.&.&.&.&.&.R R &.&.*.*.*.*.-.-.2.-.2.-.2.-.-.-.-.-.-.-.-.-.-.:.:.:.:.;.;.;.G G G i i i &.&.&.&.&.&.&.&.&.&.&.&.&.&.&.&.l &.&.&.R R &.&.;.:.:.:.:.4.4.6.6.6.2.-.2.-.2.-.2.-.2.-.2.-.-.-.-.-.2.-.-.*.*.*.O.*.*.&.&.&.&.&.&.&.&.&.&.&.&.&.&.&.&.&.&.&.&.&.&.*.O.&.&.l a a R R H G._.P.P.P.P.].).6.E *.*.G 6.~.J.K.P.P.P.].W.H l x E K I.zXgXlX[.K E *.&.;.g &.&.l &.&.&.&.&.*.O.O.*.*.-.:.4.6.6.6.6.6.2.2.2.-.2.2.-.-.2.2.2.<.<.<.<.<.<.<.<.<.<.<.<.-.-.*.*.*.*.&.&.&.&.&.&.&.&.&.l l l l l l &.&.&.&.&.&.&.&.&.&.&.&.&.&.;.;.&.&.&.&.&.&.&.&.&.&.&.&.&.&.&.&.&.&.&.&.&.&.&.&.&.&.&.&.&.&.&.&.&.&.&.&.&.&.&.&.&.&.l l l l l &.R R G H.].J.[.I.I.P.G.3.E G R *.!.F.g.=XP.~.H.R &.g *.H `.zXU.T R l &.&.&.&.&.&.&.&.&.&.&.&.&.&.&.&.&.&.&.&.&.&.&.&.&.&.&.&.&.&.&.&.&.&.&.&.&.&.&.&.&.&.&.&.&.&.&.*.&.&.&.&.*.*.&.&.&.&.&.&.&.*.*.*.-.-.2.2.-.<.<.<.<.<.<.<.<.<.<.<.4.4.2.<.:.:.*.&.&.&.&.&.&.&.&.&.&.&.&.&.&.&.&.&.&.&.&.&.&.&.*.R R R *.-.<.<.<.<.<.<.<.<.<.<.-.-.-.-.<.<.<.<.-.-.:.*.*.&.a i Y m.Q._._.3.R a y i 3.~.`.I.`.P.",
"g.I.P.~.`._.k.P W a R S pXlX[.K R &.&.&.&.&.&.&.&.*.*.*.:.:.:.:.6.6.6.2.<.2.<.-.-.-.-.-.<.-.<.-.-.-.-.-.:.:.:.:.*.*.*.&.&.&.R i &.&.&.&.&.&.&.&.&.&.&.&.&.&.&.&.&.&.&.R &.;.:.,.,.,.4.4.4.4.4.<.<.-.<.-.<.-.<.-.<.-.<.-.<.-.<.<.<.<.<.<.*.*.*.*.*.&.&.&.&.&.l l &.&.&.&.&.&.&.&.&.&.&.&.&.&.&.*.O.&.&.&.&.=.*.E ^ F._.P.I.I.P.P.~.6.E *.*.G <.Q.J.K.P.P.P.].W.E l a E K I.zXdXjX[.K H *.&.;.e ;.R R &.&.&.&.*.*.:.*.*.<.<.4.4.<.6.2.2.2.<.<.<.<.<.<.<.<.<.<.<.<.<.<.<.<.<.<.<.<.<.<.<.<.<.<.<.-.*.&.&.&.&.&.&.&.&.&.&.&.l l l l &.&.&.&.&.&.&.&.&.&.&.&.&.&.&.;.&.&.&.&.&.&.&.&.&.&.&.&.&.&.&.&.&.&.&.&.&.&.&.&.&.&.&.&.&.&.&.&.&.l l l l l &.&.&.&.&.&.R R R R R R G F.|.J.[.I.I.P.G.1.K H R *.!.F.I.I.P.~.H.R R e *.H `.zXU.T Y W W W &.&.&.&.&.&.&.&.&.&.&.&.&.&.&.&.&.&.&.&.&.&.&.&.&.&.&.&.&.&.&.&.&.&.&.&.&.&.&.&.&.&.&.&.&.&.&.&.&.&.&.&.&.O.&.*.*.&.&.*.-.-.-.-.2.2.<.<.<.<.<.<.<.<.<.<.<.<.2.2.2.2.2.-.*.&.&.&.&.&.&.&.&.&.&.&.&.&.&.&.&.&.&.&.&.&.&.&.R R R R -.2.2.2.<.<.<.<.<.<.<.<.2.-.2.2.<.<.<.<.<.-.-.-.*.*.i i Y m.Q._.`.3.R R y i 7.`.`.I.`.P.",
"g.I.U.~.Q._.k.P W a R S pXlX5XJ E &.&.&.&.&.*.*.*.*.;.:.:.,.,.,.<.<.<.<.<.2.2.6.<.<.<.<.<.<.<.<.-.,.4.,.:.,.,.,.,.,.,.:.;.*.&.R &.&.&.&.&.&.&.&.&.&.&.&.&.&.&.&.&.&.R &.*.;.,.6.6.6.4.4.4.4.4.<.<.2.2.2.2.2.2.2.<.<.<.<.<.2.6.6.<.<.<.<.<.<.-.-.*.*.*.&.&.&.&.l &.&.&.&.&.&.&.&.&.&.&.&.&.&.&.&.*.*.:.=.=.>.,.2.^ Q._.P.I.I.P.P.~.7.E *.*.G <.Q.U.K.P.P.P.].W.E l a E K I.zXdXgX5XP H *.&.;.e *.&.R &.&.&.&.*.*.:.4.4.4.4.4.4.<.<.<.<.<.<.2.2.2.<.<.<.<.<.<.<.<.6.4.5.<.<.<.<.<.<.<.<.<.<.<.*.*.*.&.*.&.&.&.&.&.&.&.&.&.&.l &.&.&.&.&.&.&.&.&.&.&.&.&.&.&.&.&.;.&.&.&.&.&.&.&.&.&.&.&.&.&.&.&.&.&.&.&.&.&.&.&.&.&.&.&.&.&.&.&.&.&.l l l l l &.&.&.&.&.&.R R R R R E H F.|.P.[.I.I.P.G.3.K H E *.V.F.I.I.G.~.H.R R e *.H '.zXU.! R W W W &.&.&.&.&.&.&.&.&.&.&.&.&.&.&.&.&.&.&.&.&.&.&.&.&.&.&.&.&.&.&.&.&.&.&.&.&.&.&.&.&.&.&.&.&.&.&.&.&.&.&.&.G O.O.&.&.&.*.*.6.-.-.-.-.2.2.2.<.<.<.<.<.<.<.<.<.<.<.<.<.2.6.6.*.&.&.&.&.&.&.&.&.&.&.&.&.&.&.&.&.&.&.&.&.&.&.&.R G R *.2.6.2.-.<.<.<.<.<.6.6.6.6.6.6.2.2.<.<.<.<.<.-.-.:.*.R 9 Y m.`._._.i.R W y i 7.`.`.I.`.P.",
"L.I.U.].G._.k.P Y a Y ^ iXpXpXV G e R R R *.*.*.-.-.-.-.-.-.2.2.<.<.<.<.<.<.<.<.<.<.<.<.<.<.<.<.<.-.<.2.<.2.2.-.6.6.6.,.-.-.:.-.*.*.*.&.&.R G e *.&.*.&.&.&.*.&.&.R &.*.;.-.-.-.-.2.<.<.<.<.<.<.<.<.<.<.<.<.<.<.<.<.<.<.<.<.<.<.<.<.<.<.<.<.2.-.-.-.:.;.*.&.i e *.&.&.&.&.*.*.*.R R &.&.&.&.&.*.4.4.,.:.-.-.-.2.1.G.|.`.I.P.P.G.~.6.H H O.G <.F.J.K.P.P.P.].W.E &.a Y B ;XdXkXgXiX/ Z *.:.G G &.e e i R *.:.-.-.-.2.<.<.<.<.<.<.<.<.<.<.<.<.<.<.<.<.<.<.<.<.<.<.<.<.1.1.<.<.<.<.<.<.<.<.<.<.<.<.:.:.:.;.*.*.*.&.*.&.*.&.&.l l i i R R R &.&.l l &.&.&.&.;.;.;.;.&.&.&.&.&.&.&.&.&.&.&.&.&.&.&.&.&.&.&.&.&.&.&.&.&.&.&.&.&.&.&.&.l l l l ;.&.&.&.i i R R *.*.*.*.-.-.6.F.~.P.P.I.P.[.G.3.1.<.*.-.M.F.I.I.G.J.m.R R &.*.F 7XjXaX_ A R R R *.*.*.*.&.&.&.&.&.&.&.&.&.&.&.&.&.&.&.&.&.&.&.&.&.&.&.&.&.&.&.&.&.&.&.&.&.&.&.&.&.&.&.&.&.R R &.&.&.&.&.R G G G *.:.:.6.-.2.2.2.-.2.<.<.<.<.<.<.<.<.<.<.<.<.<.<.<.2.2.-.*.*.*.&.R &.&.*.&.&.&.&.&.&.&.&.&.&.&.&.&.&.&.R G G *.-.<.2.<.<.<.<.<.<.<.<.<.<.2.2.<.<.<.<.<.<.<.<.<.2.*.*.R Y R m.`._.`.i.R y y Y 7.|.}._._.P.",
"L.I.U.J.G._.k.P Y W Y ^ iXjXpXB H *.*.*.*.*.:.-.-.-.-.-.2.2.<.<.<.<.<.<.<.<.<.<.<.<.<.<.<.<.<.<.<.<.<.<.<.<.<.2.2.-.6.6.,.-.-.-.,.:.:.:.:.;.:.;.:.;.:.;.;.;.*.*.*.*.*.:.-.-.-.6.2.<.<.<.<.<.<.<.<.<.<.<.<.<.<.<.<.<.<.<.<.<.<.<.<.<.<.<.<.<.<.2.-.:.:.:.*.*.R R *.&.&.G O.*.*.*.e G G *.&.:.:.,.4.4.,.,.:.-.-.2.1.G.[.`.I.P.P.G./.6.*.*.*.H 6.Q.P.K.P.P.P.].F.E &.a Y B 5XdXzXgXiX/ Z *.*.G G R R R R *.*.:.-.-.2.<.<.<.<.<.<.<.<.<.<.<.<.<.<.<.<.<.<.<.<.<.<.<.<.<.1.1.<.<.<.<.<.<.<.<.<.<.<.<.2.-.-.:.:.:.:.*.G G G &.&.*.*.*.&.&.&.&.&.&.&.&.&.&.&.&.&.;.;.;.&.&.&.&.&.&.&.&.&.&.&.&.&.&.&.&.&.&.&.&.&.&.&.&.&.&.&.&.&.&.&.&.l l l &.&.&.&.R &.*.*.*.*.:.:.:.-.-.6.F.~.P.P.I.P.[.G.1.1.<.*.2.M.F.I.I.P.J.H.E R &.*.F 7XjXaX! E *.*.*.&.R &.R G R l l l l l &.&.&.&.&.&.&.&.&.&.&.&.&.&.&.&.&.&.&.&.&.&.&.&.&.&.&.&.&.&.&.&.&.&.&.&.&.&.*.&.&.&.G G &.*.:.:.6.2.2.2.2.-.2.<.<.<.<.<.<.<.<.<.<.<.<.<.<.<.<.2.2.:.*.*.&.G R &.&.&.&.&.&.&.&.&.&.&.&.&.&.&.&.&.R G E *.<.2.2.<.<.<.<.<.<.<.<.<.<.<.2.<.<.<.<.<.<.<.<.<.<.-.*.R R R m.`.`.`.i.G W y Y 5.]._.I._.P.",
"L.I.U.J.G._.k.P W W Y ^ pXjXpXL ^ *.*.-.-.-.-.2.2.2.<.<.<.<.<.<.<.<.<.<.<.<.<.<.<.<.<.<.<.<.<.<.<.<.<.<.<.<.<.<.<.-.<.2.2.2.-.-.6.,.6.,.,.-.:.:.-.:.-.:.-.:.-.:.-.-.-.-.-.-.2.2.2.<.<.<.<.<.<.<.<.<.<.<.<.<.<.<.<.<.<.<.<.<.<.<.<.<.<.<.<.<.<.2.-.-.-.:.:.;.*.*.*.*.&.&.*.*.*.*.G G *.:.:.,.,.6.4.4.4.,.,.-.-.<.1.G.[._.I.P.P.G.).7.<.6.4.-.5.~.U.P.U.P.P.].G.H W i E L 6XdXzXgXpXr.Z E *.G R *.*.*.*.*.*.-.-.2.2.<.<.<.<.<.<.<.<.<.<.<.<.<.<.<.<.<.<.<.<.<.<.<.<.<.<.<.<.<.<.<.1.<.<.<.2.2.2.<.6.6.:.:.:.:.-.-.D G G &.*.*.*.*.*.&.&.&.&.&.&.&.&.&.&.&.&.&.;.;.&.&.&.&.&.&.&.&.&.&.&.&.&.&.&.&.&.&.&.&.&.&.&.&.&.&.&.&.&.&.&.&.l l &.&.&.&.&.O.*.*.*.:.-.-.-.-.2.<.6.F.~.P.P.I.P.[.G.1.1.<.*.2.M.F.I.L.K.J.F.E R R *.Z 7XjXaX_ E *.*.*.*.R R R G G i i &.&.&.&.&.&.&.&.&.&.&.&.&.&.&.&.&.&.&.&.&.&.&.&.&.&.&.&.&.&.&.&.&.&.&.&.;.&.&.&.&.&.*.*.*.*.*.*.*.-.:.-.<.<.<.<.<.<.<.<.<.<.<.<.<.<.<.<.<.<.<.<.2.2.2.2.-.*.*.R G R &.&.&.&.&.&.&.&.&.&.&.&.l l l &.&.*.*.E <.<.6.6.<.<.<.<.<.<.<.<.<.2.2.2.2.2.<.<.<.<.<.<.<.2.2.*.*.Q Y b.Q.`.`.i.E W y 9 1.`.'.I._.I.",
"L.I.U.J.G._.l.$.*.=.Q ) pXjXjX{ 1.-.-.-.2.2.2.6.<.<.<.<.<.<.<.<.<.<.<.<.<.<.<.<.<.<.<.<.<.<.<.<.<.<.<.<.<.<.<.<.<.<.<.<.2.2.2.2.6.6.6.4.4.-.-.-.4.4.4.4.4.4.:.-.2.2.2.-.-.-.2.2.<.<.<.<.<.<.<.<.<.<.<.<.<.<.<.<.<.<.<.<.<.<.<.<.<.<.<.<.<.<.<.<.-.-.-.-.:.:.-.-.*.*.*.*.*.*.*.*.-.-.-.:.4.,.6.4.4.4.4.,.,.-.2.<.1.a.}._.I.I.P.G.).7.<.6.6.<.7.~._.P.I.P.P.].G.H i i E L tXdXzXdXlXr.F R R O.*.*.*.-.-.*.-.-.-.2.<.<.<.<.<.<.<.<.<.<.<.<.<.<.<.<.<.<.<.<.<.<.<.<.<.<.<.<.<.<.<.<.<.<.<.2.2.2.2.<.<.4.4.4.4.4.4.4.*.*.*.*.*.O.G G *.&.&.&.&.&.&.&.&.&.&.&.&.&.;.;.&.&.&.&.&.&.&.&.&.&.&.&.&.&.&.&.&.&.&.&.&.&.&.&.&.&.&.&.&.&.&.&.&.&.&.&.&.O.&.*.*.-.-.2.<.<.<.<.<.<.6.F.~.P.P.P.P.[.G.1.1.<.*.2.H.G.I.=XK.J.H.E *.R *.F 7XjXuX) A G R R R R *.*.&.&.&.&.&.&.&.;.&.&.&.&.&.&.&.&.&.&.&.&.&.&.&.&.&.&.&.&.&.&.&.&.&.&.&.&.&.&.&.&.&.&.&.&.&.&.&.&.*.*.*.-.-.:.:.<.<.<.<.<.<.<.<.<.<.<.<.<.<.<.<.<.<.<.<.<.<.2.<.2.-.-.*.*.&.&.&.&.&.&.&.&.&.&.&.&.&.&.l e e &.;.*.-.<.<.6.6.<.<.<.<.<.<.<.<.<.<.2.2.2.2.2.<.<.<.<.1.1.<.6.6.2.2.-.E m.`.`.`.i.G W y Y 1.`.`.I._.I.",
"L.I.U.~.G._.`./ -.-.Q 3.jXjXjX} 1.-.-.-.2.2.2.2.<.<.<.<.<.<.<.<.<.<.<.<.<.<.<.<.<.<.<.<.<.<.<.<.<.<.<.<.<.<.<.<.<.<.<.<.2.2.2.2.6.6.6.<.<.<.<.<.<.<.<.<.<.<.<.<.<.-.-.-.-.<.<.<.<.<.<.<.<.<.<.<.<.<.<.<.<.<.<.<.<.<.<.<.<.<.<.<.<.<.<.<.<.<.<.<.<.<.<.2.2.2.6.6.-.-.*.*.-.-.<.-.6.6.6.6.2.2.<.4.4.4.4.4.-.-.2.1.1.a.}.'.I.P.P.G.~.5.<.6.6.<.7.~._.P.I.P.P._.W.*.R i E B 6XdXkXdXlXy.H E O.*.-.*.-.-.2.2.2.<.<.<.<.<.<.<.<.<.<.<.<.<.<.<.<.<.<.<.<.<.<.<.<.<.<.<.1.1.1.1.<.<.<.<.<.2.2.2.2.2.<.<.<.<.<.<.<.<.4.4.4.<.<.*.*.G G G *.&.&.&.l l l l &.&.&.&.&.&.&.;.&.&.&.&.&.&.&.&.&.&.&.&.&.&.&.&.&.&.&.&.&.&.&.&.&.&.&.&.&.&.&.&.&.&.&.R R *.*.*.-.-.<.<.<.<.<.<.<.<.1.F.~.P.P.P.P._.a./ 1.1.<.2.!.G.I.&XK.J.F.E *.*.*.K 0XkXuX .A G R R R R R *.R R &.&.&.&.;.;.&.&.&.&.&.&.&.&.&.&.&.&.&.&.&.&.&.&.&.&.&.&.&.&.&.&.&.&.&.&.&.&.&.W R R R R R R *.*.-.-.<.<.<.<.<.<.<.<.<.<.<.<.<.<.<.<.2.2.-.<.<.1.<.<.<.2.<.2.-.-.*.*.R R R R &.&.&.&.&.&.&.&.&.&.i i i &.;.:.2.<.<.<.<.1.<.<.<.<.<.<.<.<.<.2.2.-.2.2.<.<.<.<.1.1.<.<.6.2.2.2.E H.`.`.`.i.G Y R Y 5.`.`.I._.I.",
"=XI.U.J.G._.`.1.-.-.-.y.jXjXlX..1.-.-.-.<.<.<.<.<.<.<.<.<.<.<.<.<.<.<.<.<.<.<.<.<.<.<.<.<.<.<.<.<.<.<.<.<.<.<.<.<.<.<.<.<.2.<.<.6.6.4.6.4.6.4.<.<.<.<.4.<.<.<.<.<.<.<.<.<.<.<.<.<.<.<.<.<.<.<.<.<.<.<.<.<.<.<.<.<.<.<.<.<.<.<.<.<.<.<.<.<.<.<.<.<.<.<.<.4.6.4.6.<.<.<.<.<.<.<.<.4.6.4.6.4.2.4.4.4.4.4.4.-.-.<.1.1.a.}.`.I.P.P.G.Q.5.<.6.6.<.7.Q._.L.I.P.P.|.Q.*.&.R E L 6XdXkXdXlXG.^ E *.:.:.*.<.<.<.<.<.<.<.<.<.<.<.<.<.<.<.<.<.<.<.<.<.<.<.<.<.<.<.<.<.<.<.<.1.1.1.<.<.<.<.2.2.2.2.-.2.2.2.<.<.<.<.<.<.<.<.<.<.<.<.<.<.-.*.*.*.&.&.&.&.l l l &.&.&.&.&.&.&.&.&.&.&.&.&.&.&.&.&.&.&.&.&.&.&.&.&.&.&.&.&.&.&.&.&.&.&.&.&.&.&.&.&.&.&.&.*.*.*.-.<.<.<.<.<.<.<.<.<.<.1.F.~.U.P.P.P.U.a./ 1.<.<.6.!.G.=X&XK.U.F.^ 2.*.<.I 0XkXgXD.E *.*.*.*.R R R R R &.&.&.&.l l &.&.&.&.&.&.&.&.&.&.&.&.&.&.&.&.&.&.&.&.&.&.&.&.&.&.&.&.&.&.&.&.i i R R R &.*.*.*.-.-.2.4.<.<.<.<.<.<.<.2.<.<.<.<.<.<.<.-.-.-.2.<.1.<.<.<.<.<.<.2.-.*.*.R R R R &.&.&.&.&.&.&.&.&.&.&.l &.*.=.-.2.<.<.<.1.<.<.<.<.<.<.<.<.<.<.2.2.2.2.2.<.<.<.<.<.<.1.<.1.<.<.2.2.H._.'.`.i.G W W R 7.`.`.I._.I.",
"=XI.U.J.G._.`.1.2.-.2.y.lXjXjXu.1.<.<.<.<.<.<.<.<.<.<.<.<.<.<.<.<.<.<.<.<.<.<.<.<.<.<.<.<.<.<.<.<.1.<.<.<.<.<.<.<.<.<.<.<.<.<.<.4.4.4.4.5.4.5.4.<.<.<.<.<.<.<.<.<.<.<.<.<.<.<.<.<.<.<.<.<.<.<.<.<.<.<.<.<.<.<.<.<.<.<.<.<.<.<.2.2.2.2.2.2.2.<.<.<.<.<.<.<.4.4.4.4.<.<.<.<.<.<.4.<.<.<.<.4.4.4.4.5.5.4.4.-.-.<.1.1.a.}.'.I.P.I.P.Q.5.<.2.6.<.7.~.U.K.P.P.P.|.Q.<.>.=.^ L yXdXkXdXlXP.^ <.-.,.6.-.<.<.<.<.<.<.<.<.<.<.<.<.<.<.<.<.<.<.<.<.<.<.<.<.<.<.<.<.<.<.<.<.<.<.<.<.1.2.2.2.2.2.2.2.2.-.-.<.4.<.1.<.<.<.<.<.<.<.<.<.<.<.<.-.:.;.;.*.;.;.&.&.&.&.&.&.&.&.&.&.&.&.&.&.&.&.&.&.&.&.&.&.&.&.&.&.&.&.&.&.&.&.&.&.&.&.&.&.&.&.&.&.&.*.*.*.*.:.2.6.<.<.<.<.<.<.1.<.<.<.1.F.~.P.P.P.P.U.u./ 1.1.<.6.!.G.I.&XL.U.F.^ 6.*.<.I 9XkXgXD.^ *.-.-.:.*.*.*.*.&.&.&.R R i l &.&.&.&.&.&.&.&.&.&.&.&.&.&.&.&.&.&.&.&.&.&.&.&.&.&.&.&.&.&.&.&.i W W &.*.*.:.:.-.-.2.2.<.<.<.<.<.<.<.<.<.<.<.<.<.<.-.-.-.-.-.2.<.1.1.1.<.<.2.2.2.-.-.*.R R R R &.&.&.&.&.&.&.&.&.&.&.&.;.=.:.-.<.<.<.1.<.<.<.<.<.<.<.<.<.<.2.2.2.2.2.2.<.1.<.<.<.1.1.1.<.<.<.<.*.H._.}.`.p.E *.-.Q 7.`.`.I._.P.",
"L.I.P.J.P._.`.1.2.-.( y.lXjXjXu.1.<.<.<.<.<.<.<.<.<.<.<.<.<.<.<.<.<.<.<.<.<.<.<.<.<.<.<.<.<.<.<.<.<.<.<.<.<.<.<.4.<.<.<.<.<.<.<.<.<.<.<.<.<.<.<.<.<.<.<.<.<.<.<.<.<.<.<.<.<.<.<.<.<.<.<.<.<.<.<.<.<.<.<.<.<.<.<.<.<.<.<.<.<.<.<.2.2.2.2.2.2.<.<.<.<.<.<.<.<.<.<.<.<.<.<.<.<.<.<.4.4.<.<.<.<.<.<.4.4.4.<.-.-.<.1./ a.|.`.I.I.I.P.Q.5.<.<.6.<.7.|.P.K.P.P.P.|.).<.6.-.^ L tXfXnXfXzXI.1.<.-.6.6.*.<.<.<.<.<.<.<.<.<.<.<.<.<.<.<.<.<.<.<.<.<.<.<.<.<.<.<.<.<.<.<.<.<.<.<.<.2.2.2.2.2.2.2.2.2.2.<.<.5.5.5.5.4.<.<.<.<.<.<.<.<.<.<.-.-.-.:.:.:.:.;.;.*.*.*.*.&.&.&.&.&.&.&.&.&.&.&.&.&.&.&.&.&.&.&.&.&.&.&.&.&.&.&.&.&.&.&.&.&.&.&.&.*.R *.*.*.-.6.6.4.<.6.5.1.<.<.<.<.<.1.F.`.`.P.I.P._.y./ 1.1.<.5.!.G.I.g.K.U.F.1.6.<.5.1.9XkXgXL.^ <.2.2.2.2.6.6.*.*.*.*.*.R R R &.&.&.&.&.&.&.&.&.&.&.&.&.&.&.&.&.&.&.&.&.&.&.&.&.&.&.&.&.&.&.&.R R *.*.:.-.-.-.-.2.2.<.<.<.<.<.<.<.<.<.<.<.<.<.<.<.<.-.<.2.<.<.<.<.<.<.2.2.2.2.2.2.-.*.R R R R R R &.R &.R &.R R R *.*.-.-.,.-.<.<.<.<.<.<.<.<.<.<.<.<.<.<.2.2.2.2.2.1.1.1.<.<.<.1.1.<.<.<.<.<.^ F.`._._.p.<.-.-.*.p.`.I.I._.P.",
"I.I.P.P.`.`.p.<.^ 2.( u.sXjXkXX.~ <.1.<.<.<.<.<.<.<.<.<.<.<.<.<.<.<.<.<.<.<.<.<.<.<.<.<.<.<.<.<.<.<.<.<.<.<.<.<.<.<.<.<.<.<.<.<.<.<.<.<.<.<.<.<.<.<.<.<.<.<.<.<.<.<.<.<.<.<.<.<.<.<.<.<.<.<.<.<.<.<.<.<.<.<.<.<.<.<.<.<.<.<.<.<.<.<.<.<.<.<.<.<.<.<.<.<.<.<.<.<.<.<.<.<.<.<.<.<.<.<.<.<.<.<.<.<.<.<.<.<.<.<.<.1.^ a.`.`.`.`._.`.].3.<.<.4.<.5.Q.`.P.I.P.P._.Q.<.*.2./ L yXdXfXfXdXpX} / 6.:.4.4.<.<.<.<.<.<.<.<.<.<.<.<.<.<.<.<.<.<.<.<.<.<.<.<.<.<.<.<.<.<.<.<.<.<.<.<.<.<.<.<.<.<.<.<.<.<.<.<.<.<.<.<.<.<.<.<.<.<.<.<.<.<.<.<.<.2.2.2.2.2.2.2.-.-.*.*.*.G G G *.*.R R R R R R R R R R R R R R i R R R i i i i i i i i R R R R *.*.-.<.<.2.6.6.<.<.<.<.<.<.<.<.-.*.<.p.`.`.`.I.P.G.S.1.^ <.<.1.Q.`.I.I.U.].S.1.<.<.<.P pXzXfX;X~ ^ 1.<.6.<.4.<.<.<.<.2.2.-.2.-.R R *.*.*.&.*.&.*.&.*.R R R *.*.*.*.&.*.&.*.&.*.&.&.&.R &.&.&.&.G E *.-.2.2.<.<.<.<.<.<.<.<.<.<.<.<.<.<.<.<.<.<.<.<.<.<.<.<.<.<.2.2.2.2.-.-.2.-.2.-.-.*.*.G G e W W W W R i R G R R :.-.6.2.2.<.<.<.<.<.<.<.<.<.<.<.<.<.<.<.<.<.<.<.<.<.<.<.<.<.<.<.<.<.<.<.<.1./ G.`.].~.p.^ 2.2.^ 3.Q.P.`.`.P.",
"I.P.I.P.`.`.p.1.^ 1./  .sXgXkXX./ <.<.<.<.<.<.<.<.<.<.<.<.<.4.<.<.<.<.<.<.<.<.<.<.<.<.<.<.<.<.<.<.<.<.<.<.<.<.<.<.<.<.<.<.<.<.<.<.<.<.<.<.<.<.<.<.<.<.<.<.<.<.<.<.<.<.<.<.<.<.<.<.<.<.<.<.<.<.<.<.<.<.<.<.<.<.<.<.<.<.<.<.<.<.<.<.<.<.<.<.<.<.<.<.<.<.<.<.<.<.<.<.<.<.<.<.<.<.<.<.<.<.<.<.<.<.<.<.<.<.<.<.<.<.1.^ a.~.`.`.`.'.`.`.3.^ <.<.<.5.W.`.P.P.P.P._.Q.<.*.2./ L yXdXfXfXdXtX} / 5.4.0.,.4.<.<.<.<.<.<.<.<.<.<.<.<.<.<.<.<.<.<.<.<.<.<.<.<.<.<.<.<.<.<.<.<.<.<.<.<.<.<.<.<.<.<.<.<.<.<.<.<.<.<.<.<.<.<.<.<.<.<.<.<.<.<.<.<.<.<.<.<.<.<.<.<.<.<.<.<.*.*.*.R R R R R R R R R R R R R R R R R R R R R i i i i i i R W &.*.*.*.<.<.<.<.<.6.6.<.<.<.<.<.<.<.2.,.:.<.p._._.`.`.`.G.p.1.<.<.<.1.`.`.P.P.U.].S.1.<.<.<.P iXjXkX-XI ^ 1.<.5.<.<.<.<.<.<.<.<.^ ( ( Q *.*.*.*.*.*.*.R R R R R R R R R &.&.&.&.&.&.&.R &.*.*.*.;.;.*.*.*.<.<.<.<.<.<.<.<.<.<.<.<.<.<.<.<.<.<.<.<.<.<.<.<.<.<.<.<.<.<.2.-.-.-.-.-.-.-.-.-.-.-.*.E R G Y i i R R R R R *.*.-.2.2.2.<.<.<.<.<.<.<.<.<.<.<.<.<.<.<.<.<.<.<.<.<.<.<.<.<.<.<.<.<.<.<.<.<.1./ D.`.~.~.p.^ 1.1.^ 3.Q.G.`._.P.",
"I.P.I.P.`.`.p.1.^ ^ / u.lXgXkXo./ <.6.6.<.<.<.<.<.<.<.<.<.<.4.<.<.<.<.<.<.<.<.<.<.<.<.<.<.<.<.<.<.<.<.<.<.<.<.<.<.<.<.<.<.<.<.<.<.<.<.<.<.<.<.<.<.<.<.<.<.<.<.<.<.<.<.<.<.<.<.<.<.<.<.<.<.<.<.<.<.<.<.<.<.<.<.<.<.<.<.<.<.<.<.<.<.<.<.<.<.<.<.<.<.<.<.<.<.<.<.<.<.<.<.<.<.<.<.<.<.<.<.<.<.<.<.<.4.<.<.<.<.<.<.1.^ a.~.`.`.`.'.`.`.i.^ <.<.<.5.W.`.P.I.P.P._.Q.<.*.2./ L pXdXkXfXdXuX} / 1.<.0.,.4.<.<.<.<.<.<.<.<.<.<.<.<.<.<.<.<.<.<.<.<.<.<.<.<.<.<.<.<.<.<.<.<.<.<.<.<.<.<.<.<.<.<.<.<.<.<.<.<.<.<.<.<.<.<.<.<.<.<.<.<.<.<.<.<.<.<.<.<.<.<.<.6.6.<.<.<.<.<.<.*.*.*.*.*.*.R *.R R R R R R R R R R R R R R R R R R W *.*.-.-.-.-.<.<.<.<.<.<.<.<.<.<.<.<.<.<.2.,.-.2.p.`.`.`.P._.G.3.^ <.6.6.5.`.`.P.P.P.].S.1.<.<.<./ iXjXkX:X~ <.1.<.<.<.<.<.<.<.<.<.<.^ ( 2.-.-.-.-.-.-.-.-.*.*.*.*.E R *.*.R R R R R R R R R R *.*.*.-.-.-.*.<.<.<.6.<.<.<.<.<.<.<.<.<.<.<.<.<.<.<.<.<.<.<.<.<.<.<.<.<.<.<.2.2.2.2.2.2.2.2.2.2.-.-.*.*.*.R i i R W *.*.*.*.*.-.2.2.6.<.<.<.<.<.<.<.<.<.<.<.<.<.<.<.<.<.<.<.<.<.<.<.<.<.<.<.<.<.<.<.<.<.<.1./ G.`.~.~.7.<.1.5.^ 3.Q.G.`.`.P.",
"I.P.I.P.`.`.p.1.^ ^ / u.lXgXnXd./ <.6.6.<.<.<.<.<.<.<.<.<.<.4.<.<.<.<.<.<.<.<.<.<.<.<.<.<.<.<.<.<.<.<.<.<.<.<.<.<.<.<.<.<.<.<.<.<.<.<.<.<.<.<.<.<.<.<.<.<.<.<.<.<.<.<.<.<.<.<.<.<.<.<.<.<.<.<.<.<.<.<.<.<.<.<.<.<.<.<.<.<.<.<.<.<.<.<.<.<.<.<.<.<.<.<.<.<.<.<.<.<.<.<.<.<.<.<.<.<.<.<.<.<.<.<.<.4.<.<.<.<.<.<.1.^ a.~.`.`.`.'.`.`.i.^ <.4.<.5.W.`.P.P.P.P._.Q.<.*.2./ L pXdXkXfXdXgX../ 1.<.0.4.<.<.<.<.<.<.<.<.<.<.<.<.<.<.<.<.<.<.<.<.<.<.<.<.<.<.<.<.<.<.<.<.<.<.<.<.<.<.<.<.<.<.<.<.<.<.<.<.<.<.<.<.<.<.<.<.<.<.<.<.<.<.<.<.<.<.<.<.<.<.<.<.<.<.<.<.<.<.<.<.-.:.-.:.-.:.-.:.*.*.*.*.*.*.*.*.*.*.*.*.*.*.*.*.*.*.*.-.-.-.-.-.<.<.<.<.<.<.<.<.<.<.<.<.<.<.<.2.-.*.*.5.W.`.`.P.|.S.1.^ 6.6.6.5.`.`.P.P.P.].S.1.6.<.<./ iXjXkX6X~ <.1.<.<.<.<.<.<.<.<.<.<.<.<.<.2.2.2.2.2.-.2.-.-.-.-.-.*.*.-.*.-.:.-.:.-.:.-.:.-.*.-.-.-.-.6.6.<.<.6.6.6.<.<.<.<.<.<.<.<.<.<.<.<.<.<.<.<.<.<.<.<.<.<.<.<.<.<.<.<.2.2.2.2.2.2.2.-.-.2.2.-.-.*.*.R W W *.*.-.-.-.-.2.6.6.6.<.<.<.<.<.<.<.<.<.<.<.<.<.<.<.<.<.<.<.<.<.<.<.<.<.<.<.<.<.<.<.<.<.<.1./ G.`.~.~.7.^ 1.5.^ 3.Q.G.`.`.P.",
"P.P.I.P.`.`.p.1.^ ^ / u.lXdXnX>X~ <.6.6.<.<.<.<.<.<.<.<.<.<.4.<.<.<.<.<.<.<.<.<.<.<.<.<.<.<.<.<.<.<.<.<.<.<.<.<.<.<.<.<.<.<.<.<.<.<.<.<.<.<.<.<.<.<.<.<.<.<.<.<.<.<.<.<.<.<.<.<.<.<.<.<.<.<.<.<.<.<.<.<.<.<.<.<.<.<.<.<.<.<.<.<.<.<.<.<.<.<.<.<.<.<.<.<.<.<.<.<.<.<.<.<.<.<.<.<.<.<.<.<.<.<.<.<.4.4.<.<.<.<.<.1.^ a.~.`.`.`.'.I.`.3.^ <.4.<.5.Q.`.P.P.P.P.|.Q.<.*.2./ L pXdXkXfXdXgXu./ 1.<.0.4.<.<.<.<.<.<.<.<.<.<.<.<.<.<.<.<.<.<.<.<.<.<.<.<.<.<.<.<.<.<.<.<.<.<.<.<.<.<.<.<.<.<.<.<.<.<.<.<.<.<.<.<.<.<.<.<.<.<.<.<.<.<.<.<.<.<.<.<.<.<.<.<.<.<.<.<.<.<.<.<.2.-.2.-.2.-.2.-.2.-.2.-.2.2.2.2.-.-.-.-.-.-.-.-.-.-.-.-.-.-.-.-.2.<.<.<.<.<.<.<.<.<.<.<.<.<.<.2.-.=.*.5.p._._.`.|.S.^ ^ 2.2.<.1.Q.`.I.P.P.].S.1.6.<.1./ iXgXkXdX/ ( <.2.<.<.<.<.<.<.<.<.1.1.<.<.2.2.2.2.2.2.2.2.<.2.<.2.<.2.<.2.6.6.6.6.6.6.6.,.6.6.6.6.2.6.6.6.6.6.6.6.6.<.<.<.<.<.<.<.<.<.<.<.<.<.<.<.<.<.<.<.<.<.<.<.<.<.<.<.<.2.-.-.2.2.2.2.-.-.2.<.2.2.-.-.:.-.-.-.-.-.2.2.6.6.6.6.6.<.<.<.<.<.<.<.<.<.<.<.<.<.<.<.<.<.<.<.<.<.<.<.<.<.<.<.<.<.<.<.<.<.<.1./ G.`.~.~.7.^ 1.5.^ 3.Q.G.P.`.P.",
"P.P.I.P.`.`.p.1.^ ^ / u.lXdXnX=X~ <.6.6.<.<.<.<.<.<.<.<.<.<.4.4.<.<.<.<.<.<.<.<.<.<.<.<.<.<.<.<.<.<.<.<.<.<.<.<.<.<.<.<.<.<.<.<.<.<.<.<.<.<.<.<.<.<.<.<.<.<.<.<.<.<.<.<.<.<.<.<.<.<.<.<.<.<.<.<.<.<.<.<.<.<.<.<.<.<.<.<.<.<.<.<.<.<.<.<.<.<.<.<.<.<.<.<.<.<.<.<.<.<.<.<.<.<.<.<.<.<.<.<.<.<.<.<.<.4.<.<.<.<.<.1.^ a.~.`.`.`.'.`.`.3.^ <.4.<.5.Q.`.P.P.P.P.|.Q.<.*.2./ L pXdXkXfXdXgXs.~ 1.<.w.4.<.<.<.<.<.<.<.<.<.<.<.<.<.<.<.<.<.<.<.<.<.<.<.<.<.<.<.<.<.<.<.<.<.<.<.<.<.<.<.<.<.<.<.<.<.<.<.<.<.<.<.<.<.<.<.<.<.<.<.<.<.<.<.<.<.<.<.<.<.<.<.<.<.<.<.<.<.<.<.<.<.-.<.-.<.-.<.-.<.2.<.2.<.2.<.2.2.-.2.-.2.2.2.2.6.6.2.2.2.-.-.-.<.<.<.<.<.<.<.<.<.<.<.<.<.<.<.2.-.-.*.1.p.`._.`.Q.7.^ 2.2.*.<.5.Q.P.I.P.P.U.S.1.5.<.1.1.iXuXkXdX/ 2.2.<.<.-.<.<.<.<.<.<.<.1.<.<.6.2.<.2.<.2.<.2.<.<.<.<.<.<.<.<.6.2.6.6.6.6.6.6.6.6.6.6.2.2.<.<.6.<.<.<.<.<.<.<.<.<.<.<.<.<.<.<.<.<.<.<.<.<.<.<.<.<.<.<.<.<.<.<.<.-.-.-.-.2.2.2.-.-.2.2.2.2.-.-.6.6.6.6.6.2.2.2.6.<.<.<.<.<.<.<.<.<.<.<.<.<.<.<.<.<.<.<.<.<.<.<.<.<.<.<.<.<.<.<.<.<.<.<.<.<.<.1.1.G.`.J.Q.7.^ 1.5.^ 3.Q.G.P._.I.",
"P.P.I.P.`.`.p.1.^ ^ / D.lXyXnX-X~ <.6.6.<.<.<.<.<.<.<.<.<.4.4.4.<.<.<.<.<.<.<.<.<.<.<.<.<.<.<.<.<.<.<.<.<.<.<.<.<.<.<.<.<.<.<.<.<.<.<.<.<.<.<.<.<.<.<.<.<.<.<.<.<.<.<.<.<.<.<.<.<.<.<.<.<.<.<.<.<.<.<.<.<.<.<.<.<.<.<.<.<.<.<.<.<.<.<.<.<.<.<.<.<.<.<.<.<.<.<.<.<.<.<.<.<.<.<.<.<.<.<.<.<.<.<.<.<.<.<.<.<.<.<.1.^ a.~.`.`.I.'.I.`.3.^ <.4.<.5.Q.`.P.P.P.P.|.Q.<.*.2./ L yXfXfXfXdXjXL.~ 1.<.w.4.<.<.<.<.<.<.<.<.<.<.<.<.<.<.<.<.<.<.<.<.<.<.<.<.<.<.<.<.<.<.<.<.<.<.<.<.<.<.<.<.<.<.<.<.<.<.<.<.<.<.<.<.<.<.<.<.<.<.<.<.<.<.<.<.<.<.<.<.<.<.<.<.6.6.<.<.<.<.<.<.<.<.<.<.<.<.<.<.<.<.<.<.<.<.<.<.<.-.<.-.<.2.<.2.<.-.<.2.<.-.<.<.<.<.<.<.<.<.<.<.<.<.<.<.<.<.<.2.-.-.*.<.i.Q.Q.a.a.^ ^ 2.2.*.<.7.Q.P.P.P.P.U.S.1.5.<.<.1.iXyXkXgX) 2.2.-.*.-.2.2.2.<.<.<.<.1.1.1.<.<.<.<.<.<.<.<.<.<.<.<.<.<.<.<.<.<.<.<.<.<.<.<.<.2.<.2.<.<.<.<.<.<.<.<.<.<.<.<.<.<.<.<.<.<.<.<.<.<.<.<.<.<.<.<.<.<.<.<.<.<.<.<.<.<.<.<.<.<.<.<.<.<.<.<.<.<.<.-.2.2.2.2.2.2.2.<.<.<.<.<.<.<.1.<.<.<.<.<.<.<.<.<.<.<.<.<.<.<.<.<.<.<.<.<.<.<.<.<.<.<.<.<.<.<.<.1.1.G.`.F.Q.7.^ 1.5.^ 3.Q.G.`._.I.",
"P.I.I.P.`.`.p.<.^ ^ ^ D.lXyXnX-X/ <.6.6.<.<.<.<.<.<.<.<.<.<.4.4.<.<.<.<.<.<.<.<.<.<.<.<.<.<.<.<.<.<.<.<.<.<.<.<.<.<.<.<.<.<.<.<.<.<.<.<.<.<.<.<.<.<.<.<.<.<.<.<.<.<.<.<.<.<.<.<.<.<.<.<.<.<.<.<.<.<.<.<.<.<.<.<.<.<.<.<.<.<.<.<.<.<.<.<.<.<.<.<.<.<.<.<.<.<.<.<.<.<.<.<.<.<.<.<.<.<.<.<.<.<.<.<.<.<.<.<.<.<.<.1.^ a.~.`.`.I.'.I.`.3.^ <.4.<.5.Q.`.P.P.P.P.|.Q.<.*.2./ L yXfXfXfXdXzXL.{ 1.1.7.4.<.<.<.<.<.<.<.<.<.<.<.<.<.<.<.<.<.<.<.<.<.<.<.<.<.<.<.<.<.<.<.<.<.<.<.<.<.<.<.<.<.<.<.<.<.<.<.<.<.<.<.<.<.<.<.<.<.<.<.<.<.<.<.<.<.<.<.<.<.<.<.<.<.<.<.<.<.<.<.<.<.<.<.<.<.<.<.<.<.<.<.<.<.<.<.<.<.<.<.<.<.<.<.<.*.-.<.<.<.<.<.<.<.<.<.<.<.6.6.6.<.<.<.<.<.<.<.2.-.-.*.H 1.a.a.i.1.^ E 2.2.*.<.p.Q.P.P.P.P.U.S.1.5.<.<.1.iXyXkXgX) 2.2.Q *.-.-.-.2.2.<.<.<.<.<.<.<.<.<.<.<.<.<.<.<.<.<.<.<.<.<.<.<.<.<.<.<.<.<.<.<.<.<.<.<.<.<.<.<.<.<.<.<.<.<.6.<.<.<.<.<.<.<.<.<.<.<.<.<.<.<.<.<.<.<.<.<.<.<.<.<.<.<.<.<.<.<.<.<.<.<.<.<.<.-.*.<.<.<.<.<.<.<.<.<.<.<.<.<.<.1.5.<.<.<.<.<.<.<.<.<.<.<.<.<.<.<.<.<.<.<.<.<.<.<.<.<.<.<.<.<.<.<.1.3.J.].F.Q.7./ 1.5.^ 3.Q.G.`._.P.",
"P.P.I.`.`.`.p.<.1.1.K G.lXdXfX6XP 6.6.<.<.6.<.<.<.<.<.<.<.<.4.<.<.<.<.<.<.<.<.<.<.<.<.<.<.<.<.<.<.<.<.<.<.<.<.<.<.<.<.<.<.<.<.<.<.<.<.<.<.<.<.<.<.<.<.<.<.<.<.<.<.<.<.<.<.<.<.<.<.<.<.<.<.<.<.<.<.<.<.<.<.<.<.<.<.<.<.<.<.<.<.<.<.<.<.<.<.<.<.<.<.<.<.<.<.<.<.<.<.<.<.<.<.<.<.<.<.<.<.<.<.<.<.<.<.<.<.<.<.<.<.1./ p.Q.`.`.`.'.P.`.i./ <.<.<.7.Q.`.P.P.P.P.`.Q.1.-.2.1.L jXfXfXfXfXdXY.} ! 1.5.5.4.<.<.<.<.<.<.<.<.<.<.<.<.<.<.<.<.<.<.<.<.<.<.<.<.<.<.<.<.<.<.<.<.<.<.<.<.<.<.<.<.<.<.<.<.<.<.<.<.<.<.<.<.<.<.<.<.<.<.<.<.<.<.<.<.<.<.<.<.<.<.<.<.<.<.<.<.<.<.<.<.<.<.<.<.<.<.<.<.<.<.<.<.<.<.<.<.<.<.<.<.<.<.<.<.<.<.<.<.<.<.<.<.<.<.<.<.<.<.<.<.<.<.<.<.<.<.2.*.-.2.<.<.1.1./ ^ ^ 2.2.<.2.6.7.`.`.P.P.P.J.y.^ <.<.1./ sXgXfXgXJ.! E 3.2.2.2.-.-.-.<.<.<.1.1.1.<.<.4.<.<.<.<.<.<.<.<.<.<.<.<.<.<.<.<.<.<.<.<.<.<.<.<.<.<.<.<.<.<.<.<.<.<.<.<.<.<.<.<.<.<.<.<.<.<.<.<.<.<.<.<.<.<.<.<.<.<.<.<.<.<.<.<.<.<.<.<.<.<.<.<.<.<.<.<.<.<.<.<.<.<.<.<.<.<.<.<.<.<.<.<.<.<.<.<.<.<.<.<.<.<.<.<.<.<.<.<.<.<.<.<.<.<.<.<.<.<.<.<.<.<.<.<.1.1.G.Q.J.Q.7.^ 1.1.1.7.Q._.P.P.[.",
"P.I.I.I.`.Q.p.<.2.2.K G.lXdXfX6X! 6.6.<.<.6.<.<.<.<.<.<.<.<.4.<.<.<.<.<.<.<.<.<.<.<.<.<.<.<.<.<.<.<.<.<.<.<.<.<.<.<.<.<.<.<.<.<.<.<.<.<.<.<.<.<.<.<.<.<.<.<.<.<.<.<.<.<.<.<.<.<.<.<.<.<.<.<.<.<.<.<.<.<.<.<.<.<.<.<.<.<.<.<.<.<.<.<.<.<.<.<.<.<.<.<.<.<.<.<.<.<.<.<.<.<.<.<.<.<.<.<.<.<.<.<.<.<.<.<.<.<.<.<.<.1./ p.Q.`.`.`.'.P.`.i.<.<.<.<.7.Q.`.P.P.P.P.`.Q.1.-.2.1.I jXfXvXfXfXdXY. .~ 1.5.<.<.<.<.<.<.<.<.<.<.<.<.<.<.<.<.<.<.<.<.<.<.<.<.<.<.<.<.<.<.<.<.<.<.<.<.<.<.<.<.<.<.<.<.<.<.<.<.<.<.<.<.<.<.<.<.<.<.<.<.<.<.<.<.<.<.<.<.<.<.<.<.<.<.<.<.<.<.<.<.<.<.<.<.<.<.<.<.<.<.<.<.<.<.<.<.<.<.<.<.<.<.<.<.<.<.<.<.<.<.<.<.<.<.<.<.<.<.<.<.<.<.<.<.<.<.<.<.<.*.-.2.^ / / / ! ^ ^ 2.Q *.<.6.7.`.`.P.P.P.J.y.^ <.<.1./ sXgXfXkXP.^ E 2.E *.2.6.-.-.<.<.<.<.1.<.<.<.<.<.<.<.<.<.<.<.<.<.<.<.<.<.<.<.<.<.<.<.<.<.<.<.<.<.<.<.<.<.<.<.<.<.<.<.<.<.<.<.<.<.<.<.<.<.<.<.<.<.<.<.<.<.<.<.<.<.<.<.<.<.<.<.<.<.<.<.<.<.<.<.<.<.<.<.<.<.<.<.<.<.<.<.<.<.<.<.<.<.<.<.<.<.<.<.<.<.<.<.<.<.<.<.<.<.<.<.<.<.<.<.<.<.<.<.<.<.<.<.<.<.<.<.<.1.1.G.Q.J.F.7.^ 1.1.1.3.Q._.P.P.[.",
"P.P.I.I.`.Q.i.<.^ 1.K P.lXgXfXdX/ 6.6.<.<.<.<.<.<.<.<.4.<.<.4.<.<.<.<.<.<.<.<.<.<.<.<.<.<.<.<.<.<.<.<.<.<.<.<.<.<.<.<.<.<.<.<.<.<.<.<.<.<.<.<.<.<.<.<.<.<.<.<.<.<.<.<.<.<.<.<.<.<.<.<.<.<.<.<.<.<.<.<.<.<.<.<.<.<.<.<.<.<.<.<.<.<.<.<.<.<.<.<.<.<.<.<.<.<.<.<.<.<.<.<.<.<.<.<.<.<.<.<.<.<.<.<.<.<.<.<.<.<.<.1.1./ p.Q.`.`.`.'.P.`.i./ <.<.<.7.W.`.P.P.P.P.`.Q.1.-.2.1.L jXfXfXfXfXhX;X| I i.7.P <.<.<.<.<.<.<.<.<.<.<.<.<.<.<.<.<.<.<.<.<.<.<.<.<.<.<.<.<.<.<.<.<.<.<.<.<.<.<.<.<.<.<.<.<.<.<.<.<.<.<.<.<.<.<.<.<.<.<.<.<.<.<.<.<.<.<.<.<.<.<.<.<.<.<.<.<.<.<.<.<.<.<.<.<.<.<.<.<.<.<.<.<.<.<.<.<.<.<.<.<.<.<.<.<.<.<.<.<.<.<.<.<.<.<.<.<.<.<.<.<.<.<.<.<.<.<.<.*.-.2.^ 1.r.i.1.^ ^ ^ E <.<.<.7.`.`.P.P.P.J.3.^ <.<.1./ sXuXfXfXK./ / 1.^ *.6.6.-.,.4.<.<.<.<.<.5.<.<.<.<.<.<.<.<.<.<.<.<.<.<.<.<.<.<.<.1.<.1.<.<.<.<.<.<.<.<.<.<.<.<.<.<.<.<.<.<.<.<.<.<.<.<.<.<.<.<.<.<.<.<.<.<.<.<.<.<.<.<.<.<.<.<.<.<.<.<.<.<.<.<.<.<.<.<.<.<.<.<.<.<.<.<.<.<.<.<.<.<.<.<.<.<.<.<.<.<.<.<.<.<.<.<.<.<.<.<.<.<.<.<.<.<.<.<.<.<.<.<.<.<.<.<.1.1.G.`.J.F.7.^ 1.1.^ 3.Q._.P.P._.",
"P.P.I.I.`.Q.i./ ^ 1.! U.lXdXfXdX/ 2.<.<.<.<.<.<.<.<.<.<.<.<.4.<.<.<.<.<.<.<.<.<.<.<.<.<.<.<.<.<.<.<.<.<.<.<.<.<.<.<.<.<.<.<.<.<.<.<.<.<.<.<.<.<.<.<.<.<.<.<.<.<.<.<.<.<.<.<.<.<.<.<.<.<.<.<.<.<.<.<.<.<.<.<.<.<.<.<.<.<.<.<.<.<.<.<.<.<.<.<.<.<.<.<.<.<.<.<.<.<.<.<.<.<.<.<.<.<.<.<.<.<.<.<.<.<.<.<.<.<.<.<.<.1./ p.Q.`.`.`.'.P.`.i./ <.<.<.5.W.`.P.P.P.P.|.Q.1.-.2.1.L jXfXfXfXdXkXyX| L 1.1.$.<.<.<.<.<.<.<.<.<.<.<.<.<.<.<.<.<.<.<.<.<.<.<.<.<.<.<.<.<.<.<.<.<.<.<.<.<.<.<.<.<.<.<.<.<.<.<.<.<.<.<.<.<.<.<.<.<.<.<.<.<.<.<.<.<.<.<.<.<.<.<.<.<.<.<.<.<.<.<.<.<.<.<.<.<.<.<.<.<.<.<.<.<.<.<.<.<.<.<.<.<.<.<.<.<.<.<.<.<.<.<.<.<.<.<.<.<.<.<.<.<.<.<.<.<.<.<.<.*.*.<.5.i.a.Q.Q.1.^ ^ ^ <.<.<.5.`.`.I.P.P.G.3.S <.<.1./ sXuXfXfXI.} / 3.1.1.6.*.:.:.4.4.<.<.<.<.<.<.<.<.<.<.<.<.<.<.<.<.<.<.<.<.<.<.<.<.<.<.1.1.<.<.<.<.<.<.<.<.<.<.<.<.<.<.<.<.<.<.<.<.<.<.<.<.<.<.<.<.<.<.<.<.<.<.<.<.<.<.<.<.<.<.<.<.<.<.<.<.<.<.<.<.<.<.<.<.<.<.<.<.<.<.<.<.<.<.<.<.<.<.<.<.<.<.<.<.<.<.<.<.<.<.<.<.<.<.<.<.<.<.<.<.<.<.<.<.<.<.<.<.<.<.<.1.1.G.`.J.F.7.^ 1.1./ 3.Q._.P.P._.",
"P.P.I.I.`.Q.i.^ ^ 1.! U.lXgXfXdXy.6.<.<.<.<.<.<.<.<.<.<.<.4.4.<.<.<.<.<.<.<.<.<.<.<.<.<.<.<.<.<.<.<.<.<.<.<.<.<.<.<.<.<.<.<.<.<.<.<.<.<.<.<.<.<.<.<.<.<.<.<.<.<.<.<.<.<.<.<.<.<.<.<.<.<.<.<.<.<.<.<.<.<.<.<.<.<.<.<.<.<.<.<.<.<.<.<.<.<.<.<.<.<.<.<.<.<.<.<.<.<.<.<.<.<.<.<.<.<.<.<.<.<.<.<.<.<.<.<.<.<.<.<.<.1./ p.Q.`.`.`.'.P.`.i.<.<.<.<.5.F.].P.P.P.P.`.Q.1.-.6.1.L jXfXfXfX2XhXgX..L ~ 1.1.<.<.<.<.<.<.<.<.<.<.<.<.<.<.<.<.<.<.<.<.<.<.<.<.<.<.<.<.<.<.<.<.<.<.<.<.<.<.<.<.<.<.<.<.<.<.<.<.<.<.<.<.<.<.<.<.<.<.<.<.<.<.<.<.<.<.<.<.<.<.<.<.<.<.<.<.<.<.<.<.<.<.<.<.<.<.<.<.<.<.<.<.<.<.<.<.<.<.<.<.<.<.<.<.<.<.<.<.<.<.<.<.<.<.<.<.<.<.<.<.<.<.<.<.<.<.<.<.-.<.<.i.W.`.|.|.7.2.^ 2.6.1.1.i.`.`.P.P.P.J.3.S <.<.<./ sXpXfXfX5Xt.~ / ! 1.6.*.6.6.4.4.4.4.5.4.<.<.<.<.<.<.<.<.<.<.<.<.<.<.<.<.<.<.<.<.1.1.<.<.<.<.<.<.<.<.<.<.<.<.<.<.<.<.<.<.<.<.<.<.<.<.<.<.<.<.<.<.<.<.<.<.<.<.<.<.<.<.<.<.<.<.<.<.<.<.<.<.<.<.<.<.<.<.<.<.<.<.<.<.<.<.<.<.<.<.<.<.<.<.<.<.<.<.<.<.<.<.<.<.<.<.<.<.<.<.<.<.<.<.<.<.<.<.<.<.<.<.<.<.<.<.<.1./ G.P.J.Q.7.^ 1.1./ 1.G._.`.P.`.",
"P.P.I.I.`.G.3.^ ^ 1.! U.lXdXfXdXy.6.<.<.6.<.<.<.<.<.<.<.<.<.4.<.<.<.<.<.<.<.<.<.<.<.<.<.<.<.<.<.<.<.<.<.<.<.<.<.<.<.<.<.<.<.<.<.<.<.<.<.<.<.<.<.<.<.<.<.<.<.<.<.<.<.<.<.<.<.<.<.<.<.<.<.<.<.<.<.<.<.<.<.<.<.<.<.<.<.<.<.<.<.<.<.<.<.<.<.<.<.<.<.<.<.<.<.<.<.<.<.<.<.<.<.<.<.<.<.<.<.<.<.<.<.<.<.<.<.<.<.<.<.<.1./ p.Q.`.`.`.'.P.`.i.1.<.<.<.5.p.`.P.P.P.P.`.Q.1.-.6.1.I jXfXfXfX,XhXgXI.{ / 1.1.<.<.<.<.<.<.<.<.<.<.<.<.<.<.<.<.<.<.<.<.<.<.<.<.<.<.<.<.<.<.<.<.<.<.<.<.<.<.<.<.<.<.<.<.<.<.<.<.<.<.<.<.<.<.<.<.<.<.<.<.<.<.<.<.<.<.<.<.<.<.<.<.<.<.<.<.<.<.<.<.<.<.<.<.<.<.<.<.<.<.<.<.<.<.<.<.<.<.<.<.<.<.<.<.<.<.<.<.<.<.<.<.<.<.<.<.<.<.<.<.<.<.<.<.<.<.<.<.6.<.<.p.Q.`.`.Q.S.1.^ 2.5.1.1.i._.`.P.P.P.J./ C <.<.1./ sXpXfXfXjXI.r.I K / 5.<.6.6.6.6.6.6.5.5.<.<.<.<.<.<.<.<.<.<.<.<.<.<.<.<.<.<.<.<.1.1.<.<.<.<.<.<.<.<.1.<.<.<.<.<.<.<.<.<.<.<.<.<.<.<.<.<.<.<.<.<.<.<.<.<.<.<.<.<.<.<.<.<.<.<.<.<.<.<.<.<.<.<.<.<.<.<.<.<.<.<.<.<.<.<.<.<.<.<.<.<.<.<.<.<.<.<.<.<.<.<.<.<.<.<.<.<.<.<.<.<.<.<.<.<.<.<.<.<.<.<.<.<.<.<.<.1./ G.P.J.Q.7.^ 1.1.^ 1.G._.`.I.P.",
"I.P.I.I.`.G.3.P ^ 1.! U.lXgXfXdXa.6.*.<.6.<.<.<.<.<.<.<.<.<.4.4.<.<.<.<.<.<.<.<.<.<.<.<.<.<.<.<.<.<.<.<.<.<.<.<.<.<.<.<.<.<.<.<.<.<.<.<.<.<.<.<.<.<.<.<.<.<.<.<.<.<.<.<.<.<.<.<.<.<.<.<.<.<.<.<.<.<.<.<.<.<.<.<.<.<.<.<.<.<.<.<.<.<.<.<.<.<.<.<.<.<.<.<.<.<.<.<.<.<.<.<.<.<.<.<.<.<.<.<.<.<.<.<.4.4.<.4.<.<.<.1./ p.Q.`.`.`.'.P.P.i.1.<.<.<.<.p.`.P.P.P.P.`.Q.1.-.6.1.I jXfXfXfX3XfXgXtXP.y.1.1.<.<.<.<.<.<.<.<.<.<.<.<.<.<.<.<.<.<.<.<.<.<.<.<.<.<.<.<.<.<.<.<.<.<.<.<.<.<.<.<.<.<.<.<.<.<.<.<.<.<.<.<.<.<.<.<.<.<.<.<.<.<.<.<.<.<.<.<.<.<.<.<.<.<.<.<.<.<.<.<.<.<.<.<.<.<.<.<.<.<.<.<.<.<.<.<.<.<.<.<.<.<.<.<.<.<.<.<.<.<.<.<.<.<.<.<.<.<.<.<.<.<.<.<.<.<.<.<.6.<.1.p.`.`.G.F.S.1.^ 2.1.<.1.i._.`.P.P.P.J./ n <.<.<./ sXjXfXkXzX9X}.a.1.1.5.<.4.6.4.4.4.4.5.4.<.<.<.<.<.<.<.<.<.<.<.<.<.<.<.<.1.1.<.<.<.<.<.<.<.<.<.<.<.1.1.1.<.<.<.<.<.<.<.<.<.<.<.<.<.<.<.<.<.<.<.<.<.<.<.<.<.<.<.<.<.<.<.<.<.<.<.<.<.<.<.<.<.<.<.<.<.<.<.<.<.<.<.<.<.<.<.<.<.-.2.2.2.2.2.<.<.<.<.<.<.<.<.<.<.<.<.<.<.<.<.<.<.<.<.<.<.<.<.<.<.<.<.<.<.<.<.1./ G.Q.F.Q.7.^ 1.1.^ ^ G.|.`.I.P.",
"I.I.I.I.`.G.3.^ E 3.! U.sXdXfXdXu.1.^ <.6.<.<.<.<.<.<.<.4.4.4.4.<.<.<.<.<.<.<.<.<.<.<.<.<.<.<.<.<.<.<.<.<.<.<.<.<.<.<.<.<.<.<.<.<.<.<.<.<.<.<.<.<.<.<.<.<.<.<.<.<.<.<.<.<.<.<.<.<.<.<.<.<.<.<.<.<.<.<.<.<.<.<.<.<.<.<.<.<.<.<.<.<.<.<.<.<.<.<.<.<.<.<.<.<.<.<.<.<.<.<.<.<.<.<.<.<.<.<.<.<.<.<.<.<.<.4.<.<.2.<.1.^ p.Q.`.`.I.I.I.P.i.1.<.<.<.<.p.`.P.I._.P.|./.6.-.2.1.~ pXdXfXfXfXfXdXgXtXf.} I / / / 1.1.1.1.1.1.1.<.<.<.<.<.<.<.<.<.<.<.<.<.<.<.<.<.<.<.<.<.<.<.<.<.<.<.<.<.<.<.<.<.<.<.<.<.<.<.<.<.<.<.<.<.<.<.<.<.<.<.<.<.<.<.<.<.<.<.<.<.<.<.<.<.<.<.<.<.<.<.<.<.<.<.<.<.<.<.<.<.<.<.<.<.<.<.2.<.2.<.2.<.2.<.2.<.2.<.2.<.<.<.<.<.<.<.<.<.<.<.<.<.<.<.<.<.<.6.<.1.G.|._.`.`.F.2.E 2.1.^ <.1.`.P.P.P.P.F.^ n <.2.<./ sXgXfXkXjXjXjXpXI.t.i.P / <.<.<.1.%.I 1.1.1.1.1.1.1.1.1.1.1.1.1.1.1.1.1.1.1.1.1.1.1.1.<.<.<.1.1.1.1.1.1.<.<.<.<.<.<.<.<.<.<.<.<.<.<.<.<.<.<.<.<.<.<.<.<.<.<.<.<.<.<.<.<.<.<.<.<.<.<.<.<.<.<.<.<.<.<.<.<.<.<.<.<.<.<.<.<.<.-.<.2.<.2.<.<.<.<.<.<.<.<.<.<.<.<.<.<.<.<.<.<.<.<.<.<.<.<.<.<.<.<.<.<.4.<.<.1./ D.J.J.Q.7.^ 2.<.E ^ F.|.`.P.P.",
"d.I.I._.G.).F *.2.( T R.sXgXhX2XtXS./ 1.3.1.1.<.<.<.<.6.6.6.0.4.4.4.4.4.<.<.<.<.4.<.4.<.<.<.<.<.<.<.4.<.4.<.4.<.4.<.4.<.4.<.4.2.,.-.,.-.,.-.,.-.,.-.,.-.,.-.,.-.,.2.4.2.4.2.4.2.:.-.:.2.4.2.4.4.4.4.4.4.4.4.4.4.4.4.4.4.4.4.4.4.<.<.<.<.<.<.<.<.<.<.<.<.<.<.<.<.<.<.<.<.<.<.<.<.4.4.4.4.<.<.4.<.<.6.<.2.2.2.2.( ! 3.J.U.U.I.I.I.I.u.i.E Q 2.E S.J._.f.'.`.~.).Q 2.( ! / Y.zXzX2XvXvXvXvXfXfXwXqXd.h.| | ' ' I ~ / / / ^ 1.2.6.6.<.<.<.<.<.<.<.<.6.2.6.2.6.2.<.6.<.<.<.<.<.<.<.<.<.<.<.<.<.<.<.4.4.4.4.4.4.4.4.4.4.4.4.4.4.4.4.4.4.<.4.4.4.4.4.4.4.<.4.<.4.<.4.<.<.<.<.<.<.<.<.<.<.<.<.<.<.<.<.<.2.2.2.2.2.2.2.2.2.2.2.2.2.2.2.2.2.2.2.6.6.6.6.6.2.2.2.2.2.2.2.2.2.^ ) J.|.P.G.].F.^ E Q v.3.H 7.].G.J.U.~.).5.- Q 3.( ( Y.lXhXkXfXkXkXkXjXjXjXjX6X6X5X=X=Xg.d.g.t.r.} / I I L L } } ] / } / } / / / 1.1.1.1.1.1.1.1.1.1.1.1.1.5.<.<.6.2.6.6.6.6.6.6.<.<.<.<.<.<.<.<.4.<.<.<.<.*.4.<.4.<.4.<.4.<.4.<.4.<.4.<.4.<.4.<.4.<.4.<.4.<.<.<.<.<.<.<.<.<.<.<.<.<.<.<.<.<.<.<.<.<.<.<.<.<.<.<.<.<.<.<.<.<.4.4.4.4.4.4.4.4.4.<.4.<.6.6.4.1.} u.G.J.S.6.*.-.6.A <.).].G.P.P.",
"d.I.I._.G.).F *.-.Q ! E.sX1XhX3XuXU. .~ ~ / 3.p.1.1.<.<.<.:.*.+.6.6.6.6.6.6.6.6.*.<.<.<.<.<.<.<.<.<.<.<.<.<.<.<.<.<.<.<.<.<.<.<.-.-.-.-.-.-.-.-.-.-.-.-.-.-.-.-.2.2.2.2.2.2.2.2.-.-.-.-.2.2.2.<.4.4.4.4.4.4.4.4.4.4.4.4.4.4.4.4.<.<.<.<.<.<.<.<.<.<.<.<.<.<.<.<.<.<.<.<.<.<.<.<.<.<.<.<.<.<.<.<.<.<.<.<.-.Q Q Q Q ( S.G.P.K.I.I.}.a.i.E Q Q A 7.Q._.g.'.`.Q.).E Y E ! / D.uXlXhXfXfXfXxXxXwXwXwXnXzXjX6XL.s.| } { ~ ! ^ ^ ^ ^ <.<.<.<.<.<.<.<.<.<.^ <.^ <.<.<.<.<.<.<.<.<.<.<.<.<.<.<.<.<.<.<.<.<.<.<.<.<.<.<.<.<.<.<.<.<.<.<.<.<.<.<.<.<.<.<.<.<.<.<.<.<.<.<.<.<.<.<.<.<.<.<.<.<.<.<.<.<.<.<.<.<.-.-.-.-.-.-.-.-.-.-.-.-.-.-.-.*.*.-.*.-.-.-.-.-.-.-.-.-.-.-.<.( ! ) J.[.`.G.|.F.2.-.Q 2.-.C 6.].G.J.`.)./.5.= Y -.Q ) +XlXdX,XkXkXkXkXkXkXkXfXkXkXkXkXkXkXkXkXjXpXpXpXpXpXpX8Xf.f.d.s.s.s.t.t.} / / ~ I K P K / / / ~ / ! P ! <.*.<.<.<.<.<.<.6.6.6.6.6.6.5.5.4.4.4.4.4.4.4.4.<.<.<.<.<.<.<.<.<.<.<.<.<.<.<.<.<.<.<.<.<.<.<.<.<.<.<.<.<.<.<.<.<.<.<.<.<.<.<.<.<.<.<.<.<.<.<.<.<.<.<.<.4.<.4.4.<.<.<.<.<.<.<.<.<.<.<.<.<.<.<.<./ u.J.~.H.3.-.-.6.D *./.|.G.P.P.",
"K.P.P.`.G.).A H *.E ^ +XlX2XvXfXlXaXU.) L ! / ! 1.1.1.<.6.7.7.7.2.2.-.*.*.*.E E 2.2.2.2.2.6.6.6.<.<.<.<.<.<.<.<.<.<.<.<.<.<.<.<.<.<.<.<.<.<.<.<.<.<.<.<.<.<.<.<.<.<.<.<.<.<.<.<.<.<.<.<.<.<.<.<.<.<.<.<.<.<.<.<.<.<.<.<.<.<.<.<.<.<.<.<.<.<.<.<.<.<.<.<.<.<.<.<.<.<.<.<.<.<.<.<.<.<.<.<.<.<.<.<.<.<.4.2.2.2.2.2.E ( 3.G.P.[.I._. Xp.5.-.*.Y - 7.`.}.g.'.`.Q.!.E - Y Q (  .Y.sXlXkXfXkXzXzXkXkXkXjXjXjXjXlXlXsXsX X|.Q.S.5.1.<.<.2.6.<.<.<.6.<.6.<.<.<.<.<.<.<.<.<.<.<.<.<.<.<.<.<.<.<.<.<.<.<.<.<.<.<.<.<.<.<.<.<.<.<.<.<.<.<.<.<.<.<.<.<.<.<.<.<.<.<.<.<.<.<.<.<.<.<.<.<.<.<.<.<.<.<.<.<.<.<.<.<.<.<.<.<.<.<.<.<.<.<.<.<.<.<.<.<.<.<.<.<.<.<.<.<.<.<.6.<.6.<.2.( ! 3.Q.|.`.Q.Q.p.<.2.-.2.*.C 7.].P.P.`.`.|.5.- C Q Q ) +XlXzXfXqXdXdXdXdXdXdXdXdXdXdXfXfXfXfXzXjXpXpXpXjXlXjXjXlXlXjXlXlXjXjXpXpXiXiXiX X[.[.[.a.u.y.r.r.} } / 3.5.5.1.1.1.1.1.1.1.1.1.1.1.1.1.<.<.<.<.<.<.<.<.<.<.<.<.<.<.<.<.<.<.<.<.<.<.<.<.<.<.<.<.<.<.<.<.<.<.<.<.<.<.<.<.<.<.<.<.<.<.<.<.<.<.<.<.<.<.<.<.<.<.<.<.<.<.<.<.<.<.<.<.<.<.<.<.<.<.<.<.<.6.<.<./ D.].~.F.6.-.:.-.C P Q.|.P.I.I.",
"P.P.P.`.Q./.F H 6.<.! tXzXfXvXvXgXsXyXT..... .~ L K K K ! <.1.1.2.2.2.2.2.2.2.2.^ Q E *.E E *.*.2.1.<.1.<.1.<.<.1.1.<.1.<.<.<.<.<.1.<.1.<.1.<.1.<.1.<.1.<.1.<.1.<.1.<.1.<.1.<.1.<.1.<.1.<.1.<.<.<.<.<.<.<.<.<.<.<.<.<.<.<.<.<.<.<.<.<.<.<.<.<.<.<.<.<.<.<.<.<.<.<.<.<.<.<.<.<.<.<.<.<.<.<.<.<.<.4.4.4.6.6.6.2.2.2.2.1.S.]. X[._.{.5.2.-.>.i : W.`.}.g.'.`.J.~.E > 9 Q E ^ S.+XsXuXuXjXjXjXjXuXpXlXlXlXlXsXsXaXiX#X@X|.W.7.6.6.2.4.<.<.<.<.<.<.<.<.<.<.<.<.<.<.<.<.<.<.<.<.<.<.<.<.<.<.<.<.<.<.<.<.<.<.<.<.<.<.<.<.<.<.<.<.<.<.<.6.2.6.2.6.2.6.2.6.1.<.1.6.2.6.6.4.4.4.4.4.4.6.6.4.4.4.4.4.4.6.6.4.4.4.4.4.4.4.4.4.4.4.4.4.4.4.4.<.<.<.<.<.<.<.<.6.<.6.6.6.6.6.2.2.( 7.Q.|.`.W.Q.5.*.2.-.-.E C F.`.f.I.`._.{.7.o G *.Q ! G.tXuXjXjXjXzXzXzXzXzXzXzXzXzXzXzXjXjXjXlXjXjXjXjXjXjXlXjXpXjXpXjXjXjXjXsXsXsXsXsXsXsXsXsXsXsXsXsXaXiXiX].|.).Q.G.F.a.p.3.3.3.1.1./ / / 1.1.<.<.<.<.<.^ 1.1.1.1.<.1.<.1.<.<.<.1.<.1.<.1.1.1.1.1.<.1.<.<.<.<.<.<.<.<.<.<.<.<.<.<.<.<.<.<.<.<.<.<.<.<.<.<.1.1.1.<.<.<.<.<.6.2.6.2.6.2.6.2.6.<.<.<.6.6.<.^ / S.~.).m.2.-.,.+.C $.Q._.I.I.L.",
"G.U.G.`.W./.C F 7.<.P [.zXbXmXxX,XgXlXuXyXyXtX;XI.I.a.t.t.r.r./ ! ! ! ^ ^ / ) ) 1.2.2.1.<.<.2.<.1.1.1.1.1.1.1.1.1.1.1.1.1.1.1.1.1.1.1.1.1.1.1.1.1.1.1.1.1.1.1.1.1.1.1.1.1.1.1.1.1.1.1.1.1.1.1.1.1.1.<.1.<.1.<.1.<.1.<.1.<.<.<.<.1.2.<.<.<.<.<.<.<.<.2.2.1.<.1.1.<.<.<.<.2.2.2.2.2.2.2.2.2.6.6.<.<.4.4.4.4.-.-.-.-.*.<.7.Q.).`.W.Q.4.,.>.=.u 7 !.Q.}.l.}.`.J.~.E ; 8 i Y E 2.F.].iXiXiXiXiXiXiX#X[.[.`.G.u.y.i.3.1.1.<.<.<.<.2.6.:.:.:.-.<.-.<.-.<.-.<.-.<.-.4.4.<.<.<.<.-.:.4.<.<.<.<.<.<.<.-.-.<.<.<.E *.^ <.<.*.^ <.^ <.<.<.<.2.( <.^ <.^ <.^ <.^ <.^ 2.( <.<.<.4.4.4.4.4.4.4.4.4.4.4.4.4.4.4.4.5.5.5.5.5.5.5.5.5.5.5.5.5.5.<.1.1.1.1.1.1.1.1.1.1.1.1.1.1.1.<.-.-.7.W.Q./.W.F.6.*.6.*.*.G C W._.g.g.'.`.{.7.@ G ,.-.E / 1.t.I.4X5X5X5X5X5X5X5XtXtXtXtXtXtX5X5XpXpX9XpXpXpXpX6XpXpXpXpXyXpXpXpX8XiXiXiXpXpXpXpXiXiXiXiXiXiXiXiXsXaXaXaXaX#X#X#X#X#X#X@X@X|.|.|.7.7.7.3.6.2.<.^ <.<.<.<.<.^ <.<.<.<.<.^ <.<.<.<.<.<.<.<.<.<.<.<.2.2.<.<.<.<.<.<.<.<.<.2.1.1.1.1.2.2.<.<.<.<.<.<.2.2.2.2.2.2.2.2.<.^ ^ ^ <.^ <.^ 2.E E ^ 2.( <.E 2.H.).(.B.6.,.6.D @ $.Q.`.I.I.L.",
"J.J.Q.Q.W./.C C 6.5.P P.pXkXmXxXfXkXkXfXdXkXzXjXzXjXjXpX9X8X7X[.D.u.u. .} / ~ ~ / / 1.^ 1.1.<.<.1.1.1.<.1.1.1.1.<.<.1.1.1.1.1.1.1.1.1.1.1.1.1.1.1.1.1.1.1.1.1.1.1.1.1.1.1.1.1.1.1.1.1.1.1.1.1.1.<.2.<.2.<.2.<.2.<.2.<.2.2.2.<.2.2.2.2.2.2.2.2.2.2.2.2.2.2.2.2.<.2.2.2.2.2.2.2.2.2.2.2.2.2.2.2.2.4.4.4.4.4.,.,.,.,.-.-.6.m.W.F.7.w.:.,.=.x 8 6 V.Q._.f.}.`.P.].E 8 8 8 9 G E 2.2./ ^ / / ^ ^ ^ K K K K K P ^ <.<.<.<.<.<.2.6.6.6.6.6.6.6.6.6.6.6.,.,.,.,.,.,.,.,.,.,.,.,.,.,.,.,.,.,.,.,.,.,.,.-.-.-.-.-.-.-.-.-.-.-.-.-.-.-.-.-.2.-.2.-.2.-.2.-.2.-.2.-.2.-.2.-.6.,.6.,.6.,.6.,.6.,.6.,.6.,.6.6.6.6.6.6.4.4.4.4.4.4.4.4.4.6.6.4.6.6.6.6.6.6.6.6.6.6.6.6.6.6.2.2.-.-.6.6.w.j.7.6.6.*.-.R G q 7 j.'.g.g.}.'.{.7.@ 7 :.,.6.6./ U r.~ ~ { { { { { { { { } { } } } } u.} } } } } } } } } } { { { { { ] } } } } } } } } } / } } r.r.r./ / / / / / 1.1./ / / / / / / ^ 7.3.3.3.2.2.<.^ 2.2.2.2.2.2.2.2.2.2.2.2.2.2.2.2.2.2.2.2.2.2.2.2.2.2.2.2.2.2.2.2.2.2.2.2.2.2.2.2.2.2.2.2.2.2.2.2.6.6.6.6.6.6.6.2.-.Q -.Q -.-.-.-.2.Q -.Q 2.-.-.-.2.v.B.B.N.,.:.:.7 7 <.Q.`.I.I.L.",
"Q.Q.G.Q.Q./.b 7 +.6.<.1.I.6XnXrXnXkXfXfXfXeXeXkXjXeXjXjXjXjXjX9XzXlXsXpXiX[.[._.r.r.1.1.%.P $.P <.2.-.-.-.-.-.-.-.-.-.-.2.2.2.2.<.<.<.<.<.<.<.<.<.<.<.<.<.<.<.<.2.2.2.2.2.2.2.2.2.2.2.2.2.2.2.2.-.-.-.-.-.-.2.-.-.-.-.-.-.-.-.-.-.-.-.-.-.-.-.-.-.-.-.-.-.-.-.-.-.-.-.-.-.-.-.-.-.-.-.-.-.-.-.,.4.4.4.,.,.,.,.:.,.-.*.:.-.2.2.-.:.&.>.i w 8 6 m./.`.f.'.`.P.].E 8 2 2 q e e G R -.2.2.2.2.2.-.-.3.3.6.6.2.*.*.*.6.6.6.,.,.,.:.:.,.,.,.,.,.,.:.:.:.:.:.:.:.:.:.:.-.=.-.=.-.=.:.=.-.=.-.=.-.=.-.=.-.=.-.=.*.=.*.=.*.=.*.=.*.=.-.=.-.-.-.-.>.-.-.-.-.-.-.-.-.-.-.-.-.:.:.:.:.,.:.:.:.:.:.:.:.,.:.:.,.,.,.,.,.,.,.,.,.,.,.,.,.,.,.,.-.-.-.-.-.-.-.-.-.-.-.-.-.-.-.-.=.=.=.-.,.4.-.*.:.e i q q q q W.'.g.g.'.'.{.5.+ 6 O.;.:.N.6.<.5./ 1.1./ 1./ / / / / / / / / / / / / P ! / / P P 1.1.1./ 1./ / / r.i.1.1.1.1.1.1.1.1.<.<.1.1.1.1.^ ^ <.<.<.1.1.6.1.1.1.1.6.2.6.6.-.*.*.*.*.*.*.*.-.-.-.-.-.-.-.-.-.-.-.-.-.-.-.-.-.-.-.-.-.-.-.-.-.-.-.-.-.-.-.-.-.-.-.-.,.,.-.-.-.-.-.-.-.-.-.-.-.-.-.-.-.-.-.-.*.-.*.-.*.-.-.-.*.W *.W *.-.*.=.&.=.=.=.;.&.l O.q 7 <.Q.`.I.I.I.",
"Q.Q.Q.`.Q./.@ @ 7 ,.*.E 1.`.lXpXkXeXjXzXzXkXjXkXkXkXjXjXjXjXjXpXpXpXpXsXsXsXsXsXsXaXiX#X|././.^.-.-.-.-.-.-.-.-.-.-.-.-.-.-.-.-.-.-.-.-.-.-.-.-.-.-.-.-.-.-.,.,.-.-.-.-.-.-.-.-.-.-.-.-.-.-.,.-.-.-.-.-.-.-.-.-.-.-.-.-.-.-.-.-.:.:.:.:.:.:.:.:.:.:.:.:.:.:.,.,.:.:.:.:.:.:.:.:.:.:.:.:.:.:.:.:.&.&.&.&.&.&.&.l &.l i e e e e e q g l w 1 8 9 m.Q.`.f._.I.P._.^ 6 2 , w q q q e q q q 9 e 9 e 9 6 9 e i Y e e 9 q q e e e e e w g g g g e e e e g g g g g g g e e i i i i i e e e i e i i i i i i i i i i i i i i i i i i i i i y y p p i i i i i i i i p p p y i i i i i i i i i i i i i i i i i i i i i i i i i i i i i i i i l l l l l l l l l &.l l l l l l x x l l &.&.*.e e , 8 , 0 q D /._.f.z.'.`.{.5.+ e g e l ,.,.*.4.2.6.2.2.6.<.<.<.6.6.6.6.6.2.2.2.6.6.<.6.6.6.4.6.*.<.<.<.<.<.<.<.<.<.<.<.<.<.<.<.<.<.<.<.<.<.<.-.6.6.6.6.6.2.-.-.6.2.2.-.-.-.-.-.:.=.-.-.-.-.-.-.-.-.-.-.-.-.-.-.-.-.-.-.-.-.-.-.-.-.-.-.-.-.,.,.:.:.:.:.:.:.:.:.:.:.:.:.,.,.:.:.:.:.:.:.:.:.:.:.:.;.;.:.;.;.;.;.W a a a a a a a i i i i i i i i w w w w w w w 0 6 7 1.Q.`.`._.I.",
"].G.Q.`.Q.7.+.q 6 q i *.-.2.1./ } | | } } t.t.u.t.u.u.u.a.a.u.u.u.y.p.y.i.i.i.7.7.7.7.7.0.0.0.6.,.,.,.,.:.:.:.:.,.,.,.,.:.:.,.:.>.>.>.>.>.>.>.>.:.>.:.>.>.>.>.>.>.>.>.>.>.>.>.>.>.=.=.=.=.=.=.=.;.;.;.&.&.&.&.l ;.l l l l e e e g g g g g w w w g g g w w w w w q 0 0 0 0 0 0 0 0 0 0 0 0 0 0 0 q 7 6 0 0 , , 8 1 1 8 8 8 8 8 8 q q w e w 6 G 6./.`.`.`.I.P.P.~.6 , , w e g q 6 q 7 7 7 0 8 8 8 8 8 8 8 8 0 0 0 8 8 8 8 7 7 7 0 w w w w w w w w w w w w w w w w , 1 1 1 1 1 1 1 8 8 8 8 8 8 8 8 8 8 8 8 8 8 8 8 1 1 1 1 1 1 1 1 1 1 1 1 1 1 1 1 1 1 1 1 1 1 1 1 8 8 1 8 8 8 8 8 8 8 8 8 8 8 8 8 1 1 1 1 1 8 1 1 1 1 1 1 1 1 1 4 2 2 2 2 2 2 2 2 4 4 2 2 2 2 2 2 1 1 1 1 8 7 7 8 8 w w 8 * % *.W.G.P.`.`.|.|.7.7 q q w l 8.N.N.q.,.,.,.,.,.,.,.,.,.,.,.,.6.6.,.,.,.,.,.,.,.,.,.:.:.:.:.:.:.:.:.:.:.:.:.:.:.:.:.,.,.,.,.,.:.:.:.:.,.,.,.,.,.,.,.,.=.=.=.=.=.=.=.=.>.=.>.=.;.;.;.;.;.;.;.;.;.;.;.;.&.&.&.&.&.&.&.l l l l l e e e e g g g w g g g g w w w w w w w w 0 0 0 0 0 0 0 0 0 0 0 0 0 0 0 0 , 1 , , , , , , 1 1 1 1 1 1 1 1 1 1 1 1 1 1 8 8 6 G 6.F.|._.P.P.",
"`.`.`.`.Q.p.H 7 q w u l =.=.Q E E H E E E E ^ ^ E E *.*.+.*.*.E E H H E H H R R *.*.&.&.&.O.h h g g g g e w w w w w w w w w w e g u k k k k k k w w w w w w w 2 2 2 2 2 2 2 2 2 2 2 4 4 2 2 2 2 w w w 0 0 0 0 0 q w w w w w 0 0 w w 0 w q 0 0 0 0 0 0 0 0 0 0 0 0 0 0 0 0 0 0 0 q 0 q 0 0 0 0 0 w q q q 8 8 w w 8 8 8 8 8 8 8 8 q 0 6 , X 6 E m.~.`.`.P.I.I.P.`.6.;.q , 6 0 q q q q q 8 8 8 8 8 8 8 8 8 w w w w 8 8 8 8 7 7 7 0 8 8 8 8 w 8 w w w w w w w w w w 8 8 w 8 8 8 8 8 8 8 8 8 8 8 8 8 w w w w w w w w w w w w w w w w w w w w w w w w w w w w w w w w 8 8 8 8 8 8 8 8 8 8 8 8 8 8 8 1 1 1 1 1 1 1 1 1 1 1 1 1 1 1 1 1 4 4 4 4 4 4 4 4 2 2 2 2 2 2 2 2 4 1 1 1 8 0 8 8 w 8 8 8 0 9 ,.(.Q.].`.`.`.Q.<.7 9 0 , 2 u l g w ;.;.;.;.;.;.;.;.&.&.&.&.&.&.&.l l l l l l l l l l l l l g l l l w e e w w w w w w w w w w w w w w w w w w w w w w w w w w w w w w w q w q w q w q w 0 w q w q w q w q w q w q w 0 0 0 w q w q 0 0 0 0 0 0 0 0 0 0 0 0 0 0 0 0 0 g f g f g f g f g f g f g f g f u u w w w w w w w w w w w w w w w w u u w w w 8 * 9 3.!.).`.`.P.",
"P.`.`.`.`.k.<.X 6 1 1 1 1 1 8 ; 8 8 8 8 8 8 8 8 , , , , , , , , 8 8 6 8 6 , , , 1 , 1 2 2 5 5 2 w w w w w w w w w w w w w w w w w 4 4 4 4 2 4 4 w w w w w w w w 4 4 4 4 4 4 4 w w w w w w w 4 w w q q w q q w w w q q q q q q q w w w w w w w w 0 0 w w w w w w w w w w w w w w w w w w g g g w 7 6 6 6 6 6 0 8 6 6 6 6 6 8 8 6 7 6 X 7 7 E m.).Q.`.`.P.P.I.I.P.).N.R 7 6 6 q e + + + 6 = = = = % % % % % % % % 6 6 6 6 6 6 6 6 0 6 0 0 0 0 0 6 6 6 6 6 0 0 0 6 6 8 1 1 8 8 8 8 6 8 , 1 1 & 1 , 8 0 2 0 0 0 0 0 , , , , 0 , , , 8 8 8 8 8 8 8 8 , , 1 , , , , , 8 8 8 8 8 8 8 8 8 8 8 8 8 8 8 8 8 8 8 t 8 t 8 8 8 8 8 8 8 t 8 w w f f f f k k k f w w w w w w w u u w w e e e i 1 & , 8 8 R n.).~.].`.G.`.Q.5.C 9 6 , 8 w e e q q 0 q q q 0 0 0 g w g g w w w w w w w w w w w w w w w w q w w w w w w w w w w w w w w w w w w w 2 2 2 2 w w w w w w w w w w w w 0 0 q q q q 0 0 w w w w w w w w q 0 q q q q 0 q q 0 q 0 0 w w w 0 0 q q q w w w 0 0 0 0 0 0 0 0 q 0 q 0 q 0 q 0 q 0 q 0 q 0 q 0 0 8 8 8 8 1 8 8 1 1 1 1 , , , , 1 1 1 1 , , 6 6 ; Q m.~.).Q.`.|.",
"P.`.`.`.`.`.<.X 9 w 1 1 1 1 8 8 1 t 1 1 1 1 1 1 1 1 4 4 4 4 2 1 1 8 8 8 1 1 1 1 2 2 4 4 4 4 3 2 0 q q q q q q q q q q q q q q q 0 0 0 0 0 , 0 0 , , , , , , , , , , , , 2 2 , , , , , , , , , 0 0 7 7 7 7 q q q 7 7 7 7 7 7 7 7 6 6 7 7 q q q q q q q q e e e e 6 6 6 6 6 6 6 6 q q q q q q q q G G G G G G G G R R R R R R R R R E E 6.7.W.).|.Q.`.P.P.P.I.I.P.].!.m.6.<.4.4.4.4.4.6.6.2.2.2.-.*.*.*.*.*.*.:.*.W W W W E W E W R R R R R R R R R R R R R R R R Y Y Y i Y Y Y Y e e e e i y e e e e e e e e e e q q q q e q q q 9 9 9 9 9 9 9 9 q q 9 9 9 q 7 7 ; ; = = = = ; ; 6 ; 6 ; 6 ; 6 = = & 8 & 8 & 6 % 6 & 6 & 8 & 8 1 , , , , , , , , , , , , , , , , 0 6 6 6 6 = 6 6 6 ; ; 9 W 3.W./.~.J.G.G.`.|.F.1.: = % % 6 6 7 q 6 6 6 6 6 6 6 6 6 + 6 + + 6 6 6 6 6 , , , , , , , , , , , , , , 6 6 6 6 6 7 6 6 7 7 7 7 7 0 0 0 0 0 0 0 0 0 0 0 0 0 0 0 0 0 0 7 6 6 6 6 q q q q q q q q q q q q q q q 7 q q q q q q q q q q q q 6 6 7 q q q q e q q q q q q q q q q q q q q q q q q q q q q q q q q q q q q 7 q q q q q q q q 9 e 9 9 9 9 9 9 9 2.m./.).|.`.`._.",
"P._.`.P.`.`.7.C 7 6 , , , , 6 6 1 & & & & & 1 1 1 1 1 1 1 1 , , % % % % % % , , , , 1 1 1 1 1 6 6 - 7 - 7 7 7 7 7 7 7 7 7 7 7 7 9 9 9 9 9 9 9 9 9 9 9 9 9 9 9 9 e e e e e e 9 e R R G G G G R G G H H H E E *.*.*.*.*.*.*.*.*.*.<.<.<.<.<.<.<.6.6.6.6.6.5.5.7.7.W.W.W.W.W.W.W.W.(.(.(.(.(.(.(.(.W.W.F.F.F.W.W.W.^.^.^.^.^.^.(.(.W.W.~.).|.|.G.a.`.P.P.P.P.I.I.I.].~.|.|././././.).)./././.).~.).).).).).).).)./.(.(.(.(./.(./.(.W.W.W.^.^.^.W.W.W.W.W.W.W.W.W.W.W.W.W.W.W.W.W.W.V.m.V.m.V.m.V.V.B.B.B.B.B.B.B.B.m.m.m.m.B.B.m.m.7.m.m.m.7.7.7.7.7.7.7.7.7.7.6.7.6.6.6.6.2.6.6.6.*.E *.E *.E *.E *.E *.E *.E *.E *.E *.E *.E *.*.E E E E E E E *.R R R R G G G G G H H H H F H H E *.-.3.H.~.|.].J.G.G.P.P.[.`.G.5.2.E E E G A Z H H H H H H H H *.*.*.*.*.*.*.*.*.*.*.*.*.*.*.*.*.*.*.*.*.*.*.*.<.<.*.*.*.*.<.*.-.-.*.*.*.*.*.*.-.-.-.-.-.-.-.-.*.*.*.*.*.*.*.*.*.*.<.<.<.<.<.<.<.<.<.<.<.<.<.<.6.6.6.6.6.6.6.6.6.6.6.6.6.6.6.4.<.<.<.<.6.6.6.6.7.7.7.7.7.7.7.7.7.7.7.7.7.7.7.7.7.7.7.7.7.7.7.7.m.m.m.m.m.m.m.m.m.m.m.m.m.m.m.m.m.m.m.m.7.7.m.m././.Q.).`._.`.`.",
"G.U.`.P.`._.p.<.C q 9 9 9 q q 9 9 9 9 9 9 9 e e e e e e e e D G G R Y Y Y R R R R R W W E Q E E <.<.<.<.<.6.1.<.5.5.5.5.5.6.5.6.7.7.7.7.7.7.7.7.W.W.W.W.W.W.W.W.W.W.W.W.W.W.W.W.^./././././.(.(.~.~./.~./.~./././.~././.)./.).).).).|.|.].].].].].].].].].].].|.F.F.F.F.Q.Q.Q.Q.F.F.F.F.F.F.F.F.|.|.|.).|.|.|.|.`._._.`.|.|.|.|.|.|.].G.P.`.`.P.P.P.P.P.P.I.I.I.P.P.P.`.`.`.|.|.Q.Q.Q.Q.Q.Q.J.J.`.`.`.`.`.`.`.Q.|.|.|.|.|.|.|.|.|.|.|.|.|.|.|.|.|.|.|.|.|.|.`.|.|././././././././././././././././.)./.)./.)./.).).).).)./.).).).~.~.~.~.).).).).).~.).~.~.~.).).|.|.|.|.|.|.|.|./.|././././././././././././././././././././.).~.).).~.~.~.~.~.).).).~.~.~.).~.).Q.Q.Q.Q.Q.Q.Q.~.H.!.!.H.].[.P.a.U.P.P.I.I.I.I.P. X].~.).~.Q.Q.Q.G.G.F.F.F.F.F.G.).).).).).).).)././././././.).).).).).).).).).).|.|.|.|.|.|.|.|.).).).).).~.).).~././././././.|.).).).).).).).)././././././././././././././././.|.|.|.|.|.|.|.|.|.|.|.|.|./.|.).).).).).).].].].|.|.|.|.|.@X@X@X).).).).~.).).).).).).).~.).).).].].~.~.].~.|.].).).).).).~.).).).|.|.).`.).).].].`.G.G.`._.`.l.",
"G.P.P.P.`.`.Q.W.j.B.B.B.B.B.j.j./.W.W.W.W./.Q.Q.Q.Q.Q.Q.Q.Q.Q.Q.|.|.|.|.|.|.|.|.|.|.|.|. X X X X|.).|.).|.].|.].|.].|.].|.].|.|.|.|.|.|.|.|.|.|.~.~.).~.~.~.~.`.`.`.`.`.`.`.`.`.`.`.`.`.`.`.`.`.`.J.~.J.~.J.Q.J.J.J.J.J.J.J.Q.P.G.G.G.G.G.G.G.G.G.G.G.G.G.G.G.G.U.U.U.U.U.U._._.U.U.U.U.U.U.U.U.P.G.P.P.P.P.P.`.f.f.f.f.`.P.`.`.G.P.P.a.f._.[.[.P.P.P.P.P.I.I.I.I.K.I.s.f.P.`.`._._._.`.`.P.P.P.`.`.}.'.'.'.'.`.f.f.f.f.f.f.f.f.P.P.`.P.`.P.I.P.I.P.I.P.`.P.I.`.`.`.`.`.`.`.`.`.`.`.`.`.`.`.`.`.`.P.`.P.`.P.`.P.P.P.P.P.P.P.P.P.P.P.P.P.P.P.P.P.P.P.P.P.P.P.P.P.P.`.`.P.`.`.`.`.`.`.`.`.`.`.`.`.`.`.`.`.`.`.`.`.`.`.`.`.`.`.`.P.I.I.P.I.I.I.I.I.P.P.P.P.P.P.I.I.`.`.`.`.`.`.`.`.Q.].~.F.P.P.I.s.U.P.P.I.L.I.I.I.P.G.J.J.`.`.`.`._.U.U.U.U.U.U.U.P.P.P.P.P.P.P.P.G.G.G.G.P.P.P.P.P.P.P.P.P.G.P.P.P.I.I.I.P.P.P.I.P.P.P.P.P.P.P.P.P.P.P.P.P.P.P.P.P.P.P.P.P.P.P.P.`.`.`.`.`.`.Q.Q.Q.Q.Q.Q.P.P.Q.Q.G.G.G.G.G.Q.Q.Q.G.G.G.G.Q.Q.Q.G.G.G.G.G.G.G.G.G.G.D.D.D.D.D.D.D.P.P.P.P.U.U.U.P.P.P.P.P.U.U.U.P.P.P.P.P.P.P.P.P.P.P.P.P.P.P.P.P.P.`.`.`.`.P.`.P.`.I.`.I.`.'.z.z.",
"U.G.P.P.P.P.`. XQ.Q.Q./././.Q.`.`.`.`.`.`._.}.}.`.`.`.`.`.`.`.`.`.`.`.`.`.`._._.I.I.I.I.I.I.I.I.P.J.G.J.G.G.G.G.G.G.G.G.G.G.G.G.P.I.I.P.P.P.P.P.P.P.P.P.P.I.I.I.P.P.`.`.I.I.I.I.`.P.P.P.P.P.P.P.P.P.P.P.P.P.G.G.P.P.P.P.P.P.P.P.P.P.P.P.P.P.P.P.P.P.P.P.P.P.P.P.P.P.P.P.P.P.P.P.P.P.P.P.P.P.P.P.P.P.P.I.I.I.I.I.'.'.I.'.'._.'._.P.[.[.I.f.I.I.P.P.P.P.P.P.I.I.I.I.I.I.I.I.`.`.`.`.`.I.I.I.I.I.I.'.'.'.'.I.I.I.'.'.I.'.I.'.I.I.I.I.I.I.I.I.I.I.I.I.I.I.I.I.I.I._.`.`.`.`.`.`.`.`.'.`.'.`.'.`.'._.I.I.I.I.I.I.I.P.P.P.P.P.P.P.P.P.P.P.P.P.P.P.P.P.K.K.I.P.L.P.I.P.`.`.`.`.`.`.`.`.`.`.`.`.`.`.`.'.'.'.'.'.'.'.'.'.'.'.'.'.'.'.'.I.I.I.I.I.I.I.I.I.I.I.I.I.I.I.I.I.I.`.`.z.z.`.I.P.P.P.P.G.P.I.I.I.I.P.I.I.I.g.I.I.I.P.U._.P.P.P.I.I.P.I.P.I.P.I.L.P.P.P.P.P.P.P.P.I.I.I.I.I.I.I.I.I.I.I.I.I.I.I.I.I.g.g.g.I.I.I.I.I.I.I.P.I.P.I.I.I.I.I.I.I.I.I.I.I.I.I.I.I.I.I.I._.P.`.`.`.P.P.P.`.`.`.`.`.`.`.`.`.P.P.P.P.P.P.P.P.P.P.P.`.`._._.I.U.P.P.P.P.I.P.P.P.P.P.P.P.P.P.P.P.P.P.P.P.P.P.P.P.P.P.P.P.P.P.P.P.P.P.P.P.P.P.P.P.P.P.P.P.P.I.I.I.I.I.I.I.I.I.I._.[.[.'.l.z.z.",
"P.P.I.I.I.I.I.P.I.P.P.P.P.P.I.I.I.P.I.I.I.I.I.I.I.I.I.I.I.I.I.I.I.I.I.I.I.I.I.I.I.I.I.I.I.L.I.I.P.P.`.P.P.P.`.P.`.P.`.P.I.P.`.P.I.I.I.I.I.P.P.P.P.P.I.I.I.I.I.I.I.P.P.P.I.I.I.I.P.P.P.P.P.P.P.P.P.P.P.P.P.P.P.P.D.K.K.P.P.P.P.P.U.U.U.U.P.P.P.P.P.K.K.K.P.P.P.P.P.P.P.P.P.P.P.P.P.I.I.I.I.L.L.I.I.I.I.I.I.I.I.I.I.I.I.I.I.I.I.I.I.I.I.I.'.I.'._.'.`.`.`._.I.'.I.I.P.I.I.I.I.I.I.I.I.I.I.I.I.I.I.I.I.I.I.I.I.I.I.I.I.I.I.I.I.I.I.I.I.I.I.I.I.I.I.I.I.I.I.I.I.I.I._._.I._.I._._._.I.I._._._._.I.I.L.L.L.L.I.I.I.I.I.I.I.L.I.I.I.P.P.P.P.P.K.K.L.I.L.L.I.I.I.I.I.I._._._._.I._._._.I.I.I.I.I.I.I.I.I.I.I.I.I.I.I.I.I.I.I.I.I.I.I.I.I.I.I.I.I.I.I.I.I.I.I.I.I.I.I.I.I.I.I.I.I.I.I.P.P.P.P.P.I.I.I.I.I.P.I.I.I.I.I.I.I.I.P.`.`.`.`.I.I.I.I.I.I.I.I.I.I.P.I.P.I.P.I.I.I.I.P.P.P.I.I.I.I.I.I.I.I.I.P.I.I.I.I.I.I.I.I.I.I.I.I.I.I.I.I.I.I.I.I.I.I.I.I.I.I.I.I.I.I.I.I.I.I.I._.P.P.G.P.P.`.`.'.`.`.`.Q.`.P.P.P.P.I.P.I.[.I.P.I.P.I.P.I.P.P.P.P.P.P.P.I.P.I.P.I.P.I.I.I.I.I.P.I.P.I.P.I.P.I.I.I.P.I.P._._.I.I.I.I.I.I.I.I.I.I.I.I._._._._.`.`.`.`.`.`.`.`.I.I.I.I.I.`.`.`.",
"I.I.I.I.I.I.I.I._.I._.I._.I._.I.I.P.P.P.P.P.P.P.P.P.P.P.P.P.P.P.P.P.P.P.P.P.P.P.I.P.P.P.I.I.I.I.K.P.P.P.P.K.P.f.P.P.P.P.P.K.P.f.f.d.f.L.I.K.P.K._.U.I.I.I.I.I.I.I.P.P.P.I.I.I.I.P.P.P.P.P.P.P.P.I.I.I.K.P.P.P.P.P.P.P.P.I.Y.Y.Y.P.U.P.U.P.P.P.P.P.K.P.K.P.P.P.P.I.I.I.I.I.I.I.P.P.I.I.P.P.P.P.P.P.P.P.P.P.P.P.P.P.P.P.P.P.P.P.P.f.P.P.P.P.P.P.`.f.f.f.f.f.f.f.f.P.P.P.P.P.P.P.P.P.P.P.P.P.P.P.P.P.P.P.P.P.P.I.I.P.I.P.P.P.P.P.I.I.P.P.P.P.I.P.P.P.K.P.K.P.K.P.P.f.f.f.f.f.s.f.f.f.s.f.f.f.f.f.d.g.g.g.L.L.L.L.L.P.I.P.I.I.I.I.I.P.P.P.P.P.P.P.I.I.I.I.I.I.I.I.I.P.P.P.P.P.K.P.P._.I._.I.`.P._.I.`.P.`.P.`.P.`.P.`.P.`.P.`.P.`.I._.I._.I._.I._.I.I.I.I.I.I.I.I.I.I.I.P.P.P.P.P.P.P.P.P.P.P.P.P.P.`.`.`.`.`.`.`.`.`.`.`.`.`.`.`.`.P.P.P.P.P.P.P.P.P.I.P.P.P.I.I.I.`.`.`.`.`.`.`.`.`.`.`.`.`.`.`.`.I.I.I.I.I.I.I.I.I.I.I.I.I.I.I.I.I.P.P.P.P.P.P.P.`.P.`.P.P.P.P.I.I.I.I.P.].].].`.`.'.'.'.`.`.Q.`.P.P.P.P.I.P.I.P.P.P.P.P.I.I.I.I.P.P.P.P.I.I.I.P.P.P.P.`.I.I.`.I.`.`.`.`.`.`.`.`.I.I.`.`.`.`.`.`.`.`.`.`.`._.`.`.`.`.`.`.`.`.`.`.`.`.`.P.`.`.`.`.`.`.`.`.`.`.`.`.",
"P.P.`.P.P.P.P.P.`.P.`.P.P.P.P.P.P.P.P.P.P.P.P.P.P.P.P.P.P.P.P.P.P.P.P.P.P.P.P.P.P.P.P.P.P.P.P.P.`.P.`.`.`.`.`.`.`.P.`.`.`.`.`.`._.I._.I.`.U._.U.P.P.P.P.P.I.I.I.P.P.P.P.I.I.I.I.P.P.P.P.P.P.P.P.P.I.I.I.I.P.I.I.f.f.P.P.I.I.I.P.P.P.P.P.P.P.I.P.P.P.P.P.P.P.P.P.P.P.P.P.P.P.P.P.P.P.I.P.I.I.I.P.P.P.`.P.`.P.`.P.P.P.P.P.P.P.P.P.`._._._._._._._._._._._.`._._.`.`.`.`.`.`.`.`.`._.`.`.`.`.`.`.`.`.`.`.`.`.`.`.`.`.`.`.`.`.`.`.`.`.U.`.U.`.U.`.U.`.P.`.P.`.P.`.`.`.`.`.`.`.`.`.`.`.`.`.`.`.`.`._._.I.I.I.I.U.U.U.P.P.P.P.I.P.I.I.P.P.P.P.P.P.P.I.P.P.P.P.P.P.P.P.`.`.`.`.`.`.`.P.P.I.P.P.P.P.P.P.P.P.P.P.P.P.P.P.P.P.P.P.P.P.P.P.P.P.P.P.P.I.I.P.P.P.P.P.P.P.P.P.P.P.P.P.P.P.P.P.P.P.P.P.P.P.P.P.P.`.`.`.`.`.`.`.`.`.`.`.`.`.`.P.P.P.P.P.P.P.P.P.`.P.`.P.P.P.P.P.P.Q.Q.Q.`.`.`.`.`.`.`.`.`.Q.Q.P.`.P.`.P.`.P.P.P.P.P.P.P.P.P.P.P.`.P.P.P.P.P.P.P.P.P.P.P.P.P.P.I.I.I.P.P.`.].`.P.`.'.'.'.`.`.`.`.P.P.P.P.P.P.P.P.P.P.P.P.P.P.P.P.P.P.P.P.P.P.P.P.P.P.`.`.`.`.`.`.`.`.`.`.`.`.`.`.`.`.`.`.`.`.`.`.`.`.`.`.`.`.`.`.`.`.`.`.`.`.`.`.`.`.`.`.`.`.Q.Q.G.G.G.G.G.G.G.G.",
"`.`.`.`.`.`.`.`.`.`.`.`.`.`.`.`.`.`.`.`.`.`.`.`.`.`.`.Q.`.Q.P.P.`.].`.].`.].`.].P.J.J.J.P.J.P.J.`.Q.`.Q.`.Q.Q.Q.`.Q.`.Q.`.Q.Q.P.P.P.P.P.G.J.J.J.J.Q.J.P.P.P.P.P.P.P.P.P.I.I.I.I.P.P.P.P.P.P.P.P.P.I.I.I.I.I.I.I.I.I.I.I.I.I.I.I.P.P.P.P.P.P.P.P.P.P.P.P.P.P.P.P.P.P.P.P.P.P.P.P.P.P.P.P.P.P.P.P.J.Q.`.Q.`.Q.`.Q.`.Q.Q.Q.`.Q.`.Q.G.G.G.G.G.G.G.Q.G.G.G.G.G.G.G.G.Q.Q.Q.Q.Q.Q.Q.Q.G.J.G.Q.Q.Q.Q.Q.Q.Q.Q.Q.Q.Q.Q.Q.Q.Q.Q.Q.Q.Q.Q.J.G.J.G.J.G.J.G.J.P.J.P.J.P.J.P.P.`.`.`.`.`.`.`.`.`.`.`.`.`.`.`.`.P.P.G.G.J.J.J.J.P.].U.P.P.I.I.I.P.P.P.P.P.P.P.G.P.P.P.P.`.`.`.|.Q.Q.`.Q.`.Q.`.Q.`.Q.`.Q.Q.Q.`.Q.`.`.`.`.`.Q.`.`.`.Q.`.Q.`.Q.`.Q.`.`.Q.`.`.`.`.`.Q.`.Q.Q.Q.Q.Q.`.`.`.`.`.`.`.`.`.`.`.`.`.`.`.`.`.`.`.`.`.`.`.`.`.`.`.`.`.`.`.`.`.`.`.`.`.`.|.`.|.|.|.|.|.|.|._.|.Q.Q.Q.Q.Q.Q.Q.Q.Q.Q.Q.Q.Q.Q.Q.Q.`.`.`.`.`.`.`.`.`.`.`.`.`.`.`.`.`.`.`.`.`.`.`.`.`.Q.Q.Q.`.Q.`.`._.`.`.Q.~.~.J.G.`.`.`.`.`.`.P.P.`.J.J.J.`.`.`.`.`.`.`.`.`.`.`.`.`.`.`.`.`.`.`.`.`.`.`.`.`.`.`.`.`.`.`.`.`.`.`.`.`.`.`.`.`.`.`.`.`.Q.`.Q.`.Q.`.Q.`.`.`.`.`.`.`.`.Q.Q.`.`.Q.Q.Q.Q.Q.Q.Q.Q.Q.Q.Q.Q.",
").).).).~.~.~.).].|.|.].~.~.~.~.~.].|.~.|.].|.].|.].|.~.|.].|.].|.).|.).|.).|.).|.).|.).|.).|.).).).).).).).).).).).).).).).).).Q.`.`.~.~.~.~.~.~.).).|.|.|.|.|.P.P.P.P.I.I.I.I.I.I.P.P.P.P.P.P.P.I.P.P.I.I.P.P.`.`.`.`.P.P.P.P.I.I.P.P.`.`.`.`.P.P.P.P.P.P.P.`.`.`.`.`.`.`.`.`.`.`.`.`.`.`.`.~.Q.~.Q.~.Q.~.Q.~.Q.~.Q.~.Q.~.Q.~.Q.~.Q.~.).).~.~.).).).).).).|.).Q.).).).).).).~.).).Q.).~.~.).).).).~.~.Q.~.).).).).).).).).).).).~.~.~.~.~.~.~.).).).).~.~.~.~.).).|.).|.|.|.).|.).|.).|.).|.).).).).).~.~.~.~.~.|._.`.P.I.I.I.[.P.P.P.P.`.`.J.].].|.|.|.].].].).).).).).).).).|.).|.).|.).|.).|.].|.].|.].|.].).).).~.).).).).).).).).).).).).).).).).).).).).Q.Q.Q.Q.Q.Q.Q.Q.Q.Q.Q.Q.Q.Q.Q.Q.Q./.Q./.Q./.Q./././././.Q./.Q./.Q.Q.Q.Q.F.Q.Q.Q.Q.Q.Q.Q.Q.Q.Q.Q.W.W.W.W.W.W.W.W.W.W.W.W.W.W.W.W.Q.Q.Q.Q.F.Q.F.Q.Q.Q.Q.Q.Q.Q.F.F.Q.Q.Q.Q.Q.Q.Q.Q.).).).).).).).).`.Q.Q.Q.~.~.~.Q.`.`.'.I.P.P.P.P.|.).Q.Q.Q.Q.F.F.F.F.F.F.F.F.F.F.F.F.F.F.G.F.W.Q.Q.W.Q.Q.Q./.Q./.Q./.Q./././.Q./.Q.Q.Q./.Q.Q.Q./.).).).).).).).).Q.Q.Q.Q.Q.Q.Q.Q./././.Q.Q.Q.Q./.).).).).).).).).",
"7.7.7.7.7.7.7.7.7.7.7.7.7.7.7.7.7.7.7.7.7.7.7.7.7.7.7.7.7.7.7.7.7.7.7.7.7.7.7.7.7.7.7.7.7.7.7.7.W.W.W.W.W.W.W.W.W.W.W.W.W.W.W.W.Q.Q.Q.Q.W.W.W.W.W.W.W.W.W.W.W.F.`.P.P.P.P.I.I.I.I.P.P.P.P.Q.Q.Q._._._._.`.`.`.`.`.P.P.P.P.P.P.P.[.|.|.|.|.|.|.|.`.|.`.|.`.`.`.`.).).).).~.~.).~.Q.~.Q.).Q.Q.Q.~.(.(./.(./.(./.(.W.W.W.W.W.W.W.W.~.!./.!./././.!./.!./.!.~.!.~.!.W.^.^.^.^.^./.^.^.^.^.^.^.^.^.^.^.^.W.W.^.W.^.^.^.^.^.W.^.^.^.W.W.W.W.W.W.W.W.W.W.W.W.W.W.W.W.W.W.W.W.W.W.W.W.W.W.W.W.W.W.W.W.W.^.W.W.W.W.W.W.W.F.~.~.].P.P.I.I._.P.P.P.`.|.|.|.Q.W.W.W.F.F.m.m.W.W.W.W.W.W.W.W.7.7.7.7.7.7.7.7.7.7.7.7.7.7.7.7.5.5.5.5.5.5.5.5.5.7.7.7.7.7.7.7.7.7.7.6.6.6.7.5.6.6.5.6.5.6.5.6.5.6.5.6.5.6.5.6.5.6.5.6.5.6.5.6.5.6.5.6.5.6.5.6.<.<.<.<.<.<.<.<.1.1.<.1.<.<.<.<.<.<.<.<.<.<.<.<.<.<.<.<.<.<.<.<.2.6.2.2.2.2.6.2.<.<.<.<.<.<.<.<.6.6.5.6.1.6.1.6.5.6.5.6.5.6.5.5.5.7.5.7.7.m.H.~.`.`.I.I.I.P.P.P.).W.7.6.2.1.1.^ 1.<.1.<.1.<.1.<.1.<.1.<.1.<.<.<.1.<.<.<.<.<.<.<.5.6.5.6.5.6.5.6.5.6.4.6.5.6.5.5.5.6.5.6.5.6.5.6.5.5.5.5.5.5.5.5.6.6.6.6.6.6.6.6.6.6.6.6.6.6.6.6.",
"R R E E E E R R R G G G G G G G G G H G H G H G H G H G H G H G E E E E E E E E H G H G H G H G H E H E H E H E H E H E H E H H *.E E E E E E E 2.2.2.2.<.<.<.1.Q.`.`.`.P.P.I.I.P.P.`.`.Q.Q.Q.Q.|.).).~.Q.J.Q.F.|.|.|.|.`.`.].~.Q./.Q.W.W.j.j.p.p.p.p.p.p.p.p.p.7.7.7.7.7.7.7.7.5.5.5.5.5.6.5.5.6.6.6.6.6.6.6.6.2.2.2.2.2.2.2.2.E E E Q E Q E Q E E E E E E E E *.*.E E E E E E E E E E E E *.*.E E E E H E E E H E E E E E E E E E E E E E E E E E E E E E E E H H H H H H H H H H H H H H H H *.E E R R R E E 6.7.Q.].P.I.I.I.I.I.P.P.|.`.Q.F.5.6.6.2.*.E E E H G H E H E H E H G H G H G H G G G G G H G H G G G G G G G G G G G G G G G G G G G G G G G G G G G H G H G H G H G H G H G H G H G H G G G G G G G H G H G H G A G A G A G A G G G G G G G G G G G G G G G G G G G G G G G G G G G G G G G G G G G G G G G G G G G H G H G H G A G A G A G A A H H *.E R *.7.F.`.`.I.I.I.P.P.J.S.2.E G A G G A G G G G G G G G G G G G G G A G G G G G G G G G H G H G H G H G G G G G H G H E A A A A A G G G H R H G H G H G G G G G G G G G G G G G G G G G ",
"*.&.&.*.*.*.&.&.&.&.*.&.*.*.*.*.*.R *.R *.R *.R R R R R R R R R R R R R R R R R R R R R R R R R R R *.R *.R *.R *.R *.R *.R *.R R E R R R R R R G G G G G G G H Q.`.`.`.P.P.I.I.P.P.`.`.Q.Q././.F.F.F.S.7.7.7.5.1.1.2.1.1.^ 1.<.<.<.<.*.+.H H F H F H F H F H A G A A A A A G G A A A A A A A D G G G G G G G G e e G G G G G G G G G Y G R R R R R R R R R R R R R *.R *.R *.R *.R *.R *.R *.R *.R R R O.R *.R *.R R R G R R G R R R R R R R R R R R R R R R R R R *.G O.R *.R O.G *.R *.R O.R R R R R R R R R G <.F.).`.P.I.I.I.I.I.`.`.W.7.*.H E R R R R R R R R *.R *.R *.R *.R *.R *.R *.R *.R *.R *.R *.R *.R *.R *.R *.R *.R *.R &.R *.*.*.*.*.*.&.R &.R *.*.*.*.*.*.*.*.*.R *.R *.R *.*.*.*.*.*.O.*.*.*.O.*.*.*.*.*.*.*.*.*.*.*.*.*.:.*.*.*.*.*.*.*.*.*.*.*.&.*.&.*.&.*.&.*.&.*.&.*.&.*.&.R &.R &.R &.R *.*.*.*.*.*.*.*.*.R *.R *.R *.R *.*.*.*.*.R *.*.G *.*.R G R 6.F.Q.`.I.I.P.P.P.J.m.-.R e G R *.*.*.*.*.*.*.R *.R *.*.*.R *.*.*.*.*.*.*.*.&.&.&.&.*.*.*.*.*.*.*.*.O.&.O.*.*.*.&.*.&.*.&.*.&.*.&.*.&.*.&.*.&.*.&.*.*.*.*.*.*.*.*.*.;.:.:.;.;.;.;.;.",
"&.&.&.l &.&.&.&.&.&.&.&.&.&.&.&.&.R &.R &.R &.R &.R &.R &.R &.R &.R &.R &.R &.R &.R &.R &.R &.&.&.&.&.&.&.&.&.&.&.&.&.&.&.&.&.&.:.*.G R *.*.*.*.*.*.*.G R *.:.G 7.|._.G.P.[.I.I.P.P.|.Q.3.1.<.H E R R R R R R E R R E E E E R R R R *.R *.R *.R *.R *.R *.R *.R *.R *.R *.R *.R *.R O.G *.R *.*.*.&.&.&.&.&.&.&.&.&.&.&.&.&.&.&.R R R R R R R R R R R R R R &.&.&.&.&.&.&.&.&.&.&.&.&.&.&.&.&.&.&.&.&.&.&.&.&.&.&.&.&.&.&.&.&.&.&.R &.R &.R &.R R R &.R &.R &.&.*.*.*.*.*.*.*.*.&.*.&.*.&.*.&.*.R -.*.e ;.>.&.R G G H y.|.U.u.I.I.I.I.|.`.3.P H +.*.*.R R W W R &.&.&.&.&.&.&.&.&.&.&.&.&.&.&.&.&.&.&.&.&.&.&.&.&.&.&.&.&.&.&.&.&.&.&.&.&.&.&.&.&.&.&.&.&.&.l l &.&.&.&.&.&.&.&.&.&.&.&.&.&.&.&.&.&.&.&.&.&.&.&.&.&.&.&.&.&.&.&.&.&.&.&.&.&.&.&.&.&.&.&.&.&.&.&.&.&.&.&.&.&.&.&.&.&.&.&.&.&.&.&.&.&.&.&.&.&.&.&.&.&.&.&.&.&.&.&.&.&.&.&.&.&.&.&.;.;.*.R &.:.;.G G *.O.&.*.G *./.Q.`.I.I.I.P.P.G.*.*.&.R &.R R R R R &.R &.R &.R R R R R &.&.&.&.&.&.&.&.&.&.&.&.&.&.&.&.&.&.&.&.&.&.&.&.&.&.&.&.&.&.&.&.&.&.&.&.&.&.&.&.&.&.&.&.&.&.&.&.&.&.&.&.&.&.&.&.&.&.&.&.",
"l l l l l l l l l l l l l l l l &.&.&.&.&.&.&.&.R R &.&.&.&.&.&.&.&.&.&.&.&.&.&.R R &.&.&.&.&.&.&.&.&.&.&.&.&.&.&.&.&.&.&.&.&.&.&.i G &.;.:.;.*.&.&.*.R &.&.*.G 3.`.|.G.`._.I.I.I.P.`.Q.<.*.-.R R R R Y R R R R R R R R R R R R &.&.&.&.&.&.&.&.&.&.&.&.&.&.&.&.*.*.*.*.*.*.*.*.*.*.&.&.&.*.*.*.&.&.&.&.&.&.&.&.&.&.&.&.&.&.&.&.&.R &.R &.R &.R &.R &.R &.R &.&.&.&.&.&.&.&.&.&.&.&.&.&.&.&.&.&.&.&.&.&.&.&.&.&.&.&.&.&.&.&.&.&.&.R &.&.&.&.&.&.R &.&.&.&.&.&.&.&.&.&.&.&.&.&.&.&.&.&.&.&.&.&.&.R -.W e ;.>.;.;.R R H 1.Q.P.P.I.I.I.I.|.Q.5.H O.*.*.&.i i R R R &.&.&.&.&.&.&.&.&.&.&.&.&.&.&.&.&.&.&.&.&.&.&.&.&.&.&.&.&.&.&.&.l l l l l l l l l l l l l l l l &.&.&.&.&.&.&.&.&.&.&.&.&.&.&.&.&.&.&.&.&.&.&.&.&.&.&.&.&.&.&.&.&.&.&.&.&.&.&.&.&.&.&.&.&.&.&.&.&.&.&.&.l l &.&.&.&.&.&.&.&.&.&.l l l l l l l l l l l l l l l l &.&.&.&.&.&.&.&.&.&.&.l &.>.;.g &.:.&.*.;.Y E W.Q.`.I.I.I.P.P.G.*.*.&.&.&.&.&.i R R &.&.&.&.&.&.R R &.&.&.&.&.&.&.&.&.&.&.&.&.&.&.&.&.&.&.&.&.&.&.&.&.&.&.&.&.&.&.&.&.&.&.&.&.&.&.&.&.&.&.&.&.&.&.&.&.l &.&.&.&.&.&.&.&.&.&.&.&.",
"l l l l l l l l l l l l l l l l &.&.&.&.&.&.&.&.R R &.&.&.&.&.&.&.&.&.&.&.&.&.&.R R &.&.l &.&.&.&.&.&.&.&.&.&.&.&.&.&.&.&.&.&.&.i i i &.*.;.*.G O.&.;.&.i l l G 5.Q.|.P.`._.I.I._.P.Q.p.<.H *.*.R a a a a a a a a a a a a a a a l l l l l l l l l l l l l l l l &.&.&.&.&.&.&.&.&.&.&.&.&.&.&.&.&.&.&.&.&.&.&.&.&.&.&.&.&.&.&.&.&.&.&.&.&.&.&.&.l l &.&.&.&.&.&.&.&.&.&.&.&.&.&.&.&.&.&.&.&.&.&.&.&.&.&.&.&.&.&.&.&.&.&.&.&.&.&.R R &.&.&.&.&.&.R &.&.&.&.&.&.&.&.&.&.&.&.&.&.&.&.&.&.&.&.&.l R 9 E R e &.&.l &.*.R G ^ F.J.P.Y.I.L.P._.W.<.H O.*.&.&.l l i a W &.&.&.&.&.&.&.&.&.&.&.&.&.&.&.&.&.&.&.&.&.&.&.&.&.&.&.&.&.&.&.&.l l l l l l l l l l l l l l l l l &.&.&.&.&.&.&.&.&.&.&.&.&.&.&.&.&.&.&.;.;.&.&.&.&.&.&.&.&.;.&.&.&.&.&.&.&.&.&.&.&.&.&.&.&.&.&.l l l l c c l l l l l l l l c l l l l l l l l l l l l l l l l l &.&.&.&.&.&.&.&.g l l l ;.>.;.g &.&.&.&.&.Y E W.Q.`._.I.I.P.I.J.*.&.&.&.&.&.&.i R R &.&.l &.&.&.&.&.&.l &.&.&.&.&.&.&.&.&.&.&.&.&.l l l &.&.;.;.&.&.&.&.;.&.&.&.&.;.;.&.&.&.&.&.&.&.&.&.;.&.&.&.&.l l l l l c c l l c c c l l l ",
"&.l &.&.&.&.&.&.&.&.&.&.&.&.&.&.&.&.&.&.&.&.&.&.&.&.&.&.&.&.&.&.&.&.&.&.&.&.&.&.&.R &.&.&.l &.&.&.&.&.&.&.&.&.&.&.&.&.&.&.&.&.&.&.&.&.&.&.&.R G G *.;.*.&.i i G 1.).|.P.`.`.I.I.I.P.Q.W.+.G *.&.&.a l a l a l a l a l a l a l l l l l l l x l x l l l l l x l l l &.&.&.&.&.&.&.&.&.&.&.&.&.&.&.&.&.&.&.&.&.&.&.&.&.&.&.&.&.&.&.&.&.&.&.&.&.&.&.&.&.&.&.&.&.&.&.&.&.&.&.&.&.&.&.&.&.&.&.&.&.&.&.&.&.&.&.&.&.&.&.&.&.&.&.&.&.&.&.&.&.&.&.&.&.&.&.&.&.&.&.&.&.&.&.&.&.&.&.&.&.&.&.&.&.&.l &.l g G C <.*.*.-.*.e &.*.*.G E S.F.G.[.I.L.P.`.F.<.G G &.l l &.&.i i &.&.&.&.&.&.&.&.&.&.&.&.&.&.&.&.&.&.&.&.&.&.&.&.&.&.&.&.&.&.&.&.&.&.l l l &.&.&.&.&.&.&.&.&.&.l l &.&.&.&.&.&.&.&.&.&.&.&.&.&.&.&.&.&.;.;.;.;.&.&.&.&.&.&.&.&.&.&.&.&.&.&.&.&.&.&.&.&.&.&.&.&.&.&.l l l l l l l c l l l l l c c l &.&.&.&.&.&.&.&.&.&.&.&.&.&.&.&.&.&.&.&.&.&.&.&.g l l &.;.;.l e e O.e e W e E W.Q._._.'.I.I.I.J.*.&.&.&.&.&.&.&.&.&.&.&.l l &.&.&.&.&.&.&.&.&.&.&.&.&.&.&.&.&.&.&.&.l l &.&.&.;.&.&.&.&.;.;.&.&.&.;.;.&.&.&.&.;.&.&.&.&.;.;.&.&.&.l l l l l l c l l l c c c l l ",
"&.&.&.&.&.&.&.&.&.&.&.&.&.&.&.&.&.&.&.&.&.&.&.&.&.&.&.&.&.&.&.&.&.&.&.&.&.&.&.&.&.&.&.&.&.&.&.&.&.&.&.&.&.&.&.&.&.&.&.&.&.&.&.&.;.;.&.i R &.:.-.R R *.*.&.l l *.<.Q.|.Q.`.P.I.I.I.`.{.Q.<.O.;.O.&.l &.l &.l &.l &.l &.l &.l &.l l l l l l l l l l l l l l l l l l l &.&.&.&.&.&.l l &.&.&.&.&.&.&.&.&.&.&.&.&.&.&.&.&.&.&.&.&.&.&.&.&.&.&.&.&.&.&.&.&.&.&.&.&.&.&.&.&.&.&.&.&.&.&.&.&.&.&.&.&.&.&.&.&.&.&.&.&.&.&.&.&.&.&.&.&.&.&.&.&.&.&.&.&.&.&.&.&.&.&.&.&.&.&.&.&.&.&.&.&.&.&.&.&.&.&.O.&.G 2.S.H.W.V.,.&.;.&.*.G E S.F.G.P.I.L.P.P.S.^ G *.&.g l ;.;.R i &.&.&.&.&.&.&.&.&.&.&.&.&.&.&.&.&.&.&.&.&.&.&.&.&.&.&.&.&.&.&.&.&.&.&.&.l &.&.&.&.&.&.&.&.&.&.&.l &.&.&.&.&.&.&.&.&.&.&.&.&.&.&.&.&.&.&.&.&.&.&.&.&.&.&.&.&.&.&.&.&.&.&.&.&.&.&.&.&.&.&.&.&.&.&.&.&.&.&.&.l l &.&.&.&.&.&.l l &.&.&.&.&.&.&.&.&.&.&.&.&.&.&.&.&.&.&.&.&.&.&.&.&.&.&.&.&.&.&.l e O.&.*.G e &.G E H.Q.`.'.'.'.I.I.Q.*.&.l i &.&.&.&.&.&.&.&.&.&.&.&.&.&.&.&.&.&.&.&.&.&.&.&.&.&.&.&.&.&.&.&.&.&.&.&.&.&.&.&.&.&.&.&.&.&.&.&.&.&.&.&.&.&.&.&.&.&.&.l &.&.&.&.&.&.&.&.&.&.&.&.&.&.&.&.",
"*.&.&.&.*.&.*.&.&.&.*.&.*.&.*.&.&.&.&.&.&.&.R R &.&.&.&.&.&.&.&.&.&.&.&.&.&.R R &.&.&.&.&.&.&.&.&.&.&.&.&.&.&.&.&.&.&.&.&.&.&.&.&.&.i e G :.N.Z.-.*.G *.*.&.&.*.<.Q.|.Q.`.P.I.I.I.`.|./.4.#.;.;.&.&.&.&.&.&.&.&.&.&.&.&.&.&.&.&.l &.&.&.&.&.&.&.&.&.&.l &.&.&.&.&.l &.&.&.&.&.&.&.&.&.&.&.&.&.&.&.&.&.&.&.&.&.&.&.&.&.&.&.&.&.&.&.&.&.&.&.&.&.&.&.&.&.&.&.&.&.&.&.&.&.&.&.&.&.&.&.&.&.&.&.&.&.&.&.&.&.&.&.&.&.&.&.&.&.&.&.&.&.&.&.&.&.&.&.&.&.&.&.&.&.&.&.&.&.&.&.&.&.&.&.&.&.&.&.&.&.&.&.&.&.R S.J.).~.(.6.G &.e *.G E S.~.J.P.P.K.P.U.S.E G *.&.g &.:.,.*.Y R &.&.&.&.&.&.&.&.&.&.&.&.&.&.&.&.&.&.&.&.&.&.&.&.&.&.&.&.&.&.&.&.&.&.&.&.&.&.&.&.*.&.*.&.&.&.&.&.&.&.&.&.&.&.&.&.&.&.&.&.&.&.&.&.&.&.&.&.&.&.&.&.&.&.&.&.&.&.&.&.&.&.&.&.&.&.&.&.&.&.&.&.&.&.&.&.&.&.&.&.&.&.&.&.&.&.&.&.l l &.&.&.&.&.&.*.&.*.&.&.&.*.&.*.&.*.&.&.&.&.&.&.&.&.&.&.&.&.;.&.e g &.B.q.:.*.*.G E p.Q._.'.'.'.I.I.Q.R &.i i &.*.*.&.&.&.&.&.&.&.&.&.&.&.&.&.&.&.&.&.&.&.&.&.&.&.&.&.&.&.&.&.&.&.&.&.&.&.&.&.&.&.&.&.&.&.&.&.&.&.&.&.&.&.&.&.&.&.&.&.&.&.&.&.&.&.&.&.&.&.&.&.&.&.&.&.",
"O.*.*.&.*.&.*.*.O.&.O.&.*.&.*.*.&.&.&.&.&.&.R R &.&.&.&.&.&.&.&.&.&.&.&.&.&.R R &.&.&.&.*.&.&.&.&.&.&.&.&.&.&.&.&.&.&.&.&.&.&.&.&.l i G *.,.C..Xw.-.G &.;.&.i G *.Q.|.Q.`.P.I.I.I.`.|.^.*.O.;.>.&.&.&.&.&.&.&.&.&.&.&.&.&.&.&.&.&.&.&.&.&.&.&.&.&.&.&.&.&.&.&.&.l l l l l l l l l l l l l l l &.&.&.&.&.&.&.&.&.&.&.&.&.&.&.&.&.&.&.;.;.;.;.&.&.&.&.&.&.&.&.&.&.&.&.&.&.&.&.&.&.&.&.&.&.&.&.&.&.&.&.&.&.&.&.&.&.&.&.&.&.&.&.&.&.&.&.R &.&.&.&.&.R R &.&.&.&.&.&.&.*.*.*.&.&.*.*.&.&.&.*.*.&.&.E F.P.J.~./.6.G e &.:.R E 7.~.~.U.L.K.P.U.S.E G *.&.g ;.x.x.*.G R &.&.&.&.&.&.&.&.&.&.&.&.&.&.&.&.&.&.&.&.&.&.&.&.&.&.&.&.&.&.&.&.&.*.O.*.O.*.*.&.*.&.*.*.*.*.*.*.&.&.&.&.&.&.&.&.&.&.&.&.&.&.&.&.&.&.&.&.&.&.&.&.&.&.&.&.&.&.&.&.&.&.&.&.&.&.&.&.&.&.&.&.&.&.&.&.&.&.&.&.&.&.&.&.&.&.&.&.l &.&.&.*.*.*.&.*.&.*.*.O.&.O.&.*.&.*.*.&.&.&.&.&.&.&.&.&.&.&.&.&.&.*.,.(.W.,.*.*.G H p.Q._.'.'.'.I.I.Q.E &.R R *.*.;.*.&.&.&.&.&.&.&.&.R R &.&.&.&.&.&.&.&.&.&.&.&.&.&.&.&.&.&.&.&.&.&.&.&.&.&.&.&.&.&.&.&.&.&.&.&.&.&.&.&.&.&.&.&.&.&.&.&.l l &.&.&.&.&.&.l l &.&.&.&.",
"*.*.&.&.&.*.&.&.&.*.&.&.&.&.*.*.&.&.&.&.&.&.&.&.&.&.&.&.&.&.&.&.&.&.&.&.&.&.&.&.&.&.&.&.&.&.&.&.&.&.&.&.&.&.&.&.&.&.&.&.&.&.&.&.&.&.&.R *.6.W.).W.-.G R *.&.i G *.Q.|.`.`.I.I.I.I.Q.Q.W.O.O.:.8.&.O.*.*.&.&.&.&.&.&.&.&.&.&.&.&.&.&.*.&.*.&.*.&.*.&.*.&.*.&.*.&.&.l &.l &.l &.l &.l &.l &.l &.&.&.&.&.&.&.&.&.&.&.&.&.&.&.&.&.&.&.&.&.;.;.;.&.&.&.&.&.&.&.&.&.&.&.&.&.&.&.&.&.&.&.&.&.&.&.&.&.&.&.&.&.&.&.&.&.&.&.&.&.&.&.&.&.&.&.R &.&.&.&.&.&.&.&.&.&.&.&.&.&.*.*.&.&.&.&.&.&.&.&.&.&.&.&.:.*.].P.G.F./.7.R *.&.:.R H 7./.~.U.U.L.I.U.S.E G *.&.g ;.N.B.*.G Y &.&.&.&.&.&.&.&.&.&.&.&.&.&.&.&.&.&.&.&.&.&.&.&.&.&.&.&.&.&.&.&.&.*.*.*.*.&.&.&.&.&.*.*.*.*.*.*.&.&.&.&.&.&.&.&.&.&.&.&.&.&.&.&.&.&.&.&.&.&.&.&.&.&.&.&.&.&.&.&.&.&.&.&.&.&.&.&.&.&.&.&.&.&.&.&.&.&.&.&.&.&.&.&.&.&.&.&.&.&.&.&.*.*.&.&.&.&.&.&.&.*.&.&.&.&.*.*.&.&.&.&.&.&.&.&.&.e g &.&.G :.6.).W.-.R R G H F.Q._.'.'.'.`.`.Q.R &.R R *.*.*.*.R &.&.&.&.&.&.&.&.&.&.&.&.&.&.&.&.&.&.&.&.&.&.&.&.&.&.&.&.&.&.&.&.&.&.&.&.&.&.&.&.&.&.&.&.&.&.&.&.&.&.&.&.&.&.&.&.&.l l l &.&.&.&.l l l l &.&.&.",
"&.&.&.&.&.&.&.&.&.&.&.&.&.&.&.&.&.&.&.&.&.&.&.&.&.&.&.&.&.&.&.&.&.&.&.&.&.&.&.&.&.&.&.&.&.&.&.&.&.&.&.&.&.&.&.&.&.&.&.&.&.R &.&.i =.W A 6.Q.).).).2.A Y &.&.&.*.H F.`.`.'.'.I.I.P.G.).7.R R G 6.R R *.*.&.&.&.;.;.&.&.&.&.&.&.&.&.&.&.&.&.&.&.&.&.&.&.&.&.&.&.&.&.&.&.&.&.&.&.&.&.&.&.&.&.&.&.&.&.&.&.&.&.&.&.&.&.&.&.&.&.&.&.&.&.&.&.&.&.&.&.&.&.&.&.&.&.&.&.&.&.&.&.&.&.&.&.&.&.&.&.&.&.&.&.&.&.&.&.&.&.&.&.&.&.&.&.&.&.&.&.&.&.&.&.&.&.&.&.&.&.&.&.&.&.&.&.&.&.&.&.&.&.&.&.&.&.&.&.;.;.e G 7.[.K.D.]./.3.R G &.;.G H 7.~.Q.P.P.Y.d._.p.A W a i R R 7.#XK A y &.&.&.&.&.&.&.&.&.&.&.&.&.&.&.&.&.&.&.&.&.&.&.&.&.&.&.&.&.&.&.&.&.&.&.&.&.&.&.&.&.&.&.&.&.&.&.&.&.&.&.&.&.&.&.&.&.&.&.&.&.&.&.&.&.&.&.&.&.&.&.&.&.&.&.&.&.&.&.&.&.&.&.&.&.&.&.&.&.&.&.&.&.&.&.&.&.&.&.&.&.&.&.&.&.&.&.&.&.&.&.&.&.&.&.&.&.&.&.&.&.&.&.&.&.&.&.&.&.&.&.&.&.&.&.&.;.l &.*.Y G <./.G.).6.G *.&.G m.Q.`.I.I.I.[.`.F.R i R :.G E B.G R R W l &.&.&.&.&.&.&.&.&.&.&.&.&.&.&.&.&.&.&.&.&.&.&.&.&.&.&.&.&.&.&.&.&.&.&.&.&.&.&.&.&.&.&.&.&.&.&.&.&.&.&.&.&.&.&.&.&.&.&.&.&.&.&.&.&.&.&.&.",
"&.&.&.&.&.&.&.&.&.&.&.&.&.&.&.&.&.&.&.&.&.&.&.&.&.&.&.&.&.&.&.&.&.&.&.&.&.&.&.&.&.&.&.&.&.&.&.&.&.&.&.&.&.&.&.&.&.&.&.&.R R &.&.i =.R A 3.Q.`.].~.3.Y Y W &.&.*.H F.`.`.'.'.I.I.P.F.).3.R Y G 6.R R R R &.&.;.;.c c &.&.&.&.&.&.&.&.&.&.&.&.&.&.&.&.&.&.&.&.&.&.&.&.&.&.&.&.&.&.&.&.&.&.&.&.&.&.&.&.&.&.&.&.&.&.&.&.&.&.&.&.&.&.&.&.&.&.&.&.&.&.&.&.&.&.&.&.&.&.&.&.&.&.&.&.&.&.&.&.&.&.&.&.&.&.&.&.&.&.&.&.&.&.&.&.&.&.&.&.&.&.&.&.&.&.&.&.&.&.&.&.&.&.&.&.&.&.;.&.&.&.&.&.l l l ;.&.&.&.e G m.U.D.D.~.!.2.R R &.*.G H p.~.`.P.P.U.d.'.b.y a a a R R 7.iXI A y &.&.&.&.&.&.&.&.&.&.&.&.&.&.&.&.&.&.&.&.&.&.&.&.&.&.&.&.&.&.&.&.&.&.&.&.&.&.&.&.&.&.&.&.&.&.&.&.&.&.&.&.&.&.&.&.&.&.&.&.&.&.&.&.&.&.&.&.&.&.&.&.&.&.&.&.&.&.&.&.&.&.&.&.&.&.&.&.&.&.&.&.&.&.&.&.&.&.&.&.&.&.&.&.&.&.&.&.&.&.&.&.&.&.&.&.&.&.&.&.&.&.&.&.&.&.&.&.l l &.&.;.;.&.&.&.l l &.G A 1.~.G.].5.G &.&.&.B.Q.`.I.I.I._.Q.F.R &.R -.G *.V.G R R a a &.&.;.;.&.&.&.&.&.&.&.&.&.&.&.&.&.&.&.&.&.&.&.&.&.&.&.&.&.&.&.&.&.&.&.&.&.&.&.&.&.&.&.&.&.&.&.&.&.&.&.&.&.&.&.&.&.&.&.&.&.&.&.&.&.&.&.&.",
"&.&.&.&.&.&.&.&.&.&.&.&.&.&.&.&.&.&.&.&.&.&.&.&.&.&.&.&.&.&.&.&.&.&.&.&.&.&.&.&.&.&.&.&.&.&.&.&.&.&.;.;.&.&.&.&.&.&.&.&.&.&.&.&.i =.R A 3.Q.`.].~.7.E Y &.&.&.*.H F.].P.'.'.I.I.P.F.).3.R Y Y 6.R E R R &.&.&.&.c c &.&.&.&.&.&.&.&.&.&.&.&.&.&.&.&.&.&.&.&.&.&.&.&.&.&.&.&.&.&.&.&.&.&.&.&.&.&.&.&.&.&.&.&.&.&.&.&.&.&.&.&.&.&.&.&.&.&.&.&.&.&.&.&.&.&.&.&.&.&.&.&.&.&.&.&.&.&.&.&.&.&.&.&.&.&.&.&.&.&.&.&.&.&.&.&.&.&.&.&.&.&.&.&.&.&.&.&.&.&.&.&.&.&.&.&.&.&.;.;.&.&.&.&.l l l ;.l &.*.G O.w.F.D.G.~.m.*.R &.i *.G H p.).`.P.G.U.d.I.b.y y a a R G 7.iXI A y &.&.&.&.&.&.&.&.&.&.&.&.&.&.&.&.&.&.&.&.&.&.&.&.&.&.&.&.&.&.&.&.&.&.&.&.&.&.&.&.&.&.&.&.&.&.&.&.&.&.&.&.&.&.&.&.&.&.&.&.&.&.&.&.&.&.&.&.&.&.&.&.&.&.&.&.&.&.&.&.&.&.&.&.&.&.&.&.&.&.&.&.&.&.&.&.&.&.&.&.&.&.&.&.&.&.&.&.&.&.&.&.&.&.&.&.&.&.&.&.&.&.&.&.&.&.&.&.l l &.&.;.;.&.&.&.l l &.R R 5.).G.].5.G *.&.&.7.Q.P.I.I.I._.Q.m.R &.*.-.H <.!.E R R a a &.&.&.&.&.&.&.&.&.&.&.&.&.&.&.&.&.&.&.&.&.&.&.&.&.&.&.&.&.&.&.&.&.&.&.&.&.&.&.&.&.&.&.&.&.&.&.&.&.&.&.&.&.&.&.&.&.&.&.&.&.&.&.&.&.&.&.&.",
"&.&.&.&.&.&.&.&.&.&.&.&.&.&.&.&.&.&.&.&.&.&.&.&.&.&.&.&.&.&.&.&.&.&.&.&.&.&.&.&.&.&.&.&.&.&.&.&.&.&.&.;.&.&.&.&.&.&.&.&.&.&.&.&.a =.Y S 7.Q.`.].~.b.Q Y i &.&.&.H F.].P.'.'.I.I.`.F.).3.R Y Y 6.R E R R &.&.l l c c &.&.&.&.&.&.&.&.&.&.&.&.&.&.&.&.&.&.&.&.&.&.&.&.&.&.&.&.&.&.&.&.&.&.&.&.&.&.&.&.&.&.&.&.&.&.&.&.&.&.&.&.&.&.&.&.&.&.&.&.&.&.&.&.&.&.&.&.&.&.&.&.&.&.&.&.&.&.&.&.&.&.&.&.&.&.&.&.&.&.&.&.&.&.&.&.&.&.&.&.&.&.&.&.&.&.&.&.&.&.&.&.&.&.&.&.&.&.;.;.&.;.&.&.l l l ;.g O.*.G *.7.Q.J.~.!.m.*.i &.&.;.G H p.).`.P.G.U.g.I.b.y y a l R G p.sXr.Y y &.&.&.&.&.&.&.&.&.&.&.&.&.&.&.&.&.&.&.&.&.&.&.&.&.&.&.&.&.&.&.&.&.&.&.&.&.&.&.&.&.&.&.&.&.&.&.&.&.&.&.&.&.&.&.&.&.&.&.&.&.&.&.&.&.&.&.&.&.&.&.&.&.&.&.&.&.&.&.&.&.&.&.&.&.&.&.&.&.&.&.&.&.&.&.&.&.&.&.&.&.&.&.&.&.&.&.&.&.&.&.&.&.l &.&.&.&.&.&.&.&.&.&.&.&.&.&.l l &.&.;.;.&.&.l l i W R E 7.).G.].5.G *.R G 7.Q.`.I.I.I.`.Q.m.R &.R *.H <.!.G R R a a &.&.&.&.&.&.&.&.&.&.&.&.&.&.&.&.&.&.&.&.&.&.&.&.&.&.&.&.&.&.&.&.&.&.&.&.&.&.&.&.&.&.&.&.&.&.&.&.&.&.&.&.&.&.&.&.&.&.&.&.&.&.&.&.&.&.&.&.",
"&.&.&.&.&.&.&.&.&.&.&.&.&.&.&.&.&.&.&.&.&.&.&.&.&.&.&.&.&.&.&.&.&.&.&.&.&.&.&.&.&.&.&.&.&.&.&.&.;.;.;.;.&.&.&.&.&.&.&.&.&.&.&.&.a =.G H p.`.J.].~.m.Q Y R &.l R H F.|.P.'.'.I.P.P.F.).3.R R R n.R R R R *.&.&.&.c c &.&.&.&.&.&.&.&.&.&.&.&.&.&.&.&.&.&.&.&.&.&.&.&.&.&.&.&.&.&.&.&.&.&.&.&.&.&.&.&.&.&.&.&.&.&.&.&.&.&.&.&.&.&.&.&.&.&.&.&.&.&.&.&.&.&.&.&.&.&.&.&.&.&.&.&.&.&.&.&.&.&.&.&.&.&.&.&.&.&.&.&.&.&.&.&.&.&.&.&.&.&.&.&.&.&.&.&.&.&.&.&.&.&.&.&.&.&.;.;.;.&.;.;.l l i &.e e *.*.*.6./.].).!.6.&.l &.l ;.G H p.Q.`.P.P.Y.d.'.7.9 a a &.R G F.lXt.T Y &.&.&.&.&.&.&.&.&.&.&.&.&.&.&.&.&.&.&.&.&.&.&.&.&.&.&.&.&.&.&.&.&.&.&.&.&.&.&.&.&.&.&.&.&.&.&.&.&.&.&.&.&.&.&.&.&.&.&.&.&.&.&.&.&.&.&.&.&.&.&.&.&.&.&.&.&.&.&.&.&.&.&.&.&.&.&.&.&.&.&.&.&.&.&.&.&.&.&.&.&.&.&.&.&.&.&.&.&.&.&.&.&.&.&.&.&.&.&.&.&.&.&.&.&.&.&.&.l l &.&.;.;.&.&.l l i i R E 7.).G._.7.G *.R G 7.).`.I.I.I._.Q.m.R &.R *.G 6.(.G R R a a &.&.&.&.&.&.&.&.&.&.&.&.&.&.&.&.&.&.&.&.&.&.&.&.&.&.&.&.&.&.&.&.&.&.&.&.&.&.&.&.&.&.&.&.&.&.&.&.&.&.&.&.&.&.&.&.&.&.&.&.&.&.&.&.&.&.&.&.",
"&.&.&.&.&.&.&.&.&.&.&.&.&.&.&.&.&.&.&.&.&.&.&.&.&.&.&.&.&.&.&.&.&.&.&.&.&.&.&.&.&.&.&.&.&.&.&.&.;.;.;.;.&.&.&.&.&.&.&.&.&.&.&.&.l x e E S.`.P.`.~.H.2.Y e &.l e H F.|.P.'.'.I.`.P.F.).3.R R R n.R R R R *.&.&.&.c c &.&.&.&.&.&.&.&.&.&.&.&.&.&.&.&.&.&.&.&.&.&.&.&.&.&.&.&.&.&.&.&.&.&.&.&.&.&.&.&.&.&.&.&.&.&.&.&.&.&.&.&.&.&.&.&.&.&.&.&.&.&.&.&.&.&.&.&.&.&.&.&.&.&.&.&.&.&.&.&.&.&.&.&.&.&.&.&.&.&.&.&.&.&.&.&.&.&.&.&.&.&.&.&.&.&.&.&.&.&.&.&.&.&.&.&.&.&.;.;.&.&.;.;.l l i ;.l e *.*.*.4.^./.(.m.:.l l l l ;.G H p.~.P.P.P.Y.g.'.7.i a a &.R G F.lXu.T Y R &.&.&.&.&.&.&.&.&.&.&.&.&.&.&.&.&.&.&.&.&.&.&.&.&.&.&.&.&.&.&.&.&.&.&.&.&.&.&.&.&.&.&.&.&.&.&.&.&.&.&.&.&.&.&.&.&.&.&.&.&.&.&.&.&.&.&.&.&.&.&.&.&.&.&.&.&.&.&.&.&.&.&.&.&.&.&.&.&.&.&.&.&.&.&.&.&.&.&.&.&.&.&.&.&.&.&.&.&.&.&.&.&.&.&.&.&.&.&.&.&.&.&.&.&.&.&.l l &.&.&.;.&.&.l l i i R *.F.~.P._.5.G *.R G 7.).`.I.I.I.`.Q.m.e l G *.G 6.(.G R R a a &.&.&.&.&.&.&.&.&.&.&.&.&.&.&.&.&.&.&.&.&.&.&.&.&.&.&.&.&.&.&.&.&.&.&.&.&.&.&.&.&.&.&.&.&.&.&.&.&.&.&.&.&.&.&.&.&.&.&.&.&.&.&.&.&.&.&.&.",
"&.&.&.&.&.&.&.&.&.&.&.&.&.&.&.&.&.&.&.&.&.&.&.&.&.&.&.&.&.&.&.&.&.&.&.&.&.&.&.&.&.&.&.&.&.&.&.&.&.;.&.&.&.&.&.&.&.&.&.&.&.&.&.&.l a G E F.`.G.`.~.F.2.R e &.&.G G F.|.`.'.'.I.`.P.F.).3.G R R m.R E R R &.&.&.&.c c &.&.&.&.&.&.&.&.&.&.&.&.&.&.&.&.&.&.&.&.&.&.&.&.&.&.&.&.&.&.&.&.&.&.&.&.&.&.&.&.&.&.&.&.&.&.&.&.&.&.&.&.&.&.&.&.&.&.&.&.&.&.&.&.&.&.&.&.&.&.&.&.&.&.&.&.&.&.&.&.&.&.&.&.&.&.&.&.&.&.&.&.&.&.&.&.&.&.&.&.&.&.&.&.&.&.&.&.&.&.&.&.&.&.&.&.&.&.&.&.&.&.&.&.l l e ;.&.G *.*.G *.5.5.6.-.&.l l l l ;.G H 7.~.P.P.P.Y.g.}.7.e a a &.R G W.zXf.! Y R &.&.&.&.&.&.&.&.&.&.&.&.&.&.&.&.&.&.&.&.&.&.&.&.&.&.&.&.&.&.&.&.&.&.&.&.&.&.&.&.&.&.&.&.&.&.&.&.&.&.&.&.&.&.&.&.&.&.&.&.&.&.&.&.&.&.&.&.&.&.&.&.&.&.&.&.&.&.&.&.&.&.&.&.&.&.&.&.&.&.&.&.&.&.&.&.&.&.&.&.&.&.&.&.&.&.&.&.&.&.&.&.&.&.&.&.&.&.&.&.&.&.&.&.&.&.&.l l &.&.&.&.#.&.l l i i R -.F.Q.P.[.7.G *.R G 7.).`.I.I.I.`.Q.7.G &.R *.H 7.).G R R a a &.&.&.&.&.&.&.&.&.&.&.&.&.&.&.&.&.&.&.&.&.&.&.&.&.&.&.&.&.&.&.&.&.&.&.&.&.&.&.&.&.&.&.&.&.&.&.&.&.&.&.&.&.&.&.&.&.&.&.&.&.&.&.&.&.&.&.&.",
"&.&.&.&.&.&.&.&.&.&.&.&.&.&.&.&.&.&.&.&.&.&.&.&.&.&.&.&.&.&.&.&.&.&.&.&.&.&.&.&.&.&.&.&.&.&.&.&.&.&.&.&.&.&.&.&.&.&.&.&.&.&.&.&.l a G E G.`.P.`.~.F.3.R e &.&.G G F.|.`.'.'.I.`.P.F.).3.G R R m.R E R R &.&.&.&.c c &.&.&.&.&.&.&.&.&.&.&.&.&.&.&.&.&.&.&.&.&.&.&.&.&.&.&.&.&.&.&.&.&.&.&.&.&.&.&.&.&.&.&.&.&.&.&.&.&.&.&.&.&.&.&.&.&.&.&.&.&.&.&.&.&.&.&.&.&.&.&.&.&.&.&.&.&.&.&.&.&.&.&.&.&.&.&.&.&.&.&.&.&.&.&.&.&.&.&.&.&.&.&.&.&.&.&.&.&.&.&.&.&.&.&.&.&.&.&.&.&.&.&.&.l l e ;.&.G *.*.G E H H +.G g l c c l ;.G H 7.~.P.P.P.U.g.}.7.e a a &.R G W.zXf.^ Y R &.&.&.&.&.&.&.&.&.&.&.&.&.&.&.&.&.&.&.&.&.&.&.&.&.&.&.&.&.&.&.&.&.&.&.&.&.&.&.&.&.&.&.&.&.&.&.&.&.&.&.&.&.&.&.&.&.&.&.&.&.&.&.&.&.&.&.&.&.&.&.&.&.&.&.&.&.&.&.&.&.&.&.&.&.&.&.&.&.&.&.&.&.&.&.&.&.&.&.&.&.&.&.&.&.&.&.&.&.&.&.&.&.&.&.&.&.&.&.&.&.&.&.&.&.&.&.l l &.&.;.&.#.&.;.l l i R 2.S.F.P.[.7.G *.R G 7.).`.I.I.I.`.F.7.R &.R *.H 7.XXG R R a a &.&.&.&.&.&.&.&.&.&.&.&.&.&.&.&.&.&.&.&.&.&.&.&.&.&.&.&.&.&.&.&.&.&.&.&.&.&.&.&.&.&.&.&.&.&.&.&.&.&.&.&.&.&.&.&.&.&.&.&.&.&.&.&.&.&.&.&.",
"&.&.&.&.&.&.&.&.&.&.&.&.&.&.&.&.&.&.&.&.&.&.&.&.&.&.&.&.&.&.&.&.&.&.&.&.&.&.&.&.&.&.&.&.&.&.&.&.&.&.&.&.&.&.&.&.&.&.&.&.&.&.&.&.a &.G E G.`.P.`.F.~.m.R R *.&.*.R 7.~._.I.I.I.I.P.J./.2.E G G (.*.G R *.&.l ;.l c c &.&.&.&.&.&.&.&.&.&.&.&.&.&.&.&.&.&.&.&.&.&.&.&.&.&.&.&.&.&.&.&.&.&.&.&.&.&.&.&.&.&.&.&.&.&.&.&.&.&.&.&.&.&.&.&.&.&.&.&.&.&.&.&.&.&.&.&.&.&.&.&.&.&.&.&.&.&.&.&.&.&.&.&.&.&.&.&.&.&.&.&.&.&.&.&.&.&.&.&.&.&.&.&.&.&.&.&.&.&.&.&.&.&.&.&.&.&.&.&.;.&.&.&.l l e l &.&.&.*.G G A F *.:.e l >.c l ;.R H F.|.`.P.P.P.4X'.<.Y a a i R Z |.jX8XM Y R &.&.&.&.&.&.&.&.&.&.&.&.&.&.&.&.&.&.&.&.&.&.&.&.&.&.&.&.&.&.&.&.&.&.&.&.&.&.&.&.&.&.&.&.&.&.&.&.&.&.&.&.&.&.&.&.&.&.&.&.&.&.&.&.&.&.&.&.&.&.&.&.&.&.&.&.&.&.&.&.&.&.&.&.&.&.&.&.&.&.&.&.&.&.&.&.&.&.&.&.&.&.&.&.&.&.&.&.&.&.&.&.&.&.&.&.&.&.&.&.&.&.&.&.&.&.&.l l &.&.;.;.#.&.l l i =.Y E /.Q.P.J.F.G G ;.*.7.Q.P.I.I.I.`.Q.5.e l *.D D (.XXG R R a a &.&.&.&.&.&.&.&.&.&.&.&.&.&.&.&.&.&.&.&.&.&.&.&.&.&.&.&.&.&.&.&.&.&.&.&.&.&.&.&.&.&.&.&.&.&.&.&.&.&.&.&.&.&.&.&.&.&.&.&.&.&.&.&.&.&.&.&.",
"&.&.&.&.&.&.&.&.&.&.&.&.&.&.&.&.&.&.&.&.&.&.&.&.&.&.&.&.&.&.&.&.&.&.&.&.&.&.&.&.&.&.&.&.&.&.&.&.&.&.&.&.&.&.&.&.&.&.&.&.&.&.&.&.a &.G E G.`.P.`.J.~.m.R R *.&.*.G 7.~.|.I.I.I.I.P.J.~.2.E G G !.*.G R *.&.l ;.l c c &.&.&.&.&.&.&.&.&.&.&.&.&.&.&.&.&.&.&.&.&.&.&.&.&.&.&.&.&.&.&.&.&.&.&.&.&.&.&.&.&.&.&.&.&.&.&.&.&.&.&.&.&.&.&.&.&.&.&.&.&.&.&.&.&.&.&.&.&.&.&.&.&.&.&.&.&.&.&.&.&.&.&.&.&.&.&.&.&.&.&.&.&.&.&.&.&.&.&.&.&.&.&.&.&.&.&.&.&.&.&.&.&.&.&.&.&.&.;.&.;.;.&.&.l l i l &.&.R *.O.G 7.7.B.6.&.&.>.l l ;.R H F.|.`.P.J.P.'.'.<.Y l a i R Z |.jX8XM Y R &.&.&.&.&.&.&.&.&.&.&.&.&.&.&.&.&.&.&.&.&.&.&.&.&.&.&.&.&.&.&.&.&.&.&.&.&.&.&.&.&.&.&.&.&.&.&.&.&.&.&.&.&.&.&.&.&.&.&.&.&.&.&.&.&.&.&.&.&.&.&.&.&.&.&.&.&.&.&.&.&.&.&.&.&.&.&.&.&.&.&.&.&.&.&.&.&.&.&.&.&.&.&.&.&.&.&.&.&.&.&.&.&.&.&.&.&.&.&.&.&.&.&.&.&.&.&.l l &.&.;.;.#.&.l l i =.Y E /.Q.P.J.F.G G ;.R 7.).f.I.I.I._.Q.5.e l *.D A (.XXG R R a a &.&.&.&.&.&.&.&.&.&.&.&.&.&.&.&.&.&.&.&.&.&.&.&.&.&.&.&.&.&.&.&.&.&.&.&.&.&.&.&.&.&.&.&.&.&.&.&.&.&.&.&.&.&.&.&.&.&.&.&.&.&.&.&.&.&.&.&.",
"&.&.&.&.&.&.&.&.&.&.&.&.&.&.&.&.&.&.&.&.&.&.&.&.&.&.&.&.&.&.&.&.&.&.&.&.&.&.&.&.&.&.&.&.&.&.&.&.;.;.;.;.&.&.&.&.&.&.&.&.&.&.&.&.a &.G ^ G.`.P.`.J.~.m.R R *.&.*.R 7.~.`.I.I.I.I.P.J./.2.H H H (.-.G R *.&.&.;.l c c &.&.&.&.&.&.&.&.&.&.&.&.&.&.&.&.&.&.&.&.&.&.&.&.&.&.&.&.&.&.&.&.&.&.&.&.&.&.&.&.&.&.&.&.&.&.&.&.&.&.&.&.&.&.&.&.&.&.&.&.&.&.&.&.&.&.&.&.&.&.&.&.&.&.&.&.&.&.&.&.&.&.&.&.&.&.&.&.&.&.&.&.&.&.&.&.&.&.&.&.&.&.&.&.&.&.&.&.&.&.&.&.&.&.&.&.&.&.;.;.;.;.&.&.l l l l &.&.R *.*.*././.).V.*.&.;.e l ;.G H F.|.`.P.J.P.'.'.6.Y l a Y R Z |.jXpXB Y R &.&.&.&.&.&.&.&.&.&.&.&.&.&.&.&.&.&.&.&.&.&.&.&.&.&.&.&.&.&.&.&.&.&.&.&.&.&.&.&.&.&.&.&.&.&.&.&.&.&.&.&.&.&.&.&.&.&.&.&.&.&.&.&.&.&.&.&.&.&.&.&.&.&.&.&.&.&.&.&.&.&.&.&.&.&.&.&.&.&.&.&.&.&.&.&.&.&.&.&.&.&.&.&.&.&.&.&.&.&.&.&.&.&.&.&.&.&.&.&.&.&.&.&.&.&.&.l l &.&.;.;.;.&.l l i =.Y E /.Q.P.J.F.G G ;.*.7.).P.I.I.I.`.Q.6.R l *.D A ).XXG R R l a &.&.&.&.&.&.&.&.&.&.&.&.&.&.&.&.&.&.&.&.&.&.&.&.&.&.&.&.&.&.&.&.&.&.&.&.&.&.&.&.&.&.&.&.&.&.&.&.&.&.&.&.&.&.&.&.&.&.&.&.&.&.&.&.&.&.&.&.",
"&.&.&.&.&.&.&.&.&.&.&.&.&.&.&.&.&.&.&.&.&.&.&.&.&.&.&.&.&.&.&.&.&.&.&.&.&.&.&.&.&.&.&.&.&.&.&.&.;.;.;.;.&.&.&.&.&.&.&.&.R R &.&.a &.G ^ W._.P.`.J.~.m.R R *.&.*.G 2.Q.`.I.I.I.I.P.J.~.1.H H H (.2.G G *.&.&.;.l c c &.&.&.&.&.&.&.&.&.&.&.&.&.&.&.&.&.&.&.&.&.&.&.&.&.&.&.&.&.&.&.&.&.&.&.&.&.&.&.&.&.&.&.&.&.&.&.&.&.&.&.&.&.&.&.&.&.&.&.&.&.&.&.&.&.&.&.&.&.&.&.&.&.&.&.&.&.&.&.&.&.&.&.&.&.&.&.&.&.&.&.&.&.&.&.&.&.&.&.&.&.&.&.&.&.&.&.&.&.&.&.&.&.&.&.&.&.&.;.;.;.;.&.&.l l &.l &.*.&.*.:.6./.).).W.*.&.;.i l ;.G H F.|.`.`.J.P.}.'.6.R l a R E A |.jXpXK T R &.&.&.&.&.&.&.&.&.&.&.&.&.&.&.&.&.&.&.&.&.&.&.&.&.&.&.&.&.&.&.&.&.&.&.&.&.&.&.&.&.&.&.&.&.&.&.&.&.&.&.&.&.&.&.&.&.&.&.&.&.&.&.&.&.&.&.&.&.&.&.&.&.&.&.&.&.&.&.&.&.&.&.&.&.&.&.&.&.&.&.&.&.&.&.&.&.&.&.&.&.&.&.&.&.&.&.&.&.&.&.&.&.&.&.&.&.&.&.&.&.&.&.&.&.&.&.l l &.&.;.;.&.&.&.;.i =.Y E /.~.P.J.F.G G ;.*.7.|.P.I.I.I.`.Q.6.R l *.D H ).XXG R R l l &.&.&.&.&.&.&.&.&.&.&.&.&.&.&.&.&.&.&.&.&.&.&.&.&.&.&.&.&.&.&.&.&.&.&.&.&.&.&.&.&.&.&.&.&.&.&.&.&.&.&.&.&.&.&.&.&.&.&.&.&.&.&.&.&.&.&.&.",
"&.&.&.&.&.&.&.&.&.&.&.&.&.&.&.&.&.&.&.&.&.&.&.&.&.&.&.&.&.&.&.&.&.&.&.&.&.&.&.&.&.&.&.&.&.&.&.&.&.&.;.;.&.&.&.&.&.&.&.&.&.&.&.&.a &.R <.Q._.P.`.J.~.m.G R *.O.&.G 2.W.`.I.I.I.I.P.J.Q.^ H H H (.6.G G *.&.&.;.l c c &.&.&.&.&.&.&.&.&.&.&.&.&.&.&.&.&.&.&.&.&.&.&.&.&.&.&.&.&.&.&.&.&.&.&.&.&.&.&.&.&.&.&.&.&.&.&.&.&.&.&.&.&.&.&.&.&.&.&.&.&.&.&.&.&.&.&.&.&.&.&.&.&.&.&.&.&.&.&.&.&.&.&.&.&.&.&.&.&.&.&.&.&.&.&.&.&.&.&.&.&.&.&.&.&.&.&.&.&.&.&.&.&.&.&.&.&.&.&.&.;.;.&.&.l l &.l &.*.*.*.-.m.G.J.).H.E R ;.R &.;.G H F.).`.`.~.P.}.'.6.R l a R Q F |.zXjX! T R &.&.&.&.&.&.&.&.&.&.&.&.&.&.&.&.&.&.&.&.&.&.&.&.&.&.&.&.&.&.&.&.&.&.&.&.&.&.&.&.&.&.&.&.&.&.&.&.&.&.&.&.&.&.&.&.&.&.&.&.&.&.&.&.&.&.&.&.&.&.&.&.&.&.&.&.&.&.&.&.&.&.&.&.&.&.&.&.&.&.&.&.&.&.&.&.&.&.&.&.&.&.&.&.&.&.&.&.&.&.&.&.&.&.&.&.&.&.&.&.&.&.&.&.&.&.&.l l &.&.&.&.&.&.&.;.i =.G E /.Q.P.J.F.G G ;.&.7.|.P.I.I.I._.Q.2.R &.*.G H XX$XG R R a a l &.&.&.&.&.&.&.&.&.&.&.&.&.&.&.&.&.&.&.&.&.&.&.&.&.&.&.&.&.&.&.&.&.&.&.&.&.&.&.&.&.&.&.&.&.&.&.&.&.&.&.&.&.&.&.&.&.&.&.&.&.&.&.&.&.&.&.",
"&.&.&.&.&.&.&.&.&.&.&.&.&.&.&.&.&.&.&.&.&.&.&.&.&.&.&.&.&.&.&.&.&.&.&.&.&.&.&.&.&.&.&.&.&.&.&.&.&.&.;.;.&.&.&.&.&.&.&.&.&.&.&.&.i &.R <.Q.|.I.`.J.].m.G R *.O.&.G 2.F.`.I.I.I.I.P.J.Q.^ H G H (.6.R G *.&.&.;.h c c &.&.&.&.&.&.&.&.&.&.&.&.&.&.&.&.&.&.&.&.&.&.&.&.&.&.&.&.&.&.&.&.&.&.&.&.&.&.&.&.&.&.&.&.&.&.&.&.&.&.&.&.&.&.&.&.&.&.&.&.&.&.&.&.&.&.&.&.&.&.&.&.&.&.&.&.&.&.&.&.&.&.&.&.&.&.&.&.&.&.&.&.&.&.&.&.&.&.&.&.&.&.&.&.&.&.&.&.&.&.&.&.&.&.&.&.&.&.&.&.;.;.&.&.l l ;.l &.;.&.R ,.W.F.P.].F.E G *.&.&.*.G E F.).`.`.~.P.}.'.6.R l a R *.F |.zXjX~ T R &.&.&.&.&.&.&.&.&.&.&.&.&.&.&.&.&.&.&.&.&.&.&.&.&.&.&.&.&.&.&.&.&.&.&.&.&.&.&.&.&.&.&.&.&.&.&.&.&.&.&.&.&.&.&.&.&.&.&.&.&.&.&.&.&.&.&.&.&.&.&.&.&.&.&.&.&.&.&.&.&.&.&.&.&.&.&.&.&.&.&.&.&.&.&.&.&.&.&.&.&.&.&.&.&.&.&.&.&.&.&.&.&.&.&.&.&.&.&.&.&.&.&.&.&.&.&.l l &.&.&.&.&.&.&.;.i =.G E /.~.P.J.F.G G ;.&.7.|.P.I.I.I.`.Q.2.R &.*.G *.@X$XG R R a a l l &.&.&.&.&.&.&.&.&.&.&.&.&.&.&.&.&.&.&.&.&.&.&.&.&.&.&.&.&.&.&.&.&.&.&.&.&.&.&.&.&.&.&.&.&.&.&.&.&.&.&.&.&.&.&.&.&.&.&.&.&.&.&.&.&.&.",
"&.&.&.&.&.&.&.&.&.&.&.&.&.&.&.&.&.&.&.&.&.&.&.&.&.&.&.&.&.&.&.&.&.&.&.&.&.&.&.&.&.&.&.&.&.&.&.&.&.&.&.&.&.&.&.&.&.&.&.&.&.&.&.&.i W E 1.Q.|.I.`.J.].m.G R *.O.&.C 2.W.`.P.I.I.I.`.J.Q.^ H H H ).m.R G *.&.&.;.h c c &.&.&.&.&.&.&.&.&.&.&.&.&.&.&.&.&.&.&.&.&.&.&.&.&.&.&.&.&.&.&.&.&.&.&.&.&.&.&.&.&.&.&.&.&.&.&.&.&.&.&.&.&.&.&.&.&.&.&.&.&.&.&.&.&.&.&.&.&.&.&.&.&.&.&.&.&.&.&.&.&.&.&.&.&.&.&.&.&.&.&.&.&.&.&.&.&.&.&.&.&.&.&.&.&.&.&.&.&.&.&.&.&.&.&.&.&.&.&.&.;.;.&.&.l l ;.l &.;.&.G 6.(.J.P.[.F.E A *.R &.*.G E p.).`.`.~.P.}.'.6.R W W R *.F _.zXjX~ T R &.&.&.&.&.&.&.&.&.&.&.&.&.&.&.&.&.&.&.&.&.&.&.&.&.&.&.&.&.&.&.&.&.&.&.&.&.&.&.&.&.&.&.&.&.&.&.&.&.&.&.&.&.&.&.&.&.&.&.&.&.&.&.&.&.&.&.&.&.&.&.&.&.&.&.&.&.&.&.&.&.&.&.&.&.&.&.&.&.&.&.&.&.&.&.&.&.&.&.&.&.&.&.&.&.&.&.&.&.&.&.&.&.&.&.&.&.&.&.&.&.&.&.&.&.&.&.l l &.&.&.&.&.&.l ;.i =.G E /.Q.P.J.F.G G ;.*.7.|.P.I.I.I.`.Q.1.R &.*.G *.$X$XG R R a a l &.&.&.&.&.&.&.&.&.&.&.&.&.&.&.&.&.&.&.&.&.&.&.&.&.&.&.&.&.&.&.&.&.&.&.&.&.&.&.&.&.&.&.&.&.&.&.&.&.&.&.&.&.&.&.&.&.&.&.&.&.&.&.&.&.&.&.",
"&.&.&.&.&.&.&.&.&.&.&.&.&.&.&.&.&.&.&.&.&.&.&.&.&.&.&.&.&.&.&.&.&.&.&.&.&.&.&.&.&.&.&.&.&.&.&.&.&.&.&.&.&.&.&.&.&.&.&.&.&.&.&.&.i *.E 1.`.[.I.`.J.].7.G R &.&.&.e 2.Q.`.P.I.P.P.`.Q.Q.<.G G E ).m.R G *.&.;.;.h ;.;.;.&.&.&.&.&.&.&.&.&.&.&.&.&.&.&.&.&.&.&.&.&.&.&.&.&.&.&.&.&.&.&.&.&.&.&.&.&.&.&.&.&.&.&.&.&.&.&.&.&.&.&.&.&.&.&.&.&.&.&.&.&.&.&.&.&.&.&.&.&.;.;.&.&.&.&.&.&.&.&.&.&.&.&.&.&.&.&.&.&.&.&.&.&.&.&.&.&.&.&.&.&.&.&.&.&.&.&.&.&.&.&.&.&.&.&.&.&.&.&.;.;.;.&.&.&.>.l l ;.&.G 6.).G.P.[.S.H G *.&.&.;.G H F.).`.P.`.P.}.'.<.R a a i *.Z _.zXjX~ T R &.&.&.&.&.&.&.&.&.&.&.&.&.&.&.&.&.&.&.&.&.&.&.&.&.&.&.&.&.&.&.&.&.&.&.&.&.&.&.&.&.&.&.&.&.&.&.&.&.&.&.&.&.&.&.&.&.&.&.&.&.&.&.&.&.&.&.&.&.&.&.&.&.&.&.&.&.&.&.&.&.&.&.&.&.&.&.&.&.&.&.&.&.&.&.&.&.&.&.&.&.&.&.&.&.&.&.&.&.&.&.&.&.&.&.&.&.&.&.&.&.&.&.&.&.&.&.&.&.&.&.;.;.&.&.l ;.i *.G E /.Q.U.J.F.R G ;.R 7.|.P.I.I.I.`.Q.6.R R *.G ^ @X@XA R R a l l l &.&.&.&.&.&.&.&.&.&.&.&.&.&.&.&.&.&.&.&.&.&.&.&.&.&.&.&.&.&.&.&.&.&.&.&.&.&.&.&.&.&.&.&.&.&.&.&.&.&.&.&.&.&.&.&.&.&.&.&.&.&.&.&.&.&.",
"&.&.&.&.&.&.&.&.&.&.&.&.&.&.&.*.&.&.&.&.&.&.&.&.&.&.&.&.&.&.&.&.&.l &.l &.&.&.&.&.&.l l &.&.&.&.&.&.&.&.&.&.&.&.&.&.&.&.&.&.&.&.&.W G 1.`._.P.`.Q.].m.E *.*.&.&.R E Q.I.I.U.D.U.`.`.j.H *.W H ).^.C R *.e l l c ;.;.;.;.;.c c l l &.&.&.&.&.&.&.&.&.&.*.*.*.*.*.&.&.&.&.&.&.&.&.&.&.&.&.&.&.&.&.l l &.l &.&.&.&.&.&.l l &.&.&.&.&.&.&.&.&.&.&.&.&.&.&.&.&.&.&.&.;.;.;.&.;.&.l &.l &.&.l &.l &.l l l l l &.&.&.&.l &.&.&.&.&.&.l &.&.&.&.l l l l &.&.&.&.&.&.&.&.&.&.&.&.&.&.;.&.>.&.&.;.*.&.,..XF.].).F.*.&.&.;.&.&.*.F /.F.P.P.].P.}.`.1.G a x a R Z  XpXpXP.m R &.&.&.&.&.&.&.l l l l l l l l l l l l l l l l &.&.&.&.;.;.;.;.&.&.&.&.&.&.&.&.&.&.&.&.&.&.&.&.&.&.&.&.&.&.&.&.O.O.&.&.&.&.;.:.-.:.*.R i i &.l &.l l &.&.&.&.&.&.&.&.&.&.&.&.&.&.&.&.&.&.&.&.&.&.&.&.&.&.&.&.&.&.&.&.&.&.&.&.&.&.&.&.&.&.&.&.&.&.&.&.&.&.&.&.&.&.&.&.&.&.&.&.&.&.O.*.*.G <.W.).`.`.W.H G :.G 6.).P.I.I.P.|.Q.<.i =.R C / #X@XS R R l x l l &.&.&.&.&.&.&.&.&.&.&.&.&.&.l &.&.&.&.&.&.&.&.&.&.&.&.&.&.&.&.&.&.&.&.&.&.&.&.&.&.&.&.&.&.&.&.&.&.&.&.&.;.;.;.;.;.;.;.;.;.;.;.;.&.&.",
"l l &.&.&.&.&.&.&.&.&.&.&.&.&.&.&.&.&.&.&.&.&.&.&.&.&.&.&.&.&.l l l l l l l &.&.&.&.l l &.&.&.&.&.&.&.&.&.&.&.&.&.&.&.&.&.&.&.&.&.W G 1.`._.f.`.`.|.m.R *.*.&.&.l E Q.I.P.U.D.U.`.`.W.*.&.W H )./.C R *.i l k c ;.;.;.;.;.c c c l &.&.&.&.&.&.&.*.*.&.&.R R R R ;.;.&.&.&.&.&.&.&.&.&.&.&.&.&.&.a a a a a a &.&.&.&.&.l &.&.&.&.&.&.&.&.&.&.&.&.&.&.&.&.&.&.&.&.;.;.;.;.;.;.&.l &.&.l l l l l l l l l l l l &.l &.&.&.&.&.&.&.&.&.a W R l l l l &.&.&.&.&.&.&.&.&.l &.&.&.;.;.;.;.O.&.;.&.R ,.(.~.|.Q.7.*.&.;.;.;.&.*.G ~.F.P.P.].P._.Q.1.G a z a R K 8XpXsXP.M R &.&.&.&.&.&.&.l &.&.&.&.&.l l l l &.&.&.&.l l &.&.&.&.;.;.;.;.&.&.&.&.&.&.&.&.&.&.&.&.&.&.&.&.&.&.&.&.&.&.&.&.O.O.&.&.;.;.:.-.-.-.*.R R R W l l l &.&.&.*.*.&.&.&.&.&.&.&.&.&.&.&.&.&.&.&.&.&.&.&.&.&.&.&.&.&.&.&.&.&.&.&.&.&.&.&.&.&.&.&.&.&.&.&.&.&.&.&.&.&.&.&.&.&.&.&.&.&.;.O.*.*.G <.W.~.`.`.W.H G *.G 6.~.P.I.I.P.|.Q.<.i =.R m / #X+XS R R l z l &.*.*.&.&.&.&.&.&.&.&.&.&.&.&.&.&.&.&.&.&.&.&.&.&.&.&.&.&.&.&.&.&.&.&.&.&.&.&.&.&.&.&.&.&.&.&.&.&.&.&.&.&.;.;.;.;.;.;.&.&.;.;.;.;.&.&.",
"l l l l &.l &.&.&.&.&.&.&.&.&.&.&.&.&.&.&.&.&.&.&.&.&.&.&.&.&.&.l l l l &.&.&.&.&.&.l &.&.&.&.&.&.&.&.&.&.&.&.&.&.&.&.&.&.&.&.&.&.&.G <.`._.f.`.Q.|.m.E *.*.&.&.&.E `.I.I.U.S.U.`.`.W.*.&.W H )./.Z R *.i l l l ;.;.;.;.;.c l l l &.&.&.&.&.&.&.&.&.*.*.R R R R *.*.*.*.*.R R R R R R R R R R R W a a a R R &.&.&.&.&.&.&.&.&.&.&.&.&.&.&.&.&.&.&.&.&.&.&.&.&.&.;.;.;.;.;.;.l l ;.;.&.&.l l l l l l l l &.&.l l &.&.&.*.&.&.&.&.l i i i &.R &.&.&.&.&.&.&.&.&.&.&.&.&.&.;.;.;.;.&.g O.;.&.R -.V.~.|.F.2.O.&.&.l ;.&.*.G ~.G.P.P.].P._.`.1.G a z a R K 8XpXlXP.M R &.&.&.&.&.&.&.&.&.&.&.&.&.&.&.&.&.&.&.&.&.&.&.&.&.&.&.;.;.&.&.&.&.&.&.&.&.&.&.&.&.&.&.&.&.&.&.;.;.;.;.&.&.&.&.&.&.&.&.:.:.,.-.6.-.-.*.*.&.&.a l l &.&.&.&.*.*.&.&.&.&.&.&.&.&.&.&.&.&.;.;.&.&.&.&.&.&.&.&.&.&.&.&.&.&.&.&.&.&.&.&.&.&.&.&.&.&.&.&.&.&.&.&.&.&.&.&.&.&.&.&.;.;.;.O.&.*.G <.W.~.`.`.W.H G *.G 6.].P.I.I.P.|.Q.<.i W R C ) iX+XS E R l l l &.*.*.&.&.&.&.&.&.&.&.&.&.&.&.&.&.&.&.&.&.&.&.&.&.&.&.&.&.&.*.*.*.&.&.&.&.&.&.&.&.&.&.&.&.&.&.&.&.&.&.&.&.&.&.&.&.;.&.&.&.&.&.;.&.&.&.",
"l l l l &.l &.&.&.&.&.&.&.&.&.&.&.&.&.&.&.&.&.&.&.&.&.&.&.&.&.&.&.l &.&.&.&.&.&.&.&.&.&.&.&.&.&.&.&.&.&.&.&.&.&.&.&.&.&.&.&.&.&.&.&.G 6.`._.I.`.Q.|.m.E *.*.&.&.&.Q Q.I.P.U.S.U.`.`.W.H W W S ).).Z R *.i x l l ;.;.;.;.;.l l c l &.&.&.&.&.&.&.&.&.*.&.R R R R R R R R R R R R R R R R R R R R W a W W R R &.&.&.&.&.&.&.&.&.&.&.&.&.&.&.&.&.&.&.&.&.&.&.&.&.&.;.;.;.;.;.;.l l ;.&.&.&.&.l &.l ;.l &.&.&.&.l l l &.&.&.&.&.&.G i i i i R R &.&.&.&.&.&.&.&.&.&.&.&.&.&.;.;.;.;.O.O.&.;.&.R *.6.~.F.3.*.*.&.&.g ;.&.*.G ~.G.P.P.U.P._.`.1.G a z a W K 8XpXlXU.S R &.&.&.&.&.&.&.l l l l &.l &.l R i &.&.&.&.l l &.&.&.&.;.;.&.&.&.&.&.&.&.&.&.&.&.&.&.&.&.&.&.&.;.;.;.;.&.&.&.&.O.&.&.;.:.,.,.-.6.2.2.-.*.*.R i &.l &.&.&.&.&.&.&.&.&.&.&.&.&.&.&.&.&.&.;.;.&.&.&.&.&.&.&.&.&.&.&.&.&.&.&.&.&.&.&.&.&.&.&.&.&.&.&.&.&.&.&.&.&.&.&.&.&.&.&.&.;.;.;.O.*.*.G <.W.~.`.`.W.H G *.G 6.~.P.I.I.P.|.Q.E i W E S ) aX#XS E R l l l &.*.*.&.&.&.&.&.&.&.&.&.&.&.&.&.&.&.&.&.&.&.&.&.&.&.&.&.*.&.&.&.*.&.&.&.&.&.&.&.&.&.&.&.&.&.&.&.&.&.&.&.&.&.&.&.&.&.&.&.&.&.&.;.;.&.&.",
"l l l l l l &.&.R R R &.&.&.&.&.&.&.&.&.&.&.&.&.R R &.&.&.&.&.&.&.&.&.&.&.&.&.&.&.&.&.&.&.&.l l &.&.&.&.&.&.&.&.&.&.&.&.&.&.&.&.&.&.G 5.`._.I.`.P.].m.E R &.&.*.&.Q Q.I.I.U.S.U.`.`.j.H W W H ~.@XF R *.i x l l ;.;.;.;.&.&.l l l l &.&.&.&.&.&.&.l R R R R R R G G G R *.*.*.:.*.*.*.*.R R R R R W R R R R &.&.&.&.&.&.&.&.l l &.&.&.&.&.&.&.&.&.&.&.&.&.&.&.&.;.;.;.;.&.&.&.&.&.&.&.&.&.&.&.&.&.&.&.&.&.&.&.&.R R &.&.&.&.G G R R R R R R R &.&.&.&.&.&.&.&.&.&.l &.&.&.&.;.;.&.&.&.;.&.G R *.^ / ^ H G ;.l l l l *.G ~.G.U.P.U.G._.`.1.G a x a W U 8XpXjXU.S R &.&.&.&.&.&.&.G G G R R i R i R i R R G G g O.&.&.&.&.&.&.&.&.&.&.&.&.&.&.&.&.&.&.&.&.&.&.&.&.;.;.&.&.&.&.&.&.O.&.*.:.-.,.,.2.<.<.<.2.-.*.R R &.&.&.i &.&.&.&.&.&.R &.&.&.&.&.&.&.&.&.;.;.;.;.&.&.&.&.&.&.&.&.&.&.&.&.&.&.&.&.&.&.&.&.&.&.&.&.&.&.&.&.&.&.&.&.&.&.&.&.&.l ;.;.;.G *.*.G -.!.~.`.`.W.H G *.G 6.~.P.I.I.P.|.Q.E R W E S  .aX#XS E R l l l l *.*.&.&.&.&.&.&.&.&.&.&.&.&.l l l l &.&.&.&.&.&.R &.R R &.&.&.&.&.&.&.&.&.&.&.&.&.&.&.&.&.&.&.&.&.&.&.&.&.&.&.&.&.&.&.&.&.&.&.&.&.&.",
"l l l l l l &.&.&.&.&.R &.&.&.&.&.&.&.&.&.&.l l &.R &.&.&.&.l &.&.&.&.&.&.&.&.&.&.&.&.l &.&.l &.&.&.&.&.&.&.&.&.&.&.&.&.&.&.&.&.&.W G 6.`._.I.`.P.].m.E R *.&.&.l Q Q.I.I.U.D.U.`.`.j.H W W S ).@XH R *.i =.l l ;.;.;.@.;.&.l l l l &.&.&.&.&.&.&.&.R R *.*.*.*.R *.*.*.-.-.6.6.-.*.*.*.*.*.*.*.R R R R R R &.&.&.&.&.l &.&.l &.&.&.&.&.&.&.&.&.&.&.&.&.&.&.&.&.c c ;.;.&.&.&.&.&.&.&.&.&.&.&.&.&.&.R &.&.&.&.&.R *.*.*.*.*.*.*.*.*.*.R R R R R &.&.&.&.&.&.&.&.&.l &.&.&.&.;.&.;.&.&.*.G G R E M S S C G ;.;.l l l *.G !.G.U.P.U.G._.`.1.G a z a W U 9XjXjX[.S R &.&.&.&.&.&.&.&.&.&.&.&.&.&.&.R R R R O.&.&.&.&.&.&.&.&.&.&.&.&.&.&.&.&.&.&.&.&.&.&.&.&.&.&.&.;.;.&.&.&.&.&.&.O.&.:.:.-.,.,.2.<.<.<.<.-.*.*.*.&.&.&.&.&.&.&.&.&.&.&.R &.&.&.&.&.&.&.&.;.;.;.;.&.&.&.&.&.&.&.&.&.&.&.&.&.&.&.&.&.&.&.&.&.&.&.&.&.&.&.&.&.&.&.&.&.&.&.&.l l c l ;.i &.R G -.M.~.`.`.W.H G *.G 6.~.P.I.I.P.|.W.E i &.E S u.sX#XS E R l l l &.*.R &.&.&.&.&.&.&.&.&.&.&.&.l l l &.&.&.&.&.&.&.R R R &.&.&.&.&.&.&.&.&.&.&.&.&.&.&.&.&.&.&.&.&.&.&.&.&.&.&.&.&.&.&.&.&.&.&.&.&.&.&.",
"l l l l &.&.&.&.&.&.&.&.&.&.&.&.&.&.&.&.&.R &.R &.&.&.&.&.&.&.&.&.&.&.&.&.&.&.&.&.&.&.l &.&.&.&.&.&.&.&.&.&.&.&.&.&.&.&.&.&.&.&.&.W G 5.`._.I.`.P.].m.R R *.&.*.l E Q.I.I.U.D.U.`.`.j.H R W S ).#XH E *.i =.l l &.&.#.#.;.&.l l l l &.&.&.&.&.&.i i &.*.*.*.*.*.-.-.<.-.2.6.6.6.<.-.<.-.*.*.*.*.R R R R R R &.&.&.&.l l &.&.&.&.&.&.&.&.&.&.&.&.&.&.&.&.&.&.&.&.c c ;.;.&.&.&.&.&.&.&.&.&.&.&.&.G R R R &.*.*.*.*.*.:.:.:.:.*.:.*.*.*.W R R R R *.*.&.&.&.&.&.&.&.&.&.&.&.&.&.&.&.&.&.G G G E E ^ ^ ^ R G &.;.l l l *.G !.F.J.J.U.G._.`.1.G a z a R U 9XjXjX[.S E R &.&.&.&.*.*.*.*.*.*.*.*.*.*.*.*.R R *.*.*.*.*.*.&.&.&.&.&.&.&.&.&.&.&.&.&.&.&.&.&.&.&.&.&.&.&.&.&.&.&.&.*.&.&.;.-.,.6.6.2.<.<.<.<.<.<.-.-.:.&.&.&.&.l l l &.&.&.&.&.&.&.&.&.&.&.&.&.&.&.&.&.&.&.&.&.&.&.&.&.&.&.&.&.&.&.&.&.&.&.&.&.&.&.&.&.&.&.&.&.&.&.&.&.&.&.&.&.l l l l ;.i &.R G -.M.!.`.`.F.H G *.G 6.~.P.I.I.P.`.W.H R W E S u.sXiXS E R l l l &.*.R &.l l l l l &.&.&.&.&.&.&.&.&.&.&.&.&.&.&.&.&.R &.&.&.&.&.&.&.&.&.l l l l l l l l l l l l l l &.&.&.&.&.&.&.&.&.&.&.&.&.&.&.&.&.",
"&.l &.&.&.&.&.&.&.&.&.&.&.&.*.&.&.&.&.&.&.&.R &.&.&.&.&.&.&.&.&.&.&.&.&.&.&.&.&.&.&.l l &.&.&.&.&.&.&.&.&.&.&.&.&.&.&.&.&.&.&.&.W W G 1.`._.I.`.P.].m.E E ;.*.&.l E Q.I.I.U.D.U.`.`.j.H i a Z ).#XP E *.i =.l l &.&.&.#.;.&.&.l l l &.&.&.&.&.&.i R &.*.*.*.-.-.2.2.2.2.<.<.<.<.2.<.<.<.<.*.*.*.R R R R R R &.&.&.&.l l &.&.&.&.&.&.&.&.&.&.&.&.&.&.&.&.&.&.&.&.c c ;.;.&.&.&.&.&.&.&.&.&.&.&.&.G G G R *.*.*.:.:.-.-.-.:.:.-.-.*.:.*.*.R R R R *.*.*.&.&.&.&.&.&.&.&.&.&.&.&.&.g &.&.G G E *.^ ~.J.m.-.R i l l l l *.A H.F.J.J.U.G.`.Q.1.G a x a E U 9XjXzX[.K E R &.&.&.&.*.*.&.*.*.*.&.*.*.:.*.*.*.*.*.*.*.&.*.*.&.&.&.&.&.&.&.&.&.&.&.&.&.&.&.&.&.&.&.&.&.&.&.&.&.&.&.&.*.*.:.:.,.6.6.6.6.<.<.<.<.<.<.2.6.6.*.&.&.&.l l l l &.&.&.R &.&.&.&.&.&.&.&.&.&.&.&.&.&.&.&.&.&.&.&.&.&.&.&.&.&.&.&.&.&.&.&.&.&.&.&.&.&.&.&.&.&.&.&.&.&.&.&.l l l l ;.i R R G Q M.!.`.`.F.H G *.G 6.~.P.I.I.P.`.F.H W W E S u.sXiXS H R l l l &.*.R &.l l l l l &.&.&.&.&.&.&.&.&.&.&.&.&.&.&.&.&.&.&.&.&.&.&.&.&.&.&.l l l l l l l l l l l l l l &.&.&.&.&.&.&.&.&.&.&.&.&.&.&.&.&.",
"W W R i i R R *.R *.*.*.*.*.:.:.*.*.*.*.*.*.*.*.R R R R R R R R *.*.&.&.&.R R R &.&.&.&.&.&.&.&.&.&.&.&.&.&.&.&.i i &.&.&.&.&.i W W E 1.|._.f.P.P.].b.A G *.O.&.&.R Q.I.K.U.G.G.`.`.j.H R W F ).#X1.Z *.*.x x l l &.&.&.&.O.g l &.&.&.&.&.&.R R -.-.-.-.-.-.-.-.<.<.<.<.<.<.<.<.<.<.<.<.<.<.<.<.*.*.R R R R *.*.&.&.&.&.&.&.&.&.&.&.&.&.&.&.&.&.&.&.&.&.&.&.&.&.&.&.&.l &.&.&.&.&.&.*.*.*.*.&.G R *.*.:.:.-.-.-.2.2.2.2.<.2.4.2.2.-.6.6.2.*.*.R R R R &.&.&.*.*.&.&.&.&.;.;.;.&.&.&.&.*.G H 5./.~.G.F.m.R i ;.l l &.R E F.J.D.D.U.G._.G./ R x u l G %.9XjXjXpX! A R *.*.R R G G *.-.-.6.6.6.6.-.-.-.-.-.-.-.:.,.*.*.&.&.&.&.&.&.&.&.&.&.&.&.&.&.&.&.&.&.&.&.&.&.;.;.&.&.;.;.&.e ,.:.2.2.<.<.<.<.<.<.<.<.<.<.<.2.,.:.*.R l l l ;.&.&.&.&.&.&.&.&.&.&.&.&.&.&.&.&.&.&.&.&.&.&.&.&.&.&.&.&.&.&.&.&.&.&.&.&.&.&.&.&.&.&.&.&.&.&.&.&.;.&.;.;.l l l l ;.e R W A Q H./.`.`.3.H R R R 6.~.P.I.I.P.`.F.H W W Q n _.sXiXS E R l l l &.O.G &.l l l l &.&.&.i i &.&.*.*.*.*.:.-.-.-.-.-.-.-.R R R R R R G i &.&.&.&.&.&.&.&.&.&.&.&.l &.&.&.&.&.&.&.&.&.&.&.l l l &.&.&.&.&.",
"R R R R *.*.*.:.*.*.*.:.-.-.-.-.:.-.:.-.:.-.:.-.*.*.*.*.*.R R R *.*.*.&.&.&.&.&.&.&.&.&.&.&.&.&.&.&.&.&.&.&.&.&.&.&.&.&.&.&.R i i Y G 1.`.`.I.P.P.~.7.G G *.&.*.&.R Q.I.K.Y.G.G.`.`.j.H R W F ).#X/ C E &.a x l l &.&.&.&.&.&.&.&.&.&.&.*.*.&.*.-.-.-.-.-.-.-.-.<.<.<.<.<.<.<.<.<.<.<.<.<.<.<.<.*.*.*.R R R *.&.&.&.&.&.&.&.&.&.&.&.&.&.&.&.&.&.&.&.&.&.&.&.&.&.&.&.&.&.&.&.&.&.&.&.&.*.*.*.*.R *.*.-.-.-.-.2.2.2.<.<.<.<.<.4.<.2.2.6.2.2.*.*.*.*.*.*.*.&.&.&.&.&.&.&.&.&.;.&.&.&.&.R R H E 7.).J.F.~.m.*.i ;.l l &.G E F.J.D.P.U.G._.Q./ R x u l G %.9XkXjXpX~ A R R R R R R *.*.-.-.6.6.6.6.2.<.-.<.-.-.-.:.:.*.:.&.&.*.&.&.&.&.&.&.&.&.&.&.&.&.&.&.&.&.&.&.&.;.;.&.&.;.;.R G ,.:.2.2.<.<.<.<.<.<.<.<.<.<.<.<.4.-.:.*.&.l &.;.&.&.&.&.&.&.&.&.&.&.&.&.&.&.;.&.&.&.&.&.&.&.&.&.&.&.&.&.&.&.&.&.&.&.&.&.&.&.&.&.&.&.&.&.&.&.&.&.&.&.&.&.;.l ;.;.&.G R W G 2.!./.`.`.7.E *.R R 6.~.P.I.I.P.`.F.H W W E n _.sX#XS H R l l &.&.*.*.&.l l &.l l R R R &.*.*.:.:.:.,.-.-.-.-.-.-.-.-.*.*.*.*.*.R R R i l l l l l &.&.&.&.&.&.l &.&.&.&.&.&.&.&.&.&.&.&.&.&.&.&.&.&.&.",
"G Y R *.*.-.-.-.*.*.*.-.2.6.6.6.2.-.-.-.2.-.2.-.2.-.-.-.*.*.*.*.*.O.*.*.*.&.&.&.&.&.&.&.&.&.l &.&.&.&.&.&.&.&.&.&.&.&.R l i &.a i i A ^ P.`.I.P.G.~.7.Y R *.*.;.&.R G.I.K.U.G.G.`.`.j.G W W F ).aX1.S Q &.i l l l &.&.&.&.&.;.;.R R *.*.*.*.:.:.-.-.-.-.-.-.-.-.2.<.<.<.<.<.<.<.<.<.<.<.<.<.<.<.-.-.*.*.*.R &.&.&.&.&.&.&.&.l &.&.&.&.&.&.&.&.&.&.&.&.&.&.&.&.&.&.l &.&.&.&.&.&.G G *.*.*.*.*.*.-.-.-.6.6.6.6.6.<.<.<.<.<.<.<.<.<.2.2.2.2.*.-.*.-.*.*.*.&.&.&.*.R R &.&.&.l l &.&.&.R R H <.7.).].J.~.W.-.R ;.l &.*.G E S.J.K.U.U.J.`.G./ R x a l G 1.9XkXkXpX/ G R R R R R *.-.*.-.2.2.6.6.<.<.<.<.<.<.<.-.-.-.-.:.*.*.*.O.&.&.&.&.&.&.&.&.&.&.&.&.&.&.&.&.&.&.;.&.&.&.&.&.&.R -.-.2.<.<.<.<.<.<.<.<.<.<.<.<.<.4.:.-.:.;.&.&.&.&.&.&.&.&.&.&.&.&.&.&.&.;.;.;.;.&.&.&.&.&.&.&.&.&.&.&.&.&.&.&.&.&.&.&.&.&.&.&.&.&.&.&.&.&.&.&.&.&.R &.&.&.l &.&.&.G R E A ^ H.~._.|.p.*.*.R R 6.~.P.I.I.P.`.W.H *.R E M [.sX#XJ H R l l ;.*.*.*.*.&.&.&.&.&.&.&.*.*.*.:.:.6.6.6.-.-.-.-.-.-.-.-.*.*.*.*.:.*.*.*.R i i &.i &.&.&.&.&.&.&.&.&.&.&.&.&.&.&.&.&.&.&.&.&.&.&.&.&.&.&.",
"G R *.*.2.2.2.2.-.<.<.<.4.4.6.6.-.-.-.-.-.-.<.<.6.2.2.2.-.-.*.-.*.*.*.*.*.*.G G R &.&.&.&.&.l l &.&.&.&.&.&.&.&.&.&.R i l &.&.&.W R R 1.`.`.I.P.G.~.b.Y R *.&.*.&.R G.I.K.Y.G.G.`.`.j.H a W F ).aX1.F E &.i l l ;.&.&.&.O.*.*.*.G R *.*.*.-.-.-.-.-.-.-.-.2.2.2.<.<.<.<.<.<.<.<.<.<.<.<.<.<.<.2.2.-.-.*.*.*.&.O.&.&.&.&.&.&.l l &.&.&.&.&.&.&.&.&.&.&.&.&.&.&.&.&.l &.&.&.&.&.&.G G *.&.:.-.-.2.-.-.2.6.6.6.6.6.<.<.<.<.<.<.<.<.<.<.1.2.6.2.<.-.*.*.*.R &.*.*.;.R R &.&.&.l l l &.&.*.R H <.p.).].J.].!.2.*.*.g l *.G E F.U.K.U.U.J.`.G./ R =.a a G r.9XkXkXjX} Z Y R *.*.*.-.2.-.-.<.<.<.<.<.<.<.<.<.<.<.<.<.<.4.:.:.*.&.O.&.&.&.&.&.&.&.&.&.&.&.&.&.&.&.&.&.&.&.&.&.&.&.&.*.*.-.<.<.<.<.<.<.<.<.<.<.<.<.<.<.<.4.4.4.-.:.;.&.l &.&.&.&.&.&.&.&.&.&.&.&.;.;.;.;.&.&.&.&.&.&.&.&.&.&.&.&.&.&.&.&.&.&.&.&.&.&.&.&.&.&.&.&.&.&.&.&.*.*.*.&.&.l O.O.&.G R E S ^ S.F._.|.p.*.*.R R 2.~.P.I.I.P.`.F.H *.R E S  XsXiXK H R l l &.*.+.R &.&.&.*.*.*.*.*.:.:.-.-.4.4.6.6.2.-.-.-.2.-.2.-.2.-.-.-.-.-.-.*.*.*.*.*.&.&.R R &.&.R &.&.&.G G &.&.&.&.&.&.&.&.&.&.&.&.&.&.&.&.",
"*.*.-.2.2.2.<.<.<.<.<.<.<.<.<.<.<.<.-.<.<.<.<.<.<.<.<.<.2.2.2.2.<.-.-.*.*.R R R R R R R R a a a R R R R R R R R R R R i &.&.=.=.=.*.Q 1.]._.s.P.P.].b.Y R R G R &.R Q.I.K.U.G.G.`.`.p.G W W S ).aXy.F E W i l l ;.;.&.O.O.O.*.*.*.R *.*.-.2.2.6.-.<.2.2.2.<.<.<.<.<.<.<.<.<.<.<.<.<.<.<.<.<.<.<.6.6.2.-.*.*.*.R &.&.&.&.&.l l l &.&.&.&.&.&.&.&.&.&.&.&.&.&.&.&.&.l l &.&.&.&.&.O.&.*.*.-.2.6.6.<.<.2.2.6.<.<.<.<.<.<.<.<.<.<.<.1.<.<.<.6.2.2.2.-.*.*.*.R R R R R R &.&.&.l l l l &.*.G H 1.F.|.P.G.].~.2.*.*.G e *.R ^ G.U.K.K.U.J.`.G./ R &.a W G r.9XkXkXlX .C Y *.-.-.-.-.2.<.<.<.<.<.<.<.<.<.<.<.<.<.<.<.2.6.-.:.*.*.*.&.&.&.&.&.&.&.&.&.&.&.&.&.&.&.&.&.&.&.&.&.&.&.&.*.*.2.2.<.<.<.<.<.<.<.<.<.<.<.<.<.<.4.4.4.6.:.:.&.&.&.&.&.&.&.&.&.&.&.&.&.&.;.&.&.&.&.&.&.&.&.&.&.&.&.&.&.&.&.&.&.&.&.&.&.&.&.&.&.&.&.&.&.&.&.&.&.&.*.R *.*.*.&.&.&.:.R *.E S ( F.F.`.`.i.*.*.R R 2.~.P.I.I.P.`.F.H *.R E S [.sXiXK H R &.l l R G G R R R *.*.:.:.-.-.-.<.<.<.<.<.<.<.-.<.-.<.2.<.2.<.-.<.<.<.-.<.*.-.-.:.*.*.*.R R R R R R R R G G &.&.&.&.&.&.&.&.&.&.&.&.&.i R R ",
"<.<.<.<.<.<.<.<.<.<.<.<.<.<.<.<.<.<.<.<.<.<.<.<.<.<.<.<.<.<.6.6.6.6.2.-.*.*.R R R R R W R a a a R R R R R R R W i R R W *.=.,.,.,.>.E 1.].U.f.P.P.].b.E E W R &.&.R G.I.K.U.G.G.`.`.j.G W W S |.sXi.S E W i x l l &.&.O.G O.*.*.*.*.*.-.-.<.<.6.<.<.<.<.<.<.1.1.<.<.<.<.<.<.<.<.<.<.<.<.<.<.<.<.4.6.6.2.-.*.*.*.&.&.&.&.&.l l l &.&.&.&.&.&.&.&.&.&.&.&.&.&.&.&.&.l l l &.&.&.&.*.*.*.-.2.6.6.6.<.<.<.2.<.<.<.<.<.<.<.<.<.<.<.1.<.1.<.<.<.6.<.2.6.-.-.:.*.R G e R R &.&.&.l l l l &.R G E 7.Q.|.P.G.].~.6.*.:.&.e *.E 1.J.U.K.L.U.J.`.G.^ R &.a i H r.9XkXkXjXu.C R -.,.6.-.-.-.<.<.<.<.<.<.<.<.1.<.<.<.<.<.4.6.2.-.-.:.;.*.&.&.&.&.&.&.&.&.&.&.&.&.&.&.&.&.&.&.l &.&.&.&.&.*.-.2.2.<.<.<.<.<.<.<.<.<.<.<.<.<.<.4.4.4.4.4.:.:.&.&.&.&.&.&.&.&.&.&.&.&.&.;.;.&.&.&.&.&.&.&.&.&.&.&.&.&.&.&.&.&.&.&.&.&.&.&.&.&.&.&.&.&.&.&.&.&.&.G G G *.:.:.:.,.,.*.6.6.! 1.F.J.`.`.p.*.*.*.R 6.~.P.I.I.P.`.F.H *.Y E K +XsXiXK H R &.l &.G G G R R *.*.:.-.,.6.<.<.<.<.<.<.<.<.<.2.<.2.<.2.<.2.<.<.<.<.<.<.<.*.6.,.,.-.:.*.*.*.*.R R R R R G R &.&.&.&.&.&.&.&.R R &.&.&.&.&.&.",
"<.<.<.<.<.<.<.<.<.<.<.<.1.1.1.<.<.<.<.<.<.<.<.<.<.<.<.<.<.<.<.<.4.6.6.2.-.-.*.*.R R R W R a a a R R R R R R R W R W *.=.=.-.,.>.>.-.E 1.`.U.I.P.G.].b.E Q -.*.;.W R G.I.K.U.G.G.`.`.p.G i W S |.sXi.F E W i x x l l O.O.O.*.:.:.-.<.<.<.<.<.<.<.<.<.<.<.1.1.1.1.<.2.2.2.2.2.2.2.2.2.2.2.2.2.2.2.<.6.4.6.-.*.*.*.&.&.&.&.&.l l l &.&.&.&.&.&.&.&.&.&.&.&.&.&.&.&.&.l l l &.&.&.&.:.:.-.-.6.<.<.<.<.<.<.<.<.<.<.<.<.<.<.<.<.<.<.1.1.1.1.1.1.<.6.2.2.-.6.,.-.*.*.R R R R &.&.l l l l &.R G *.i.Q.|.P.P.].Q.6.-.,.;.*.-.<.1.J.P.K.L.U.J.`.G.^ R &.a i H r.9XkXkXjXu.H *.-.,.-.-.-.-.2.<.<.<.<.<.<.<.1.1.<.<.<.<.4.6.-.-.,.,.:.:.*.&.&.&.&.&.&.&.&.&.&.&.&.&.&.&.&.&.l l &.&.&.*.:.,.2.2.<.<.<.<.<.<.<.2.<.<.<.<.<.<.4.4.4.4.4.:.:.:.&.&.R R &.&.&.&.&.&.&.&.&.&.&.&.&.&.&.&.&.&.&.&.&.&.&.&.&.&.&.&.&.&.&.&.&.&.&.&.&.&.&.&.&.&.&.&.*.*.*.:.-.,.6.6.6.-.6.6.^ 1.F.~.`.`.p.<.-.*.*.7.~.P.I.I.P.`.F.H R e E K iXsXiXK H R &.;.;.;.*.*.*.*.:.-.-.-.6.6.<.<.<.<.<.<.<.<.<.<.<.<.<.<.<.<.<.<.<.<.<.<.<.<.6.-.-.-.-.-.-.-.-.*.*.*.*.*.*.*.&.&.&.&.&.&.&.&.&.&.&.&.;.=.=.=.",
"<.<.<.<.<.<.<.5.<.<.<.<.1.1.1.1.<.<.<.<.<.<.<.<.5.6.5.<.<.<.<.<.<.<.<.<.2.2.-.-.R R R R R R R R R R R R R R R R W *.:.-.:.:.-.-.-.Q E 1.Q.`.P.P.D.].S.^ 2.2.-.,.R H G.P.K.Y.P.P.`.`.j.A R R F |.sXy.Z E R i x l i i G G O.*.:.6.2.2.4.<.<.<.<.<.<.<.<.<.1.1.1.1.<.2.2.2.2.2.2.2.2.2.2.2.2.2.2.<.<.4.4.4.-.-.*.*.*.&.&.&.&.&.&.l &.&.&.&.&.&.&.&.&.&.&.&.&.&.&.&.&.&.&.&.&.&.&.R ,.,.,.6.6.<.<.<.<.<.<.6.6.<.<.<.<.<.<.<.<.<.<.<.5.6.<.1.1.1.<.6.*.*.6.6.6.6.-.-.R R R R &.&.&.&.i *.R H ^ p.`._.P.P._.Q.5.<.6.-.:.6.1.1.G.P.L.Y.U.J.`.G.^ R =.i R H r.9XkXkXzXD.E *.-.-.-.-.2.2.<.<.<.<.<.<.<.<.1.1.<.<.<.<.4.4.*.-.-.-.,.:.*.&.&.&.&.&.&.&.&.&.&.&.&.&.&.&.&.&.i W &.W &.*.:.6.2.2.<.<.<.<.<.<.<.2.<.<.<.<.<.<.<.<.4.4.4.4.4.,.R R R R &.&.&.&.&.&.&.&.&.&.&.&.&.&.&.&.&.&.&.&.&.&.&.&.&.&.&.&.&.&.&.&.&.&.&.&.&.&.&.&.&.&.&.*.6.<.-.:.:.-.-.-.2.*.<.2.^ 1.F.F.P._.S.6.6.-.2.m.~.P.I.I.P.`.F.H R G E K iXsXiXI F G &.;.;.,.2.2.2.-.-.-.-.2.<.<.<.<.<.4.4.5.5.5.<.<.<.<.<.<.<.<.<.<.<.<.<.<.<.<.-.-.-.-.-.-.2.2.6.2.2.-.-.-.*.*.R R *.R *.R &.R *.*.*.*.:.-.,.-.",
"<.<.<.<.<.<.<.<.<.<.<.<.<.<.<.<.<.<.<.<.<.<.<.<.<.<.<.<.<.<.<.<.<.<.<.<.<.<.<.<.<.-.-.*.*.E E R G G R R R *.*.*.-.-.-.-.-.-.-.-.-.3.2.1.F._.P.I.P.`.y./ 1.2.*.2.2.<.F.|.I.P.Y.P._.G.7.F H S S J.sXP.N S Q i =.l R R E E <.<.4.4.<.<.<.<.<.<.<.<.<.<.<.<.<.<.<.<.<.<.<.<.<.<.<.<.<.<.<.<.<.<.<.<.<.<.<.<.<.<.2.-.G G R *.*.&.R i l l l &.&.&.;.;.l l l &.&.;.&.&.i i i R *.:.-.2.-.2.<.<.<.<.<.<.<.<.<.<.<.<.<.<.<.<.<.<.<.<.<.<.<.<.<.<.<.<.<.<.<.<.<.<.<.<.<.<.*.*.*.*.*.*.*.R R E H H / S.J.P.P.P.P.Q.3.<.6.-.<.<.<.i.].`.P.P.U.G.F.H.*.R R e E C t.pXjXdXdXY./ <.<.2.2.2.2.2.<.<.<.<.<.1.1.1.<.<.<.<.<.<.<.<.<.<.<.<.<.<.<.-.O.&.&.&.&.&.&.&.l l l l l l l l W W &.R e R *.6.2.2.<.<.<.<.<.<.<.<.<.<.<.<.<.<.<.<.<.<.<.<.<.<.2.-.Q R G G R *.*.&.&.l l l ;.;.&.&.&.&.&.&.&.&.&.&.;.;.;.;.&.&.&.&.&.&.&.&.&.&.&.&.&.&.e &.;.,.<.<.<.<.<.<.<.<.<.<.<.<.^ 1.S.J.U.].y.<.<.<.<.7.Q.P.I.K.P.`.p.<.*.*.^ } sXpXpX~ 1.2.,.:.,.-.<.<.<.<.<.<.<.<.<.<.<.<.<.<.<.<.<.<.<.<.<.<.<.<.<.<.<.<.<.<.<.<.<.<.<.<.<.<.<.<.<.<.<.<.<.<.<.<.<.<.<.2.2.2.2.2.2.2.2.2.2.2.2.2.2.2.",
"<.<.<.<.<.<.<.<.<.<.<.<.<.<.<.<.<.<.<.<.<.<.<.<.<.<.<.<.<.<.<.<.<.<.<.<.<.<.<.<.<.<.<.<.<.*.*.*.*.*.*.*.-.-.-.-.-.-.-.-.-.-.-.-.-.3.( 1.F.|.P.I.P.`.y./ 1.6.*.2.<.<.F.|.I.I.Y.P.`.G.7.H ^ H S U.sXU.M S *.R =.&.W Y E E <.<.4.4.<.<.<.<.<.<.<.<.<.<.<.<.<.<.<.<.<.<.<.<.<.<.<.<.<.<.<.<.<.<.<.<.<.<.<.<.<.<.<.2.*.E R R R R R R &.l &.&.&.&.&.&.&.&.&.&.&.&.&.&.i i R W *.:.-.-.2.2.<.<.<.<.<.<.<.<.<.<.<.<.<.<.<.<.<.<.<.<.<.<.<.<.<.<.<.<.<.<.<.<.<.<.<.<.<.<.6.2.<.-.-.-.*.*.*.E ^ / 3.J.U.P.P.P.`.Q.3.1.6.<.<.<.<.i.`.`.P.P.U.J.~.H.-.W *.G *.Z r.yXuXgXgX;X/ ^ 1.1.<.<.2.2.<.<.<.<.1.1.5.<.<.<.<.<.<.<.<.<.<.<.<.<.<.<.<.<.;.;.*.&.&.&.&.&.&.l l l l l l i W W R R R *.-.6.2.2.<.<.<.<.<.<.<.<.<.<.<.<.<.<.<.<.<.<.<.<.<.<.2.( E E R R R R *.&.&.l l l c c &.&.&.&.&.&.&.&.&.&.;.;.&.;.&.&.&.&.&.&.&.&.&.&.&.&.&.&.&.&.:.,.<.<.<.<.<.<.<.<.<.<.<.<.1.1.S.J.U.U.y./ <.<.<.p.P.P.P.K.P.`.p.<.2.<.! } lXjXpX{ 1.2.-.:.-.-.<.1.<.<.<.<.<.<.<.<.<.<.<.<.<.<.<.<.<.<.<.<.<.<.<.<.<.<.<.<.<.<.<.<.<.<.<.<.<.<.<.<.<.<.<.<.<.<.<.<.<.<.<.<.<.<.<.<.<.<.<.<.<.<.<.<.",
"<.<.<.<.<.<.<.<.<.<.<.<.<.<.<.<.<.<.<.<.<.<.<.<.<.<.<.<.<.<.<.<.<.<.<.<.<.<.<.<.<.<.<.<.<.<.<.<.-.2.2.2.2.6.6.6.2.2.2.2.2.2.-.-.*.3.( 1.F.].P.P.P.`.y./ 1.6.*.2.<.<.F.].I.I.Y.K.`.Q.7.^ ^ ^ S U.sXY.K E -.&.,.*.*.Q ( 2.1.<.4.4.<.<.<.<.<.<.<.<.<.<.<.<.<.<.<.<.<.<.<.<.<.<.<.<.<.<.<.<.<.<.<.<.<.<.<.<.<.<.<.2.-.-.*.R R R R &.&.&.&.&.&.&.l l ;.;.&.&.&.&.&.&.R R *.*.-.-.-.-.2.2.<.<.<.<.<.<.<.<.<.<.<.<.<.<.<.<.<.<.<.<.<.<.<.<.<.<.<.<.<.<.<.<.<.<.<.<.<.<.6.6.6.6.2.-.-.-.2.2.<.^ y.P._.U.P.P.`.Q.3.1.5.<.<.<.<.i.].P.P.I.P.J.~.H.2.*.-.E <.Z t.pXjXdXgX;X/ ^ 1.1.<.<.2.2.2.<.<.<.1.<.1.1.<.<.<.<.<.<.<.<.<.<.<.<.<.<.<.<.,.:.&.O.O.O.*.&.&.&.&.&.l l l i &.R Y R *.:.-.2.2.2.<.<.<.<.<.<.<.<.<.<.<.<.<.<.<.<.<.<.<.<.<.<.2.2.-.E Q Q *.R R &.l l l &.c l &.&.&.&.&.&.&.&.&.&.&.&.&.&.&.&.&.&.&.&.&.&.&.&.&.&.O.&.&.:.:.:.<.<.<.<.4.4.<.<.<.<.4.<.1.1.S.J.U.U.y./ <.<.<.p.U.P.P.K.P.`.p.<.2.2./ u.lXjXpX{ 1.<.-.:.-.-.<.1.<.<.<.<.<.<.<.<.<.<.<.<.<.<.<.<.<.<.<.<.<.<.<.<.<.<.<.<.<.<.<.<.<.<.<.<.<.<.<.<.<.<.<.<.<.<.<.<.<.<.<.<.<.<.<.<.<.<.<.<.<.<.<.<.",
"<.<.<.<.<.<.<.<.<.<.<.<.<.<.<.<.<.<.<.<.<.<.<.<.<.<.<.<.<.<.<.<.<.<.<.<.<.<.<.<.<.<.<.<.<.<.<.2.<.-.2.2.2.2.6.6.2.2.2.2.2.2.2.2.-.3.^ ^ F.].P.P.P.`.p./ <.6.*.<.<.<.F.].I.P.Y.K.`.Q.F.^ 1.^ K ].sX[.! ^ -.*.,.=.-.2.2.2.1.<.4.4.<.<.<.<.<.<.<.<.<.<.<.<.<.<.<.<.<.<.<.<.<.<.<.<.<.<.<.<.<.<.<.<.<.<.<.<.<.<.<.2.6.-.:.*.R R R R R l l &.&.&.&.&.&.&.&.&.&.&.&.&.R W *.-.,.,.2.-.2.<.<.<.<.<.<.<.<.<.<.<.<.<.<.<.<.<.<.<.<.<.<.<.<.<.<.<.<.<.<.<.<.<.<.<.<.<.<.<.6.6.<.2.-.-.:.-.*.<.<.^ i.P.U.P.P.P.`.Q.3.1.5.<.<.<.<.i.].P.P.I.I.G.Q.F.2.-.,.*.<.Z a.pXjXfXhX;X/ ^ 1.1.<.<.2.2.2.2.<.<.<.<.1.1.<.<.<.<.<.<.<.<.<.<.<.<.<.<.<.<.6.:.:.*.*.*.O.*.*.*.*.&.&.&.&.&.*.R Y R *.-.6.-.2.<.<.<.<.<.<.<.<.<.<.<.<.<.<.<.<.<.<.<.<.<.<.<.2.2.2.2.*.*.*.*.&.&.&.l &.&.;.&.&.&.&.&.&.&.&.&.&.&.&.&.&.&.&.&.&.&.&.&.&.&.&.&.;.&.O.*.:.6.:.-.<.<.<.<.4.<.4.<.<.<.4.<.1.1.S.J.U.U.y./ <.<.<.p.U.P.P.K.P.`.p.<.6.2./ u.lXjXpX} 1.<.-.:.-.-.<.1.<.<.<.<.<.<.<.<.<.<.<.<.<.<.<.<.<.<.<.<.<.<.<.<.<.<.<.<.<.<.<.<.<.<.<.<.<.<.<.<.<.<.<.<.<.<.<.<.<.<.<.<.<.<.<.<.<.<.<.<.<.<.<.<.",
"<.<.<.<.<.<.<.<.<.<.<.<.<.<.<.<.<.<.<.<.<.<.<.<.<.<.<.<.<.<.<.<.<.<.<.<.<.<.<.<.<.<.<.<.<.<.<.<.<.-.-.2.2.2.2.2.2.2.2.2.2.2.-.2.-.3.^ ^ G.].P.P.P.`.p./ <.6.*.<.<.<.F.].I.I.Y.K.`.Q.F.1.5.1.K [.sXtX/ ^ -.:.x.-.-.-.2.^ <.<.<.<.<.<.<.<.<.<.<.<.<.<.<.<.<.<.<.<.<.<.<.<.<.<.<.<.<.<.<.<.<.<.<.<.<.<.<.<.<.<.<.2.2.2.-.-.*.*.R R e e e R &.&.*.*.&.&.&.&.&.&.&.&.*.*.-.,.,.,.2.2.<.<.<.<.<.<.<.<.<.<.<.<.<.<.<.<.<.<.<.<.<.<.<.<.<.<.<.<.<.<.<.<.<.<.<.<.<.<.<.<.<.<.<.-.*.*.*.-.*.<.^ / i.J.P.P.P.P.`.Q.3.<.5.<.<.<.<.3.|.P.P.I.I.P.`.W.6.-.6.-.<.U f.jXjXfXhXyX/ ^ 1.1.<.<.2.2.2.2.<.<.<.<.<.<.<.<.<.<.<.<.<.<.<.<.<.<.<.<.<.<.4.6.4.:.-.*.*.G *.*.*.&.&.&.&.&.*.R R *.-.,.6.2.<.<.<.<.<.<.<.<.<.<.<.<.<.<.<.<.<.<.<.<.<.<.<.<.<.2.2.2.2.-.-.*.*.&.&.l &.&.&.;.&.&.&.&.&.&.&.&.l &.&.&.&.&.&.&.&.l l &.&.&.&.&.*.*.R *.4.6.4.<.<.<.<.<.<.<.<.<.<.<.4.<.1.1.S.J.U.U.y./ <.<.<.p.U.U.P.P.P.Q.p.<.6.<./ D.lXuXpX .1.2.-.,.-.2.<.<.<.<.<.<.<.<.<.<.<.<.<.<.<.<.<.<.<.<.<.<.<.<.<.<.<.<.<.<.<.<.<.<.<.<.<.<.<.<.<.<.<.<.<.<.<.<.<.<.<.<.<.<.<.<.<.<.<.<.<.<.<.<.<.<.",
"<.<.<.<.<.<.<.<.<.<.<.<.<.<.<.<.<.<.<.<.<.<.<.<.<.<.<.<.<.<.<.<.<.<.<.<.<.<.<.<.<.<.<.<.<.<.<.<.2.2.2.2.2.2.2.2.2.2.2.2.2.2.-.2.-.3.^ ^ F.].P.`.P.`.i./ <.<.-.2.<.<.F.].I.I.Y.P.`.Q.F.1.5.1.! OXsXtX} ^ <.:.n.-.-.Q ^ ^ <.<.<.<.<.<.<.<.<.<.<.<.<.<.<.<.<.<.<.<.<.<.<.<.<.<.<.<.<.<.<.<.<.<.<.<.<.<.<.<.<.<.<.<.-.2.2.,.-.*.*.R G G G &.*.*.*.*.G R R &.*.*.*.*.:.:.-.-.-.2.2.2.<.<.<.<.<.<.<.<.<.<.<.<.<.<.<.<.<.<.<.<.<.<.<.<.<.<.<.<.<.<.<.<.<.<.<.<.<.<.<.<.1.1.<.<.2.-.-.-.<.<.1.1.y.P.P.P.P.P.`.Q.3.<.5.<.<.<.<.3.|.P.P.I.I.P.`.W.6.-.6.<.1.U f.jXjXfXhXyX~ ^ 1.1.1.<.2.2.2.2.<.<.<.<.<.<.<.<.<.<.<.<.<.<.<.<.<.<.<.<.<.<.<.4.6.6.4.-.*.+.+.*.*.*.*.*.*.R R R *.*.-.-.2.2.<.<.<.<.<.<.<.<.<.<.<.<.<.<.<.<.<.<.<.<.<.<.<.<.<.2.2.6.2.2.-.-.:.;.;.&.&.&.&.&.&.&.&.&.&.&.&.&.l l &.&.&.&.&.&.l l l l &.&.&.&.*.*.*.-.4.4.4.<.<.<.<.<.<.<.<.<.<.<.4.<.1.1.S.J.U.U.y./ <.<.<.p.P.P.P.P.P.Q.p.<.6.<./ P.zXuXpXu.1.2.-.,.-.2.<.1.<.<.<.<.<.<.<.<.<.<.<.<.<.<.<.<.<.<.<.<.<.<.<.<.<.<.<.<.<.<.<.<.<.<.<.<.<.<.<.<.<.<.<.<.<.<.<.<.<.<.<.<.<.<.<.<.<.<.<.<.<.<.<.<.",
"<.<.<.<.<.<.<.<.<.<.<.<.<.<.<.<.<.<.<.<.<.<.<.<.<.<.<.<.<.<.<.<.<.<.<.<.<.<.<.<.<.<.<.<.<.<.<.<.2.2.2.2.2.2.2.2.<.<.<.<.<.<.<.2.-.3.E ! S.~.J.Q.Q.`.i./ <.<.-.2.<.<.G.].I.I.Y.P.P.G.F.^ 5.1.! +XsXtXr.^ <.-.N.-.-.Q ^ ^ <.<.4.4.<.<.<.<.<.<.<.<.<.<.<.<.<.<.<.<.<.<.<.<.<.<.<.<.<.<.<.<.<.<.<.<.<.<.<.<.<.<.<.<.-.-.2.-.-.-.-.:.&.&.*.*.*.*.*.&.G &.*.*.;.;.:.:.-.-.-.-.-.2.2.2.<.<.<.<.<.<.<.<.<.<.<.<.<.<.<.<.<.<.<.<.<.<.<.<.<.<.<.<.<.<.<.<.<.<.<.<.<.<.<.<.1.1.<.<.2.2.-.-.2.2.1.3.y.P.P.I.P.P.`.Q.3.<.6.<.<.<.<.3.|.].P.I.I.I.`.Q.<.-.6.<.1.I f.jXjXdXkXyX/ 1.1.1.1.<.2.2.2.2.<.<.<.<.<.<.<.<.<.<.<.<.<.<.<.<.<.<.<.<.<.<.<.4.4.6.4.4.<.<.+.+.+.*.*.*.*.R G *.-.-.-.-.2.2.<.<.<.<.<.<.<.<.<.<.<.<.<.<.<.<.<.<.<.<.<.<.<.<.<.2.2.2.2.2.2.-.-.-.:.;.*.&.*.&.&.W a W &.&.&.&.l l &.&.&.&.&.&.l l l l &.&.&.&.*.*.4.4.4.4.4.<.<.<.<.<.<.<.<.<.<.<.<.<.1.1.S.J.U.U.y./ <.<.<.p.P.P.P.P.P.`.p.<.2.^ / P.zXyXyXu./ 1.-.,.-.2.<.1.<.<.<.<.<.<.<.<.<.<.<.<.<.<.<.<.<.<.<.<.<.<.<.<.<.<.<.<.<.<.<.<.<.<.<.<.<.<.<.<.<.<.<.<.<.<.<.<.<.<.<.<.<.<.<.<.<.<.<.<.<.<.<.<.",
"<.<.<.<.<.<.<.<.<.<.<.<.<.<.<.<.<.<.<.<.<.<.<.<.<.<.<.<.<.<.<.<.<.<.<.<.<.<.<.<.<.<.<.<.<.<.<.<.<.<.<.<.<.-.-.-.<.<.<.<.<.<.<.<.*.3.E ^ S.~.J.Q.Q.Q.p./ <.<.-.<.<.<.F.].I.I.Y.P.`.G.F.^ 5.1.! +XsXtXr./ <.-.N.:.-.Q ^ ^ 1.6.6.6.<.<.<.<.<.<.<.<.<.<.<.<.<.<.<.<.<.<.<.<.<.<.<.<.<.<.<.<.<.<.<.<.<.<.<.<.<.<.<.<.2.2.-.-.-.-.6.6.-.:.:.*.*.R G G O.*.*.*.-.,.,.-.2.-.-.-.-.2.2.2.<.<.<.<.<.<.<.<.<.<.<.<.<.<.<.<.<.<.<.<.<.<.<.<.<.<.<.<.<.<.<.<.<.<.<.<.<.<.<.<.<.<.<.<.<.-.-.-.<.<.1.1.y.P.P.P.P.P.`.Q.3.<.6.<.<.<.<.3.].].P.I.I.I.`.W.<.<.6.<.1.I f.jXjXfXkXdX{ 1.1.1.1.1.<.2.2.2.<.<.<.<.<.<.<.<.<.<.<.<.<.<.<.<.<.<.<.<.<.<.<.4.4.4.4.4.4.6.+.+.+.+.*.*.+.E G *.-.2.-.-.-.2.<.<.<.<.<.<.<.<.<.<.<.<.<.<.<.<.<.<.<.<.<.<.<.<.<.<.<.2.2.2.2.2.6.6.-.:.*.*.*.*.R W a a l &.&.&.&.&.&.&.&.&.&.&.l l l &.&.&.*.*.O.-.6.7.4.5.5.<.<.<.<.<.<.<.<.<.<.<.<.<.1.1.S.J.U.U.y./ <.<.<.p.P.P.P.P.P.`.p.<.<.^ / P.zXyXpXu./ 1.-.,.-.<.<.1.<.<.<.<.<.<.<.<.<.<.<.<.<.<.<.<.<.<.<.<.<.<.<.<.<.<.<.<.<.<.<.<.<.<.<.<.<.<.<.<.<.<.<.<.<.<.<.<.<.<.<.<.<.<.<.<.<.<.<.<.<.<.<.<.",
"<.<.<.<.<.<.<.<.<.<.<.<.<.<.<.<.<.<.<.<.<.<.<.<.<.<.<.<.<.<.<.<.<.<.<.<.<.<.<.<.<.<.<.<.<.<.<.<.<.<.<.<.<.<.<.<.<.<.<.<.<.<.<.<.<.2.<.^ 7.].|.G.|.F.1.^ <.6.4.<.<.<.a.].P.L.I.I.J.Q.5.^ 5./ /  XlXtXu.P <.6.,.,.-.2.1.1.1.<.4.4.<.<.<.<.<.<.<.<.<.<.<.<.<.<.<.<.<.<.<.<.<.<.<.<.<.<.<.<.<.<.<.<.<.<.<.<.<.<.<.<.<.<.<.2.2.2.2.2.-.-.-.-.-.-.-.-.2.-.2.-.2.-.2.2.2.2.2.2.<.<.<.<.<.<.<.<.<.<.<.<.<.<.<.<.<.<.<.<.<.<.<.<.<.<.<.<.<.<.<.<.<.<.<.<.<.<.<.<.<.<.<.<.<.<.<.<.<.2.2.2.<.1.<./ G.`.P.P.P.U.`.a.5.<.<.-.-.6.H 5.].G.P.P.I.I.`.a.<.*.6.<.<.%.g.jXkXfXfXkXG./ 1.1.^ 6.<.<.2.2.<.<.<.<.<.<.<.<.<.<.<.<.<.<.<.<.<.<.<.<.<.<.<.<.<.<.<.<.<.<.<.<.<.4.<.<.<.-.2.2.-.-.<.<.<.<.<.<.<.<.<.<.<.<.<.<.<.<.<.<.<.<.<.<.<.<.<.<.<.<.<.<.2.2.2.2.<.2.2.2.2.-.-.-.-.-.R R R R R R &.l &.&.&.&.&.&.&.&.l a i i i R R *.2.<.<.<.<.<.1.1.<.<.<.<.<.<.<.<.<.<.<.1.1.1.a.J.G.J.y.1.5.<.1.y.].P.P.P.P.G.i.<.7.^ / [.pXjXjX} 1.<.2.,.-.<.<.1.<.<.<.<.<.<.<.<.<.<.<.<.<.<.<.<.<.<.<.<.<.<.<.<.<.<.<.<.<.<.<.<.<.<.<.<.<.<.<.<.<.<.<.<.<.<.<.<.<.<.<.<.<.<.<.<.<.<.<.<.<.<.<.<.",
"<.<.<.<.<.<.<.<.<.<.<.<.<.<.<.<.<.<.<.<.<.<.<.<.<.<.<.<.<.<.<.<.<.<.<.<.<.<.<.<.<.<.<.<.<.<.<.<.<.<.<.<.<.<.<.<.<.<.<.<.<.<.<.<.2.3.<.E 1.W.~.S.|.S.1.<.<.6.4.<.<.<.a.].P.L.I.I.J.Q.5.^ 5.^ /  XlXyXu.P <.6.6.6.-.2.1.1.1.<.4.4.<.<.<.<.<.<.<.<.<.<.<.<.<.<.<.<.<.<.<.<.<.<.<.<.<.<.<.<.<.<.<.<.<.<.<.<.<.<.<.<.<.<.<.<.<.2.<.2.-.-.-.-.-.<.-.-.2.2.2.2.2.2.2.2.2.2.<.<.<.<.<.<.<.<.<.<.<.<.<.<.<.<.<.<.<.<.<.<.<.<.<.<.<.<.<.<.<.<.<.<.<.<.<.<.<.<.<.<.<.<.<.<.1.<.<.<.<.2.2.2.<.1.<./ G.`.P.P.P.P.`.a.1.<.<.-.-.6.H 3.|.P.P.I.I.I.`.F.<.<.6.<.<.%.'.jXkXfXfXkXP./ 1.1.^ 6.<.<.2.2.<.<.<.<.<.<.<.<.<.<.<.<.<.<.<.<.<.<.<.<.<.<.<.<.<.<.<.<.4.4.<.<.<.4.<.<.<.<.<.2.<.<.<.<.<.<.<.<.<.<.<.<.<.<.<.<.<.<.<.<.<.<.<.<.<.<.<.<.<.<.<.<.2.2.2.2.<.<.<.2.<.2.<.2.2.-.*.*.*.&.R R &.i &.&.&.&.&.&.&.&.i i R R *.*.*.-.2.<.<.<.<.<.5.1.<.<.<.<.<.<.<.<.<.<.<.1.1.1.p.J.G.J.y.1.1.<.<.p.].P.P.P.`.G.i.<.7.^ / 5XjXjXjX} 1.<.2.,.<.<.<.1.<.<.<.<.<.<.<.<.<.<.<.<.<.<.<.<.<.<.<.<.<.<.<.<.<.<.<.<.<.<.<.<.<.<.<.<.<.<.<.<.<.<.<.<.<.<.<.<.<.<.<.<.<.<.<.<.<.<.<.<.<.<.<.<.",
"<.<.<.<.<.<.<.<.<.<.<.<.<.<.<.<.<.<.<.<.<.<.<.<.<.<.<.<.<.<.<.<.<.<.<.<.<.<.<.<.<.<.<.<.<.<.<.<.<.<.<.<.<.<.<.<.<.<.<.<.<.<.<.<.2.3.1.E ^ S.Q.F.~.S.1.<.<.4.4.<.<.<.p.].P.L.I.I.J.Q.5.^ 5.^ / [.jXgXf.I <.6.4.6.-.^ 1.1.1.<.4.4.<.<.<.<.<.<.<.<.<.<.<.<.<.<.<.<.<.<.<.<.<.<.<.<.<.<.<.<.<.<.<.<.<.<.<.<.<.<.<.<.<.<.<.<.<.<.<.<.<.<.<.<.<.<.<.<.<.<.<.<.<.<.<.<.<.<.<.<.<.<.<.<.<.<.<.<.<.<.<.<.<.<.<.<.<.<.<.<.<.<.<.<.<.<.<.<.<.<.<.<.<.<.<.<.<.<.<.<.<.<.<.<.<.<.<.<.<.<.2.2.<.1.^ / G.`.P.P.P.P.`.a.1.6.<.-.-.6.H 5.|.J.P.I.I.I._.G.<.<.6.<.1.%.I.jXkXfXfXkXP./ 1.1.^ 5.<.<.2.2.<.<.<.<.<.<.<.<.<.<.<.<.<.<.<.<.<.<.<.<.<.<.<.<.<.<.<.<.<.<.<.<.<.<.<.<.<.<.<.<.<.<.<.<.<.<.<.<.<.<.<.<.<.<.<.<.<.<.<.<.<.<.<.<.<.<.<.<.<.<.<.<.<.<.2.2.<.<.<.2.<.2.<.2.<.-.-.-.*.*.*.*.R R R R &.&.&.&.&.&.G i R *.*.-.-.-.<.<.<.<.<.<.<.<.<.<.<.<.<.<.4.<.<.<.<.1.1.1.p.J.J.J.y.^ 1.<.<.p.].P.P.P.P.G.p.1.6.^ / iXjXjXjX| 1.<.2.,.<.<.<.1.<.<.<.<.<.<.<.<.<.<.<.<.<.<.<.<.<.<.<.<.<.<.<.<.<.<.<.<.<.<.<.<.<.<.<.<.<.<.<.<.<.<.<.<.<.<.<.<.<.<.<.<.<.<.<.<.<.<.<.<.<.<.<.<.",
"<.<.<.<.<.<.<.<.<.<.<.<.<.<.<.<.<.<.<.<.<.<.<.<.<.<.<.<.<.<.<.<.<.<.<.<.<.<.<.<.<.<.<.<.<.<.<.<.<.<.<.<.<.<.<.<.<.<.<.<.<.<.<.<.<.6.2.E ^ m.~.].F.7.1.<.<.4.4.<.<.<.p.].P.L.I.P.J.Q.5.^ 5.^ /  XjXjXI.I 1.6.4.6.2.^ 1.1.1.<.4.4.<.<.<.<.<.<.<.<.<.<.<.<.<.<.<.<.<.<.<.<.<.<.<.<.<.<.<.<.<.<.<.<.<.<.<.<.<.<.<.<.<.<.<.<.<.<.<.<.<.<.<.<.<.<.<.<.<.<.<.<.<.<.<.<.<.<.<.<.<.<.<.<.<.<.<.<.<.<.<.<.<.<.<.<.<.<.<.<.<.<.<.<.<.<.<.<.<.<.<.<.<.<.<.<.<.<.<.<.<.<.<.<.<.<.<.<.<.<.2.<.<.1./ / G.P.P.P.P.P.J.p.1.<.<.-.-.2.A 5.|.J.P.P.I.I._.G.<.<.6.<.1.%.'.jXkXfXfXkX[./ 1.1./ 5.<.<.2.2.<.<.<.<.<.<.<.<.<.<.<.<.<.<.<.<.<.<.<.<.<.<.<.<.<.<.<.<.<.<.<.<.<.<.<.<.<.<.<.<.<.<.<.<.<.<.<.<.<.<.<.<.<.<.<.<.<.<.<.<.<.<.<.<.<.<.<.<.<.<.<.<.<.<.2.2.2.<.<.<.<.<.<.<.<.2.-.-.-.*.:.*.*.*.*.*.*.*.&.&.&.*.R R *.*.-.-.2.2.<.<.<.<.<.<.<.<.<.<.<.<.<.<.4.4.6.<.<.1.1.1.p.J.J.J.y./ 1.<.1.p.].P.P.P.P.G.i.<.6.^ r.iXjXjXjX| 1.<.2.,.<.<.<.1.<.<.<.<.<.<.<.<.<.<.<.<.<.<.<.<.<.<.<.<.<.<.<.<.<.<.<.<.<.<.<.<.<.<.<.<.<.<.<.<.<.<.<.<.<.<.<.<.<.<.<.<.<.<.<.<.<.<.<.<.<.<.<.<.",
"<.<.<.<.<.<.<.<.<.<.<.<.<.<.<.<.<.<.<.<.<.<.<.<.<.<.<.<.<.<.<.<.<.<.<.<.<.<.<.<.<.<.<.<.<.<.<.<.<.<.<.<.<.<.<.<.<.<.<.<.<.<.<.<.<.6.6.^ ^ 5.F./.p.5.<.<.<.4.4.4.<.<.p.].P.I.I.P.P.Q.5.^ 5.^ / [.jXkX'.I <.4.6.6.2.^ ^ ^ 1.<.4.4.<.<.<.<.<.<.<.<.<.<.<.<.<.<.<.<.<.<.<.<.<.<.<.<.<.<.<.<.<.<.<.<.<.<.<.<.<.<.<.<.<.<.<.<.<.<.<.<.<.<.<.<.<.<.<.<.<.<.<.<.<.<.<.<.<.<.<.<.<.<.<.<.<.<.<.<.<.<.<.<.<.<.<.<.<.<.<.<.<.<.<.<.<.<.<.<.<.<.<.<.<.<.<.<.<.<.<.<.<.<.<.<.<.<.<.<.<.<.<.<.<.1./ / G.`.P.P.P.P.J.y.1.<.2.-.-.2.Z 7.|.J.P.P.I.I.].F.<.-.6.<.1.1.'.jXkXfXfXgX[./ 1.1./ 5.<.2.2.2.2.2.<.<.<.<.<.<.<.<.<.<.<.<.<.<.<.<.<.<.<.<.<.<.<.<.<.<.<.<.<.<.<.<.<.2.2.<.<.<.<.<.<.<.<.<.<.<.<.<.<.<.<.<.<.<.<.<.<.<.<.<.<.<.<.<.<.<.<.<.<.<.<.<.<.<.<.<.<.<.<.<.<.<.1.<.-.-.-.-.-.-.-.-.*.*.-.-.-.-.:.-.*.*.-.-.-.2.2.<.<.<.<.<.<.<.<.<.<.<.<.<.<.<.<.<.6.<.<.1.1.1.p.J.P.P.y./ <.<.1.S.].P.P.P.`.G.i.<.6.^ y.pXjXjXjXu.1.<.<.,.2.<.<.1.<.<.<.<.<.<.<.<.<.<.<.<.<.<.<.<.<.<.<.<.<.<.<.<.<.<.<.<.<.<.<.<.<.<.<.<.<.<.<.<.<.<.<.<.<.<.<.<.<.<.<.<.<.<.<.<.<.<.<.<.<.<.<.<.",
"<.<.<.<.<.<.<.<.<.<.<.<.<.<.<.<.<.<.<.<.<.<.<.<.<.<.<.<.<.<.<.<.<.<.<.<.<.<.<.<.<.<.<.<.<.<.<.<.<.<.<.<.<.<.<.<.<.<.<.<.<.<.<.<.<.<.6.<.E ^ 1.7.5.5.<.<.<.4.4.4.<.<.p.].P.I.I.P.P.Q.5.^ 5.^ / [.jXzX5X} <.4.6.6.<.^ ^ ^ 1.<.4.4.<.<.<.<.<.<.<.<.<.<.<.<.<.<.<.<.<.<.<.<.<.<.<.<.<.<.<.<.<.<.<.<.<.<.<.<.<.<.<.<.<.<.<.<.<.<.<.<.<.<.<.<.4.4.<.<.<.<.<.<.<.<.<.<.<.<.<.<.<.<.<.<.<.<.<.<.<.<.<.<.<.<.<.<.<.<.<.<.<.<.<.<.<.<.<.<.<.<.<.<.<.<.<.<.<.<.<.<.<.<.<.<.<.<.<.<.<.<.<.<.<.1./ / G.`.I.P.P.P.J.i.1.<.2.-.6.-.C 7.|.J.P.P.I.I.`.S.*.-.6.<.1.1.'.jXkXfXfXgXiX1.1.1.1.5.<.6.2.2.2.2.<.<.<.<.<.<.<.<.<.<.<.<.<.<.<.<.<.<.<.<.<.<.<.<.<.<.<.<.<.<.<.<.2.2.2.<.<.<.<.<.<.<.<.<.<.<.<.<.<.<.<.<.<.<.<.<.<.<.<.<.<.<.<.<.<.<.<.<.<.<.<.<.<.<.<.<.<.<.1.1.<.<.<.<.*.-.<.-.<.2.6.6.<.2.4.:.4.4.4.4.-.2.2.2.<.<.<.<.<.<.<.<.<.<.<.<.<.<.<.<.<.<.<.<.6.<.<.1.1.1.p.J.P.P.y./ <.<.1.S.].P.P.P.`.G.i.<.<.^ y.pXjXjXjXu.1.<.<.,.<.<.<.1.<.<.<.<.<.<.<.<.<.<.<.<.<.<.<.<.<.<.<.<.<.<.<.<.<.<.<.<.<.<.<.<.<.<.<.<.<.<.<.<.<.<.<.<.<.<.<.<.<.<.<.<.<.<.<.<.<.<.<.<.<.<.<.<.",
"<.<.<.<.<.<.<.<.<.<.<.<.<.<.<.<.<.<.<.<.<.<.<.<.<.<.<.<.<.<.<.<.<.<.<.<.<.<.<.<.<.<.<.<.<.<.<.<.<.<.<.<.<.<.<.<.<.<.<.<.<.<.<.<.<.<.2.2.<.^ ^ 1.5.1.<.<.<.4.4.4.4.<.p.].P.P.I.I.P.Q.5.^ 5.^ / [.jXnX7Xr.<.4.6.6.2.2.^ ^ 1.<.4.4.<.<.<.<.<.<.<.<.<.<.<.<.<.<.<.<.<.<.<.<.<.<.<.<.<.<.<.<.<.<.<.<.<.<.<.<.<.<.<.<.<.<.<.<.<.<.<.<.<.<.<.<.<.<.<.<.<.<.<.<.<.<.<.<.<.<.<.<.<.<.<.<.<.<.<.<.<.<.<.<.<.<.<.<.<.<.<.<.<.<.<.<.<.<.<.<.<.<.<.<.<.<.<.<.<.<.<.<.<.<.<.<.<.<.<.<.<.<.<.<.<.1./ / G.`.I.I.P.U.J.3.^ <.2.-.6.*.C 7.@XJ.P.P.P.P.J.7.E *.6.<.1.1._.jXzXfXfXdXiX1.1.1.<.5.<.6.2.-.2.-.2.2.<.<.<.<.<.<.<.<.<.<.<.<.<.<.<.<.<.<.<.<.<.<.<.<.<.<.<.<.2.2.2.2.-.2.<.<.<.<.<.<.<.<.<.<.<.<.<.<.<.<.<.<.<.<.<.<.<.<.<.<.<.<.<.<.<.<.<.<.<.<.<.<.1.1.1.1.1.1.1.1.^ <.<.2.<.2.<.<.4.6.<.<.4.4.4.4.4.4.6.2.<.<.<.<.<.<.<.<.<.<.<.<.<.<.<.<.<.<.<.<.<.<.6.<.<.1.1.^ y.J.P.G.y.^ 1.6.5.F.].P.P.P.`.G.i.<.<.^ y.pXjXjXjXu.1.<.<.,.<.<.<.1.<.<.<.<.<.<.<.<.<.<.<.<.<.<.<.<.<.<.<.<.<.<.<.<.<.<.<.<.<.<.<.<.<.<.<.<.<.<.<.<.<.<.<.<.<.<.<.<.<.<.<.<.<.<.<.<.<.<.<.<.<.<.<.<.",
"<.<.<.<.<.<.<.<.<.<.<.<.<.<.<.<.<.<.<.<.<.<.<.<.<.<.<.<.<.<.<.<.<.<.<.<.<.<.<.<.<.<.<.<.<.<.<.<.<.<.<.<.<.<.<.<.<.<.<.<.<.<.<.<.<.<.2.6.5.5.1.2.1.1.<.<.<.4.4.4.4.<.p.].P.I.I.I.P.~.3.^ 1.^ / [.jXnX9X} I 1.4.<.2.1.1.1.<.<.4.4.<.<.<.<.<.<.<.<.<.<.<.<.<.<.<.<.<.<.<.<.<.<.<.<.<.<.<.<.<.<.<.<.<.<.<.<.<.<.<.<.<.<.<.<.<.<.<.<.<.<.<.<.<.<.<.<.<.<.<.<.<.<.<.<.<.<.<.<.<.<.<.<.<.<.<.<.<.<.<.<.<.<.<.<.<.<.<.<.<.<.<.<.<.<.<.<.<.<.<.<.<.<.<.<.<.<.<.<.<.<.<.<.<.<.<.<.<.<.<.<.<.<./ / P.`.I.I.P.U.G.3.^ ^ 2.-.6.*.C 7.@XJ.P.P.I.P.G.3.H *.6.2.1.1._.jXjXdXfXdXpX1./ 1.<.1.<.6.<.<.<.6.-.2.<.<.<.<.<.<.<.<.<.<.<.<.<.<.<.<.<.<.<.<.<.<.<.<.<.<.<.<.2.2.2.2.2.2.<.<.<.<.<.<.<.<.<.<.<.<.<.<.<.<.<.<.<.<.<.<.<.<.<.<.<.<.<.<.<.<.<.<.<.<.<.<.1.1.<.1.1.1.1.<.1.<.<.2.2.<.<.<.<.<.<.<.<.4.4.4.4.4.<.<.<.<.<.<.<.6.<.<.<.<.<.<.<.<.<.<.<.<.<.<.<.<.6.4.<.<.1.1.y.Q.P.J.3.^ <.<.5.F.].P.P.P.`.F.i.<.<./ t.sXzXzXzXs./ 1.2.-.2.<.1.1.<.<.<.<.<.<.<.<.<.<.<.<.<.<.<.<.<.<.<.<.<.<.<.<.<.<.<.<.<.<.<.<.<.<.<.<.<.<.<.<.<.<.<.<.<.<.<.<.<.<.<.<.<.<.<.<.<.<.<.<.<.<.<.<.",
"<.<.<.<.<.<.<.<.<.<.<.<.<.<.<.<.<.<.<.<.<.<.<.<.<.<.<.<.<.<.<.<.<.<.<.<.<.<.<.<.<.<.<.<.<.<.<.<.<.<.<.<.<.<.<.<.<.<.<.<.<.<.<.<.-.6.6.<.^ 1.1.1.5.^ E <.6.6.,.6.4.<.p.`.I.P.I.P.P.~.3.! 3.! / [.kXnXeXt.I 1.i.1.<.*.*.-.<.<.<.2.-.-.-.-.-.-.2.2.*.*.*.<.*.2.2.2.2.<.<.<.<.<.<.<.<.<.<.<.<.<.<.<.<.<.<.<.<.<.<.<.<.<.<.<.<.<.<.<.<.<.<.<.<.<.<.<.<.<.<.<.<.<.<.<.<.<.<.<.<.<.<.<.<.<.<.<.<.<.<.<.<.<.<.<.<.<.<.<.<.<.<.<.<.<.<.<.<.<.<.<.<.<.<.<.<.<.<.<.<.<.<.<.<.<.<.4.4.4.4.<.<.5.1.r.`._.I.I.P.G.S.3.1.<.-.-.6.C Z F.).J.P.I.I.f.`.7.7 9 6.2.<./ _.jXzXfXfXdXiXG./ 1.7.5.<.<.5.4.4.4.<.2.2.6.-.-.,.-.6.6.6.6.2.2.2.<.<.<.<.<.<.<.<.<.<.<.<.<.<.<.<.<.<.<.<.<.<.<.<.<.<.<.<.<.<.<.<.<.<.<.<.<.<.<.<.<.<.<.<.<.<.<.<.<.<.<.<.<.<.<.<.<.<.<.<.<.<.<.<.<.<.<.<.<.<.<.<.<.<.<.<.<.<.<.<.<.<.<.<.<.<.<.<.<.<.<.<.<.<.<.<.<.<.<.<.<.5.<.<.<.<.<.<.<.4.5.<.5.4.<.j./.Q.J.3.E 4.6.6.p.P.I.I.I._.F.6.2.1.! K.dXfXkXdXo.L ^ -.,.6.<.1.5.<.<.<.<.<.<.<.<.<.<.<.<.2.2.2.2.<.<.<.<.<.<.<.<.<.<.<.<.<.<.<.<.<.<.<.<.<.<.<.<.<.<.<.<.<.<.<.<.<.<.<.<.<.<.<.<.<.<.<.<.<.<.<.<.",
"<.<.<.<.<.<.<.<.<.<.<.<.<.<.<.<.<.<.<.<.<.<.<.<.<.<.<.<.<.<.<.<.<.<.<.<.<.<.<.<.<.<.<.<.<.<.<.<.<.<.<.<.<.<.<.<.<.<.<.<.<.<.<.<.2.2.2.^ ^ 3.p.S.p.5.<.<.6.,.,.,.:.<.p.`.I.I.I.P.P.~.1./ 1.! ~ [.kXnXjXd.' I 1.1.<.<.2.6.6.6.2.2.E E *.E *.*.*.*.<.<.<.<.<.2.<.6.2.2.<.2.<.2.<.2.<.2.<.2.<.2.<.<.<.<.<.<.<.<.<.<.<.<.<.<.<.<.<.<.<.<.<.<.<.<.<.<.<.<.<.<.<.<.<.<.<.<.<.<.<.<.<.<.<.<.<.<.<.<.<.<.<.<.<.<.<.<.<.<.<.<.<.<.<.<.<.<.<.<.<.<.<.<.<.<.<.<.<.<.<.<.<.<.<.4.4.4.4.4.4.2.<.6.1.1.`.P.I.I.P.D.S.3.( *.*.-.6.7 Z F.).P.P.I.'.f.`.7.7 9 6.6.<./ P.jXkXfXvXhXsXQ./ 1.5.5.5.w.5.5.4.4.<.<.<.*.-.:.:.*.-.-.-.-.2.2.<.6.6.6.6.6.<.<.<.<.<.<.<.<.<.<.<.<.<.<.<.<.<.<.<.<.<.<.<.<.<.<.<.<.<.<.<.<.<.<.<.<.<.<.<.<.<.<.<.<.<.<.<.<.<.<.<.<.<.<.<.<.<.<.<.<.<.<.<.<.<.<.<.<.<.<.<.<.<.<.<.<.<.<.<.<.<.<.<.<.<.<.<.<.<.<.<.<.<.<.<.<.<.<.<.<.<.<.4.4.<.<.<.5.<.<.7./.Q.Q.5.*.6.6.6.p.P.I.I.I._.F.6.2.2.~ L.dXfXvXdXo.~ ( -.,.,.4.5.5.<.<.<.<.<.<.<.<.<.<.<.<.2.2.2.2.<.<.<.<.<.<.<.<.<.<.<.<.<.<.<.<.<.<.<.<.<.<.<.<.<.<.<.<.<.<.<.<.<.<.<.<.<.<.<.<.<.<.<.<.<.<.<.<.",
"<.<.<.<.<.<.<.<.<.<.<.<.<.<.<.<.<.<.<.<.<.<.<.<.<.<.<.<.<.<.<.<.<.<.<.<.<.<.<.<.<.<.<.<.<.<.<.<.<.<.<.<.<.<.<.<.<.<.<.<.<.<.<.<.2.6.<.E 1.p.~.|.Q.p.1.<.6.-.,.,.4.<.p.`.P.P.I.P.P.~.3.^ 3.! / [.kXkXjX4Xt.I P 1.<.<.<.-.<.-.-.<.4.1.5.5.5.5.5.5.1.1.1.1.<.<.4.<.<.-.<.2.<.2.<.2.<.-.<.2.<.2.<.<.<.<.<.<.<.<.<.<.<.<.<.<.<.<.<.<.<.<.<.<.<.<.<.<.<.<.<.<.<.<.<.<.<.<.<.<.<.<.<.<.<.<.<.<.<.<.<.<.<.<.<.<.<.<.<.<.<.<.<.<.<.<.<.<.<.<.<.<.<.<.<.<.<.<.<.<.<.<.<.<.<.<.<.<.2.-.-.-.2.6.<.1.G.`.P.P.P.D.u.1.1.<.*.-.6.7 Z F.|.J.P.P.I.f.`.7.- q ,.6.E / `.jXfXfXvXkXsX`./ I I %.1.5.5.5.5.5.6.6.6.6.6.6.6.6.6.6.6.6.<.<.<.<.<.<.<.<.<.<.<.<.<.<.<.<.<.<.<.<.<.<.<.<.<.<.<.<.<.<.<.<.<.<.<.<.<.<.<.<.<.<.<.<.<.<.<.<.<.<.<.<.<.<.<.<.<.<.<.<.<.<.<.<.<.<.<.<.<.<.<.<.<.<.<.<.<.<.<.<.<.<.<.<.<.<.<.<.<.<.<.<.<.<.<.<.<.<.<.<.<.<.<.<.<.<.<.<.<.<.<.<.6.<.<.<.<.4.j.).`.G.5.*.6.6.<.p.P.I.I.I._.Q.6.2.2.! P.jXkXkXdXo./ 2.,.,.:.4.4.5.4.<.<.<.<.<.<.2.2.2.2.2.<.<.<.<.<.<.<.<.<.<.<.<.<.<.<.<.<.<.<.<.<.<.<.<.<.<.<.<.<.<.<.<.<.<.<.<.<.<.<.<.<.<.<.<.<.<.<.<.<.<.<.<.",
"<.<.<.<.<.<.<.<.<.<.<.<.<.<.<.<.<.<.<.<.<.<.<.<.<.<.<.<.<.<.<.<.<.<.<.<.<.<.<.<.<.<.<.<.<.<.<.<.<.<.<.<.<.<.<.<.<.<.<.<.<.<.<.<.<.<.<.^ 1.G.|.|.|.a.1.<.<.-.-.6.6.*.7.|.P.P.P.P.P.~.3.^ 3.! / [.kXkXkXjX_.r.P <.<.<.<.<.<.<.<.<.1.1.1.1.<.<.<.$.1.<.<.<.<.4.4.4.<.-.2.2.2.2.<.2.2.-.2.2.2.2.2.2.4.4.4.:.4.4.4.4.4.4.4.4.:.:.4.4.<.<.<.<.<.<.<.<.<.<.<.<.<.<.<.<.<.<.<.<.<.<.<.<.<.<.<.<.<.<.<.<.<.<.<.<.<.<.<.<.<.<.<.<.<.<.<.<.<.<.<.<.<.<.<.<.<.<.<.<.<.<.<.<.<.<.<.2.-.-.-.-.2.6.<.1.F.P.P.P.U.D.y.) ^ <.-.-.-.7 A F.|.J.P.P.I.P.|.7.- 7 ,.6.<.1.}.lXzXfXvXhXlX[.u.r.r.I U P P P <.<.1.1.1.1.<.<.<.<.<.<.<.<.6.6.<.<.<.<.<.<.<.<.<.<.<.<.<.<.<.<.<.<.<.<.<.<.<.<.<.<.<.<.<.<.<.<.<.<.<.<.<.<.<.<.<.<.<.<.<.<.<.<.<.<.<.<.<.<.<.<.<.<.<.<.<.<.<.<.<.<.<.<.<.<.<.<.<.<.<.<.<.<.<.<.<.<.<.<.<.<.<.<.<.<.<.<.<.<.<.<.<.<.<.<.<.<.-.-.2.2.2.<.<.<.6.6.<.<.<.7.W.).`.G.1.<.6.6.<.p.P.I.I.I._.F.2.*.<./ `.jXkXfX6Xu.~ <.-.:.,.4.4.4.<.<.<.<.<.<.<.<.<.2.<.2.<.<.<.<.<.<.<.<.<.<.<.<.<.<.<.<.<.<.<.<.<.<.<.<.<.<.<.<.<.<.<.<.<.<.<.<.<.<.<.<.<.<.<.<.<.<.<.<.<.<.<.<.",
"<.<.<.<.<.<.<.<.<.<.<.<.<.<.<.<.<.<.<.<.<.<.<.<.<.<.<.<.<.<.<.<.<.<.<.<.<.<.<.<.<.<.<.<.<.<.<.<.<.<.<.<.<.<.<.<.<.<.<.<.<.<.<.<.<.<.<.^ i.F.|.P.`.a.1.1.<.<.-.6.6.H 5.~.P.P.I.I.P.~.3.^ 1.! / [.zXrXjXzXpXI.r.1.1.5.5.5.5.5.7.5.<.<.<.<.<.<.<.<.<.2.-.-.-.-.-.-.2.4.4.4.4.4.4.4.4.4.4.4.4.4.4.4.4.,.,.,.,.,.,.,.,.,.,.,.,.,.,.4.<.<.<.<.<.<.<.<.<.<.<.<.<.<.<.<.<.<.<.<.<.<.<.<.<.<.<.<.<.<.<.<.<.<.<.<.<.<.<.<.<.<.<.<.<.<.<.<.<.<.<.<.<.<.<.<.<.<.<.<.<.<.<.<.<.2.2.2.-.-.-.-.2.2.^ ^ F.U.P.P.U.D.y./ 1.<.<.-.*.7 F W.|.P.P.P.I.P.|.7.- 7 -.2.<.1.}.jXzXfXfXdXlXpX5X[.[.I.a.t./ / / / ~ ~ ~ ! / ^ 1.1.2.5.1.5.5.1.5.5.5.5.4.4.<.<.<.<.<.<.<.<.<.<.<.<.<.<.<.<.<.<.<.<.<.<.<.<.<.<.<.<.<.<.<.<.<.<.<.<.<.<.<.<.<.<.<.<.<.<.<.<.<.<.<.<.<.<.<.<.<.<.<.<.<.<.<.<.<.<.<.<.<.<.<.<.<.<.<.<.<.<.<.<.<.<.<.<.<.<.<.<.<.<.<.<.<.<.<.<.-.-.-.-.-.-.*.E E ^ / ^ 1.7.F.Q.`.G.1.<.6.-.<.p.P._.I.I._.F.<.*.<.<.[.lXdXjXyXs.K E :.:.,.6.4.<.<.2.2.2.2.2.2.2.<.<.<.<.<.<.<.<.<.<.<.<.<.<.<.<.<.<.<.<.<.<.<.<.<.<.<.<.<.<.<.<.<.<.<.<.<.<.<.<.<.<.<.<.<.<.<.<.<.<.<.<.<.<.<.<.",
"<.<.<.<.<.<.<.<.<.<.<.<.<.<.<.<.<.<.<.<.<.<.<.<.<.<.<.<.<.<.<.<.<.<.<.<.<.<.<.<.<.<.<.<.<.<.<.<.<.<.<.<.<.<.<.<.<.<.<.<.<.<.<.<.^ ^ ^ / y.J.`.G.`.y./ / 1.<.<.6.6.G 1.~.U.I.P.I.`.).1.^ 1.! / [.zXrXeXzXzX8XI.t.I I / / / / I / <.<.6.2.6.6.6.6.-.-.*.*.*.*.*.-.<.<.<.<.<.<.<.<.<.<.<.<.<.<.<.<.4.4.4.4.4.4.4.4.4.4.4.4.4.4.4.4.<.<.<.<.<.<.<.<.<.<.<.<.<.<.<.<.<.<.<.<.<.<.<.<.<.<.<.<.<.<.<.<.<.<.<.<.<.<.<.<.<.<.<.<.<.<.<.<.<.<.<.<.<.<.<.<.<.<.<.<.<.<.<.<.<.2.2.2.-.-.-.-.2.2.E ^ G.P.G.P.U.G.r./ 1.<.<.-.E - F W.|.P.P.P.I.P.|.7.- 6 :.6.6.1.l.pXzXkXfXdXuXyXyXsXsXpXiX8X[.[.P.G.u. .} / / / / / / 1./ 1.^ <.<.<.<.4.4.4.<.<.<.<.<.<.<.<.<.<.<.<.<.<.<.<.<.<.<.<.<.<.<.<.<.<.<.<.<.<.<.<.<.<.<.<.<.<.<.<.<.<.<.<.<.<.<.<.<.<.<.<.<.<.<.<.<.<.<.<.<.<.<.<.<.<.<.<.<.<.<.<.<.<.<.<.<.<.<.<.<.<.<.<.<.<.<.<.<.<.<.<.<.<.<.<.-.-.-.-.-.2.2.2.1.1.3.3.y.G.J.J.].G.1.<.6.-.<.F.P._.I.I._.S.2.*.<.1.[.lXgXdXjXI.L ^ *.:.6.6.4.<.<.-.2.2.2.2.2.2.<.<.<.<.<.<.<.<.<.<.<.<.<.<.<.<.<.<.<.<.<.<.<.<.<.<.<.<.<.<.<.<.<.<.<.<.<.<.<.<.<.<.<.<.<.<.<.<.<.<.<.<.<.<.<.<.",
"<.<.<.<.<.<.<.<.<.<.<.<.<.<.<.<.<.<.<.<.<.<.<.<.<.<.<.<.<.<.<.<.<.<.<.<.<.<.<.<.<.<.<.<.<.<.<.<.<.<.<.<.<.<.<.<.<.<.<.<.<.<.<.<.1.1.^ 1.a.P.`.G.P.a.1.1.<.<.<.-.6.G <.~._.I.P.I.`.).5.^ 5.^ ^ [.kXfXfXkXzXjX9X5Xu.u.t.t.t.r.r.r./ / / ^ E E E E ^ -.Q Q Q Q Q Q <.<.<.<.<.1.<.<.<.<.<.<.<.<.<.<.<.<.<.<.<.<.<.<.<.<.<.<.<.<.<.<.<.<.<.<.<.<.<.<.<.<.<.<.<.<.<.<.<.<.<.<.<.<.<.<.<.<.<.<.<.<.<.<.<.<.<.<.<.<.<.<.<.<.<.<.<.<.<.<.<.<.<.<.<.<.<.<.<.<.<.<.<.<.<.<.1.1.1.<.2.2.2.2.<.6.^ ! G.P.G.P._.G.1./ <.<.<.:.G o F Q.|.G.P.P.I.P.].7.= = :.6.5.$.t.8XpXjXzXdXyXuXuXsXlXlXlXsXsXsXsXiXiX+X[.[.u.y.y./ / / ! ! 1.1.<.<.<.<.<.<.<.<.<.<.<.<.<.<.<.<.<.<.<.<.<.<.<.<.<.<.<.<.<.<.<.<.<.<.<.<.<.<.<.<.<.<.<.<.<.<.<.<.<.<.<.<.<.<.<.<.<.<.<.<.<.<.<.<.<.<.<.<.<.<.<.<.<.<.<.<.<.<.<.<.<.<.<.<.<.<.<.<.<.<.<.<.<.<.<.<.<.<.<.<.<.<.2.-.-.-.6.7.m.F.S.F.F.G.G.U.U.P.].F.1.<.6.-.<.F.P._.I.I.U.S.2.*.1.1. XlXdXfXkX;X} / <.<.<.4.<.<.<.-.-.2.2.2.2.2.<.<.4.4.4.4.4.<.<.<.<.<.<.<.<.<.<.<.<.<.<.<.<.<.<.<.<.<.<.<.<.<.<.<.<.<.<.<.<.<.<.<.<.<.<.<.<.<.<.<.<.<.<.<.<.<.",
"<.<.<.<.<.<.<.<.<.<.<.<.<.<.<.<.<.<.<.<.<.<.<.<.<.<.<.<.<.<.<.<.<.<.<.<.<.<.<.<.<.<.<.<.<.<.<.<.<.<.<.<.<.<.<.<.<.<.<.<.<.<.<.<.1.1.^ 1.a.`._.P.`.a.1.1.<.<.<.-.6.G ^ ~._.P.I.I.`.).5.<.6.^ ^ [.fXbXkXfXjXfXzXjXjXlXlXpXpX8X8X5X_.`.`.P.a.r.y.y.~ ~ / ! ! ! ^ ^ 1.1.1.1.1.1.1.1.1.1.1.1.1.1.1.1.1.1.<.1.<.1.<.1.<.1.<.1.1.1.1.<.<.<.<.<.<.<.<.<.<.<.<.<.<.<.<.<.<.<.<.<.<.<.<.<.<.<.<.<.<.<.<.<.<.<.<.<.<.<.<.<.<.<.<.<.<.<.<.<.<.<.<.<.<.<.<.<.<.<.<.<.<.<.<.<.1.1.1.1.<.<.<.<.<.1./ / G.P.G.P._.G.1./ <.4.6.:.G o F W.|.G.P.P.I.P.].7.= = :.,.7.H I f.8XjXzXjXlXlXlXuXuXsXlXlXsXsXsXsXsXsXsXsXsXsXsXaX#X#X@X@XW.F.j.7.7.5.4.<.<.<.<.<.<.<.<.<.<.<.<.<.<.<.<.<.<.<.<.<.<.<.<.<.<.<.<.<.<.<.<.<.<.<.<.<.<.<.<.<.<.<.<.<.<.<.<.<.<.<.<.<.<.<.<.<.<.<.<.<.<.<.<.<.<.<.<.<.<.<.<.<.<.<.<.<.<.<.<.<.<.<.<.<.<.<.<.<.<.<.<.<.<.<.<.<.<.<.<.<.5.F.Q.|.F.`._.P.P.U.P.D.].F.1.<.6.:.<.F.P.Y.I.I.U.F.-.*.1.r. XlXgXkXhX6Xs.u./ P / 1.1.1.<.<.<.<.<.2.2.<.<.<.4.4.4.4.4.4.<.<.<.<.<.<.<.<.<.<.<.<.<.<.<.<.<.<.<.<.<.<.<.<.<.<.<.<.<.<.<.<.<.<.<.<.<.<.<.<.<.<.<.<.<.<.<.<.",
"<.<.<.<.<.<.<.<.<.<.<.<.<.<.<.<.<.<.<.<.<.<.<.<.2.2.2.2.2.2.2.2.<.<.<.<.<.<.<.<.<.<.<.<.<.<.<.<.<.<.<.<.<.<.<.<.<.<.<.<.<.<.<.<.1.1.^ / a.`.|.`.`.a./ ^ <.6.6.6.:.7 6.~.U.P.s.P.Q.W.5.*.<.6.7.U.kXvXfXfXfXkXkXdXgXgXgXjXjXjXjXkXkXkXkXkXkXkXkXkXjXjXyX6X5X;X=XI.P.G.a.u.y.} } ~ I ~ I L I L L K ! ! ! ! / ! / ~ / / / / / / / 1.6.6.6.<.<.<.<.<.<.<.<.<.<.<.<.<.<.<.<.<.<.<.<.<.<.<.<.<.<.<.<.<.<.<.<.<.<.<.<.<.<.<.<.<.<.6.6.6.<.<.<.<.<.<.<.<.<.<.<.<.6.6.6.<.^ ^ ^ 1.<.<.<.<.1.<./ / 1.y.G.P.`.a./ ^ <.6.,.-.7 X <./.Q.U.D.P.K.U.].3.; 9 ;.;.*.<.%.r.u.5XyXyXtXtXtXtXtX+X+X+XY.Y.Y.U.P.P.P.P.u.u.S.S.S.S.S.S.p.p.7.7.5.4.4.<.4.<.<.<.<.<.<.<.<.<.<.<.<.<.<.<.<.<.<.<.<.<.<.<.<.<.<.<.<.<.<.<.6.6.6.6.6.6.6.6.<.<.<.<.<.<.<.<.<.<.<.<.<.<.<.<.<.<.<.<.<.<.<.<.2.2.2.2.2.2.2.6.<.<.<.<.<.<.<.<.<.<.<.<.<.<.<.<.<.<.<.<.<.<.<.<.6.<.<.5.W.Q.Q.`.`.`.P.P.I.I.I.I._.3.<.-.n.-.G p.|.P._.P.].F.A E / a.[.yXgXhXhXdXzXyXI.t.I L ~ / 1.<.E E *.<.5.5.6.4.4.4.6.6.4.4.<.<.<.<.<.<.<.<.<.<.<.<.<.<.<.<.<.<.<.<.<.<.<.<.<.<.<.<.<.<.<.<.<.<.<.<.<.<.<.<.<.<.<.<.<.<.<.<.",
"<.<.<.<.<.<.<.<.<.<.<.<.<.<.<.<.<.<.<.<.<.<.<.<.<.<.<.<.<.<.<.<.<.<.<.<.<.<.<.<.<.<.<.<.<.<.<.<.<.<.<.<.<.<.<.<.<.<.<.<.<.<.<.<.<.<.1.1.p.Q.|.Q.F.p.1.^ <.2.6.,.*.6 6.~.U.P.u.P.Q.W.1.*.<.2.2.y.-XfXfXfX2X2X2X2XdXdXdXdXgXgXgXjXrXcXcXcXcXrXrXrXfXfXfXjXjXjXjXjXlXsXsXsXsXsXiXiX[.[.[.[.U.P.P.P.y.y.y.y.) / / / K K K K K J K K E <.*.<.<.<.<.<.<.<.<.<.<.<.<.<.<.<.<.<.<.<.<.<.<.<.<.<.<.<.<.<.<.<.<.<.<.<.<.<.<.<.<.<.<.<.<.<.<.<.<.<.<.<.<.<.<.<.<.<.<.<.<.<.^ ^ / 1.<.<.1.1.1.1.1.1.i.a.G.].G.3.1.<.<.6.,.:.q X 6./.Q.].D.P.K.U.~.3.7 8 =.:.q.w.5.%./ r.u.| ~ ~ ~ ~ ~ ~ ~ ~ ~ ~ ~ ~ ~ ~ L L ~ ~ ! ! ! ! / / 1.<.<.<.<.<.4.4.<.<.<.<.<.<.<.<.<.<.<.<.<.<.<.<.<.<.<.<.<.<.<.<.<.<.<.<.<.<.<.<.<.<.<.<.<.<.<.<.<.<.<.<.<.<.<.<.<.<.<.<.<.<.<.<.<.<.<.<.<.<.<.<.<.<.<.<.<.<.<.<.<.<.<.<.<.<.<.<.<.<.<.<.<.<.<.<.<.<.<.<.<.<.<.<.<.<.1.p.Q.Q.`.`.`.P.P.I.I.L.L.L._.3.1.-.6.-.G H.`.P.I.I.].F.R E ^ u.tXzXhX2X3XnXfXdXyX5XI...{ B K ^ 5.7.7.5.<.H *.*.*.<.4.6.6.4.<.<.<.<.<.<.<.<.<.<.<.<.<.<.<.<.<.<.<.<.<.<.<.<.<.<.<.<.<.<.<.<.<.<.<.<.<.<.<.<.<.<.<.<.<.<.<.<.",
"<.<.<.<.<.<.<.<.<.<.<.<.<.<.<.<.<.-.2.2.2.2.-.-.6.6.2.2.2.2.2.2.<.<.<.<.<.<.<.<.<.2.<.2.<.2.<.2.<.<.<.<.<.<.<.<.<.2.<.2.<.2.<.2.2.2.6.6.7.Q.~.Q.p.3.1.<.6.6.,.:.i 6 2.H.P.P.s.P.`.W.<.H <.-.Q ^ s.:XkXzXgXgXlXlXlXlXjXjXjXjXjXzXkXbXbXkXkXkXkXkXkXkXkXkXzXzXzXzXsXsXsXsXsXsXsXsXsXsXsXsXsXsXsXsXaXaXaXiX#X+X+X+X[.[._.U.G.G.G.F.m.m.7.6.6.2.<.<.<.<.<.<.<.<.<.<.<.<.<.<.<.<.<.<.<.<.<.<.<.<.<.<.4.<.<.<.<.<.<.<.<.<.<.<.<.<.<.<.<.<.<.2.6.6.6.6.<.<.<.<.<.2.<.6.1.1.1.1.<.<.<.<.<.<.<.1.1.i.a.G.3.1.*.*.,.,.:.&.q - 5./.Q._.P.I.K.P.~.3.7 8 >.>.,.6.<.$./ / ! K ~ ~ ~ ~ ~ ~ ~ ~ / / / / 1.1.1.1.! ! ^ ^ ^ ^ ^ ^ ^ <.<.<.<.4.6.6.<.<.<.<.<.<.<.<.<.2.<.2.<.2.<.2.<.2.<.2.4.2.<.2.6.6.6.6.6.6.6.6.<.2.<.2.<.6.<.2.<.<.<.<.<.<.<.<.<.<.<.<.<.<.<.<.<.<.<.<.<.<.<.<.<.2.2.2.2.2.2.2.2.2.2.2.-.-.-.<.<.<.<.<.<.<.<.<.<.<.<.<.<.<.<.<.<.<.1.W.|.|.`.`.`.`.`.I.I.I.I.P.].3.1.-.,.*.A W.G.s.I.P.].F.A Q ^  .Y.lXzX2X2XnX<XfXkXzXjXtX;XK.y.1.1.1.1.1.1.<.6.6.<.<.6.6.4.-.<.<.<.<.<.<.<.<.<.<.<.<.<.<.<.<.<.<.<.<.<.<.<.<.<.<.<.<.<.<.<.<.<.<.<.<.<.<.<.<.<.<.<.<.<.<.<.<.",
"<.<.<.<.<.<.<.<.<.<.<.<.<.<.<.<.<.2.2.2.2.2.-.-.6.6.2.2.2.2.2.2.2.2.2.2.2.2.2.2.<.2.<.2.<.2.<.2.<.2.<.2.<.2.<.2.<.2.<.2.<.2.<.2.-.2.2.2.5.m.F.7.1.1.<.<.6.,.:.;.w = 2.H.G.P.P.P.`.W.<.G *.2.*.^ { K.tXtXtXtXtXyXtXtXtXtXtXiXiXiX5X6X6X6X6X6X5X5X4X4X4X[.[.[.[.[.U._.[._.[._.[._.[.[.[.[.[._.[._.].J.J.J.~.J.J.J.].].J.J.F.G.G.F.W.B.B.7.6.<.<.*.<.<.<.<.<.<.<.<.<.<.<.<.<.<.<.<.<.<.<.<.<.<.<.<.<.<.<.<.<.<.<.<.<.<.<.<.<.<.<.<.<.-.<.2.2.2.6.6.<.2.2.2.2.2.2.2.2.2.2.2.<.<.<.<.4.<.<.<.1.1.3.7.3.2.-.,.,.,.;.&.q 7 7./.Q._.I.I.L.P.J.3.7 8 l ;.;.:.:.<.6.2.2.( ^ ^ ^ ^ 2.( ( ( ^ ^ ^ ^ <.<.6.6.2.( 2.2.6.6.6.6.6.6.<.2.<.<.<.<.<.-.<.-.<.-.<.-.<.2.<.2.<.2.<.-.<.2.<.2.<.2.<.2.<.2.<.2.<.2.<.2.2.2.2.2.6.2.2.2.2.2.2.2.2.2.2.2.<.<.<.<.<.<.<.<.<.<.<.<.<.<.<.<.2.2.2.2.2.2.2.2.2.2.2.2.-.-.-.-.<.<.<.<.<.<.<.<.<.<.<.<.<.<.<.<.1.<.5.F.Q.W.F.a.Q.`.`.P.P.P.P.P.G./ 1.2.,.*.D W.G.D.I.P.].F.A G 7.1.y.E.uXgX3X3X<XwXfXkXzXzXgXsXiX_.y.I P P 1.5.5.<.<.<.6.6.6.-.<.<.<.<.<.<.<.<.<.<.<.<.<.<.<.<.<.<.<.<.<.<.<.<.<.<.<.<.<.<.<.<.<.<.<.<.<.<.<.<.<.<.<.<.<.<.<.<.",
"<.<.<.<.<.<.<.<.<.<.<.<.<.<.<.<.<.2.2.2.-.-.-.-.-.-.-.-.-.-.-.-.-.-.-.-.-.-.-.-.-.-.-.-.*.-.*.*.-.-.-.-.-.-.-.-.-.-.-.-.-.-.-.-.-.-.-.*.<.6.6.<.6.<.<.-.:.&.g w 8 = 2.H.J.U.P.P.`.Q.<.D *.6.6.3.^ ) y. .) ) / ~ {  .} } i.r.i.r.3.) 1.) 1.) 1.) 1.) ) ) ( ^ ^ ^ 3.1.r.1.1.1.1.1./ / / / / ! I ! K K K K K / / / / / ! ! K K K K E *.*.*.<.<.<.<.<.<.<.<.<.<.<.<.<.<.<.<.<.<.<.<.<.<.<.<.<.<.<.<.<.<.<.<.<.<.<.<.<.<.<.<.<.<.<.<.*.*.*.-.-.-.-.-.-.-.-.-.*.*.*.*.-.-.-.-.2.6.6.6.0.6.6.6.6.2.6.2.6.-.>.,.,.>.;.l q 7 7./.J.U.I.I.P.P.J.7.7 6 w f ;.>.,.6.6.-.Q Q *.*.*.*.-.-.Q Q E E -.-.-.6.4.4.*.*.*.*.*.*.*.2.6.6.6.2.<.-.<.*.*.*.*.*.*.*.*.*.-.-.-.-.-.-.-.-.-.-.-.-.-.-.-.-.-.-.-.-.-.-.-.-.-.-.-.-.-.-.-.-.-.-.-.-.-.-.-.-.*.<.<.<.<.<.<.<.<.<.<.<.<.<.<.<.2.2.6.6.6.6.6.6.2.2.2.2.-.-.-.-.<.<.<.<.<.<.<.<.<.<.<.<.<.<.<.<.6.^ <.7.7.5.5.7.3.3.i.i.3.3.i.i.y./ 6.2.,.R D W.J.P.I.P.J.F.C 9 2.6.( ) T.sXzXdXfXkXrXeXeXjXgXsXlXsXiX X`.a.1.P ^ P E *.2.6.6.6.<.<.<.<.<.<.<.<.<.<.<.<.<.<.<.<.<.<.<.<.<.<.<.<.<.<.<.<.<.<.<.<.<.<.<.<.<.<.<.<.<.<.<.<.<.<.<.<.",
"<.<.<.<.<.<.<.<.<.<.<.<.<.<.<.<.2.2.2.2.-.-.-.2.6.6.6.6.6.6.6.6.6.,.6.,.6.,.6.,.6.,.6.,.6.,.2.-.6.6.6.6.6.6.6.6.6.6.6.6.6.6.6.,.,.,.,.-.-.2.2.*.2.2.*.*.e w w , 8 = v.!.J.U.P.P.`.Q.<.q G -.-.2.2.2.-.E ^ 2.( T ^ ^ ^ 1.<.<.<.<.*.E *.*.*.-.-.-.-.-.*.*.-.-.-.<.1.1.<./ / ^ P ^ 1.1.1.1.1.1.1.1.<.<.<.<.<.<.<.<.1.<.1.<.<.<.<.<.<.<.<.<.<.2.6.6.2.2.2.2.2.2.2.2.6.6.6.6.6.6.6.6.<.<.<.<.<.<.<.<.<.<.<.<.<.<.<.<.6.6.6.6.6.<.<.2.6.,.6.,.2.-.2.,.-.-.-.-.-.:.*.*.*.=.=.=.=.-.:.:.:.:.:.;.;.&.R R i i i i l u w w 7 9 B./.J.Y.I.I.P.P.J.b.9 , w 4 f g g *.*.W R W =.>.>.>.-.>.-.-.-.-.,.,.,.8.q.q.*.*.*.*.-.-.:.:.-.2.2.2.6.6.6.6.2.-.2.-.2.-.2.-.6.6.6.6.6.,.6.,.6.,.6.6.6.6.6.6.6.,.6.,.6.,.6.,.2.-.2.-.2.-.2.-.6.,.6.,.6.,.6.6.<.<.<.<.<.<.<.<.<.<.<.<.<.<.<.2.2.2.2.2.2.2.2.2.2.2.2.2.-.-.-.-.<.<.<.<.<.<.<.<.<.<.<.<.<.<.<.<.3.2.E 2.2.E ^ 2.^ ^ <.^ <.<.1.^ / ! 6.6.-.G C (.J.P.[.P.].W.C 7 q ,.2.! ) E.lXgXkXbXbXkXkXjXlXsXlXlXlXlXlXsX+X|.p.7.5.6.6.6.,.6.<.<.<.<.<.<.<.<.<.<.<.<.<.<.<.<.<.<.<.<.<.<.<.<.<.<.<.<.<.<.<.<.<.<.<.<.<.<.<.<.<.<.<.<.<.<.<.<.",
"<.<.<.<.<.<.<.<.<.<.<.<.<.<.<.<.2.2.-.-.-.-.-.-.6.6.6.6.6.6.6.6.-.-.-.-.-.-.-.-.-.-.-.-.-.-.-.-.-.-.-.-.-.-.-.-.:.-.:.-.:.-.:.-.&.=.=.*.*.*.*.E *.R G e q w w 2 1 8 n.!.J.U.P.P.Q./.5.7 q G G R >.>.;.;.-.n.6.-.-.-.-.,.4.4.4.4.-.-.-.-.6.6.,.6.2.2.6.6.2.6.6.6.6.6.5.5.5.6.6.6.5.6.5.6.5.6.5.6.4.4.4.:.4.-.<.-.4.:.4.4.4.4.4.2.7.6.6.6.6.2.<.<.<.<.<.<.<.<.<.<.<.<.<.<.<.<.<.<.<.<.<.<.<.<.<.<.<.<.<.<.<.<.<.<.<.<.<.<.<.<.<.<.2.-.-.-.*.-.*.*.*.*.*.*.*.*.*.*.i p i i i i l l e e e w w w 8 8 8 1 1 1 1 1 2 , 8 e W./.G.[.I.I.P.P.J.m.Y 8 w w 2 2 q e i 8 s p w k u u w w e 9 i i l l l l h l &.R &.&.&.*.*.*.*.*.*.*.*.*.-.-.*.*.*.*.*.*.*.*.:.-.:.-.:.-.:.-.:.-.:.-.:.-.:.-.-.-.-.-.-.-.-.-.-.-.-.-.-.-.-.-.-.-.-.-.-.-.-.-.<.<.<.<.<.<.<.<.<.<.<.<.<.<.<.2.-.-.-.-.-.-.-.-.2.-.-.-.-.-.-.2.<.<.<.<.<.<.<.<.<.<.<.<.<.<.<.2.2.Q Q Q Q E -.2.-.-.-.-.-.-.-.2.^ ^ 6.-.*.9 C ).G.P.[.P.].~.A 6 0 l =.Q ! y.I.4X-X0X0X0X9X9X8X8X4X4X=X4X5XiXiX#XQ.F.7.3.2.2.:.*.<.<.<.<.<.<.<.<.<.<.<.<.<.<.<.<.<.<.<.<.<.<.<.<.<.<.<.<.<.<.<.<.<.<.<.<.<.<.<.<.<.<.<.<.<.<.<.<.",
"-.-.-.-.-.-.-.-.-.-.2.-.2.-.-.-.-.-.-.-.-.-.-.-.*.*.*.*.*.*.*.*.R R R R R R R R e e e e e e e e 9 9 9 9 9 9 9 9 9 9 9 9 9 9 9 9 6 8 q q q 9 9 7 7 q q 7 0 w w l 8 7 m./.J._.P.`.`./.5.C 7 q 7 6 w w w w w e e 8 e e e e e g g g e e e e e e e e O.O.O.G G D D e D D D D D G G G G G G G O.G O.O.&.&.&.&.&.&.&.&.&.&.&.&.&.&.&.*.G G R R E *.*.*.*.*.*.*.*.*.*.*.G G G G G G G G G R O.*.*.*.O.*.R R R R R R R R R R G R G G G G G i e e e 9 9 9 e e e 9 q 8 8 8 1 1 1 1 1 1 2 2 2 2 w w w 1 1 1 8 8 1 1 8 w u e q D W.).G.[.P.I.P.D.U.F.Q 9 q w w w w i w & & 1 w 4 4 2 8 8 8 1 8 8 w w w 0 0 w 0 0 0 8 0 8 8 8 8 8 q 9 9 9 9 9 9 8 8 8 8 8 8 8 9 9 9 9 9 9 9 9 9 9 9 9 9 9 9 9 e e e e e i e e e e i i i i i i i i i i i i i R R *.*.*.*.*.*.*.*.*.*.*.*.*.*.R *.*.:.:.:.:.:.:.-.-.-.-.-.-.-.-.-.2.2.2.2.2.2.2.2.2.2.2.2.2.2.-.-.Q -.-.-.W -.c.>.>.-.>.-.-.-.-.2.E 2.*.G 9 Z @XG.P._.P.].~.S 7 g w w &.-.^ / I e.e.e.e.%.I 1./ I ' ' } / / P K 5.1.<.*.*.:.-.-.-.2.2.2.2.2.2.2.2.2.2.2.2.2.2.2.2.2.2.2.2.2.2.2.2.2.2.2.2.2.2.2.2.2.2.2.2.2.2.2.2.2.2.2.<.<.2.2.",
"l x a i i e e 9 q 9 9 9 9 8 8 8 q q w w w w w w 6 6 6 6 0 q q q 0 0 0 0 0 0 0 0 0 0 0 0 0 0 0 0 6 6 8 8 8 8 8 9 8 8 8 8 8 6 = = 6 7 7 7 7 7 7 7 = 6 6 6 6 6 9 9 *.p./.Q.`._._.`.`.W.5.F 7 7 ; = 8 w 8 0 6 6 6 6 6 6 6 6 0 0 0 0 0 , 0 0 w w w w , 0 0 0 0 0 , , 0 0 0 0 0 0 0 0 0 0 0 0 0 0 0 w , , , , , , , , 2 1 2 2 2 2 2 1 6 % = 6 6 6 6 6 7 7 7 7 7 7 q 0 w w w w w w w w 2 2 2 2 0 2 0 2 , , 2 2 2 2 2 2 w w w w w w w w w w w w w w w w w w w w w w w w 1 1 1 4 4 1 1 1 , 1 1 1 1 4 4 1 8 6 6 6 6 7 7 7 - E F.|.].J.P.P.P.P.J.~.!.2.9 . 6 6 q w w w 4 2 2 w w w w w w w w w w w w w w w w 8 w w w w w w w w w w w w w w w w w w w w w w w w w w w w w 0 2 0 0 0 0 0 0 2 2 2 0 w w w w w 2 2 1 1 1 1 1 1 1 1 1 1 2 1 2 , 0 0 0 0 0 0 0 0 0 0 0 0 0 0 0 0 8 8 8 w q q w w w w q q q q q q q 9 q 9 q 9 q 9 q q 9 9 e e e e u u u u u u u u i i i i i u i i 9 A Y 9 O O ^ |.Q._.`.P.|.).3.C w 0 , 0 e ;.-.:.4.4.4.4.:.:.,.,.4.4.<.<.<.<.4.6.6.6.6.,.,.,.,.,.,.,.,.,.,.,.,.,.,.,.,.,.,.,.,.:.:.:.:.:.:.-.-.-.:.-.=.=.=.;.;.;.&.W W W R R R R R R O.O.O.O.O.O.",
", , , , , % , % 6 8 8 8 8 8 8 8 7 7 7 7 7 7 7 7 q 7 q q q q q e 7 7 7 7 7 7 7 7 6 6 6 6 6 6 6 6 = > = = ; = 6 ; ; = 6 = 6 8 6 7 D C D C C C D C E E E E *.E *.<.p.`.|._.`.`.`.`.`.`.W.3.<.2.-.Q e e e e 9 9 9 9 7 6 7 6 7 6 7 7 6 , , , , , , , 0 0 0 0 0 0 , , w w 8 w q 8 q q q w q w q w q w w w w w w w 8 8 w w w w w w w 8 8 8 8 8 8 8 9 8 8 8 q q q q q q 8 8 8 8 8 8 w w w w w w f f f f 0 w w w 0 0 0 0 0 0 0 0 0 0 0 0 , 6 6 0 6 6 6 6 0 0 0 0 0 0 0 0 6 0 0 0 0 6 6 6 6 6 6 6 0 7 8 8 e 9 e D G H H H ^ y.~.|.U.J.G.P.P.P.P.U.~.F.2.E 9 9 8 8 0 2 2 2 w w w w q q q q w w w w q q q w 8 8 8 8 8 8 8 8 w 8 8 8 8 8 8 8 w w q w w w q q w w w w w w w w w w w w w w w w w w w w w w w w w w w w w w w w w w w w w w w w w w q w q w w w q w q w w w w w w w q w w w w w 8 8 w w w w q q 7 6 7 6 7 6 7 6 6 6 6 6 7 8 9 8 = % = % = % % % = % = % = % 6 = > > = : n S i.|.`._._.`.`.|.S.^ X 0 e e e e &.>.8.,.,.,.,.>.>.>.:.:.:.:.:.:.:.:.&.&.&.&.&.&.&.&.&.R &.&.&.&.&.&.O.i O.i &.i &.i q q q q q 8 q 8 q 8 q 8 q 7 7 7 8 8 ; 6 6 6 6 6 8 8 q q q q q q ",
"6 6 6 6 7 9 9 9 = = 6 - 7 7 7 7 7 7 7 7 7 7 7 7 - - 7 7 7 7 7 7 *.*.*.*.*.*.*.*.*.*.*.*.*.*.*.*.6.3.7.6.7.v.m.v.m.m.m.m.m.m.m.m.^.W.^.W.W.W.^.W././././././.).).).|.|.`.l.l.`.'.`.`.`.Q./.~.(.W.!.W.W.V.W.B.B.B.6.6.4.6.6.6.6.6.-.-.:.:.*.*.*.*.*.*.*.*.*.*.*.*.e e e e e e e e 9 7 7 8 7 7 9 9 6 7 6 6 6 6 6 6 6 6 6 6 6 6 6 = - - - - - - 7 7 7 7 7 7 7 7 7 7 D D F D F D F D D q q q D q D q D G D G D G D D *.*.*.*.+.*.*.*.<.<.<.*.*.*.*.*.<.<.<.<.<.<.<.<.<.<.<.<.<.<.<.<.7.7.7.7.B.B.B.B.W.W.W.(.(././.).Q.~.].].P.P.P.P.P.P.P.P.].].~.F.E G 9 9 7 8 q e 8 9 9 9 9 9 9 9 7 q 8 8 q q q q 6 6 6 6 6 6 6 6 6 6 6 6 6 6 6 6 6 0 0 0 0 0 0 0 6 6 6 6 6 6 6 6 6 6 6 6 6 6 6 6 6 0 0 0 0 7 7 7 6 6 6 6 6 0 0 0 0 0 0 6 6 6 6 6 7 0 7 0 7 0 7 7 7 0 7 0 7 0 7 6 7 7 6 6 6 6 6 6 6 6 6 6 7 7 6 6 6 = 7 = 7 = 7 = 7 7 7 7 7 7 7 9 Z Z F Z Z Z Z Z H H H H H H H E Q E Q ( 7.S.G.`.P.`.`.P.G.|.].F.q q q 7 6 0 7 q q q q 7 7 0 6 6 q q q q q q q q q q q q 7 q 7 q 6 = 6 = 6 6 7 6 6 = 6 6 6 6 6 6 q q q q q 9 q 9 q q q q q q q q 7 : 7 9 9 9 9 9 7 7 q q 7 7 7 7 ",
"2.2.2.6.6.6.7.7.6.7.7.7.7.m.7.7.S.S.F.S.F.F.F.F.).).~.~.~.~.).~.W.W.W.F.W.F.!.!./.~./.~./.~./.)././.).).).).).).].).|.).~.~.~.~.|.|.|.|.|.|.|.|.Q.Q.Q.Q.Q.Q.`.|.Q.|._.`.`.`.}.}.f.P.`.`.|.].~./.).).).).Q.Q.Q.Q.|./.|.).|./.|.)././././././././.^.^.^.^.^.^.^.^.(.(.(.(.(.(.(.(.).(.).(.)..X)..X).).).).).).).(.(.(.(.(.(.(././.~.~./././.).).)././././.(.(././.W.W.W.W.W.Q.Q.Q.|.|.|.|.|.|.|.|.Q.Q.Q.Q.Q.Q.Q.Q./.Q.Q.Q.Q.Q.Q.Q.{.{.`.`.`.`.`.`.{.{.`.`.`.`.`.`.{.{.{.{.{.{._._.`.`.`.`.`.`.{.|././.).).).).Q.Q.`.P.P.P.P.P.P.I.Y.P.I.P.P.U.].~.~./.W.V.B.B.B.V.m.m.m.m.m.m.m.m.m.m.m.m.m.m.m.m.m.v.m.v.n.n.n.n.m.n.6.v.6.v.6.v.6.6.6.6.6.6.6.6.6.2.6.2.6.6.6.2.6.2.6.6.6.6.6.6.6.6.6.6.6.6.6.6.6.6.6.6.6.6.6.6.6.6.6.6.6.6.6.6.6.6.6.6.6.6.6.6.6.6.6.6.6.6.6.6.6.6.6.6.6.6.6.2.6.6.6.6.6.6.6.6.7.7.7.7.7.7.7.7.m.7.m.m.m.m.m.F.p.a.a.a.a.a.a.a.a.a.G.G.Q.Q.Q.Q.OX!.~.~.].|.`.`.f._.`.I.P.`._.~.V.*.= . = 6 6 X 9 9 9 9 9 q 7 7 = X X X X X X X 7 7 7 7 7 7 7 7 - = - 7 7 7 7 q 7 7 9 9 9 9 9 9 7 7 7 7 7 7 7 7 7 7 C C C C C C C m C C C C Z Z *.*.*.*.*.-.-.-.",
"Q.Q.Q.Q.Q.).).).Q.).|.|.|.|.|.|.].U.].U.].U.].U.J.G.J.G.J.G.P.P.].U.].U.].U.].U.U.U.U.U.].U.].U.P.`.`.`.`.`.`.`.`.`.`.Q.P.G.G.G.`.`.`.`.`.`.`.`.P.P.P.P.P.P.`.`.G.J.`.`.`._._.}.I.f.P.P.P.J.J.~.`.`.`.`.`.`.`.`.`.`.`.`.`.`.`.`.`.`.`.`.`.`.`.`._.|.|.|.|.|.|.|.G.F.F.F.F.F.F.F.Q.~.Q.~.~.~.Q.Q.Q.Q.Q.G.Q.Q.G.G.J.J.Q.Q.Q.Q.Q.Q.G.G.G.G.G.Q.Q.Q.Q.Q.Q.Q.Q.Q.Q.Q.[.[.[.}.}.}.}.}.`.`.`.`.`.`.`.`.}.[.}.}.}.}.}.}._._._._._._._._.'._.'.'.`.`.`.'.}.}._._._.}.}._.'._._._.`.`.`._.I.I.I.I.I.I.I.`.`.Q.Q.Q.G.G.G.G.P.P.K.K.P.Y.I.I.I.I.I.I.I.P.P.P. X|.|.).).~.~.~.~.~.].~.].~.].~.].~.].~.].~.].~.~.~.~.~.~.~.~.~.~.~.~.~.~.).~.).~.~.).).).~.).).)./.)./.)./././.).)./.~./.~.).~./.~.).~.).).).|.|.|. X X X X X X|.|. X X X X|.|.).).).).|.).).).).).|.).).).).).|.).).)././.)./././././.)./.).).).|.|.|.|.|.|.|.|.|.|.|.).|.|.|._._._._._._._._.P.`.`.`.`._._._.F.J.J.G.P.P.P.I.f.I._.P.P.P.P.~.XXm.G 9 G R G 9 7 7 7 7 7 9 9 9 E E E E E E E E <.<.<.<.<.<.<.<.<.2.2.2.6.6.6.3.7.7.7.7.7.7.7.7.W.Q.Q.Q.Q.Q.Q.Q.Q././.Q.Q.).).).~.~.~.~.).).).).Q.Q././././././.",
"`.`.`.`.`.`.P.P.a.a.G.G.G.G.P.P.G.D.K.D.K.D.K.D.P.P.P.U.P.U.P.U.P.P.P.P.P.P.P.P.K.K.P.K.P.P.P.P._._._._.}.}.}.}.'.`._._._._.}.[._._.'._._._._._.'._._._._._.}.[.P.J.P.`._.I.I.I.'.'.I.I.I.P.P.`.'.'.'.'.'._._._.I.I.f.f.I.I.I.I.f.f.f.I.I.I.I.I.I.I.I.I.I.I.I.P.[._.[.[._._.[.[.P.P.P.P.U.P.P.P.P.P.P.P.P.P.P.I.P.P.P.P.P.P.P.P.I.I.I.I.`._.`.`.`.`._.`.`.`._.`.f.P.f.P.f.f.f.f.'._.'.`.`._.'.`.I.P.I.P.I.P.I.P.I.P.I.P.I.P.I.I.I.I.I.I.I.I.I.I.I.I.I.I.I.I.I.I.I.I.I.I.P.P.I.I._._.I.I.I.I.I._.`.`.`._.}.[.[.[.I.I.I.Y.Y.I.I.L.I.I.I.I.I.I.I.I.u.a.G.G.G.G.G.G.G.G.G.G.G.G.G.G.G.G.G.G.G.G.G.G.G.G.G.G.G.G.G.G.J.G.G.G.G.G.G.G.J.J.J.J.J.J.J.J.G.G.G.G.G.G.G.G.G.G.G.G.G.G.J.G.G.G.J.J.J.J.Q.J.Q.Q.`.`.`.`.`.`.`.`.`.`.`.`.`.Q.Q.Q.Q.Q.Q.Q.`.`.Q.Q.Q.`.Q.Q.Q.Q.Q.Q.Q.Q.Q.Q.G.G.G.G.G.G.Q.Q.J.Q.G.G.G.G.G.G.G.G.G.a.G.G.G.G.P.G.`.P.`.`.`.P.`.P.f.P.P.P.P.P.`.P.G.J.P.G.a.I.I.I.f.I._._.P.P.P.F.~.!.!.H.m.7.m.m.H.H.H.!.!.(.(.).W.W.F.F.F.F.W.W.~.~.~.~.~.!.!.!.Q.~.~.~.~.~.~.~.).).~.~.~.).~.).F.Q.Q.Q.Q.Q.G.Q.G.G.G.G.G.G.G.G.G.G.G.G.G.G.G.J.].~.|.|.|.|.|.`.",
"I.I.I.I.P.P.P.P.`.`.`.`.`.`.`.P.U.U.I.U.I.U.I.U.P.P.P.P.P.P.P.P.P.P.P.P.P.P.P.P.P.P.P.P.P.P.P.P.I.I.I.I.I.I.I.I.f.f.f.f.I.I.I.I.f.f.f.f.f.f.I.I.I.f.f.f.f.f.f.I._.G.P.U.I.I.I.I.4XI.I._.I.I.P.I.I.g.f.f.f.f.f.f.I.I.I.I.I.I.I.I.I.I.I.I.I.I.I.I.I.I.I.I.I.I.I.I.s.P.P.P.P.K.P.P.P.P.P.P.P.P.P.I.I.I.I.I.I.I.I.I.I.I.I.I.I.I.I.I.I.I.I.I.I.I.I.I.I.I.I.I.I.I.I.I.U.U.U.U.U.U.U.U.P.P.P.P.`.Q.`.P.[.[._._._._.[._.P.P.P.P.P.P.P.P.P.P.P.P.P.P.P.P.P.P.P.P.P.P.P.P.P.P.P.P.P.P.P.P.P.P.P.P.P.P.K.K.s.f.f.f.I.I.I.I.I.I.I.Y.I.I.L.L.I.I.I.I.I.I.I.I.I.I.I.I._._._.I.I.I.I.I.I.I.I.I.I.I.I.I.I.I.I.I.P.P.P.P.P.P.P.P.I.I.P.P.P.P.P.P.P.P.P.P.P.P.P.P.P.P.P.P.P.P.P.P.P.P.P.P.P.P.P.P.P.P.P.P.P.P.P.P.`.`.`.`.`.'.I.I.`.`.`.`.`.`.`.`._._._._._._._.}._._.}.}._._._.`.P.P.P.P.P._.`.`.`._.[.[.[.[.[.[._._.I.I.I.I._._._._._._._._._.[.P.U.P.P.P.P.P.J.P.U.P.U.P.U.P.P._.[.U.P.I.I.I.g.I.I.I.I.P.P.P.P.S.~.|.|.).Q.~.].Q.Q.Q.~.~.~.).).).).~.~.Q.Q.).).).~.~.~.).).).~.`.`.`.`.`.`.`.].].`.`.`.`.`.`.`.`.`.}.|.}.[._.[._.`._.`.`.`.`.`._.U.I.P.P.P.`.P.P.G.P.G.P.P.P.P.",
"I.I.I.I.P.P.P.P.J.J.G.P.P.P.P.P.P.P.P.P.P.P.P.P.P.P.P.P.P.P.P.P.P.P.P.P.P.P.P.P.P.P.P.P.P.P.P.P.I.P.I.I.I.I.I.I._.I.I.I.I.I.I.I._._._._._._.I.I._._.I.I.I.I._.`._.G.G.P.`.P.I.[.I.f.f._._.I.f.I.I.I.I.I.I.I.I.I.I.I.I.I.I.I.L.L.I.I.I.I.I.I.g.I.L.I.L.I.L.I.I.I.I.I.I.I.I.I.I.I.I.I.I.I.I.I.P.I.I.I.I.I.I.I.I.I.I.I.I.I.I.I.I.I.I.I.I.I.I.I.I.I.I.I.I.I.I.I.I.I.K.G.G.D.J.D.G.G.P.P.P.P.J.J.J.P.D.D.G.G.G.G.G.G.U.U.U.U.U.U.U.U.G.G.G.G.G.G.G.G.G.G.G.G.G.G.G.G.U.U.U.U.U.U.U.U.J.U.U.J.U.U.U.K.I.I.I.I.I.I.I.d.L.L.I.L.L.L.I.Y.I.I.I.I.g.g.I.I.I.I.I.L.I.I.I.I.I.I.I.I.I.I.I.I.I.I.I.I.I.I.I.I.I.I.I.I.I.I.I.I.I.I.I.I.I.L.I.I.I.I.I.I.I.I.I.I.I.I.I.I.I.I.I.I.I.I.I.I.I.I.I.I.I.I.I.I.I.I.I.I.P.P.`.I.I.I.I.I.I.I.I.I.I.I.I.P.I.I.'.I.'.I.'.I.'.I.'.I.'.I.'.I.I.I.I.I.I.I.I.I.I.I.I.I.I.I.I.I.I.I.I.I.I.I.I.I.I.I.I.I.I.g.I.I.P.J.J.J.J.J.J.J.J.J.J.J.J.J.J.G.P.P.P.s.I.5X'.f.I.I.I.I.P.P.P.].P.G.a.G.`.].`.P.`.P.P.P.P.P.P.P.`.P.P.G.P.P.P.`.P.P.P.P.P.J.P.P.P.P.I.P.P.P.P.P.P.P.P.P.P.P.P.P.f.P.I.I.I.I.I.I.I.I.I.I.I.I.I.I.I.I.I.I.I.I.I.I.P.P.P.P.P.I.I.I.",
"I.I.I.I.P.P.U.].J.~.~.~.|.|.|.].Q.Q.`.Q.`.Q.`.Q.Q.Q.Q.Q.`.~.`.|.`.~.`.~.`.Q.`.Q.Q.J.Q.Q.Q.Q.Q.Q.`.P.P.P.I.P.P.P.P.P.P.P.P.P.P.P.P.P.P.P.P.P.P.P.P.P.P.P.P.P.P.J.J.J.Q.P.P.P.P.P.`.I.I.I.I.I.`.I.P.P.P.P.I.P.I.P.I.P.P.P.I.P.P.P.I.P.I.P.I.P.I.P.P.P.P.P.I.I.I.I.I.I.I.I.I.I.I.I.I.I.I.I.I.I.I.I.P.P.P.I.I.I.P.P.I.I.I.I.I.I.I.I.P.P.P.P.I.P.P.P.I.L.I.I.I.I.I.P.U.U.D.D.D.J.J.D.G.G.G.G.J.J.G.G.U.U.U.U.U.P.U.U.U.U.U.U.U.P.U.U.P.P.G.P.P.P.P.P.G.P.P.U.P.P.P.P.J.J.U.U.U.U.U.U.P.P.P.U.U.U.J.P.I.I.I.I.I.I.I.I.I.L.L.L.L.L.L.L.I.I.'.I.I.I.I.I.I.I.I.I.I.I.L.I.I.I.I.I.I.I.I.I.I.I.I.I.I.I.I.I.I.I.I.I.I.I.I.I.I.I.I.I.I.I.I.I.I.I.I.I.I.I.I.I.I.I.I.I.I.I.I.I.I.I.I.I.I.I.I.I.I.I.I.I.I.I.I.I.P.P.P.L.I.I.I.I.I.I.I.I.I.Y.P.P.I.I.I.I.I.I.I.I.I.I.g.g.g.I.g.g.I.I.I.I.I.I.g.g.I.g.g.g.I.I.I.I.I.I.I.I.I.I.I.I.I.I.I.I.I.I.I.I.P.U.U.U.P.P.U.U.U.U.U.U.U.U.U.U.P.I.I.I.I.I.I.I.I.I.P.P.P.P.`.`.P.P.I.P.I.P.P.P.P.P.P.P.P.P.`.`.`.`.`.`.`.`.`.`.'.`.`.`.`.`.`.`.I.I.I.I.I.I.I.I.I.I.I.I.I.I.I.I.I.I.I.I.P.P.P.I.I.I.I.I.I.I.I.I.I.I.I.I.I.I.I.I.I.I.I.I.I.I.I.I.",
"I.I.P.P.P.J.J.~.~.F.S.7.7.3.p.p.W.W.W.W.W.W.W.W.W.W.W.^./././././././././././././././././././.).~.~.~.Q.Q.Q.Q.J.].].].].].].~.].~.~.~.~.~.~.~.~.].~.~.].].].].].).).).|.|.|.|.|._._._._._._._.`.G.G.G.G.G.G.G.G.G.G.G.G.G.G.G.G.P.P.P.P.P.P.P.P.P.G.G.G.P.P.P.P.P.P.P.P.P.P.P.P.P.P.P.P.P.P.P.P.P.P.P.P.P.P.P.P.P.P.P.P.P.P.P.G.D.G.G.P.P.P.P.P.P.K.K.P.P.K.L.P.P.P.P.P.U.U.U.P.[.[.[.[.[.[.[.[.P.P.P.P.P.P.P.P.P.P.P.P.P.P.P.P.P.P.P.P.P.P.P.P.P.P.U.U.P.P.P.U.U.U.U.U.U.U.U.U.P.P.P.P.P.P.K.K._.'.'.I._._._.[.[.[.Y.Y.Y.Y.Y.[._._.}._._._._._.I.I.I.I.I.I.I.I.f.f.I.I.I.I.I.I.I.I.I.I.I.I.I.I.I.P.I.P.I.P.I.I.I.P.I.P.I.P.I.P.I.P.I.P.I.P.I.P.I.I.I.P.I.I.I.I.I.P.I.P.P.P.P.P.f.P.s.K.I.P.I.P.U.P.K.K.P.I.I.I.L.L.d.L.P.U.P.P.I.g.g.g.I.I.I.I.I.I.I.I.I.I.I.I.I.L.L.L.I.I.L.L.I.I.I.I.I.I.I.I.I.I.g.g.I.I.I.g.f.f.f.f.f.f.f.I.P.P.P.P.P.P.P.P.G.G.G.G.G.G.P.P.P.P.P.P.P.P.I.P.P.P.P.P.G.G.G.G.`.I.I.I.I.I.I.I.I.I.I.I.I.I.I._.'.'.'.'.'.'.'.'.'.'.'.'.'.'.'.'.'.I.I.I.I.I.I.I.I.I.I.I.I.I.I.I.I.P.P.P.P.P.P.P.`.`.`.`.`.`.`.`.`.`.P.P.`.I._.I.I.I.I.I.I.I.L.L.",
"I.P.P.].~.~.F.F.b.2.E Y A F H E H H H H H H H H H H H H H *.*.*.*.*.*.*.*.*.*.*.*.*.*.*.*.*.*.*.1.1.1.2.2.2.2.2.7.7.7.7.7.7.3.7.7.7.7.7.7.7.7.7.m.m.m.m.m.m.m.m.F.F.F.S.F.S.S.S.G.G.a.G.a.a.G.G.~.J.J.~.~.~.~.~.~.~.~.~.~.~.~.~.G.F.F.F.F.J.F.F.J.J.J.J.J.J.J.J.U.P.P.P.P.P.P.P.].].].].U.U.U.].J.~.J.J.J.J.J.J.~.~.~.~.~.~.~.~.~.~.~.].].~.~.J.P.G.G.P.P.P.P.P.I.L.I.I.I.I.I.I.f.f.f.f.f.f.f.f.`.I.I.I.I.I.I.I.I.I.I.I.I.I.I.I.f.f.f.f.f.f.f.f.f.f.f.f.f.f.f.f.f.s.s.s.s.s.s.s.I.I.I.I.I.I.I.I.P.P.P.P.P.P.P.J.P.G.G.G.J.J.G.G.G.G.a.a.a.a.a.a.P.P.P.P.P.P.I.P.P.P.P.`.P.P.`._.P.P.P.P.P.P.P.P.P.G.P.G.P.G.P.G.P.P.P.P.P.P.P.P.P.P.P.P.P.P.P.P._.]._.]._._._._._._._._._._._._.P.P.`.]._._._._.U.U.G.P.P.P.I.P.I.P.P.P.U.U.U.P.P.I.I.I.I.I.I.I.I.I.I.I.I.I.I.I.I.I.I.I.I.I.I.I.I.I.I.I.I.I.I.I._._._.[.[.[.[.[._._._._._._._._._.'.}.'.'.'.'.'.'.'.'._.'.'.'._.[.|.|._.|.|.|.|.|.].|.].|.].|.].P.P.P.P.P.P.P.P.P.P.P.P.P.P.P.P.`.`.`.`.`.`.`.`.`.`.`.`.`.`.`.`.I.`.`.`.'.'.'.'.I.I.I.I.I.f.I.I.`.`.`.`.`.`.P.`.G.G.G.G.G.G.G.G.G.G.G.G.G.P.P.P.I.I.I.I.I.I.I.I.",
"P.P.P.~.J.H.b.2.Y Y G 9 C G G R G G G G G R R R G G G G G G R R *.R *.*.*.R R R G G G G G G G G R R A A A A G G A A A A A A A A E E E E E E E E E E E E E E E E *.*.<.*.*.^ <.<.<.<.<.<.<.<.<.<.^ E ^ E <.^ <.( <.( <.^ <.^ <.^ 3.3.3.3.3.3.3.3.b.b.b.b.b.b.b.b.7.7.y.7.y.7.y.7.S.S.S.S.S.S.S.S.H.H.H.H.H.H.H.H.H.H.H.H.F.H.F.H.!.!.(.!.~.~.~.F.~.J.J.P.P.P.P.P.I.I.f.I.I._._._.}.}.}.}.'.'.'.'.}.}.}.}.}.}.}.}.}.}.}.}.}.}.}.}.}.}.}.}.}.}.}.}.}.}.}.}.}.}.}.}.}._._._._._._._._._._._._._._.`.|.|.|.|.|.|.|.|.).).).).).).).).).).).).).).`.`.|.|.|.|.|.|.|.|.Q.~.~.~.].~.].|.Q.Q.Q.Q.Q.Q.Q.Q.).).).).).).~.~.Q.Q.Q.Q.Q.Q.Q.Q.Q.Q.Q.Q.Q.Q.Q.Q.Q.Q.Q.Q.Q.Q.Q.Q.Q.Q.Q.Q.Q.Q.Q.Q.F.F.Q.Q.Q.~.~.~.J.J.G.P.P.P.P.I.I.P.P.U.U.U.J.J.P.`.`.`.`.`.`.`.`.P.`.`.I.I.I.P.I.I.I.I.I.P.I.P.P.P.P.P.P.P.P.P.P.G.G.G.G.G.G.G.P.G.G.G.P.P.P.P.`.l.z.z.g.z.z.z.z.'.z.'.z.z.z.`.`.Q.Q.Q.Q.Q.Q.Q.Q.Q.Q.Q.Q.Q.Q.Q.`.`.`.`.P.P.`.`._._._._._._._.|._._._._.`.`.`.`.`.`.`.`._._._.`.`.`.`.`._._._._.`.`.`.`.`.`._.`.|.).|.|.).~.~.).].].].].].|.|.].].].].].|.|.|.|.P.P.I.I.I.I.I.I.",
"I.P.J.Q.F.7.E R Y R R &.*.;.:.:.;.;.;.;.;.;.;.;.&.&.;.;.;.;.;.;.;.;.;.;.;.;.;.;.;.;.;.;.;.;.;.*.*.W *.*.W W W *.R R R R R R R R R R R R R R R R G G G G G G G G O.O.G G R E H H A A A G G G A A D 9 D G D G G G G G G G G G G G Y Y Y Y Y Y Y Y R R R R R R R R E E E E E E E E H G H G H G H G E E E E E E E E E Q Q Q *.*.*.Q Q Q E 2.7.m.W.).).Q.`.`.`.P.`.`._.`.a.u.a.G.`.`.`.`.`.`.`.`.`.`.a.a.k.k.k.k.a.a.a.a.k.k.k.k.a.a.k.k.k.k.k.k.k.k.k.k.k.k.k.k.k.a.a.a.a.a.a.a.a.a.a.a.a.a.a.a.a.p.S.m.m.m.S.S.S.S.7.7.7.7.7.7.7.7.m.m.m.m.7.7.m.m.7.7.7.7.7.7.7.7.5.5.5.5.5.5.7.7.5.5.5.5.5.5.5.5.5.7.7.7.7.7.6.6.6.6.6.6.6.6.6.6.6.6.6.6.6.6.6.6.6.6.6.6.6.6.6.6.^ ^ ^ ^ ^ ^ ^ ^ E E ^ ^ <.<.<.2.S.S.F.J.P.P.P.I.I.P.P.G.J.J.J.~.~.`.`.`.`.`.`.`.`.].`.].`.|.`.|.`.].`.].`.].`.].`.].`.].`.].`.].Q.Q.~.~.~.~.~.~.~.~.~.~.~.~.~.]._._.'.`.'.`.'.`.}._.}._.'.}.'._.)././.~./././././.~./.~./.~.~.Q.~.|.|.|.|.|.|.|.~.~.~.~.).|.|.).Q.Q.Q.Q.Q.Q.Q.Q.Q.Q.Q.Q.Q.Q.Q.Q.Q.Q.Q.F.Q.Q.Q.Q.F.F.F.F.Q.Q.Q.Q.F.F.F.F.F.F.F.F.F.F.F.F.F.F.F.H.m.m.m.m.F.F.F.p.G.`._._.'.I.'.I.",
"`.`.`.F.3.E G e R W &.;.;.&.&.&.O.i g i e i i i g i g i g i &.R e i e i e i g i i i l R &.i l i &.&.*.&.*.&.*.&.*.W *.W &.W *.R &.*.*.R *.R *.R &.R &.R &.R &.&.*.&.&.&.*.*.*.*.*.O.&.&.&.*.*.*.&.;.;.;.;.;.:.;.:.;.:.;.:.;.;.;.R i R i R R i R i i i i i i R R i G G G G Y G G G e G e e e G G G G G G G G G G R R R R R R R R Y i G G E 2.7.p.Q.Q.`.`.`._._.`.i.5.<.^ <.<.<.<.P H P H $.+.$.+.<.<.<.<.<.<.<.<.<.<.<.<.<.<.<.<.H H H H H H H H H H H H H H H H H H H H H H H H *.*.*.*.+.*.*.E G R G R G G H H G A A G G G G G G G A A A D G G D D D D D D D D G G G G R R R *.R R G G G G G G D G G G G G e e G G G G G G G G G G G G G G G G R R R R R R R R G G G G G G G G G G G G G G G R 2.3.S.J.`.P.`.I.f.P.`.P.Q.J.~.~.).).).).).~.).).).).).~.).).).).~.~.~.~.~.~.~.~.F.F.F.F.Q.F.Q.F.~.~./.~./.~./.~.Q.Q.W.W.W.W.Q.Q.Q.Q.Q.Q.Q.Q.Q.Q.W.W.W.W.W.W.W.W.W.H.W.H.W.W.H.H.m.m.m.m.m.F.F.F.7.7.7.7.7.7.7.7.5.7.5.7.5.7.5.5.6.6.6.6.6.6.6.6.5.6.6.6.6.6.6.6.6.2.6.2.6.2.6.2.<.<.<.2.<.<.<.<.*.E *.E *.E *.E E E E E E E E E Y G G G G H F F 3.a.`._.}.'.I.'.",
"`._.`.p.1.H G R i l l l g O.O.g *.&.&.&.&.&.&.*.;.*.;.*.;.&.&.&.&.&.&.*.&.&.&.&.&.W &.&.&.&.&.&.i i e i g i g e l i l i l i l i &.&.&.&.&.&.&.&.&.&.&.&.&.&.&.&.&.&.O.O.l &.&.l &.&.;.;.;.;.&.&.g g O.g O.l O.l O.l &.l O.l O.l ;.;.;.;.;.;.;.;.;.;.;.;.;.;.;.;.&.l ;.l &.l &.l ;.;.;.;.;.;.;.;.;.;.;.;.;.;.&.&.;.;.;.;.;.;.;.;.=.&.*.R R E *.<.j.Q._.`.`.'.'.a.H e e e Y i G e R R &.&.&.&.&.&.R i R i R i R i R i R i R i R i ;.&.&.&.;.;.;.;.&.&.&.&.;.;.;.;.&.&.&.&.&.&.&.&.e i e i e e i i W W R R R *.R R R R *.*.*.*.E E R R R R R R R &.*.*.*.*.;.;.&.;.O.O.&.&.&.&.&.&.&.&.&.&.&.&.&.&.;.;.;.;.;.;.;.;.l l l l l l l l i i i i i i i i R R R R R R R R &.&.W &.W W &.&.&.&.W W W W &.*.S ! p.J.`.`.`.'.'._._.P.G.y.p.S.7.7.7.7.7.7.7.7.7.7.7.7.7.7.5.7.7.7.7.7.7.7.7.7.5.1.5.1.5.1.5.6.E E E E E E E E E E E E E E E E E E E E E E E *.E H H E E E E H R R R R R R R R G G G G H H H H G G G G G A G A R R R R R R R R G G G G G G G G G G G G G G G G R Y R Y R Y R Y G i G i G Y G G e 9 G 9 G 9 e A *.W *.W *.W *.*.&.&.&.W R E E H P 1.a._._.`.'.'.",
"f.`.`.p.<.G R :.&.&.&.l &.&.;.>.&.&.&.&.&.&.&.&.i i i i i i i i &.&.&.R R &.&.&.i R R &.&.&.R i &.&.&.&.;.&.&.&.;.;.;.;.;.;.;.;.&.&.&.&.&.&.&.&.&.&.&.&.&.&.&.&.&.;.&.&.l l l l l l l l &.&.&.&.&.&.&.&.;.;.;.;.;.;.&.&.;.;.;.;.l l l l l l l l ;.l ;.l ;.l ;.;.l l l l l l l l l l l l l l l l &.&.&.&.&.&.&.&.&.&.&.&.&.&.&.&.R R R R *.R H H p.Q.`.`.`.`.f.p.G i a l =.=.l i l l l l l l l l l l l l l l l l l l l l l l l l l z l z l z l z l z z z l z l z l x l z l x l x l x l x l x l ;.i i i i R R R G *.*.*.*.&.*.*.*.R R &.&.&.&.&.&.l l l l l l l l l l &.&.&.;.;.;.;.;.;.;.;.;.;.;.&.l &.l &.l &.l l l &.l &.l &.l &.l &.l &.l &.l &.l &.l &.l &.l l l l l l l l l &.&.&.&.&.l l R C H y.Q.`.`.`.I._._.`.a./ H F A G G G G G G G A H H A G G G G G G G G G G G H H H G G G G G G G G G G G G G G G E E E R R R R R R &.&.&.&.&.&.&.&.&.&.&.&.&.*.R *.R R R R W R R R R R R R E E E R R R R R R R R R R R R R R R R R *.&.&.*.&.&.&.&.*.&.&.&.&.&.&.&.&.&.&.&.&.&.&.&.&.&.&.&.&.&.&.&.*.*.*.*.*.*.*.&.R R R R R R R &.&.&.&.*.R *.E C P p.Q._.`.'.'.",
"P.D.~.F.E R *.W R -.9 G :.O.&.&.&.&.&.&.&.&.&.&.&.&.&.&.&.&.&.&.&.&.&.&.&.&.&.&.&.&.&.&.&.&.&.&.&.&.&.&.&.&.&.&.&.&.&.&.&.&.&.&.&.&.&.&.&.&.&.&.&.&.&.&.&.&.&.&.&.&.&.&.&.&.&.&.&.&.&.&.&.&.&.&.&.&.&.&.&.&.&.&.&.&.&.&.&.&.&.&.&.&.&.&.&.&.&.&.&.&.&.&.&.&.&.&.&.&.&.&.&.&.&.&.&.&.&.&.&.&.&.&.R R R R &.&.&.&.&.&.&.*.O.*.*.*.Y W &.i l ;.*.A 7.|.J.P.P.P.`.<.G i i R &.i l l l l &.&.&.&.&.&.&.&.&.&.&.&.&.&.&.&.&.&.&.&.&.&.&.l &.l &.l &.l &.l &.l &.l &.l &.l &.l &.l &.l &.l &.l &.l &.&.&.&.&.&.&.&.&.&.&.&.&.&.&.&.&.&.&.&.&.&.&.&.&.&.&.&.&.&.&.&.&.&.&.&.&.&.&.&.&.&.&.&.&.&.&.&.&.&.&.&.&.&.&.&.&.&.&.&.&.&.&.&.&.&.&.&.&.&.&.&.&.&.&.&.&.&.&.&.&.&.l l l &.&.&.l i &.&.&.;.&.l l R R Y 7.~.J.P.I.I.I.P.Q.p.H G *.&.&.&.&.&.&.l &.&.&.&.*.*.R R R R *.*.&.&.&.*.*.*.*.*.*.*.*.&.&.&.&.&.&.&.&.&.&.&.&.&.&.&.&.&.&.&.&.&.&.&.&.&.&.&.&.&.&.&.&.&.&.&.&.&.&.&.&.&.&.&.&.&.&.&.&.*.*.&.&.&.&.&.&.&.&.&.&.&.&.&.&.&.&.&.&.&.&.&.&.&.&.&.&.&.&.&.&.&.&.&.&.&.&.&.&.&.&.&.&.&.&.&.&.&.&.&.&.&.&.&.&.&.&.&.g &.;.;.&.i i l &.&.&.&.&.&.&.&.*.A <.).`.P.I.I.",
"K.D.J.m.*.R &.W *.-.C G :.G &.&.&.&.&.&.&.&.&.&.&.&.&.&.&.&.&.&.&.&.&.&.&.&.&.&.&.&.&.&.&.&.&.&.&.&.&.&.&.&.&.&.&.&.&.&.&.&.&.&.&.&.&.&.&.&.&.&.&.&.&.&.&.&.&.&.&.&.&.&.&.&.&.&.&.&.&.&.&.&.&.&.&.&.&.&.&.&.&.&.&.&.&.&.&.&.&.&.&.&.&.&.&.&.&.&.&.&.&.&.&.&.&.&.&.&.&.&.&.&.&.&.&.&.&.&.&.&.&.&.R R R R &.&.&.&.&.*.O.G G G G C Y R W i l ;.*.G 7.].G.P.P.P.Q.<.G G R R &.R l l &.&.&.&.&.&.&.&.&.&.&.&.&.&.&.&.&.&.&.&.&.&.&.&.&.&.&.&.&.&.&.&.&.&.&.&.&.&.&.&.&.&.&.&.&.&.&.&.&.&.&.&.&.&.&.&.&.&.&.&.&.&.&.&.&.&.&.&.&.&.&.&.&.&.&.&.&.&.&.&.&.&.&.&.&.&.&.&.&.&.&.&.&.&.&.&.&.&.&.&.&.&.&.&.&.&.&.&.&.&.&.&.&.&.&.&.&.&.&.&.&.&.&.&.&.&.&.&.&.&.&.&.&.&.&.&.l l &.&.&.&.&.R *.*.*.;.&.&.&.R R R 7.~.J.P.I.I.I.P.Q.7.G R =.l l a l l l l l l &.&.&.&.&.R R R &.&.&.&.&.&.&.&.&.&.&.&.&.&.&.&.&.&.&.&.&.&.&.&.&.&.&.&.&.&.&.&.&.&.&.&.&.&.&.&.&.&.&.&.&.&.&.&.&.&.&.&.&.&.&.&.&.&.&.&.&.&.&.&.&.&.&.&.&.&.&.&.&.&.&.&.&.&.&.&.&.&.&.&.&.&.&.&.&.&.&.&.&.&.&.&.&.&.;.&.;.;.;.;.;.;.&.&.&.&.;.&.&.&.&.&.&.;.;.;.h l l &.&.&.l i *.*.&.&.&.l l &.*.G 6.).`.P.I.I.",
"K.D.J.m.*.R &.W *.-.G G *.G &.&.&.&.&.&.&.&.&.&.&.&.&.&.&.&.&.&.&.&.&.&.&.&.&.&.&.&.&.&.&.&.&.&.&.&.&.&.&.&.&.&.&.&.&.&.&.&.&.&.&.&.&.&.&.&.&.&.&.&.&.&.&.&.&.&.&.&.&.&.&.&.&.&.&.&.&.&.&.&.&.&.&.&.&.&.&.&.&.&.&.&.&.&.&.&.&.&.&.&.&.&.&.&.&.&.&.&.&.&.&.&.&.&.&.&.&.&.&.&.&.&.&.&.&.&.&.&.&.&.R R R &.&.&.&.&.*.&.O.+.*.*.H A A Y i i l ;.*.G 7.].G.K.P.P.Q.<.G R R R R W &.l &.&.&.&.&.&.&.&.&.&.&.&.&.&.&.&.&.&.&.&.&.&.&.&.&.&.&.&.&.&.&.&.&.&.&.&.&.&.&.&.&.&.&.&.&.&.&.&.&.&.&.&.&.&.&.&.&.&.&.&.&.&.&.&.&.&.&.&.&.&.&.&.&.&.&.&.&.&.&.&.&.&.&.&.&.&.&.&.&.&.&.&.&.&.&.&.&.&.&.&.&.&.&.&.&.&.&.&.&.&.&.&.&.&.&.&.&.&.&.&.&.&.&.&.&.&.&.&.&.&.&.&.&.&.&.&.&.&.*.*.*.R R R R R R R &.&.&.&.R Y 7.~.J.P.I.I.I.P.Q.7.G R =.l l i x l l l l l &.&.&.&.&.R R R &.&.&.&.&.&.&.&.&.&.&.&.&.&.&.&.&.&.&.&.&.&.&.&.&.&.&.&.&.&.&.&.&.&.&.&.&.&.&.&.&.&.&.&.&.&.&.&.&.&.&.&.&.&.&.&.&.&.&.&.&.&.&.&.&.&.&.&.&.&.&.&.&.&.&.&.&.&.&.&.&.&.&.&.&.&.&.&.&.&.&.&.&.&.&.&.&.&.&.&.&.&.;.;.;.;.;.;.&.&.&.&.&.&.&.&.&.&.;.;.;.&.g l &.&.&.i *.*.&.&.&.l l &.*.G 6.).`.P.I.I.",
"L.D.J.F.*.R &.&.R 6.G G *.G &.l &.&.&.&.&.&.&.&.&.&.&.&.&.&.&.&.&.&.&.&.&.&.&.&.&.&.&.&.&.&.&.&.&.&.&.&.&.&.&.&.&.&.&.&.&.&.&.&.&.&.&.&.&.&.&.&.&.&.&.&.&.&.&.&.&.&.&.&.&.&.&.&.&.&.&.&.&.&.&.&.&.&.&.&.&.&.&.&.&.&.&.&.&.&.&.&.&.&.&.&.&.&.&.&.&.&.&.&.&.&.&.&.&.&.&.&.&.&.&.&.&.&.&.&.&.&.&.&.&.&.&.&.&.&.&.&.&.R *.<.7.p.7.6.R Y i i ;.;.*.G 7.].G.K.P.`.Q.<.G R *.R R &.&.&.&.&.&.&.&.&.&.&.&.&.&.&.&.&.&.&.&.&.&.&.&.&.&.&.&.&.&.&.&.&.&.&.&.&.&.&.&.&.&.&.&.&.&.&.&.&.&.&.&.&.&.&.&.&.&.&.&.&.&.&.&.&.&.&.&.&.&.&.&.&.&.&.&.&.&.&.&.&.&.&.&.&.&.&.&.&.&.&.&.&.&.&.&.&.&.&.&.&.&.&.&.&.&.&.&.&.&.&.&.&.&.&.&.&.&.&.&.&.&.&.&.&.&.&.&.&.&.&.&.&.&.&.&.&.&.&.&.&.*.*.R G R R G R R e G &.;.*.R R 7.~.J.P.I.I.I.P.Q.7.G R =.l i i i i l l l l &.&.&.&.&.R R R &.&.&.&.&.&.&.&.&.&.&.&.&.&.&.l &.&.&.&.&.&.&.&.&.&.&.&.&.&.&.&.&.&.&.&.&.&.&.&.&.&.&.&.&.&.&.&.&.&.&.&.&.&.&.&.&.&.&.&.&.&.&.&.&.&.&.&.&.&.&.&.&.&.&.&.&.&.&.&.&.&.&.&.&.&.&.&.&.&.&.&.&.&.&.&.&.&.&.&.&.&.&.;.;.;.;.;.&.&.&.&.&.&.&.&.&.&.;.;.>.;.&.&.*.*.R R *.*.&.&.&.l l &.*.G 6.).`.P.I.I.",
"L.D.J.H.*.R &.W *.n.R G *.G >.&.&.&.&.&.&.&.&.&.&.&.&.&.&.&.&.&.&.&.&.&.&.&.&.&.&.&.&.&.&.&.&.&.&.&.&.&.&.&.&.&.&.&.&.&.&.&.&.&.&.&.&.&.&.&.&.&.&.&.&.&.&.&.&.&.&.&.&.&.&.&.&.&.&.&.&.&.&.&.&.&.&.&.&.&.&.&.&.&.&.&.&.&.&.&.&.&.&.&.&.&.&.&.&.&.&.&.&.&.&.&.&.&.&.&.&.&.&.&.&.&.&.&.&.&.&.&.&.&.&.&.&.&.&.&.&.&.O.*.<.7.Q.).Q.F.Q Y Y i ;.;.*.H 7.].P.K.P.P.Q.<.G &.&.R R *.*.R &.&.&.&.&.&.&.&.&.&.&.&.&.&.&.&.&.&.&.&.&.&.&.&.&.&.&.&.&.&.&.&.&.&.&.&.&.&.&.&.&.&.&.&.&.&.&.&.&.&.&.&.&.&.&.&.&.&.&.&.&.&.&.&.&.&.&.&.&.&.&.&.&.&.&.&.&.&.&.&.&.&.&.&.&.&.&.&.&.&.&.&.&.&.&.&.&.&.&.&.&.&.&.&.&.&.&.&.&.&.&.&.&.&.&.&.&.&.&.&.&.&.&.&.&.&.&.&.&.&.&.&.&.&.&.&.&.&.*.R G R E *.2.2.*.G G *.;.&.R Y 7.~.J.P.I.I.I.P.Q.7.G R =.l a a l i &.&.l l &.&.&.&.&.R R R &.&.&.&.&.&.&.&.&.&.&.&.&.&.&.&.&.&.&.&.&.&.&.&.&.&.&.&.&.&.&.&.&.&.&.&.&.&.&.&.&.&.&.&.&.&.&.&.&.&.&.&.&.&.&.&.&.&.&.&.&.&.&.&.&.&.&.&.&.&.&.&.&.&.&.&.&.&.&.&.&.&.&.&.&.&.&.&.&.&.&.&.&.&.&.&.&.&.&.;.&.&.&.&.&.&.&.;.;.;.;.&.&.&.&.&.&.&.;.;.;.;.&.&.G G G G *.&.&.l l l l &.*.G 6.~.`.P.I.I.",
"L.D.J.F.*.R *.R *.m.*.G *.O.>.&.&.&.&.&.&.&.&.&.&.&.&.&.&.&.&.&.&.&.&.&.&.&.&.&.&.&.&.&.&.&.&.&.&.&.&.&.&.&.&.&.&.&.&.&.&.&.&.&.&.&.&.&.&.&.&.&.&.&.&.&.&.&.&.&.&.&.&.&.&.&.&.&.&.&.&.&.&.&.&.&.&.&.&.&.&.&.&.&.&.&.&.&.&.&.&.&.&.&.&.&.&.&.&.&.&.&.&.&.&.&.&.&.&.&.&.&.&.&.&.&.&.&.&.&.&.&.&.&.&.&.l l &.&.&.*.G *.5.W.~.].P.J.m.-.R R &.&.*.G 7.].G.K.P.P.Q.<.G &.*.i R *.;.R &.&.&.&.&.&.&.&.&.&.&.&.&.&.&.&.&.&.&.&.&.&.&.&.&.&.&.&.&.&.&.&.&.&.&.&.&.&.&.&.&.&.&.&.&.&.&.&.&.&.&.&.&.&.&.&.&.&.&.&.&.&.&.&.&.&.&.&.&.&.&.&.&.&.&.&.&.&.&.&.&.&.&.&.&.&.&.&.&.&.&.&.&.&.&.&.&.&.&.&.&.&.&.&.&.&.&.&.&.&.&.&.&.&.&.&.&.&.&.&.&.&.&.&.&.&.&.&.&.&.&.&.&.&.&.&.G R R G G E 2.7.W.!.m.*.G *.&.G R Y 7.~.J.P.I.I.I.P.Q.7.G R =.l a a W &.&.l &.l &.&.&.&.&.&.R R &.&.&.&.&.&.&.&.&.&.&.&.&.&.&.&.&.&.&.&.&.&.&.&.&.&.&.&.&.&.&.&.&.&.&.&.&.&.&.&.&.&.&.&.&.&.&.&.&.&.&.&.&.&.&.&.&.&.&.&.&.&.&.&.&.&.&.&.&.&.&.&.&.&.&.&.&.&.&.&.&.&.&.&.&.&.&.&.&.&.&.&.&.&.&.&.&.&.&.;.&.&.&.&.&.&.&.;.;.;.;.&.&.&.&.&.&.&.;.;.O.O.O.*.R R G G *.&.&.l l l l l *.G 6.).`.P.I.I.",
"L.D.J.H.*.R *.*.*.V.*.R E O.:.O.&.&.&.&.&.&.&.&.&.&.&.&.&.&.&.&.&.&.&.&.&.&.&.&.&.&.&.&.&.&.&.&.&.&.&.&.&.&.&.&.&.&.&.&.&.&.&.&.&.&.&.&.&.&.&.&.&.&.&.&.&.&.&.&.&.&.&.&.&.&.&.&.&.&.&.&.&.&.&.&.&.&.&.&.&.&.&.&.&.&.&.&.&.&.&.&.&.&.&.&.&.&.&.&.&.&.&.&.&.&.&.&.&.&.&.&.&.&.&.&.&.&.&.&.&.&.&.&.&.&.l l &.;.&.&.D *.7.Q.`.P.I.P.!.3.R &.&.&.R E 7.].G.K.P.~.~.<.e &.*.i R ;.:.G *.&.&.&.&.&.&.&.&.&.&.&.&.&.&.&.&.&.&.&.&.&.&.&.&.&.&.&.&.&.&.&.&.&.&.&.&.&.&.&.&.&.&.&.&.&.&.&.&.&.&.&.&.&.&.&.&.&.&.&.&.&.&.&.&.&.&.&.&.&.&.&.&.&.&.&.&.&.&.&.&.&.&.&.&.&.&.&.&.&.&.&.&.&.&.&.&.&.&.&.&.&.&.&.&.&.&.&.&.&.&.&.&.&.&.&.&.&.&.&.&.&.&.&.&.&.&.&.&.&.&.&.&.&.&.&.&.&.*.R H <.m.~.).).W.<.R *.;.G R Y 7.~.J.P.I.I.I.P.Q.7.G R =.l =.=.*.&.&.&.&.l &.&.&.&.&.&.R &.&.&.&.&.&.&.&.&.&.&.&.&.&.&.&.&.&.&.&.&.&.&.&.&.&.&.&.&.&.&.&.&.&.&.&.&.&.&.&.&.&.&.&.&.&.&.&.&.&.&.&.&.&.&.&.&.&.&.&.&.&.&.&.&.&.&.&.&.&.&.&.&.&.&.&.&.&.&.&.&.&.&.&.&.&.&.&.&.&.&.&.&.&.&.&.&.&.&.;.;.;.;.&.;.&.&.&.&.;.;.&.&.&.&.&.&.&.&.&.&.;.g e *.6.6.<.G O.&.&.l &.l l &.*.G 6.).Q.P.I.I.",
"L.K.J.F.*.R *.R *.V.-.E E G :.O.&.&.&.&.&.&.&.&.&.&.&.&.&.&.&.&.&.&.&.&.&.&.&.&.&.&.&.&.&.&.&.&.&.&.&.&.&.&.&.&.&.&.&.&.&.&.&.&.&.&.&.&.&.&.&.&.&.&.&.&.&.&.&.&.&.&.&.&.&.&.&.&.&.&.&.&.&.&.&.&.&.&.&.&.&.&.&.&.&.&.&.&.&.&.&.&.&.&.&.&.&.&.&.&.&.&.&.&.&.&.&.&.&.&.&.&.&.&.&.&.&.&.&.&.&.&.&.&.;.;.;.;.&.&.&.*.q *.F.~.P.P.I.U.OXm.*.&.&.&.G E 7.].G.D.P.J.~.<.e =.=.i R -.:.G *.*.&.&.&.&.&.&.&.&.&.&.&.&.&.&.&.&.&.&.&.&.&.&.&.&.&.&.&.&.&.&.&.&.&.&.&.&.&.&.&.&.&.&.&.&.&.&.&.&.&.&.&.&.&.&.&.&.&.&.&.&.&.&.&.&.&.&.&.&.&.&.&.&.&.&.&.&.&.&.&.&.&.&.&.&.&.&.&.&.&.&.&.&.&.&.&.&.&.&.&.&.&.&.&.&.&.&.&.&.&.&.&.&.&.&.&.&.&.&.&.&.&.&.&.&.&.&.&.&.&.&.&.&.&.&.&.&.*.E E 2.W.@X~./.F.*.G :.:.G R Y 7.~.J.P.I.I.I.P.Q.7.G R =.l =.=.*.*.&.&.&.l &.&.&.&.&.&.&.&.&.&.&.&.&.&.&.&.&.&.&.&.&.&.&.&.&.&.&.&.&.&.&.&.&.&.&.&.&.&.&.&.&.&.&.&.&.&.&.&.&.&.&.&.&.&.&.&.&.&.&.&.&.&.&.&.&.&.&.&.&.&.&.&.&.&.&.&.&.&.&.&.&.&.&.&.&.&.&.&.&.&.&.&.&.&.&.&.&.&.&.&.&.&.&.&.&.&.;.;.;.;.;.;.&.&.&.&.;.;.&.&.&.&.l &.&.&.&.&.:.O.e -.W.).m.E O.&.&.l &.l l l *.G 6.~.`.P.I.I.",
"T.K.J.!.-.R *.*.9 (.V.C 2.G &.&.&.&.&.&.&.&.&.&.&.&.&.&.&.&.&.&.&.&.&.&.&.&.&.&.&.&.&.&.&.&.&.&.&.&.&.&.&.&.&.&.&.&.&.&.&.&.&.&.&.&.&.&.&.&.&.&.&.&.&.&.&.&.&.&.&.&.&.&.&.&.&.&.&.&.&.&.&.&.&.&.&.&.&.&.&.&.&.&.&.&.&.&.&.&.&.&.&.&.&.&.&.&.&.&.&.&.&.&.&.&.&.&.&.&.&.&.&.&.&.&.&.&.&.&.&.&.&.&.;.;.;.;.&.&.&.&.R H 7.].P.I.I.L.F.!.R G ;.O.*.H S.~.P.U.P.Q.|.<.R i &.W R -.,.*.&.&.&.&.&.&.&.&.&.&.&.&.&.&.&.&.&.&.&.&.&.&.&.&.&.&.&.&.&.&.&.&.&.&.&.&.&.&.&.&.&.&.&.&.&.&.&.&.&.&.&.&.&.&.&.&.&.&.&.&.&.&.&.&.&.&.&.&.&.&.&.&.&.&.&.&.&.&.&.&.&.&.&.&.&.&.&.&.&.&.&.&.&.&.&.&.&.&.&.&.&.&.&.&.&.&.&.&.&.&.&.&.&.&.&.&.&.&.&.&.&.&.&.&.&.&.&.&.&.&.&.&.&.&.&.&.&.O.*.G H 7.~.F.F.~.!.<.D O.*.*.R A H.~.J.P.L.I.I.P.G.5.*.&.l l e V.Y *.&.;.g &.&.&.&.&.&.&.&.&.&.&.&.&.&.&.&.&.&.&.&.&.&.&.&.&.&.&.&.&.&.&.&.&.&.&.&.&.&.&.&.&.&.&.&.&.&.&.&.&.&.&.&.&.&.&.&.&.&.&.&.&.&.&.&.&.&.&.&.&.&.&.&.&.&.&.&.&.&.&.&.&.&.&.&.&.&.&.&.&.&.&.&.&.&.&.&.&.&.&.&.&.&.&.&.&.&.&.;.;.;.;.;.;.;.;.&.&.&.&.&.&.&.&.&.&.&.&.;.;.&.;.G G m./.S.7.G *.&.l l l l &.&.G 6.~.Q.P.I.I.",
"L.K.J.H.-.G *.*.e (.!.C -.G &.&.&.&.&.&.&.&.&.&.&.&.&.&.&.&.&.&.&.&.&.&.&.&.&.&.&.&.&.&.&.&.&.&.&.&.&.&.&.&.&.&.&.&.&.&.&.&.&.&.&.&.&.&.&.&.&.&.&.&.&.&.&.&.&.&.&.&.&.&.&.&.&.&.&.&.&.&.&.&.&.&.&.&.&.&.&.&.&.&.&.&.&.&.&.&.&.&.&.&.&.&.&.&.&.&.&.&.&.&.&.&.&.&.&.&.&.&.&.&.&.&.&.&.&.&.&.&.&.&.&.;.;.&.&.&.&.&.R H 7.].P.I.I.L.F.(.R G ;.O.*.H S.].P.U.P.Q.|.*.R i &.W R -.6.*.&.&.*.&.&.&.l l &.&.&.&.&.&.&.&.&.&.&.&.&.&.&.&.&.&.&.&.&.&.&.&.&.&.&.&.&.&.&.&.&.&.&.&.&.&.&.&.&.&.&.&.&.&.&.&.&.&.&.&.&.&.&.&.&.&.&.&.&.&.&.&.&.&.&.&.&.&.&.&.&.&.&.&.&.&.&.&.&.&.&.&.&.&.&.&.&.&.&.&.&.&.&.&.&.&.&.&.&.&.&.&.&.&.&.&.&.&.&.&.&.&.&.&.&.&.&.&.&.&.&.&.&.&.&.&.O.O.*.H E S.@X~.S.~.W.<.G O.;.*.R A H.~.F.U.L.I.I.P.G.5.*.&.l l i V.Y W R ;.e &.&.&.&.&.&.&.&.&.&.&.&.&.&.&.&.&.&.&.&.&.&.&.&.&.&.&.&.&.&.&.&.&.&.&.&.&.&.&.&.&.&.&.&.&.&.&.&.&.&.&.&.&.&.&.&.&.&.&.&.&.&.&.&.&.&.&.&.&.&.&.&.&.&.&.&.&.&.&.&.&.&.&.&.&.&.&.&.&.&.&.&.&.&.&.&.&.&.&.&.&.&.&.&.&.&.&.;.;.;.;.;.;.;.;.&.&.&.&.&.&.&.&.&.&.&.&.;.&.&.*.G H W.).F.W.*.*.&.l l l l &.&.G 6.~.Q.P.I.I.",
"L.K.U.!.*.G *.*.G !.(.C *.G &.;.&.&.&.&.&.&.&.&.&.&.&.&.&.&.&.&.&.&.&.&.&.&.&.&.&.&.&.&.&.&.&.&.&.&.&.&.&.&.&.&.&.&.&.&.&.&.&.&.&.&.&.&.&.&.&.&.&.&.&.&.&.&.&.&.&.&.&.&.&.&.&.&.&.&.&.&.&.&.&.&.&.&.&.&.&.&.&.&.&.&.&.&.&.&.&.&.&.&.&.&.&.&.&.&.&.&.&.&.&.&.&.&.&.&.&.&.&.&.&.&.&.&.&.&.&.&.&.&.&.&.&.&.&.l &.&.R G 7.].P.L.I.L.F.!.E G :.O.*.H S.].P.U.P.Q.].*.R a &.R R ,.6.G O.O.&.&.&.&.l l &.&.&.&.&.&.&.&.&.&.&.&.&.&.&.&.&.&.&.&.&.&.&.&.&.&.&.&.&.&.&.&.&.&.&.&.&.&.&.&.&.&.&.&.&.&.&.&.&.&.&.&.&.&.&.&.&.&.&.&.&.&.&.&.&.&.&.&.&.&.&.&.&.&.&.&.&.&.&.&.&.&.&.&.&.&.&.&.&.&.&.&.&.&.&.&.&.&.&.&.&.&.&.&.&.&.&.&.&.&.&.&.&.&.&.&.&.&.&.&.&.&.&.&.&.&.&.&.&.&.&.R E S.|.~.S.F.S.<.G O.;.O.R A H.~.F.P.L.I.I.P.G.5.E &.l l Y V.R R R ;.G &.&.&.&.&.&.&.&.&.&.&.&.&.&.&.&.&.&.&.&.&.&.&.&.&.&.&.&.&.&.&.&.&.&.&.&.&.&.&.&.&.&.&.&.&.&.&.&.&.&.&.&.&.&.&.&.&.&.&.&.&.&.&.&.&.&.&.&.&.&.&.&.&.&.&.&.&.&.&.&.&.&.&.&.&.&.&.&.&.&.&.&.&.&.&.&.&.&.&.&.&.&.&.&.&.;.;.;.;.&.&.&.&.&.&.&.&.;.;.;.;.&.&.&.&.c c l &.O.*.G E W.|.|.Q.-.&.&.l &.l l &.&.G 6.~.Q.P.I.I.",
"L.K.U.!.*.G *.*.G V.XXG H O.*.;.&.&.&.&.&.&.&.&.&.&.&.&.&.&.&.&.&.&.&.&.&.&.&.&.&.&.&.&.&.&.&.&.&.&.&.&.&.&.&.&.&.&.&.&.&.&.&.&.&.&.&.&.&.&.&.&.&.&.&.&.&.&.&.&.&.&.&.&.&.&.&.&.&.&.&.&.&.&.&.&.&.&.&.&.&.&.&.&.&.&.&.&.&.&.&.&.&.&.&.&.&.&.&.&.&.&.&.&.&.&.&.&.&.&.&.&.&.&.&.&.&.&.&.&.&.&.&.&.&.&.&.&.&.l l &.R R 7.~.P.I.I.L.F.(.E G :.O.*.H S.].P.U.P.J.].*.R a &.R R 6.6.G O.*.*.&.&.l l l &.&.&.&.&.&.&.&.&.&.&.&.&.&.&.&.&.&.&.&.&.&.&.&.&.&.&.&.&.&.&.&.&.&.&.&.&.&.&.&.&.&.&.&.&.&.&.&.&.&.&.&.&.&.&.&.&.&.&.&.&.&.&.&.&.&.&.&.&.&.&.&.&.&.&.&.&.&.&.&.&.&.&.&.&.&.&.&.&.&.&.&.&.&.&.&.&.&.&.&.&.&.&.&.&.&.&.&.&.&.&.&.&.&.&.&.&.&.&.&.&.&.&.&.&.&.&.&.;.&.&.O.H 7.~.F.J.F.7.*.G O.;.&.R A m.~.F.P.L.I.I.P.G.5.E &.l l Y !.R R G :.O.&.;.;.&.&.&.&.&.&.&.&.&.&.&.&.&.&.&.&.&.&.&.&.&.&.&.&.&.&.&.&.&.&.&.&.&.&.&.&.&.&.&.&.&.&.&.&.&.&.&.&.&.&.&.&.&.&.&.&.&.&.&.&.&.&.&.&.&.&.&.&.&.&.&.&.&.&.&.&.&.&.&.&.&.&.&.&.&.&.&.&.&.&.&.&.&.&.&.&.&.&.&.&.&.&.;.;.;.;.&.&.&.&.&.&.&.&.;.;.;.;.&.&.&.&.;.l l &.O.*.H P Q. X_.Q.6.;.&.l ;.;.l &.*.G 6.~.Q.P.I.I.",
"L.K.J.F.*.G *.*.G m.$XE H +.#.;.&.&.&.&.&.&.&.&.&.&.&.&.&.&.&.&.&.&.&.&.&.&.&.&.&.&.&.&.&.&.&.&.&.&.&.&.&.&.&.&.&.&.&.&.&.&.&.&.&.&.&.&.&.&.&.&.&.&.&.&.&.&.&.&.&.&.&.&.&.&.&.&.&.&.&.&.&.&.&.&.&.&.&.&.&.&.&.&.&.&.&.&.&.&.&.&.&.&.&.&.&.&.&.&.&.&.&.&.&.&.&.&.&.&.&.&.&.&.&.&.&.&.&.&.&.&.&.&.&.*.&.&.&.l l l R R 7.~.P.I.I.P.F.(.H G *.O.*.H S.].P.U.P.Q.].*.R a &.i R n.N.G +.*.*.&.&.l l l &.&.&.&.&.&.&.&.&.&.&.&.&.&.&.&.&.&.&.&.&.&.&.&.&.&.&.&.&.&.&.&.&.&.&.&.&.&.&.&.&.&.&.&.&.&.&.&.&.&.&.&.&.&.&.&.&.&.&.&.&.&.&.&.&.&.&.&.&.&.&.&.&.&.&.&.&.&.&.&.&.&.&.&.&.&.&.&.&.&.&.&.&.&.&.&.&.&.&.&.&.&.&.&.&.&.&.&.&.&.&.&.&.&.&.&.&.&.&.&.&.&.&.&.&.&.&.&.;.c ;.#.H m.).Q.].Q.5.E G O.;.;.R A H.~.F.P.L.I.I.P.G.5.E &.l l R .XQ R G :.O.&.;.&.&.&.&.&.&.&.&.&.&.&.&.&.&.&.&.&.&.&.&.&.&.&.&.&.&.&.&.&.&.&.&.&.&.&.&.&.&.&.&.&.&.&.&.&.&.&.&.&.&.&.&.&.&.&.&.&.&.&.&.&.&.&.&.&.&.&.&.&.&.&.&.&.&.&.&.&.&.&.&.&.&.&.&.&.&.&.&.&.&.&.&.&.&.&.&.&.&.&.&.&.&.&.&.&.;.;.;.;.&.&.&.&.&.&.&.&.;.;.&.&.&.&.c l &.&.&.*.H P G.|.`.Q.7.:.e l ;.;.l &.*.G 6.~.Q.P.I.I.",
"L.K.J.F.*.G *.*.G 6.%X<.A *.#.;.&.&.&.&.&.&.&.&.&.&.&.&.&.&.&.&.&.&.&.&.&.&.&.&.&.&.&.&.&.&.&.&.&.&.&.&.&.&.&.&.&.&.&.&.&.&.&.&.&.&.&.&.&.&.&.&.&.&.&.&.&.&.&.&.&.&.&.&.&.&.&.&.&.&.&.&.&.&.&.&.&.&.&.&.&.&.&.&.&.&.&.&.&.&.&.&.&.&.&.&.&.&.&.&.&.&.&.&.&.&.&.&.&.&.&.&.&.&.&.&.&.&.&.&.&.&.&.&.&.*.*.&.&.l l a R Y b.~.U.P.I.P.Q.^.H G *.O.+.H S.].P.U.J.Q.].*.i l &.i R n.B.G +.*.*.&.&.l l l &.&.&.&.&.&.&.&.&.&.&.&.&.&.&.&.&.&.&.&.&.&.&.&.&.&.&.&.&.&.&.&.&.&.&.&.&.&.&.&.&.&.&.&.&.&.&.&.&.&.&.&.&.&.&.&.&.&.&.&.&.&.&.&.&.&.&.&.&.&.&.&.&.&.&.&.&.&.&.&.&.&.&.&.&.&.&.&.&.&.&.&.&.&.&.&.&.&.&.&.&.&.&.&.&.&.&.&.&.&.&.&.&.&.&.&.&.&.&.&.&.&.&.&.&.&.&.&.c h ;.#.+.m.|.).).F.<.G O.&.;.;.R A H.~.F.P.L.I.I.P.G.5.E &.l l W oXE R G :.*.&.;.&.;.;.&.&.&.&.&.&.&.&.&.&.&.&.&.&.&.&.&.&.&.&.&.&.&.&.&.&.&.&.&.&.&.&.&.&.&.&.&.&.&.&.&.&.&.&.&.&.&.&.&.&.&.&.&.&.&.&.&.&.&.&.&.&.&.&.&.&.&.&.&.&.&.&.&.&.&.&.&.&.&.&.&.&.&.&.&.&.&.&.&.&.&.&.&.&.&.&.&.&.&.&.&.&.&.&.;.;.&.&.;.;.;.;.&.&.;.;.&.&.&.&.c l &.&.&.*.H K a.|.I.G.W.:.e l >.;.l &.*.D 6.~.Q.P.I.I.",
"L.K.J.F.<.G *.*.G 2.aX6.A *.O.&.&.&.&.&.&.&.&.&.&.&.&.&.&.&.&.&.&.&.&.&.&.&.&.&.&.&.&.&.&.&.&.&.&.&.&.&.&.&.&.&.&.&.&.&.&.&.&.&.&.&.&.&.&.&.&.&.&.&.&.&.&.&.&.&.&.&.&.&.&.&.&.&.&.&.&.&.&.&.&.&.&.&.&.&.&.&.&.&.&.&.&.&.&.&.&.&.&.&.&.&.&.&.&.&.&.&.&.&.&.&.&.&.&.&.&.&.&.&.&.&.&.&.&.&.&.&.&.&.*.R *.&.l l l a W Y v.).~.P.P.P.Q./.H G *.O.+.H S.].P.U.J.Q.|.E i a &.i R B.B.G +.O.O.&.l l z l &.&.&.&.&.&.&.&.&.&.&.&.&.&.&.&.&.&.&.&.&.&.&.&.&.&.&.&.&.&.&.&.&.&.&.&.&.&.&.&.&.&.&.&.&.&.&.&.&.&.&.&.&.&.&.&.&.&.&.&.&.&.&.&.&.&.&.&.&.&.&.&.&.&.&.&.&.&.&.&.&.&.&.&.&.&.&.&.&.&.&.&.&.&.&.&.&.&.&.&.&.&.&.&.&.&.&.&.&.&.&.&.&.&.&.&.&.&.&.&.&.&.&.&.&.&.&.&.c c ;.O.G 7.~.S.S.1.H G &.;.v c R A H.~.J.P.L.I.I.P.G.5.*.&.l l Q oX-.G D :.&.&.&.&.;.;.&.&.&.&.&.&.&.&.&.&.&.&.&.&.&.&.&.&.&.&.&.&.&.&.&.&.&.&.&.&.&.&.&.&.&.&.&.&.&.&.&.&.&.&.&.&.&.&.&.&.&.&.&.&.&.&.&.&.&.&.&.&.&.&.&.&.&.&.&.&.&.&.&.&.&.&.&.&.&.&.&.&.&.&.&.&.&.&.&.&.&.&.&.&.&.&.&.&.&.&.&.&.&.&.;.;.;.&.;.;.;.;.&.&.&.&.;.;.;.&.l l &.&.&.*.H K G.[.I.`.(.:.e l >.;.l &.&.D <.Q.Q.P.I.I.",
"I.K.P.Q.<.G *.*.G <.aX5.F *.O.&.&.&.&.&.&.&.&.&.&.&.&.&.&.&.&.&.&.&.&.&.&.&.&.&.&.&.&.&.&.&.&.&.&.&.&.&.&.&.&.&.&.&.&.&.&.&.&.&.&.&.&.&.&.&.&.&.&.&.&.&.&.&.&.&.&.&.&.&.&.&.&.&.&.&.&.&.&.&.&.&.&.&.&.&.&.&.&.&.&.&.&.&.&.&.&.&.&.&.&.&.&.&.&.&.&.&.&.&.&.&.&.&.&.&.&.&.&.&.&.&.&.&.&.&.&.&.&.&.*.*.&.&.l l l a W Y v.).~.P.P.P.G.Q.H G *.O.*.H S.].P._.P.Q.|.E i l &.e R B.V.D +.*.*.&.l l z l &.&.&.&.&.&.&.&.&.&.&.&.&.&.&.&.&.&.&.&.&.&.&.&.&.&.&.&.&.&.&.&.&.&.&.&.&.&.&.&.&.&.&.&.&.&.&.&.&.&.&.&.&.&.&.&.&.&.&.&.&.&.&.&.&.&.&.&.&.&.&.&.&.&.&.&.&.&.&.&.&.&.&.&.&.&.&.&.&.&.&.&.&.&.&.&.&.&.&.&.&.&.&.&.&.&.&.&.&.&.&.&.&.&.&.&.&.&.&.&.&.&.&.&.&.&.&.&.v v c e 7 *.7.^ ^ H C G ;.>.v c R A H.).J.P.I.I.I.P.G.6.*.&.l &.E XX2.G e :.*.&.&.&.;.;.&.&.&.&.&.&.&.&.&.&.&.&.&.&.&.&.&.&.&.&.&.&.&.&.&.&.&.&.&.&.&.&.&.&.&.&.&.&.&.&.&.&.&.&.&.&.&.&.&.&.&.&.&.&.&.&.&.&.&.&.&.&.&.&.&.&.&.&.&.&.&.&.&.&.&.&.&.&.&.&.&.&.&.&.&.&.&.&.&.&.&.&.&.&.&.&.&.&.&.&.&.&.&.&.;.;.;.&.;.;.;.;.&.&.&.&.;.&.;.&.&.&.&.&.R *.G ^ G.[._.`./.-.e i =.=.l &.&.D <.Q.Q.P.I.I.",
"U.P._.Q.4.O.&.&.G 6.aX|.Z G l z l c c c c ;.&.&.&.;.;.;.;.;.;.;.&.&.&.&.;.;.&.&.&.&.;.;.&.&.&.&.&.&.&.&.&.&.&.&.&.&.&.&.&.&.&.&.;.;.;.;.&.&.&.&.&.&.;.&.&.l l i &.&.&.l i i i l &.&.&.&.&.&.&.&.&.&.&.&.&.&.&.&.&.&.&.&.&.&.&.&.&.&.&.&.&.&.&.&.&.&.&.&.&.&.&.&.&.&.&.&.&.&.&.&.&.&.&.&.&.&.&.&.&.&.&.&.&.&.&.&.R R 7.).`.P.P.P.P.Q.5.G &.&.O.G F.|.P._.I.`.|.E i x R R G m.).C R R R W l l l l &.&.&.&.&.&.&.&.&.&.&.&.&.&.&.&.&.&.&.&.&.&.&.&.&.&.&.&.&.&.&.&.&.&.&.&.&.&.&.&.&.&.&.&.&.&.&.&.&.&.&.&.&.&.&.&.&.&.&.&.&.&.&.&.&.&.&.&.&.&.&.&.&.&.&.&.&.&.&.&.&.&.&.&.&.&.&.&.&.&.&.&.&.&.&.&.&.&.&.&.&.&.&.&.&.&.&.&.&.&.&.&.&.&.&.&.&.&.&.&.&.&.&.&.&.&.&.&.z z v ;.R G S Y A Y &.;.l k c l *.A F.).P._.I._.I.].W.2.R &.&.R S @Xb.A W W i l &.&.#.#.;.&.&.&.&.&.&.&.&.&.&.&.&.&.&.&.&.&.&.&.&.&.&.&.&.&.&.&.&.&.&.&.&.&.&.&.&.&.&.&.&.&.&.&.&.&.&.&.&.&.&.&.&.&.&.&.&.&.&.&.&.&.&.&.&.&.&.&.&.&.&.&.&.&.&.&.&.&.&.&.&.&.&.&.&.&.&.&.&.&.&.&.&.&.&.&.&.&.&.&.&.&.&.&.;.;.&.&.&.;.;.;.&.&.&.&.l l &.&.&.&.&.&.&.*.G E F.U.P.P.|.5.G R &.a i &.R A 1.Q.`.P.I.I.",
"U.G._.`.4.O.&.l G 6.aX XF G x z z c c c c c &.&.&.;.;.;.;.&.;.;.&.&.&.&.;.;.;.&.&.&.;.;.&.&.&.&.&.&.&.&.&.&.&.&.&.&.&.&.&.&.&.&.;.;.;.;.&.&.&.&.&.&.;.&.&.l i i W W i i i i &.&.&.&.&.&.&.&.&.&.&.&.&.&.&.&.&.&.&.&.&.&.&.&.&.&.&.&.&.&.&.&.&.&.&.&.&.&.&.&.&.&.&.&.&.&.&.&.&.&.&.&.&.&.&.&.&.&.&.&.&.&.&.&.&.&.*.G 7.).`.P.I.L.P.J.1.G &.;.g G F.|.`._.I.`.|.^ i =.R R H m.).C R Y W a l l &.&.&.&.&.&.&.&.&.&.&.&.&.&.&.&.&.&.&.&.&.&.&.&.&.&.&.&.&.&.&.&.&.&.&.&.&.&.&.&.&.&.&.&.&.&.&.&.&.&.&.&.&.&.&.&.&.&.&.&.&.&.&.&.&.&.&.&.&.&.&.&.&.&.&.&.&.&.&.&.&.&.&.&.&.&.&.&.&.&.&.&.&.&.&.&.&.&.&.&.&.&.&.&.&.&.&.&.&.&.&.&.&.&.&.&.&.&.&.&.&.&.&.&.&.&.&.&.&.&.z z x a G A A A Y i W l l l c &.*.A W.|.`._.I._.P.].!.2.R R &.G H #Xb.9 W a i l &.&.#.#.&.&.&.&.&.&.&.&.&.&.&.&.&.&.&.&.&.&.&.&.&.&.&.&.&.&.&.&.&.&.&.&.&.&.&.&.&.&.&.&.&.&.&.&.&.&.&.&.&.&.&.&.&.&.&.&.&.&.&.&.&.&.&.&.&.&.&.&.&.&.&.&.&.&.&.&.&.&.&.&.&.&.&.&.&.&.&.&.&.&.&.&.&.&.&.&.&.&.&.&.&.&.&.&.;.;.;.&.&.;.;.;.&.&.&.&.l l &.&.&.&.&.&.&.&.Y E H.J.P.P.|.3.S R &.a i &.*.A 1.`.`.P.I.I.",
"P.G._.`.4.O.&.l Y 2.aX XP G a z l c l l c l &.&.c c ;.;.&.&.&.&.&.&.;.&.;.;.&.&.&.&.;.;.;.;.&.&.&.&.&.&.&.&.&.&.&.&.&.&.&.&.&.&.;.;.&.&.&.&.&.&.&.&.&.&.&.&.l i i i R R R R &.&.&.&.*.*.&.&.&.&.&.&.&.&.&.&.&.&.&.&.&.&.&.&.&.&.&.&.&.&.&.&.&.&.&.&.&.&.&.&.&.&.&.&.&.&.&.&.&.&.&.&.&.&.&.&.&.&.&.&.&.&.&.&.&.&.*.G 7.).`.P.P.K.P.J.1.G &.;.g G F.|.`._.I.`.|.<.i =.R R H m.).Z R R W a l l &.&.&.&.&.&.&.&.&.&.&.&.&.&.&.&.&.&.&.&.&.&.&.&.&.&.&.&.&.&.&.&.&.&.&.&.&.&.&.&.&.&.&.&.&.&.&.&.&.&.&.&.&.&.&.&.&.&.&.&.&.&.&.&.&.&.&.&.&.&.&.&.&.&.&.&.&.&.&.&.&.&.&.&.&.&.&.&.&.&.&.&.l l &.&.&.&.&.&.&.&.&.&.&.&.&.&.&.&.&.&.&.&.&.&.&.&.&.&.&.&.&.&.&.&.&.&.&.&.z z l i G E ^ 2.*.W i i l ;.;.&.*.G W.|.`._.I._.P.].!.2.R R &.G K #Xp.C W a a l &.&.#.&.&.&.&.&.&.&.&.&.&.&.&.&.&.&.&.&.&.&.&.&.&.&.&.&.&.&.&.&.&.&.&.&.&.&.&.&.&.&.&.&.&.&.&.&.&.&.&.&.&.&.&.&.&.&.&.&.&.&.&.&.&.&.&.&.&.&.&.&.&.&.&.&.&.&.&.&.&.&.&.&.&.&.&.&.&.&.&.&.&.&.&.&.&.&.&.&.&.&.&.&.&.&.;.&.;.;.&.&.&.&.;.;.&.&.&.&.l l &.&.&.&.*.&.&.&.Y E F.J.P.P.|.3.H R W a i &.*.A 1.`.`.P.I.I.",
"P.G._.`.4.O.&.l R <.iX#X/ H a z l l l l l l &.&.l c ;.;.&.&.&.&.&.&.;.;.;.;.&.&.&.&.;.;.;.;.&.&.&.&.&.&.&.&.&.&.&.&.&.&.&.&.&.&.;.;.&.&.&.&.&.&.&.&.&.&.&.&.&.&.i i R R R R &.&.&.&.*.*.&.&.&.&.&.&.&.&.&.&.&.&.&.&.&.&.&.&.&.&.&.&.&.&.&.&.&.&.&.&.&.&.&.&.&.&.&.&.&.&.&.&.&.&.&.&.&.&.&.&.&.&.&.&.&.&.&.&.&.&.*.G 7.).`.P.P.K.P.J.1.G &.;.g G F.|.`._.I.`.|.*.W =.i R H m.).Z R R W a l l &.&.&.&.&.&.&.&.&.&.&.&.&.&.&.&.&.&.&.&.&.&.&.&.&.&.&.&.&.&.&.&.&.&.&.&.&.&.&.&.&.&.&.&.&.&.&.&.&.&.&.&.&.&.&.&.&.&.&.&.&.&.&.&.&.&.&.&.&.&.&.&.&.&.&.&.&.&.&.&.&.&.&.&.&.&.&.&.&.&.&.&.l l l &.&.&.&.&.&.&.&.&.&.&.&.&.&.&.&.&.&.&.&.&.&.&.&.&.&.&.&.&.&.&.&.&.&.l z z i R -.7.F.W.m.-.R e l ;.;.&.*.G W.|.`._.I._.P.].!.2.R R &.G / #XS.A W W a l &.&.&.&.&.&.&.&.&.&.&.&.&.&.&.&.&.&.&.&.&.&.&.&.&.&.&.&.&.&.&.&.&.&.&.&.&.&.&.&.&.&.&.&.&.&.&.&.&.&.&.&.&.&.&.&.&.&.&.&.&.&.&.&.&.&.&.&.&.&.&.&.&.&.&.&.&.&.&.&.&.&.&.&.&.&.&.&.&.&.&.&.&.&.&.&.&.&.&.&.&.&.&.&.&.&.;.;.;.;.&.&.&.&.;.;.;.;.&.&.l l &.&.&.&.*.&.&.*.Y E F.J.P.P._.y.E R W a i &.*.A 1.`.`.P.I.I.",
"P.G._.`.4.O.l l R E iXiX1.H i z z l l l &.&.&.&.&.&.&.&.&.&.&.&.&.&.&.&.&.&.&.&.&.&.&.&.&.&.&.&.&.&.&.&.&.&.&.&.&.&.&.&.&.&.&.&.&.&.&.&.&.&.&.&.&.&.&.&.&.&.&.&.R R R R R R &.&.&.&.&.&.&.&.&.&.&.&.&.&.&.&.&.&.&.&.&.&.&.&.&.&.&.&.&.&.&.&.&.&.&.&.&.&.&.&.&.&.&.&.&.&.&.&.&.&.&.&.&.&.&.&.&.&.&.&.&.&.&.&.&.&.*.G 7.).`.P.P.P.P.J.1.G &.;.l G F.].`._.I.`.|.<.R =.i R H m.XXH R R R a l l &.&.&.&.&.&.&.&.&.&.&.&.&.&.&.&.&.&.&.&.&.&.&.&.&.&.&.&.&.&.&.&.&.&.&.&.&.&.&.&.&.&.&.&.&.&.&.&.&.&.&.&.&.&.&.&.&.&.&.&.&.&.&.&.&.&.&.&.&.&.&.&.&.&.&.&.&.&.&.&.&.&.&.&.&.&.&.&.&.&.&.&.&.&.&.&.l &.&.&.&.&.&.&.R R &.R &.&.&.&.&.l &.&.&.&.&.&.&.&.&.&.&.&.&.&.&.l z z e R 6.W.).~.!.6.R e l ;.&.g *.G W.|.`._.I._.P.].!.2.R R &.G 1.aXS.C Y W a l &.&.&.&.&.&.&.&.&.&.&.&.&.&.&.&.&.&.&.&.&.&.&.&.&.&.&.&.&.&.&.&.&.&.&.&.&.&.&.&.&.&.&.&.&.&.&.&.&.&.&.&.&.&.&.&.&.&.&.&.&.&.&.&.&.&.&.&.&.&.&.&.&.&.&.&.&.&.&.&.&.&.&.&.&.&.&.&.&.&.&.&.&.&.&.&.&.&.&.&.&.&.&.&.&.&.&.&.&.&.&.&.&.&.&.&.&.&.&.&.l l &.&.&.&.&.&.&.&.Y Q F.J.P.P.`.y.^ R W a l &.*.A 1.Q.`.P.I.I.",
"P.P.`.`.<.O.l l R E iXsXp.E i x l l l l &.&.&.&.&.&.&.&.&.&.&.&.&.&.&.&.&.&.&.&.&.&.&.&.&.&.&.&.&.&.&.&.&.&.&.&.&.&.&.&.&.&.&.&.&.&.&.&.&.&.&.&.&.&.&.&.&.&.*.*.*.*.*.*.R R &.&.&.&.&.&.&.&.&.&.&.&.&.&.&.&.&.&.&.&.&.&.&.&.&.&.&.&.&.&.&.&.&.&.&.&.&.&.&.&.&.&.&.&.&.&.&.&.&.&.&.&.&.&.&.&.&.&.&.&.&.&.&.&.&.&.*.G 7.).`.P.P.P.P.J.1.G &.;.g G F.].`._.I.`.|.<.W =.R G H F.XXH E R R a l &.&.&.&.&.&.&.&.&.&.&.&.&.&.&.&.&.&.&.&.&.&.&.&.&.&.&.&.&.&.&.&.&.&.&.&.&.&.&.&.&.&.&.&.&.&.&.&.&.&.&.&.&.&.&.&.&.&.&.&.&.&.&.&.&.&.&.&.&.&.&.&.&.&.&.&.&.&.&.&.&.&.&.&.&.&.&.&.&.&.&.&.&.&.&.&.&.l l &.&.&.l &.&.i &.&.R &.&.&.&.l l &.l &.&.&.&.&.&.&.&.&.&.&.l &.l x x e *.7.Q.Q.Q.~.m.*.R &.&.l g *.G W.|.`._.g.I.P.].!.2.R R &.G 1.aXS.S Y R W &.&.&.&.&.&.&.&.&.&.&.&.&.&.&.&.&.&.&.&.&.&.&.&.&.&.&.&.&.&.&.&.&.&.&.&.&.&.&.&.&.&.&.&.&.&.&.&.&.&.&.&.&.&.&.&.&.&.&.&.&.&.&.&.&.&.&.&.&.&.&.&.&.&.&.&.&.&.&.&.&.&.&.&.&.&.&.&.&.&.&.&.&.&.&.&.&.&.&.&.&.&.&.&.&.&.&.&.&.&.&.&.&.&.&.&.&.&.&.&.&.l l &.&.&.&.&.&.&.&.Y Q F.J.P.P.`.a.<.R i a l &.*.A 1.Q.`.P.I.I.",
"P.G._.`.<.G l l W E iXsXa.E i x l l &.&.&.&.&.&.&.&.&.&.&.&.&.&.&.&.&.&.&.&.&.&.&.&.&.&.&.&.&.&.&.&.&.&.&.&.&.&.&.&.&.&.&.&.&.&.&.&.&.&.&.&.&.&.&.R &.*.R R R R *.*.*.*.R R R R &.&.&.&.&.&.&.&.&.&.&.&.&.&.&.&.&.&.&.&.&.&.&.&.&.&.&.&.&.&.&.&.&.&.&.&.&.&.&.&.&.&.&.&.&.&.&.&.&.&.&.&.&.&.&.&.&.&.;.&.&.&.&.&.*.G 7.).`.P.P.P.P.J.1.G &.;.g G F.|.`._.I.`.|.<.R =.R G H F.@XH E R R W &.&.&.&.&.&.&.&.&.&.&.&.&.&.&.&.&.&.&.&.&.&.&.&.&.&.&.&.&.&.&.&.&.&.&.&.&.&.&.&.&.&.&.&.&.&.&.&.&.&.&.&.&.&.&.&.&.&.&.&.&.&.&.&.&.&.&.&.&.&.&.&.&.&.&.&.&.&.&.&.&.&.&.&.&.l l l l l l l &.&.&.&.&.&.&.&.&.&.&.&.&.&.&.&.R &.&.&.&.&.&.&.l l &.&.&.&.l l l l l l l l l l l i G *.p.Q.`.G.).m.*.R &.&.&.&.*.C W.|.`._.f.I.P.].!.2.R R &.G 1.aXF.C Y R W &.&.&.&.&.&.&.&.&.&.&.&.&.&.&.&.&.&.&.&.&.&.&.&.&.&.&.&.&.&.&.&.&.&.&.&.&.&.&.&.&.&.&.&.&.&.&.&.&.&.&.&.&.&.&.&.&.&.&.&.&.&.&.&.&.&.&.&.&.&.&.&.&.&.&.&.&.&.&.&.&.&.&.&.&.&.&.&.&.&.&.&.&.&.&.&.&.&.&.&.&.&.&.&.&.&.&.&.&.&.&.&.&.&.&.&.&.&.&.&.&.l l &.&.&.&.&.&.&.&.Y Q F.J.P.P.`.S.2.R i a l l *.A 5.Q.`.P.I.I.",
"P.G.`.`.<.G l l W S #XsXa.P e x l l &.&.&.&.&.&.&.&.&.&.&.&.&.&.&.&.&.&.&.&.&.&.&.&.&.&.&.&.&.&.&.&.&.&.&.&.&.&.&.&.&.&.&.&.&.&.&.&.&.&.&.&.&.&.&.&.&.*.R R R R :.*.*.*.R R G G &.&.&.&.&.&.&.&.&.&.&.&.&.&.&.&.&.&.&.&.&.&.&.&.&.&.&.&.&.&.&.&.&.&.&.&.&.&.&.&.&.&.&.&.&.&.&.&.&.&.&.&.&.&.&.&.&.&.&.&.&.&.&.&.*.G 7.).`.P.P.P.P.J.1.G &.;.g G F.|.`._.I.`.|.<.R =.R G F F.@XH E R R W &.&.&.&.&.&.&.&.&.&.&.&.&.&.&.&.&.&.&.&.&.&.&.&.&.&.&.&.&.&.&.&.&.&.&.&.&.&.&.&.&.&.&.&.&.&.&.&.&.&.&.&.&.&.&.&.&.&.&.&.&.&.&.&.&.&.&.&.&.&.&.&.&.&.&.&.&.&.&.&.&.&.&.&.&.l l l l l l l &.&.&.&.&.&.&.&.&.&.&.&.&.&.&.&.&.&.&.&.&.&.&.&.&.l &.&.&.&.&.l l l l l l l l l l e G <.W. X|.Q.Q.p.<.*.&.&.;.&.R C W.|.`._.f.I.P.].!.2.R R &.G 1.aXF.C Y R a &.&.&.@.&.&.&.&.l &.&.&.&.&.&.&.&.&.&.&.&.&.&.&.&.&.&.&.&.&.&.&.&.&.&.&.&.&.&.&.&.&.&.&.&.&.&.&.&.&.&.&.&.&.&.&.&.&.&.&.&.&.&.&.&.&.&.&.&.&.&.&.&.&.&.&.&.&.&.&.&.&.&.&.&.&.&.&.&.&.&.&.&.&.&.&.&.&.&.&.&.&.&.&.&.&.&.&.&.&.&.&.&.&.&.&.&.&.&.&.&.l l &.&.&.&.&.&.&.&.Y E F.J.P.P.`.S.2.R i a l l *.A 5.Q.`.P.I.I.",
"P.P.`.Q.7.*.i x W C |.zX`.Z R l l &.&.&.&.&.&.&.&.&.&.*.&.&.O.&.&.l &.&.&.&.&.&.&.&.&.&.&.&.&.&.&.&.&.&.&.&.&.&.&.&.&.&.&.&.&.&.&.&.&.&.&.&.&.&.*.&.G R *.,.6.,.-.-.-.:.*.*.O.G ;.&.*.&.&.&.&.&.&.&.&.&.&.&.&.&.&.&.&.&.&.&.&.&.&.&.&.&.&.&.&.&.&.&.&.&.&.&.&.&.&.&.&.&.&.&.&.&.&.&.&.&.&.&.&.&.&.&.&.&.&.&.&.&.*.H 7.).`.P.P.K.I.`.5.G &.>.&.G 7.|.`.I._.`.`.<.R i e G Z F.#XH E R R R &.&.&.&.&.&.&.&.&.&.&.&.&.&.&.&.&.&.&.&.&.&.&.&.&.&.&.&.&.&.&.&.&.&.&.&.&.&.&.&.&.&.&.&.&.&.&.&.&.&.&.&.&.&.&.&.&.&.&.&.&.&.&.&.&.&.&.&.&.&.&.&.&.&.&.&.&.&.&.&.&.&.&.&.;.l l l &.&.&.&.i i R &.&.&.*.*.:.-.-.-.-.-.-.-.*.*.R R R R G e &.&.&.&.&.i i i l l l l l l l l =.e G 7.`._.`.`.Q.F.2.G *.;.O.&.*.G ^.Q.P.}.I.I.P.~.H.-.R R &.G i.sXQ.C E *.&.&.&.&.&.&.&.&.&.l &.&.&.&.&.&.&.&.&.&.&.&.&.&.&.&.&.&.&.&.&.&.&.&.&.&.&.&.&.&.&.&.&.&.&.&.&.&.&.&.&.&.&.&.&.&.&.&.&.&.&.&.&.&.&.&.&.&.&.&.&.&.&.&.&.&.&.&.&.&.&.&.&.&.&.&.&.&.&.&.&.&.&.&.&.&.&.&.&.&.&.&.&.&.&.&.&.&.&.&.&.&.&.&.&.&.&.&.&.&.&.&.l l &.&.&.&.*.&.&.W 9 E F.U.P.`.`.~.6.Y W a i &.*.A 5.`.`.P.I.P.",
"P.P.`.`.7.*.i x R C |.zX_.K R l &.&.&.&.&.&.&.&.&.&.*.*.*.&.&.&.&.&.&.&.&.&.&.&.&.&.&.&.&.&.&.&.&.&.&.&.&.&.&.&.&.&.&.&.&.&.&.&.&.&.&.&.&.&.&.&.*.*.R *.-.6.6.6.-.-.-.-.*.*.*.O.&.&.&.&.&.&.&.&.&.&.&.&.&.&.&.&.&.&.&.&.&.&.&.&.&.&.&.&.&.&.&.&.&.&.&.&.&.&.&.&.&.&.&.&.&.&.&.&.&.&.&.&.&.&.&.&.&.&.&.&.&.&.&.&.*.H 7.).`.P.P.L.P.`.5.G &.>.&.G 7.|.I.I._.`.`.<.R i R E Z F.#X^ H R R R i R &.&.&.&.&.&.&.&.&.&.&.&.&.&.&.&.&.&.&.&.&.&.&.&.&.&.&.&.&.&.&.&.&.&.&.&.&.&.&.&.&.&.&.&.&.&.&.&.&.&.&.&.&.&.&.&.&.&.&.&.&.&.&.&.&.&.&.&.&.&.&.&.&.&.&.&.&.&.&.&.&.&.;.&.l &.&.&.&.&.&.*.*.*.;.:.:.:.-.-.-.-.-.-.-.-.*.*.*.*.*.*.*.R *.&.&.&.&.&.&.&.l i i i l l l l ;.e R 7.`.`.`.`.Q.Q.1.G *.;.O.&.*.G ^.Q.P.}.I.I.P.~.H.-.R R &.G i.sXQ.S E *.&.&.&.&.&.&.&.&.&.l &.&.&.&.&.&.&.&.&.&.&.&.&.&.&.&.&.&.&.&.&.&.&.&.&.&.&.&.&.&.&.&.&.&.&.&.&.&.&.&.&.&.&.&.&.&.&.&.&.&.&.&.&.&.&.&.&.&.&.&.&.&.&.&.&.&.&.&.&.&.&.&.&.&.&.&.&.&.&.&.&.&.&.&.&.&.&.&.&.&.&.&.&.&.&.&.&.&.&.&.&.&.&.&.&.&.&.&.&.&.&.&.l l &.&.&.&.*.&.&.W 9 E F.].P.`.`.~.6.Y W a i &.*.A 5.`.`.P.I.P.",
"P.P.`.`.7.R i x i C _.zX XP G W &.&.&.&.&.&.&.&.O.O.*.*.*.&.&.;.&.&.&.&.&.&.&.&.&.&.&.&.&.&.&.&.&.&.&.&.&.&.&.&.&.&.&.&.&.&.&.&.&.&.&.&.&.&.*.*.*.R *.*.-.2.2.2.-.-.-.-.:.*.*.*.O.&.&.*.;.&.&.l &.&.&.&.&.&.&.&.&.&.&.&.&.&.&.&.&.&.&.&.&.&.&.&.&.&.&.&.&.&.&.&.&.&.&.&.&.&.&.&.&.&.&.&.&.&.&.&.&.&.&.&.&.&.&.&.*.G 7.).`.P.P.K.P.`.5.G l ;.&.G 7.|.I.I._.`.`.<.R i R E F W.#X1.H R R R R R &.&.&.&.&.&.&.&.&.&.&.&.&.&.&.&.&.&.&.&.&.&.&.&.&.&.&.&.&.&.&.&.&.&.&.&.&.&.&.&.&.&.&.&.&.&.&.&.&.&.&.&.&.&.&.&.&.&.&.&.&.&.&.&.&.&.&.&.&.&.&.&.&.&.&.&.&.&.&.&.&.&.;.&.&.&.R &.*.*.:.:.:.:.-.-.:.:.-.-.-.-.-.-.2.-.-.-.-.-.-.*.*.:.*.*.*.*.&.&.&.&.i i i i l l l l &.e E 7.`.`.`._.`.Q.6.G R ;.l &.*.G ^.Q.P.}.I.I.P.~.H.-.R R &.G i.sX`.S E R R &.&.&.;.;.&.&.l l &.&.&.&.&.&.&.&.&.&.&.&.&.&.&.&.&.&.&.&.&.&.&.&.&.&.&.&.&.&.&.&.&.&.&.&.&.&.&.&.&.&.&.&.&.&.&.&.&.&.&.&.&.&.&.&.&.&.&.&.&.&.&.&.&.&.&.&.&.&.&.&.&.&.&.&.&.&.&.&.&.&.&.&.&.&.&.&.&.&.&.&.&.&.&.&.&.&.&.&.&.&.&.&.&.&.&.&.&.&.&.&.l l l &.&.&.*.&.&.W 9 E H.].P._.`.~.6.A W a i &.*.A 5.`.`.P.I.P.",
"P.P.P.Q.7.R i x i S `.zXiX1.G R &.&.&.&.&.&.&.&.&.&.*.*.*.O.O.&.&.&.&.&.&.&.&.l &.&.&.&.&.&.&.&.&.&.&.&.&.&.&.&.&.&.&.&.&.&.&.&.&.&.&.&.&.&.*.*.R *.*.-.2.2.2.-.-.-.-.-.-.*.*.*.e O.&.;.;.;.;.&.&.&.&.&.&.&.&.&.&.&.&.&.&.&.&.&.&.&.&.&.&.&.&.&.&.&.&.&.&.&.&.&.&.&.&.&.&.&.&.&.&.&.&.&.&.&.&.&.&.&.&.&.&.&.&.&.*.G 7.).`.P.P.K.P.`.5.G l ;.&.G 7.|.I.I._.`.`.<.R i R E F W.%X5.E R R R &.&.&.&.&.&.&.&.&.&.&.&.&.&.&.&.&.&.&.&.&.&.&.&.&.&.&.&.&.&.&.&.&.&.&.&.&.&.&.&.&.&.&.&.&.&.&.&.&.&.&.&.&.&.&.&.&.&.&.&.&.&.&.&.&.&.&.&.&.&.&.&.&.&.&.&.&.&.&.&.&.&.&.&.&.&.&.&.&.*.:.:.,.:.4.4.4.4.4.6.2.2.2.2.2.2.2.2.2.2.2.2.-.-.-.-.*.*.*.*.*.&.R R G i i i i l l l l e *.p._.`.I._.`.Q.5.G R ;.l &.*.G ^.Q.P.}.I.I.P.~.H.-.R R &.G y.lX|.Z E R R &.&.&.;.;.&.&.l l &.&.&.&.&.&.&.&.&.&.&.&.&.&.&.&.&.&.&.&.&.&.&.&.&.&.&.&.&.&.&.&.&.&.&.&.&.&.&.&.&.&.&.&.&.&.&.&.&.&.&.&.&.&.&.&.&.&.&.&.&.&.&.&.&.&.&.&.&.&.&.&.&.&.&.&.&.&.&.&.&.&.&.&.&.&.&.&.&.&.&.&.&.&.&.&.&.&.&.&.&.&.&.&.&.&.&.&.&.&.&.&.l l &.&.&.&.&.&.&.W 9 E F.].P._.`.~.6.A W a i &.*.A 5.`.`.P.I.I.",
"P.P.P.`.7.R i x y S P.lXpXi.G R &.&.&.&.&.&.&.&.&.&.*.*.*.*.&.&.&.&.&.&.&.R i i &.&.&.&.&.&.&.&.&.&.&.&.&.&.&.&.&.&.&.&.&.&.&.&.&.&.&.&.&.&.R R *.*.-.2.6.2.<.<.<.<.<.-.-.-.:.:.O.O.&.&.;.&.;.&.&.&.&.&.&.&.&.&.&.&.&.&.&.&.&.&.&.&.&.&.&.&.&.&.&.&.&.&.&.&.&.&.&.&.&.&.&.&.&.&.&.&.&.&.&.&.&.&.&.&.;.;.l l &.&.*.G 7.).`.P.P.P.I.`.5.G &.>.&.G 7.|.I.I._.`.`.<.R i R E C F.aX5.E R R R &.&.&.&.&.&.&.&.&.&.&.&.&.&.&.&.&.&.&.&.&.&.&.&.&.&.&.&.&.&.&.&.&.&.&.&.&.&.&.&.&.&.&.&.&.&.&.&.&.&.&.&.&.&.&.&.&.&.&.&.&.&.&.&.&.&.&.&.&.&.&.&.&.&.&.&.&.&.&.&.&.&.&.&.i R R R *.*.-.-.<.<.<.4.<.4.4.4.<.2.2.2.6.6.6.6.2.2.2.<.<.<.<.<.<.-.-.*.*.R G R R R i i i W W a a i *.p._.`.I._.P.Q.5.G R &.l ;.R G W.Q.P.}.I.I.P.~.H.-.R *.&.G y.lX|.H E R *.&.&.&.@.@.&.&.l l &.&.&.&.&.&.&.&.&.&.&.&.&.&.&.&.&.&.&.&.&.&.&.&.&.&.&.&.&.&.&.&.&.&.&.&.l &.&.&.&.&.&.&.&.&.&.&.&.&.&.&.&.&.&.&.&.&.&.&.&.&.&.&.&.&.&.&.&.&.&.&.&.&.&.&.&.&.&.&.&.&.&.&.&.&.&.&.&.&.&.&.&.&.&.&.&.&.&.&.&.&.&.&.&.&.&.&.&.&.&.&.l l &.&.&.&.&.&.&.W e E F.].P.`.`.~.6.A W x i l *.A 5.`.`.P.I.P.",
"P.P.P.`.7.R u a y Y a.lXlXp.A R R &.&.&.&.&.&.&.G G *.*.*.:.:.:.;.;.;.;.*.&.&.&.&.&.&.&.&.&.&.&.&.&.&.&.&.&.&.&.&.&.&.&.&.&.&.&.&.&.&.&.&.&.R R *.*.2.6.2.<.<.<.<.<.<.<.-.-.-.:.*.*.&.&.&.&.;.;.&.&.&.&.&.&.&.&.&.&.&.&.&.&.&.&.&.&.&.&.&.&.&.&.&.&.&.&.&.&.&.&.&.&.&.&.&.&.&.&.&.&.&.&.&.&.&.&.&.&.&.;.l &.&.&.*.G 7.).`.P.P.P.I.`.5.G &.;.&.G 7.|.I.I._.`.`.<.G i R E Z F.aX7.S G Y R i i O.O.&.&.&.&.&.&.&.&.&.&.&.&.&.&.&.&.&.&.&.&.&.&.&.&.&.&.&.&.&.&.&.&.&.&.&.&.&.&.&.&.&.&.&.&.&.&.&.&.&.&.&.&.&.&.&.&.&.&.&.&.&.&.&.&.&.&.&.&.&.&.&.&.&.&.&.&.&.&.&.&.R R *.*.:.-.6.6.<.<.<.<.<.<.<.<.<.<.<.<.<.<.<.<.<.<.<.<.<.<.<.<.6.6.<.<.*.*.R R R R R R R R W W i i *.F._.'.g.'.P.~.7.R R &.l l R G W.Q.P._.I.I.P.~.H.-.R *.&.G u.lX XK E R R *.&.&.#.@.&.&.l l &.&.&.&.&.&.&.&.&.&.&.&.&.&.&.&.&.&.&.&.&.&.&.&.&.&.&.&.&.&.&.&.&.&.&.&.&.&.&.&.&.&.&.&.&.&.&.&.&.&.&.&.&.&.&.&.&.&.&.&.&.&.&.&.&.&.&.&.&.&.&.&.&.&.&.&.&.&.&.&.&.&.&.&.&.&.&.&.&.&.&.&.&.&.&.&.&.&.&.&.&.&.&.&.&.&.&.&.&.&.&.&.l l &.&.&.&.&.&.&.W e E F.].P.`.`.~.6.A W x i &.*.A 5.`.`.P.I.P.",
"L.L.P.`.7.R u a R Y u.lXlXa.Z *.R &.&.&.&.&.&.&.*.*.:.:.-.,.,.,.:.,.:.:.-.=.;.*.&.&.&.&.&.&.&.&.&.&.&.&.&.&.&.&.&.&.&.&.&.&.&.&.&.&.&.&.&.&.R R *.-.2.2.2.<.<.<.<.<.<.<.2.<.:.:.*.&.&.&.l l &.;.&.&.&.&.&.&.&.&.&.&.&.&.&.&.&.&.&.&.&.&.&.&.&.&.&.&.&.&.&.&.&.&.&.&.&.&.&.&.&.&.&.&.&.&.&.&.&.&.&.&.&.&.&.&.&.&.*.G 7.).`.P.P.P.I.`.5.G &.>.&.G 7.|.I.I._.`.`.<.G R R E F F.aXS.H R R R &.&.&.&.&.&.&.&.&.&.&.&.&.&.&.&.&.&.&.&.&.&.&.&.&.&.&.&.&.&.&.&.&.&.&.&.&.&.&.&.&.&.&.&.&.&.&.&.&.&.&.&.&.&.&.&.&.&.&.&.&.&.&.&.&.&.&.&.&.&.&.&.&.&.&.&.&.&.&.&.&.&.&.&.&.*.:.-.-.2.2.<.<.<.<.<.<.<.<.<.<.<.<.<.<.<.<.<.<.<.<.<.<.<.<.<.4.4.4.<.-.-.*.*.*.*.*.*.&.R R i i i -.W._.`.z._.P.|.7.E R i l ;.*.H W.Q.P._.I.I.P.~.H.-.R *.&.G u.zX XK E G R *.&.&.&.&.&.&.l l &.&.&.&.&.&.&.&.&.&.&.&.&.&.&.&.&.&.&.&.&.&.&.&.&.&.&.&.&.&.&.&.&.&.&.&.&.&.&.&.&.&.&.&.&.&.&.&.&.&.&.&.&.&.&.&.&.&.&.&.&.&.&.&.&.&.&.&.&.&.&.&.&.&.&.&.&.&.&.&.&.&.&.&.&.&.&.&.&.&.&.&.&.&.&.&.&.&.&.&.&.&.&.&.&.&.&.&.&.&.&.&.l l &.&.&.&.&.&.&.W 9 E S.U.P.`.`.~.6.A W x l &.*.A 5.`.`.P.P.P.",
"T.K.P.`.7.R i a R E y.pXlXa.S Q R R &.R &.R &.R ,.-.,.-.6.2.6.6.6.,.,.,.,.-.-.-.&.R &.R &.R &.&.&.&.&.&.&.&.&.&.&.&.&.&.&.&.&.&.&.l &.&.&.R R R :.-.6.6.<.<.<.6.<.<.<.4.4.2.<.:.:.;.*.G e l &.;.&.&.&.&.&.&.&.&.&.&.&.&.&.&.&.&.&.&.&.&.&.&.&.&.&.&.&.&.&.&.&.&.&.&.&.&.&.&.&.&.&.&.&.&.&.&.&.&.&.&.&.&.&.&.&.*.R G 7.).`.P.P.P.P.`.5.G &.;.*.G p.|.I.'.`.`.`.1.R R *.<.Z G.aXF.^ E *.*.*.;.:.:.&.&.&.&.&.&.&.&.&.&.&.&.&.&.&.&.&.&.&.&.&.&.&.&.&.&.&.&.&.&.&.&.&.&.&.&.&.&.&.&.&.&.&.&.&.&.&.&.&.&.&.&.&.&.&.&.&.&.&.&.&.&.&.&.&.&.&.&.&.&.&.&.&.&.&.&.&.&.&.&.*.:.-.6.6.6.<.-.<.<.<.<.<.<.4.<.<.<.<.<.<.<.<.<.<.<.<.<.<.<.<.<.<.<.<.<.<.<.<.2.-.-.*.*.*.R R R i R <.F._.`.I.'.P.].7.E R i l ;.*.G W.Q.P.'.I.I.P.~.H.-.R *.*.G u.zX X^ E G R *.&.&.#.&.&.&.l l &.&.&.&.&.&.&.&.&.&.&.&.&.&.&.&.&.&.&.&.&.&.&.&.&.&.&.&.&.&.&.&.&.*.*.&.&.&.&.*.*.*.*.*.*.*.*.&.&.&.*.*.*.*.&.&.&.&.&.&.&.&.&.&.&.&.&.&.&.&.&.&.&.&.&.&.&.&.&.&.&.&.&.&.&.&.&.&.&.&.&.&.&.&.&.&.&.R *.R *.R *.R *.R *.R &.R *.&.&.l &.&.&.&.&.&.W W G E F.~.P._.`.Q.6.G W l x l *.G 5.`.`.P.P.P.",
"P.K.P._.S.Q p a W 9 a.sXiXiXK S R R G G R *.-.6.2.2.<.<.<.<.<.<.<.<.<.<.2.2.-.-.-.:.*.R R R &.&.l l &.&.&.&.&.&.&.&.;.;.;.;.#.&.l l l W R R *.*.2.<.<.<.<.<.<.<.<.<.<.<.<.<.2.-.6.-.*.R e i i a l l ;.l l l &.&.&.&.;.;.c c &.;.&.&.&.&.&.&.&.&.&.&.&.&.&.&.&.&.;.;.;.&.&.&.&.&.g O.l &.l l &.l a a a a a R R R R G 7.~.J.G.P.P.P.|.7.H R *.R H F.Q._.`.`.|.G.1.-.-.*.1./ `.sX].! ^ ^ -.-.,.6.6.:.:.:.:.&.&.&.&.l l l ;.=.l l l &.&.&.&.&.&.&.&.&.&.&.&.&.&.&.&.&.&.&.&.&.&.&.&.&.&.&.&.&.&.&.&.l l l l l l l l l l l l l &.&.&.i a i a a l &.&.i G G R R *.:.-.2.<.<.<.<.<.<.<.<.<.<.<.<.<.<.<.<.<.<.<.<.<.<.<.<.<.<.<.<.<.<.<.<.<.<.<.<.<.<.<.<.<.<.*.*.*.E G E A <.F.`.P._.I.P._.y.H R ;.l x i Q W.Q.`._.f.'.P.~.S.E G R *.A G.sXaX/ C W *.l &.&.&.&.&.&.&.&.l l l l l l l l &.&.&.&.&.&.&.&.l l l l l &.&.&.;.;.*.&.&.&.&.O.O.G E *.*.-.-.-.2.2.2.2.2.2.2.<.6.<.<.<.*.*.*.*.G R R R *.*.&.&.l c c c l c c c c c c c c l c l l a W W W W W i R R R R R R R R -.-.-.-.2.2.6.2.2.2.2.2.2.2.2.-.R R R &.&.l i i R W A E S.~.J._.`.|.7.G a x x l l e <.Q.`.P._.I.",
"P.P.P.`.S.Q i a i 7 p.sXpXiX! Y R R R R *.*.2.6.<.<.<.<.<.<.<.<.<.<.<.<.<.<.<.2.-.-.*.R R R R W l l l l &.&.&.&.&.&.;.;.&.&.#.&.l l a i R R *.*.<.<.<.<.<.<.<.<.<.<.<.<.<.<.<.2.2.-.*.*.R R R a l l l l l l l l &.&.;.;.l &.&.&.&.&.&.&.&.&.&.&.&.&.&.&.&.&.&.&.;.;.;.;.&.&.&.&.O.&.l &.l l l a a a a a W W R R E E 7.~.J.G.P.P.`.|.7.H E E H H p.Q.`.`.`.`.G.1.-.-.<.1./ P.sX_.~ ! ^ 2.2.6.6.6.,.:.:.:.:.;.*.*.&.l l l l l l l &.&.&.&.&.&.&.&.&.&.&.&.&.&.&.&.&.&.&.&.&.&.&.&.&.&.&.&.&.&.&.&.l l l l l l l l l l l l &.&.&.&.a a a a a a R R R R R *.*.*.-.-.<.<.<.<.<.<.<.<.<.<.<.<.<.<.<.<.<.<.<.<.<.<.<.<.<.<.<.<.<.<.<.<.<.<.<.<.<.<.<.<.<.<.<.<.<.<.*.E E S 2.F.P.U.Y.P.P._.y.H R &.l l i Q W.Q.I._.f.'.P.].F.^ G R *.A a.sXiX/ C W &.l l &.&.&.&.R R i l l &.&.l &.&.&.&.&.&.&.&.&.&.&.l l l &.&.&.&.&.&.&.*.&.&.&.&.*.*.<.<.<.<.<.<.6.<.<.<.<.<.<.<.<.5.<.<.<.<.*.*.*.*.*.R R R R W &.l l l l l l l l l l l l l l l l l a W W W i i R i R R R *.*.*.*.<.<.<.<.<.<.<.<.<.<.<.<.<.<.<.<.*.*.*.*.&.l i i R W A E F.~.~.].`.`.7.G i x x z &.G 4.Q.`.P._.I.",
"P.P.P.`.a.E i a i 9 i.sXpXpX/ T R R *.*.*.-.2.6.<.<.<.<.<.<.<.<.<.<.<.<.<.<.<.2.-.-.:.*.*.W R R l l l l l l &.&.&.&.&.&.&.&.#.&.l x a i R R *.*.<.<.<.<.<.<.<.<.<.<.<.<.<.<.<.2.2.-.-.*.*.*.*.W l l l l l l &.&.&.&.&.&.l &.&.&.&.&.&.&.&.&.&.&.&.&.&.&.&.&.&.&.;.;.&.&.&.&.&.&.&.&.&.&.i i l i a a W a &.&.*.*.*.E F.|.P.J.P.P.`.|.7.H E E H H p.Q._.`.`.`.G.3.-.-.<.1./ P.sX_.~ ! ^ 2.2.6.6.6.6.6.6.,.-.-.-.-.&.W W a a a a l &.&.&.&.&.&.&.&.&.&.&.&.&.&.&.&.&.&.&.&.&.&.&.&.&.&.&.&.&.&.&.&.l l l l l l l l ;.;.&.&.&.&.&.&.a a a a a R R R *.*.*.-.-.-.-.-.<.<.<.<.<.<.<.<.<.<.<.<.<.<.<.<.<.<.<.<.<.<.<.<.<.<.<.<.<.<.<.<.<.<.<.<.<.<.<.<.<.<.<.<.<.<.<.<.*.E 5.F.J.P.U.K.P._.p.H E ;.l l i Q W.Q.I._.f.'.P.].F.^ R *.*.H P.sXiX/ A W &.&.&.&.&.&.*.R R R R &.&.&.&.&.&.&.&.&.&.&.&.&.&.&.&.&.&.&.&.&.&.&.&.*.*.&.:.:.:.:.<.<.<.<.<.4.6.6.<.<.<.<.<.<.<.<.5.5.6.<.<.<.<.2.-.-.*.R Y Y R &.l l l l l l l l l l l l l l l l &.W W R R i R R Y R R *.*.-.-.-.<.<.<.<.<.<.<.<.<.<.<.<.<.<.<.<.-.-.:.*.*.&.&.i R R A E F.~.J.].`.`.5.G i x x x &.G 4.Q.`.P._.I.",
"P.P.P.`.a.E i a i D r.sXpXpXu.T E *.*.-.2.2.2.2.<.<.<.<.<.<.<.<.<.<.<.<.<.<.<.2.2.-.-.-.*.*.R i l l l l l l &.&.&.&.&.&.&.&.#.&.l l a i R R *.-.<.<.<.<.<.<.<.<.<.<.<.<.<.<.<.2.2.-.-.-.-.-.*.*.l l l l &.&.&.&.&.&.&.&.l l &.&.&.&.&.&.&.&.&.&.&.&.&.&.&.&.&.&.;.;.;.&.&.&.&.&.&.&.&.&.i i l i W W &.&.*.*.*.-.<.<.F.|.P.P.P.P.Q.|.7.S E E H H W.Q._.`.P.].G.3.-.-.<.1./ P.sX[.~ / ( 2.2.6.6.6.4.,.4.6.2.2.-.-.*.*.&.i i i W &.&.&.&.&.&.&.&.&.&.&.&.&.&.&.&.&.&.&.&.&.&.&.&.&.&.&.&.&.&.&.&.&.l l l l l l l &.l l &.&.&.&.&.R W W W W R &.*.*.*.:.-.2.2.-.<.-.<.<.<.<.<.<.<.<.<.<.<.<.<.<.<.<.<.<.<.<.<.<.<.<.<.<.<.<.<.<.<.<.<.<.<.<.<.<.<.<.<.<.<.<.<.<.<.<.<.E 7.~.J.P.P.K.P._.S.E *.-.;.=.R Q !.Q.I.'.f.I.P._.F.^ G R *.F I.lXaXy.H Q *.&.:.:.:.:.:.:.-.-.R &.&.&.&.&.&.&.&.&.&.&.&.&.&.&.&.*.&.&.&.*.O.O.*.&.*.:.:.:.6.6.<.<.<.<.<.<.<.<.<.<.<.<.<.<.<.<.<.<.<.6.6.6.6.6.6.-.*.*.R R R R &.&.&.&.&.&.&.&.&.&.&.&.&.&.&.&.R R R W R *.*.*.R R *.*.:.-.6.6.<.<.<.<.<.<.<.<.<.<.<.<.<.<.<.<.2.-.-.-.:.;.;.*.*.W G E F.~.J.`.`.`.5.G i l x x &.G 4.Q.`.P.I.I.",
"P.K.P.`.a.E i a W E 1.jXjXpXD.S Q *.-.-.6.6.2.<.<.<.<.<.<.<.<.<.<.<.<.<.<.<.<.2.2.2.-.-.-.*.R R l l l l l l &.&.&.&.&.&.&.&.&.&.l l a i R R *.2.<.<.<.<.<.<.<.<.<.<.<.<.<.<.<.2.-.-.-.,.-.-.-.*.l l &.l &.&.&.&.&.&.&.&.&.&.&.&.&.&.&.&.&.&.&.&.&.&.&.&.&.&.&.&.&.&.&.&.&.&.&.&.;.&.&.&.R &.&.W &.W *.*.*.-.-.-.2.1.F.|.`.P.I.P.J.|.p.H E E E H F.`.`.P.P.U.G.3.-.2.<.3.I P.lX[.~ / 1.2.2.6.4.4.4.<.<.<.<.-.6.,.:.*.*.R R R R &.&.&.&.&.&.&.&.&.&.&.&.&.&.&.&.&.&.&.&.&.&.&.&.&.&.&.&.l l l &.&.l l l &.&.&.&.&.i i R G R R R R R R W &.*.*.*.-.-.-.2.2.2.<.<.*.<.<.<.<.<.<.<.<.<.<.<.<.<.<.<.<.<.<.<.<.<.<.<.<.<.<.<.<.<.<.<.<.<.<.<.<.<.<.<.<.<.<.<.<.<.<.<.<.2.^ 7.~.J.P.P.K.P._.a.H E ;.l ;.W E /.Q.P.'.d.I.P.J.S.^ G R *.F I.lXsXu.^ *.-.:.,.,.6.6.6.6.-.,.&.&.&.&.&.&.&.&.&.&.&.&.&.&.&.&.&.&.*.&.*.*.*.*.:.-.-.:.:.,.4.4.<.<.<.<.<.<.<.<.<.<.<.<.<.<.<.<.<.<.<.<.<.<.2.2.2.2.-.-.*.*.R R R R &.R &.R &.R &.R &.R &.R &.R R R R *.*.*.:.-.*.*.-.-.-.2.2.2.<.<.<.<.<.<.<.<.<.<.<.<.<.<.<.<.<.<.-.-.,.:.:.-.*.*.H ^ F.].G.`.P.|.7.G R l x l ;.G 5.Q._.P.I.I.",
"P.K.P.`.a.E i a W E I jXjXlXP.S E -.-.2.6.6.2.<.<.<.<.<.<.<.<.<.<.<.<.<.<.<.<.<.-.2.2.-.-.:.*.*.W l l l l l &.&.&.&.&.&.&.&.&.&.l l i i R R -.6.<.<.<.<.<.<.<.<.<.<.<.<.<.<.<.<.-.-.2.,.,.-.-.-.&.&.*.&.&.&.&.&.&.&.&.&.&.&.&.&.&.&.&.&.&.&.&.&.&.&.&.&.&.&.&.&.&.&.&.&.&.&.&.&.&.&.&.&.R *.*.*.*.*.*.-.-.-.-.<.<.<.p.|.P.P.I.I.P.|.p.E *.2.E ^ F.`.`.P.P.].G.3.-.2.<.3.I P.lX X~ / 1.6.2.2.4.4.<.<.<.<.<.<.<.-.-.:.:.*.*.R R R &.&.&.&.&.&.&.&.&.&.&.l &.&.&.&.&.&.&.&.&.&.&.&.&.&.&.&.l l &.&.&.&.&.&.&.&.&.&.i G G R &.*.*.R *.*.*.*.*.-.-.-.2.<.<.<.<.<.<.<.<.<.<.<.<.<.<.<.<.<.<.<.<.<.<.<.<.<.<.<.<.<.<.<.<.<.<.<.<.<.<.<.<.<.<.<.<.<.<.<.<.<.<.<.<.<.<.<.6.^ S.~.P.P.P.P.P.U.i.S G *.l &.*.-.~.Q.I.I.d.I.P.J.S.^ R E *.H '.zXlXG.1.2.-.,.,.6.4.4.6.6.-.-.*.*.*.&.*.&.R R &.&.&.&.&.&.*.*.O.O.*.*.*.*.*.*.:.:.:.4.4.4.4.<.<.<.<.<.<.<.<.<.<.<.<.<.<.<.<.<.<.<.<.<.<.<.<.<.-.2.6.,.-.*.*.R R R R R R R R R R R R R R R R R R R *.*.-.-.-.6.2.2.2.<.<.<.<.<.<.<.<.<.<.<.<.<.<.<.<.<.<.<.<.<.<.<.<.-.,.,.,.,.-.<.E 1.Q.].P.P.`.|.7.H R =.l l ;.G 5.Q._.P.I.I.",
"P.P.I.`.a.E i a Y ^ I jXzXlXY.K <.-.-.2.2.2.2.<.<.<.<.<.<.<.<.<.<.<.<.<.<.<.<.<.-.2.2.2.-.-.-.-.W a a a &.&.&.&.&.&.&.&.&.&.l l &.&.R R R *.-.6.<.<.<.<.<.<.2.2.<.<.<.<.<.<.<.<.-.2.2.2.2.2.-.-.*.*.*.*.*.*.&.R &.&.&.&.&.&.&.&.&.&.&.&.&.&.&.&.&.&.&.&.&.&.&.&.&.&.&.&.&.&.&.&.&.&.G G R *.*.-.-.-.-.-.-.-.<.<.<./ p.`.P.I.I.I.P.|.S.^ 2.3.<.1.W.Q.`.P.P.P.G.y.*.2.6.3.I f.lXiX~ / ^ 6.2.<.4.<.4.<.<.<.<.<.<.<.<.2.-.-.*.*.R R &.&.&.&.&.l l l &.&.l l &.&.&.&.&.&.l l &.l &.&.&.&.&.&.l &.&.&.&.R &.&.&.&.&.&.G O.&.*.*.:.:.*.:.:.-.-.-.-.-.<.2.<.<.<.<.<.<.<.<.<.<.<.<.<.<.<.<.<.<.<.<.<.<.<.<.<.<.<.<.<.<.<.<.<.<.<.<.<.<.<.<.<.<.<.<.<.<.<.<.<.<.<.<.<.<.<.1.^ S.].P.P.P.P.P.].y.H G *.&.;.*.<./.].P.I.d.I.P.J.F.( E -.2./ 4XzXlXP.1.<.-.6.4.4.4.4.<.<.-.-.-.-.:.;.*.*.R R &.&.*.&.*.*.*.*.O.*.*.*.*.-.-.<.4.4.4.4.4.4.4.<.<.<.<.<.<.<.<.<.<.<.<.<.<.<.<.<.<.<.<.<.<.<.<.<.-.-.2.6.-.-.-.*.*.*.E *.E *.*.*.*.*.*.*.E E *.*.*.*.-.-.-.2.2.2.<.<.<.<.<.<.<.<.<.<.<.<.<.<.<.<.<.<.<.<.<.<.<.<.<.<.<.<.4.,.6.6.<.6.<.1.Q.|.P.P.`.|.p.H R =.&.&.:.H 7.{.`.P.I.I.",
"P.P.I.`.a.E i a Y E U jXzXjX[.! 1.2.2.<.<.<.<.<.<.<.<.<.<.<.<.<.<.<.<.<.<.<.<.<.<.2.2.2.-.-.-.-.R W W W &.&.&.&.&.&.&.&.&.&.l &.&.&.R R G *.<.6.<.<.<.<.<.<.2.2.<.<.<.<.<.<.<.<.<.-.-.2.2.-.2.2.-.-.*.*.*.*.*.R &.&.&.&.&.&.&.&.&.&.&.&.&.&.&.&.&.&.&.&.&.&.&.&.&.&.&.&.&.&.&.&.&.&.G G R *.:.-.2.2.2.-.-.2.<.<.1.P p.`.P.f.I.I.P.|.S.^ 2.7.6.1.W.Q.`.f.P.P.D.y.*.2.<.3.I f.lXiX~ / 1.6.<.<.4.<.4.6.6.<.<.<.<.<.<.2.2.2.-.*.E R &.&.&.&.&.l l l &.&.l l l &.&.&.&.&.l l l &.&.&.&.&.&.&.&.&.&.&.&.R &.&.&.&.*.*.O.*.*.*.:.:.:.-.6.6.6.2.2.<.*.*.6.4.<.<.<.<.<.6.<.<.<.<.<.<.<.<.<.<.<.<.<.<.<.<.<.<.<.<.<.<.<.<.<.<.<.<.<.<.<.<.<.<.<.<.<.<.<.<.<.<.<.<.<.<.<.<.<.^ S.].P.P.U.P.P. XS.^ *.:.;.;.*.( /.].P.[.d.I.P.U.F.2.E 2.6.1.4XzXlXP.1.<.-.6.4.4.4.4.4.<.2.2.6.,.,.:.:.*.*.*.O.*.O.*.*.*.*.*.O.*.*.*.-.4.4.4.4.4.4.4.4.4.4.4.<.<.<.<.<.<.<.<.<.<.<.<.<.<.<.<.6.6.6.<.<.<.<.<.<.-.-.-.2.-.-.6.2.2.<.2.<.2.<.2.<.2.<.2.<.-.<.2.2.2.2.2.2.<.<.<.<.<.<.<.<.<.<.<.<.<.<.<.<.<.<.<.<.<.<.<.<.<.<.<.<.<.4.<.4.:.:.<.<.6.<.1.`.[.I.P.`.|.p.H *.=.;.;.:.H 5.`.`.P.I.I.",
"U.P.I.`.F.2.W =.-.C ] 9XjXyXuX~ ^ <.<.<.<.<.<.<.<.<.<.<.<.<.<.<.<.<.<.<.<.<.<.<.<.<.<.2.2.2.2.-.-.=.W i i i &.&.&.R &.&.&.&.&.&.&.&.R *.-.-.<.<.<.<.<.<.<.<.2.2.<.<.<.<.<.<.<.<.<.<.<.2.2.2.2.-.-.-.-.-.:.*.G e *.*.;.&.&.&.l g &.&.&.&.&.&.&.&.&.&.&.&.&.&.&.&.g g &.&.*.&.&.&.&.&.R *.*.-.6.6.<.2.<.<.<.<.<.<.1.1.a._.I.I.I.I.I.].a.^ 2.2.^ 1.F.`._.P.P.P.P.y.<.*.1./ I `.sXsX} K 7.1.*.6.4.<.<.<.<.<.<.<.<.<.<.<.<.<.<.<.<.-.&.&.&.&.&.&.&.&.&.&.&.&.&.&.&.&.&.&.&.&.&.&.&.&.e i i i &.&.&.&.e e G R R *.*.*.-.-.-.-.-.-.2.2.-.<.<.<.<.<.<.<.<.<.<.<.<.<.<.<.<.<.<.<.<.<.<.<.<.<.<.<.<.<.<.<.<.<.<.<.<.<.<.<.<.<.<.<.<.<.<.<.<.<.<.<.<.<.<.<.<.<.<.<.<.<.<.<.H 1.F.J.U.P.P.P.P.U.y.<.6.6.:.,.6.^ ].a.[.I.I.I.U.J.S.2.^ 2.2.1.8XkXyX[.K 6.6.-.4.4.4.4.<.<.<.2.2.-.6.,.2.-.2.-.*.*.*.*.*.*.*.*.2.<.<.<.<.<.<.<.<.<.<.<.<.<.<.<.<.<.<.<.<.<.<.<.<.<.<.<.<.<.<.<.<.<.<.<.<.<.<.<.<.<.<.2.2.2.2.2.2.2.<.2.<.2.<.2.<.2.<.2.<.2.<.2.<.<.<.<.<.<.<.<.<.<.<.<.<.<.<.<.<.<.<.<.<.<.<.<.<.<.<.<.<.<.<.<.<.<.4.<.4.4.4.<.<.<.<.i.`.`.P._.`.`.3.^ 6.,.=.,.6.<.p._.`.I.I.I.",
"U.P.I.`.F.2.W =.-.S } jXjXgXuX .^ <.<.<.<.<.<.<.<.<.<.<.<.<.<.<.<.<.<.<.<.<.<.<.<.<.<.<.<.2.<.2.-.-.*.R R R &.&.&.&.&.&.&.&.&.&.&.O.R *.-.<.<.<.<.<.<.<.<.2.2.2.<.<.<.<.<.<.<.<.<.<.<.<.<.2.<.2.-.-.-.-.-.*.*.G &.&.&.&.*.&.&.&.&.&.&.&.&.&.&.&.&.&.&.&.&.&.&.&.g l &.&.*.&.R R O.O.*.*.-.-.6.6.<.<.<.<.<.<.<.<.1.1.a._.I.I.I.I.I.].a.^ 2.2.^ ^ G.`.`.P.P.P.P.y.<.*.1./ I `.sXsXr.K 3.1.*.6.4.<.<.<.<.<.<.<.<.<.<.<.<.<.<.<.<.-.*.&.*.&.*.&.*.&.&.&.R R R i R R R i R i R i R i e i G i &.&.&.*.R R R *.*.*.:.-.-.-.-.2.2.2.<.<.<.<.<.<.<.<.<.<.<.<.<.<.<.<.<.<.<.<.<.<.<.<.<.<.<.<.<.<.<.<.<.<.<.<.<.<.<.<.<.<.<.<.<.<.<.<.<.<.<.<.<.<.<.<.<.<.<.<.<.<.<.<.<.<.^ 1.F.P.U.P.P.P.P.U.y.^ 6.6.:.,.2.^ ].a.[.I.I.P.U.J.S.2.^ 6.<.1.6XkXuX[.K 5.6.-.4.4.4.<.<.1.1.<.<.2.2.6.2.2.2.2.-.-.-.-.-.-.-.-.<.<.<.<.<.<.4.4.<.<.<.4.<.<.<.<.<.<.<.<.<.<.<.<.<.<.<.<.<.<.<.<.<.<.<.<.<.<.<.<.<.<.<.<.<.2.<.<.<.<.<.<.<.<.<.<.<.<.<.<.<.<.<.<.<.<.<.<.<.<.<.<.<.<.<.<.<.<.<.<.<.<.<.<.<.<.<.<.<.<.<.<.<.<.<.<.<.<.<.<.4.4.4.<.<.<.<.i.`.`.P._.`.P.3.^ 2.,.-.6.6.<.p._.`.I.I.I.",
"P.P.I.`.G.2.W =.2.^ | eXkXdXlX..^ <.<.<.<.<.<.<.<.<.<.<.<.<.<.<.<.<.<.<.<.<.<.<.<.<.<.<.<.<.<.<.6.-.-.*.*.R R R *.&.*.&.&.&.&.&.*.O.R *.-.6.<.<.<.<.<.<.2.2.2.2.<.<.<.<.<.<.<.<.<.<.<.<.<.<.<.<.<.-.<.2.2.-.*.*.G G G &.&.*.;.;.&.&.&.&.&.&.&.&.&.&.&.&.&.&.&.&.l l &.&.&.&.R G R R *.:.-.-.2.2.<.<.<.<.<.<.<.<.1.1.a._.P.I.I.I.P.U.y.^ 2.2.^ ^ G.`.`.P.I.U.P.y.<.<.1./ I `.pXsXu.K 1.1.*.6.4.<.<.<.<.<.<.<.<.<.<.<.<.<.<.<.<.-.:.:.:.;.:.;.:.:.*.&.&.&.*.&.*.&.&.&.&.&.R &.&.R *.&.*.*.*.;.;.:.:.*.*.*.-.-.-.-.2.2.<.<.<.<.<.<.<.<.<.<.<.<.<.<.<.<.<.<.<.<.<.<.<.<.<.<.<.<.<.<.<.<.<.<.<.<.<.<.<.<.<.<.<.<.<.<.<.<.<.<.<.<.<.<.<.<.<.<.<.<.<.<.<.<.<.<.<.<.<.<.^ 1.G.`.U.P.P.P.P.U.y.^ 6.6.:.,.2.^ ].G.[.I.I.U.P.J.S.2.^ 6.6./ 6XkXuX[.K 1.6.-.4.4.<.<.<.1.1.<.<.<.<.<.<.<.<.<.<.<.<.<.<.<.2.2.<.<.<.<.<.<.<.<.<.<.<.<.<.<.<.<.<.<.<.<.<.<.<.<.<.<.<.<.<.<.<.<.<.<.<.<.<.<.<.<.<.<.<.<.<.<.<.<.<.<.<.<.<.<.<.<.<.<.<.<.<.<.<.<.<.<.<.<.<.<.<.<.<.<.<.<.<.<.<.<.<.<.<.<.<.<.<.<.<.<.<.<.<.<.<.<.<.<.<.<.4.4.4.<.<.1.<.i.`.`.P._.`.P.3.^ 2.,.:.6.4.<.p._.`.I.I.I.",
"P.P.I.`.G.1.Q *.2./ } eXkXfXlXK./ <.<.<.<.<.<.<.<.<.<.<.<.<.<.<.<.<.<.<.<.<.<.<.<.<.<.<.<.<.<.<.2.<.-.-.-.*.*.R *.*.*.*.*.&.*.&.*.*.*.*.<.6.6.<.<.<.<.<.2.2.2.2.<.<.<.<.<.<.<.<.<.<.<.<.<.<.<.<.<.<.<.2.6.2.-.-.*.*.&.G &.&.&.;.&.&.&.&.&.&.&.&.&.&.&.&.&.&.&.&.&.&.&.&.&.R R R R *.:.-.2.2.2.<.<.<.<.<.<.<.<.<.<.1.a.|.P.P.I.I.P.U.y.^ 2.2.^ ^ G.`.`.I.I.U.P.y.<.<.1./ I I.pXsXu.K 1.1.<.6.4.4.<.<.<.<.<.<.<.<.<.<.<.<.<.<.<.<.-.,.-.-.-.-.,.,.:.:.:.:.:.:.:.:.:.:.:.:.:.:.:.:.:.:.-.-.,.,.,.,.2.2.-.-.-.2.2.-.<.<.<.<.<.<.<.<.<.<.<.<.<.<.<.<.<.<.<.<.<.<.<.<.<.<.<.<.<.<.<.<.<.<.<.<.<.<.<.<.<.<.<.<.<.<.<.<.<.<.<.<.<.<.<.<.<.<.<.<.<.<.<.<.<.<.<.<.<.<.<.<.<.1.G.`.P.P.P.P.G.U.y.^ 6.6.:.6.<./ |.a.[.I.I.P.U.J.S.2.^ 1.<./ 6XkXuX+X! 1.2.2.<.4.<.<.<.1.<.<.<.<.<.<.<.<.<.<.<.<.<.<.<.<.<.<.<.<.<.<.<.<.<.<.<.<.<.<.<.<.<.<.<.<.<.<.<.<.<.<.<.<.<.<.<.<.<.<.<.<.<.<.<.<.<.<.<.<.<.<.<.<.<.<.<.<.<.<.<.<.<.<.<.<.<.<.<.<.<.<.<.<.<.<.<.<.<.<.<.<.<.<.<.<.<.<.<.<.<.<.<.<.<.<.<.<.<.<.<.<.<.<.<.<.<.<.4.4.4.<.<.1.<.i.`.`.P._.`.P.3.^ 2.-.:.6.4.<.p._.`.I.I.I.",
"P.P.I._.G.2.Q -.Q / } 0XkXfXgXY./ <.<.<.1.<.<.<.<.<.<.<.<.<.<.<.<.<.<.<.<.<.<.<.<.<.<.<.<.<.<.<.<.<.<.<.<.-.-.*.R R O.*.*.*.O.O.:.*.*.*.<.6.6.6.<.<.<.<.2.2.2.2.<.<.<.<.<.<.<.<.<.<.<.<.<.<.<.<.<.<.<.2.2.2.6.6.:.*.*.&.&.&.&.&.&.&.&.&.&.&.&.&.&.&.&.&.&.&.&.&.&.&.&.&.&.&.R R R *.*.-.2.2.<.<.<.<.<.<.<.<.<.<.<.<.p._.I.I.I.P.P.].y.^ 2.2.^ ^ G.`.`.I.I.U.K.u.<.<.1./ I `.pXsXG.P 1.1.<.6.4.4.<.2.<.2.2.2.<.<.<.<.<.<.<.<.<.<.2.2.2.-.6.6.6.6.-.-.-.-.-.-.-.-.-.-.-.-.-.-.-.-.,.6.6.6.6.6.6.6.2.2.2.-.2.<.<.<.<.<.<.<.<.<.<.<.<.<.<.<.<.<.<.<.<.<.<.<.<.<.<.<.<.<.<.<.<.<.<.<.<.<.<.<.<.<.<.<.<.<.<.<.<.<.<.<.<.<.<.<.<.<.<.<.<.<.<.<.<.<.<.<.<.<.<.<.<.<.<.<.<.i.G.].P.P.P.P.P.J.y.<.6.6.:.6.<.^ |.a.[.I.L.P.U.J.S.( ^ 1.<./ 9XkXuXtX! 6.2.2.<.<.<.<.<.<.<.<.<.<.<.<.<.<.<.<.<.<.<.<.<.<.<.<.<.-.-.2.<.<.<.<.<.<.<.<.<.<.<.<.<.<.<.<.<.<.<.<.<.<.<.<.<.<.<.<.<.<.<.<.<.<.<.<.<.<.<.<.<.<.<.<.<.<.<.<.<.<.<.<.<.<.<.<.<.<.<.<.<.-.2.2.<.<.<.<.<.<.<.<.<.<.<.<.<.<.<.<.<.<.<.<.<.<.<.<.<.<.<.<.<.<.<.<.4.4.4.<.<.1.<.3.`.`.P._.P.G.3.^ 6.2.*.6.<.$.u.`.`.I.I.I.",
"P.P.I._.G.2.Q -.E / [ =XkXfXgXY./ <.<.<.<.<.<.<.<.<.<.<.<.<.<.<.<.<.<.<.<.<.<.<.<.<.<.<.<.<.<.<.<.<.<.<.<.<.<.-.*.*.*.*.*.*.&.&.:.-.*.-.4.6.6.<.<.<.<.<.2.2.2.2.<.<.<.<.<.<.<.<.<.<.<.<.<.<.<.<.<.<.<.<.<.2.6.6.-.-.:.;.*.*.&.&.&.&.&.&.&.&.&.&.&.&.&.&.&.&.&.&.&.l &.&.&.*.*.*.*.*.-.<.2.2.<.<.<.<.<.<.<.<.<.<.<.<.p.|.P.P.P.P.P.].y.^ 2.2.^ ^ G.`.`.I.P.Y.K.u.<.<.1./ I `.pXsX_.! 1.1.<.6.4.4.<.2.2.2.2.2.<.<.6.6.6.6.6.6.6.6.2.2.2.2.6.6.6.6.<.2.<.2.<.2.<.-.<.2.<.2.<.2.<.-.<.-.<.2.<.2.<.2.2.2.-.-.<.<.<.<.<.<.<.<.<.<.<.<.<.<.<.<.<.<.<.<.<.<.<.<.<.<.<.<.<.<.<.<.<.<.<.<.<.<.<.<.<.<.<.<.<.<.<.<.<.<.<.<.<.<.<.<.<.<.<.<.<.<.<.<.<.<.<.<.<.<.<.<.<.<.<.<.1.i.Q.`.`.P.P.P.P.J.y.<.6.6.:.6.^ ! ].a.[.I.L.L.U.J.S.2.^ 2.1./ yXzXuXiX/ 6.2.2.<.<.<.<.<.<.2.2.<.<.<.<.<.<.<.<.<.<.<.<.<.<.<.<.<.-.-.2.<.<.<.<.<.<.<.<.<.<.<.<.<.<.<.<.<.<.<.<.<.<.<.<.<.<.<.<.<.<.<.<.<.<.<.<.<.<.<.<.<.<.<.<.<.<.<.<.<.<.<.<.<.<.<.<.<.<.<.<.-.-.2.2.<.<.<.<.<.<.<.<.<.<.<.<.<.<.<.<.<.<.<.<.<.<.<.<.<.<.<.<.<.<.<.<.4.4.4.<.<.1.<.3.`.`.P._.P.J.1.^ 6.2.-.4.1.%.u.`.'.I.I.I.",
"P.P.I._.G.1.Q -.Q 3.' =XbXkXgXtX/ <.<.5.<.<.<.<.<.<.<.<.<.<.<.<.<.<.<.<.<.<.<.<.<.<.<.<.<.<.<.<.<.<.1.<.<.<.<.<.-.-.-.-.-.-.-.-.6.:.-.-.4.6.<.<.<.<.1.<.2.2.2.2.<.<.<.<.<.<.<.<.<.<.<.<.<.<.<.<.<.<.<.<.<.<.6.6.-.-.:.:.:.;.*.;.&.&.&.&.&.&.&.&.&.&.&.&.&.&.&.&.l i i i &.*.*.:.-.-.-.<.2.<.<.<.<.<.<.<.<.<.<.<.<.<.p.|.P.P.P.P.P.].y./ 1.2.^ ^ G.`.`.I.I.P.K.u.<.<.1./ I '.pXsX[.~ / 1.<.6.<.4.<.2.2.2.2.2.2.2.2.2.6.6.6.6.6.6.4.6.<.2.4.6.4.6.4.6.4.6.4.6.<.2.<.<.<.<.<.<.<.<.<.<.<.<.<.<.<.<.<.<.<.<.<.<.<.<.<.<.<.<.<.<.<.<.<.<.<.<.<.<.<.<.<.<.<.2.2.-.-.<.<.<.<.<.<.<.<.<.<.<.<.<.<.<.<.<.<.<.<.<.<.<.<.<.<.<.<.<.<.<.<.<.<.<.<.<.<.<.<.<.<.<.<.<.<.<.<.<.1.y.Q._.`.P.P.P.G.J.p.<.6.6.:.6.E K ].a.[.I.L.L.T.J.S.( ^ 1.1./ jXkXuXiX/ 2.-.2.2.<.<.<.<.<.2.2.<.<.<.<.<.<.<.<.<.<.<.<.<.<.<.<.-.-.2.2.2.2.<.<.<.<.<.<.<.<.<.<.<.<.<.<.<.<.<.<.<.<.<.<.<.<.<.<.<.<.<.<.<.<.<.<.<.<.<.<.<.<.<.<.<.4.4.4.4.4.4.4.4.4.4.4.4.4.4.<.-.-.2.2.2.2.<.<.<.<.<.<.<.<.<.<.<.<.<.<.<.<.<.<.<.<.<.<.<.<.<.<.<.<.<.<.4.4.4.<.<.<.<.3.`.`.P._.P.G.1.^ 2.2.-.4.5.%.u.`.I.I.I.I.",
"P.P.I._.G.1.*.-.E 3.' =XzXkXdXuX/ <.<.5.<.<.<.<.<.<.<.<.<.<.<.<.<.<.<.<.<.<.<.<.<.<.<.<.<.<.<.<.<.<.<.<.<.<.<.<.<.<.<.2.4.6.4.6.6.6.-.<.6.6.<.<.<.<.1.<.<.2.2.2.<.<.<.<.<.<.<.<.<.<.<.<.<.<.<.<.<.<.<.<.<.<.<.6.-.-.-.-.,.-.:.;.&.&.&.&.&.&.&.&.&.&.&.&.&.&.&.&.&.R R R &.*.:.-.6.<.2.<.<.<.6.6.<.<.<.<.<.<.<.<.<.<.p.|.P.P.P.P.P.].y.^ 1.2.^ ^ S.`.`.I.I.I.P.y.<.<.1.1.I `.pXsX[.I / 1.<.4.*.4.<.2.2.2.2.2.<.<.2.2.<.<.<.<.<.<.<.<.4.<.4.<.4.<.6.6.6.6.6.6.6.6.4.<.<.<.<.<.<.<.4.<.4.<.4.<.4.<.<.<.<.<.<.2.<.<.<.<.<.<.<.<.<.<.<.<.<.<.<.<.<.<.<.<.<.2.<.-.<.<.<.<.<.<.<.<.<.<.<.<.<.<.<.<.<.<.<.<.<.<.<.<.<.<.<.<.<.<.<.<.<.<.<.<.<.<.<.<.<.<.<.<.<.<.<.<.<.<.1.i.Q._.`.P.P.P.G.Q.p.1.6.6.:.6.E ^ ].u.Y.I.L.P.U.J.S.( ^ 1.1./ gXkXgXiX/ 1.<.2.<.<.<.<.<.1.<.<.<.<.<.<.<.<.<.<.<.<.<.<.<.<.<.<.<.2.2.2.<.<.<.<.<.<.<.<.<.<.<.<.<.<.<.<.<.<.<.<.<.<.<.<.<.<.<.<.<.<.<.<.<.<.<.<.<.<.<.<.<.<.<.<.<.<.4.<.4.<.4.<.4.<.4.<.4.<.4.<.2.2.2.2.<.<.<.<.<.<.<.<.<.<.<.<.<.<.<.<.<.<.<.<.<.<.<.<.<.<.<.<.<.<.<.<.4.:.4.<.<.<.<.3.`.`.P._.P.G.1.^ 2.2.*.<.5.%.p.`.I.I.I.I.",
"I._.I.P.`.p.<.*.*.6.P P.jXfXkXdXa.P 1.1.<.5.<.<.<.<.<.<.<.<.<.<.<.<.<.<.<.<.<.<.<.<.<.<.<.<.<.<.<.<.<.<.<.<.<.<.<.<.<.<.<.<.<.<.<.<.<.<.<.<.<.<.<.<.<.<.<.<.<.<.<.<.<.<.<.<.<.<.<.<.<.<.<.<.<.<.<.<.<.<.<.<.<.<.<.<.<.<.<.2.2.-.-.-.:.*.*.R R R *.*.*.*.*.*.*.*.G G E *.*.<.<.<.<.<.<.<.<.<.<.<.2.2.<.<.<.<.<.<.<.<.p.|.`.P.P.P.P.U.a.^ 6.6.<.1.a._.P.P.P.P.].3.<.6.<.1./ P.lXpX5Xr.I 1.1.6.6.-.<.<.<.<.<.<.<.<.4.4.4.4.4.4.4.4.4.4.4.4.4.:.4.:.4.4.4.4.4.:.4.4.<.<.<.<.<.<.<.<.<.<.<.<.<.<.<.<.<.<.<.<.<.<.<.<.<.<.<.<.<.<.<.<.<.<.<.<.<.<.<.<.<.<.<.<.<.<.<.<.<.<.<.<.<.<.<.<.<.<.<.<.<.<.<.<.<.<.<.<.<.<.<.<.<.<.<.<.<.<.<.<.<.<.<.<.<.<.<.<.<.<.<.<.<.<.<.<.^ p.Q.`.`._.`.I.`.a.5.6.<.4.4.6.A <.~.G.K.[.L.L.P.].F.^ <.2.^  .6XfXjX6Xt.I 7.<.<.<.<.<.1.^ / 1.1.<.<.<.<.<.<.<.<.<.<.<.<.<.1.<.<.<.<.<.<.<.<.<.<.<.<.<.<.<.<.<.<.<.<.<.<.<.<.<.<.<.<.<.<.<.<.<.<.<.<.<.<.<.<.<.<.<.<.<.<.<.<.<.<.<.<.<.<.<.<.<.<.<.<.<.<.<.<.<.<.<.<.<.<.<.<.<.<.<.<.<.<.<.<.<.<.<.<.<.<.<.<.<.<.<.<.<.<.<.<.<.<.<.4.<.4.4.4.<.5.<.1.p.`.I.I.P.].G.3.^ <.6.6.<.<./ i.`.`.I.I.I.",
"I.P.P.`.`.p.$.<.<.6.^ P.lXfXvXfXf.! 1.1.<.5.<.<.2.2.<.<.<.<.<.<.<.<.<.<.<.<.<.<.<.<.<.<.<.<.<.<.<.<.<.<.<.<.<.<.<.<.<.<.<.<.<.<.<.<.<.<.<.<.<.<.<.<.<.<.<.<.<.<.<.<.<.<.<.<.<.<.<.<.<.<.<.<.<.<.<.<.<.<.<.<.<.<.<.<.<.<.<.<.<.<.-.-.-.-.*.*.*.*.G R G Y G R G G E H *.*.<.<.<.<.<.<.<.<.<.<.<.<.2.2.<.<.<.<.<.<.<.<.p.|.`.P.I.P.P.U.p.1.6.6.<.1.a._.K.P.P.P.].3.*.6.<.1./ P.lXpX8X| I 1.1.6.6.-.<.<.<.<.<.2.<.<.4.4.4.4.4.4.4.4.4.4.4.4.4.4.4.4.4.4.4.4.4.4.4.<.<.<.<.<.<.<.<.<.<.<.<.<.<.<.<.<.<.<.<.<.<.<.<.<.<.<.<.<.<.<.<.<.<.<.<.<.<.<.<.<.<.<.<.<.<.<.<.<.<.<.<.<.<.<.<.<.<.<.<.<.<.<.<.<.<.<.<.<.<.<.<.<.<.<.<.<.<.<.<.<.<.<.<.<.<.<.<.<.<.<.<.<.<.<.<.<.^ 7.Q.`.`._._.I.`.S.6.6.6.<.4.6.G <.~.G.K.[.L.I.P.`.F.1.1.2.^  .qXfXeX9Xu.I 7.<.<.<.<.<.1./ / 1.1.<.<.<.<.<.<.<.<.<.<.<.<.<.1.<.<.<.<.<.<.<.<.<.<.<.<.<.<.<.<.<.<.<.<.<.<.<.<.<.<.<.<.<.<.<.<.<.<.<.<.<.<.<.<.<.<.<.<.<.<.<.<.<.<.<.<.<.<.<.<.<.<.<.<.<.<.<.<.<.<.<.<.<.<.<.<.<.<.<.<.<.<.<.<.<.<.<.<.<.<.<.<.<.<.<.<.<.<.<.<.<.<.<.4.<.4.4.4.<.4.<.1.p.`.I.I.P.).F.1.^ 1.2.6.<.1./ p.`.`.P._.I.",
"K.P.P.`.`.i.<.<.<.6.K P.lXfXvXfXP./ 1.1.<.6.<.4.4.2.<.<.<.<.<.<.<.<.<.<.<.<.<.<.<.<.<.<.<.<.<.<.<.<.<.<.<.<.<.<.<.<.<.<.<.<.<.<.<.<.<.<.<.<.<.<.<.<.<.<.<.<.<.<.<.<.<.<.<.<.<.<.<.<.<.<.<.<.<.<.<.<.<.<.<.<.<.<.<.<.<.<.<.<.<.<.2.-.-.-.-.-.-.:.*.*.*.*.*.*.*.*.*.<.<.<.<.<.<.4.<.<.<.<.<.<.<.<.2.2.<.<.<.<.<.<.<./ p.|.`.P.I.P.P.U.p.1.6.6.<.1.a._.P.P.P.P.].3.*.6.<.1./ P.lXpXiXt.I 1.1.6.6.*.2.<.<.<.<.<.<.<.<.<.<.4.4.4.4.<.<.<.<.<.<.<.<.<.<.<.<.<.<.<.<.<.<.<.<.<.<.<.<.<.<.<.<.<.<.<.<.<.<.<.<.<.<.<.<.<.<.<.<.<.<.<.<.<.<.<.<.<.<.<.<.<.<.<.<.<.<.<.<.<.<.<.<.<.<.<.<.<.<.<.<.<.<.<.<.<.<.<.<.<.<.<.<.<.<.<.<.<.<.<.<.<.<.<.<.<.<.<.<.<.<.<.<.<.<.<.<.<.^ 7.Q.`.'._._.P.`.S.6.6.6.<.4.4.A <./.G.K.[.L.I.P.`.p.1.1.2.^  .dXfXdXyXs.I 7.<.<.2.<.<.<.1.1.1.<.<.<.<.<.<.<.<.<.<.<.<.<.<.<.<.<.<.<.<.<.<.<.<.<.<.<.<.<.<.<.<.<.<.<.<.<.<.<.<.<.<.<.<.<.<.<.<.<.<.<.<.<.<.<.<.<.<.<.<.<.<.<.<.<.<.<.<.<.<.<.<.<.<.<.<.<.<.<.<.<.<.<.<.<.<.<.<.<.<.<.<.<.<.<.<.<.<.<.<.<.<.<.<.<.<.<.<.<.<.<.<.<.<.<.<.4.4.4.<.4.<.1.a.`.`.`.P.|.S.1.^ 1.2.<.<.1./ p.`.`.P._.I.",
"K.I.P.`.`.5.<.6.<.6.H J.lXdXkXfX_./ 1.1.<.6.*.4.4.4.4.<.<.<.<.<.<.<.<.<.<.<.<.<.<.<.<.<.<.<.<.<.<.<.<.<.<.<.<.<.<.<.<.<.<.<.<.<.<.<.<.<.<.<.<.<.<.<.<.<.<.<.<.<.<.<.<.<.<.<.<.<.<.<.<.<.<.<.<.<.<.<.<.<.<.<.<.<.<.<.<.<.<.<.<.<.2.-.2.-.2.2.2.2.6.6.6.6.2.,.6.6.<.<.<.<.<.<.<.<.<.<.<.<.<.<.<.<.2.2.<.<.<.<.<.<.<./ p.|.`.P.I.P.P.U.p.1.6.6.<.1.a.[.P.P.P.P.].3.H 6.1.1./ f.lXpXpXt.I 1.1.6.6.-.<.^ <.<.<.<.1.1.<.<.<.<.<.<.<.<.<.1.1.1.1.<.<.1.<.1.1.1.<.<.1.<.<.<.<.<.<.<.<.<.<.<.<.<.<.<.<.<.<.<.<.<.<.<.<.<.<.<.<.<.<.<.<.<.<.<.<.<.<.<.<.<.<.<.<.<.<.<.<.<.<.<.<.<.<.<.<.<.<.<.<.<.<.<.<.<.<.<.<.<.<.<.<.<.<.<.<.<.<.<.<.<.<.<.<.<.<.<.<.<.<.<.<.<.<.<.<.<.^ 7.Q.`.'._._.P.`.p.<.2.6.2.4.4.D <.).J.K.[.L.I.P.`.p.1.1.2.^  .dXfXdXyXf.I 7.<.<.4.:.-.<.<.1.<.<.<.<.<.<.<.<.<.<.<.<.<.<.<.<.<.<.<.<.<.<.<.<.<.<.<.<.<.<.<.<.<.<.<.<.<.<.<.<.<.<.<.<.<.<.<.<.<.<.<.<.<.<.<.<.<.<.<.<.<.<.<.<.<.<.<.<.<.<.<.<.<.<.<.<.<.<.<.<.<.<.<.<.<.<.<.<.<.<.<.<.<.<.<.<.<.<.<.<.<.<.<.<.<.<.<.<.<.<.<.<.<.<.<.<.<.4.4.4.<.4.<.1.a.`.`.`.P.~.S.^ ^ 1.1.<.<.1./ p.`.`.P._.I.",
"K.P.P.`.`.1.+.6.<.6.S G.sXdXkXfX[.^ 2.2.<.6.<.4.4.4.4.<.<.<.<.<.<.<.<.<.<.<.<.<.<.<.<.<.<.<.<.<.<.<.<.<.<.<.<.<.<.<.<.<.<.<.<.<.<.<.<.<.<.<.<.<.<.<.<.<.<.<.<.<.<.<.<.<.<.<.<.<.<.<.<.<.<.<.<.<.<.<.<.<.<.<.<.<.<.<.<.<.<.<.<.<.<.-.<.2.<.2.2.2.<.2.<.2.<.-.<.<.<.<.<.<.<.<.<.<.<.<.<.<.<.<.<.<.2.2.<.<.<.<.<.<.<./ p.`.`.P.I.P.P.U.p.1.6.6.<.1.S.[.P.P.P.P.].i.H 6.1.1.~ G.lXpXpXu.~ 1.1.2.6.-.<.^ 1.1.1.1.1.1.1.<.<.<.<.<.<.<.1.1.^ ^ ^ ^ 1.1.1.^ ^ ^ 1.1.1.<.<.4.4.<.<.<.<.<.<.<.<.<.<.<.<.<.<.<.<.<.<.<.<.<.<.<.<.<.<.<.<.<.<.<.<.<.<.<.<.<.<.<.<.<.<.<.<.<.<.<.<.<.<.<.<.<.<.<.<.<.<.<.<.<.<.<.<.<.<.<.<.<.<.<.<.<.<.<.<.<.<.<.<.<.<.<.<.<.<.<.<.<.<.<.<.<.^ 7.Q.`.'._._.P.`.p.<.<.6.6.4.4.7 *.).J.P.Y.L.I.P.|.F.1.1.( (  .gXfXjXjXP.I 3.<.2.,.,.,.4.4.<.<.<.<.<.<.<.<.<.<.<.<.4.4.<.<.<.<.<.<.<.<.<.<.<.<.<.<.<.<.<.<.<.<.<.<.<.<.<.<.<.<.<.<.<.<.<.<.<.<.<.<.<.<.<.<.<.<.<.<.<.<.<.<.<.<.<.<.<.<.<.<.<.<.<.<.<.<.<.<.<.<.<.<.<.<.<.<.<.<.<.<.<.<.<.<.<.<.<.<.<.<.<.<.<.<.<.<.<.<.<.<.<.<.<.<.<.<.4.4.4.<.4.1.1.a.`.`.`.P.Q.7./ ^ 1.<.<.<.1.^ p.~.`.P._.I.",
"P.P.P._.`.1.H 6.<.2.S G.sXdXkXfX#X1.1.1.<.6.*.4.4.4.4.4.4.<.<.<.<.<.<.<.<.<.<.<.<.<.<.<.<.<.<.<.<.<.<.<.<.<.<.<.<.<.<.<.<.<.<.<.<.<.<.<.<.<.<.<.<.<.<.<.<.<.<.<.<.<.<.<.<.<.<.<.<.<.<.<.<.<.<.<.<.<.<.<.<.<.<.<.<.<.<.<.<.<.<.<.<.<.<.<.<.<.<.<.<.<.<.<.<.<.<.<.<.<.<.<.<.<.<.<.<.<.<.<.<.<.<.<.2.2.<.<.<.<.<.<.<./ a.|.`.P.I.P.P.U.p.1.6.6.<.<.S.[.P.P.P.P.`.3.Z 2.2.^ ~ G.sXpXsXs.~ 1.1.2.6.-.<.^ 1.1.1.1.1.1.1.<.<.<.<.<.<.<.1.^ 1.^ ^ ( 1.( 1.^ ^ ^ 1.^ 1.<.<.4.4.<.<.<.<.<.<.<.<.<.<.<.<.<.<.<.<.<.<.<.<.<.<.<.<.<.<.<.<.<.<.<.<.<.<.<.<.<.<.<.<.<.<.<.<.<.<.<.<.<.<.<.<.<.<.<.<.<.<.<.<.<.<.<.<.<.<.<.<.<.<.<.<.<.<.<.<.<.<.<.<.<.<.<.<.<.<.<.<.<.<.<.<.<.^ 7.Q.`.'._._.P.|.7.<.<.6.6.4.<.7 *.).`.P.Y.L.I.P.|.F.1.1.( (  .dXfXdXlXI.I 1.<.2.,.,.,.,.:.,.4.<.<.<.<.<.<.<.<.<.4.4.4.<.<.<.<.<.<.<.<.<.<.<.<.<.<.<.<.<.<.<.<.<.<.<.<.<.<.<.<.<.<.<.<.<.<.<.<.<.<.<.<.<.<.<.<.<.<.<.<.<.<.<.<.<.<.<.<.<.<.<.<.<.<.<.<.<.<.<.<.<.<.<.<.<.<.<.<.<.<.<.<.<.<.<.<.<.<.<.<.<.<.<.<.<.<.<.<.<.<.<.<.<.<.<.<.4.4.4.<.4.<.1.a.`.`.`.P.Q.1.^ ^ 2.<.<.6.1.^ p.~.`.P._.I.",
"P.P.P.|.Q.<.F 6.2.2.S D.sXdXfXfXiX1.1.1.2.6.*.4.4.4.4.4.4.<.<.<.<.<.<.<.<.<.<.<.<.<.<.<.<.<.<.<.<.<.<.<.<.<.<.<.<.<.<.<.<.<.<.<.<.<.<.<.<.<.<.<.<.<.<.<.<.<.<.<.<.<.<.<.<.<.<.<.<.<.<.<.<.<.<.<.<.<.<.<.<.<.<.<.<.<.<.<.<.<.<.<.<.<.<.<.<.<.<.<.6.6.6.6.6.6.6.6.<.<.<.<.<.<.<.<.<.<.<.<.<.<.<.<.2.2.<.<.<.<.<.<.<.<.a.|.`.P.I.P.P.U.p.1.<.6.<.1.a.[.P.P.P.P.].3.Z 2.2./ ~ u.sXpXlXK.{ / / <.6.-.2.( 1.2.1.<.<.<.<.<.<.<.<.<.<.<.<.<.<.<.1.^ 1.2.1.2.<.^ <.^ <.<.<.4.<.<.<.<.<.<.<.<.<.<.<.4.4.<.<.<.<.<.<.<.<.<.<.<.<.<.<.<.<.<.<.<.<.<.<.<.<.<.<.<.<.<.<.<.<.<.<.<.<.<.<.<.<.<.<.<.<.<.<.<.<.<.<.<.<.<.<.<.<.<.<.<.<.<.<.<.<.<.<.<.<.<.<.<.<.<.<.<.<.<.<.<.<.<.^ 7.Q.`.`._._.P.|.7.<.<.6.6.4.*.7 *.~.`.P.Y.L.I.P.|.F.1.1.2.^  .gXfXgXlXI.L 1.<.2.,.,.,.,.,.,.:.4.<.<.<.<.4.4.<.<.<.<.6.<.2.<.<.<.<.<.<.<.<.<.<.<.<.<.<.<.<.<.<.<.<.<.<.<.<.<.<.<.<.<.<.<.<.<.<.<.<.<.<.<.<.<.<.<.<.<.<.<.<.<.<.<.<.<.<.<.<.<.<.<.<.<.<.<.<.<.<.<.<.<.<.<.<.<.<.<.<.<.<.<.<.<.<.<.<.<.<.<.<.<.<.<.<.<.<.<.<.<.<.<.<.<.<.4.4.4.<.<.<.1.a._.`.`.P.Q.1.^ ^ 2.<.*.6.1.^ p.~.`.P._.I.",
"P.P.P.|.Q./ A 6.2.2.S G.sXdXfXfXaX1.^ 1.<.6.*.4.4.4.4.4.4.4.<.<.<.<.<.<.<.<.<.<.<.<.<.<.<.<.<.<.<.<.<.<.<.<.<.<.<.<.<.<.<.<.<.<.<.<.<.<.<.<.<.<.<.<.<.<.<.<.<.<.<.<.<.<.<.<.<.<.<.<.<.<.<.<.<.<.<.<.<.<.<.<.<.<.<.<.<.<.<.<.<.<.6.6.6.<.<.<.<.<.<.<.<.<.<.<.<.<.<.<.<.<.<.<.<.<.<.<.<.<.<.<.<.<.2.2.<.<.<.<.<.<.<.<.p.|.`.P.I.P.P.U.p.1.<.6.<.<.a._.P.P.P.P.].3.C 2.2./ ~ D.sXpXlXI.{ ~ / ^ 6.2.2.2.2.2.<.2.<.<.<.<.<.<.<.<.4.<.<.2.2.2.2.2.2.2.2.2.2.2.2.2.2.2.<.<.<.<.<.<.<.<.<.<.<.<.<.4.4.4.<.<.<.<.<.<.<.<.<.<.<.<.<.<.<.<.<.<.<.<.<.<.<.<.<.<.<.<.<.<.<.<.<.<.<.<.<.<.<.<.<.<.<.<.<.<.<.<.<.<.<.<.<.<.<.<.<.<.<.<.<.<.<.<.<.<.<.<.<.<.<.<.<.<.<.<.<.<.<.<.^ 7.Q.`.`._._.P.|.7.<.*.6.6.:.*.7 *.~.`.P.Y.L.I.P.|.F.1.1.2.^  .gXfXdXlXI.L 1.1.<.-.,.,.,.,.,.,.4.<.<.<.<.<.4.<.<.<.2.2.2.2.2.2.<.<.<.<.<.<.<.<.<.<.<.<.<.<.<.<.<.<.<.<.<.<.<.<.<.<.<.<.<.<.<.<.<.<.<.<.<.<.<.<.<.<.<.<.<.<.<.<.<.<.<.<.<.<.<.<.<.<.<.<.<.<.<.<.<.<.<.<.<.<.<.<.<.<.<.<.<.<.<.<.<.<.<.<.<.<.<.<.<.<.<.<.<.<.<.<.<.<.<.<.4.4.4.<.<.<.1.G.`.`.`.P.F.1.E ^ 2.E *.6.2.^ p.~.`.P._.I.",
"P.P.P.`.|.1.o *.6.E ! ) sXdXkXfXiXG./ 1.3.<.<.6.4.<.<.<.<.<.<.<.<.<.<.<.<.<.<.<.<.<.<.<.<.<.<.<.<.<.<.<.<.<.<.<.<.<.<.<.<.<.<.<.<.<.<.<.<.<.<.<.<.<.<.<.<.<.<.<.<.<.<.<.<.<.<.<.<.<.<.<.<.<.<.<.<.<.<.<.<.<.<.<.<.<.<.<.<.<.<.<.<.<.<.<.<.<.<.<.<.<.<.<.<.<.<.<.<.<.<.<.<.<.<.<.<.<.<.<.<.<.<.<.2.2.<.<.<.<.<.<.<.<.p.|.`.P.I.P.U.U.y.^ <.<.<.<.G._.D.P.U.P._.3.- Q m.^ K P.sXuXlXuXI. .~ ! 1.7.*.*.<.-.<.2.6.6.<.4.4.4.4.4.4.4.<.2.2.2.-.6.6.6.-.-.-.-.-.-.-.-.2.<.<.<.<.6.6.6.<.<.<.<.<.<.4.6.<.<.<.<.<.<.<.<.<.<.<.<.<.<.<.<.<.<.<.<.<.<.<.<.<.<.<.<.<.<.<.<.<.<.<.<.<.<.<.<.<.<.<.<.<.<.<.<.<.<.<.<.<.<.<.<.<.<.<.<.<.<.<.<.<.<.<.<.<.<.<.<.<.<.<.<.<.<.<.<.^ 5.F.`.`._.`.`.Q.1.<.2.2.6.4.D X 6./.G.P.I.L.I.a.|.p.1.7.^ ! u.gXfXkXuXI.} ~ 5.5.6.6.6.6.:.,.4.6.6.4.4.4.4.4.4.<.<.2.2.-.-.-.*.<.<.<.<.<.<.<.<.<.<.<.<.<.<.<.<.<.<.<.<.<.<.<.<.<.<.<.<.<.<.<.<.<.<.<.<.<.<.<.<.<.<.<.<.<.<.<.<.<.<.<.<.<.<.<.<.<.<.<.<.<.<.<.<.<.<.<.<.<.<.<.<.<.<.<.<.<.<.<.<.<.<.<.<.<.<.<.<.<.<.<.<.<.<.<.<.<.<.4.<.4.4.4.<.<.<.7.F.Q.J.P.].y.1.2.^ <.2.2.2.6.^ 7.~.`.P.P.I.",
"P.P.P.`.|.5.o *.6.Q ! ) sXgXfXfXlXP.L L 3.7.1.<.<.4.4.6.4.4.5.4.<.<.<.<.<.<.<.<.<.<.<.<.<.<.<.<.<.<.<.<.<.<.<.<.<.<.<.<.<.<.<.<.<.<.<.<.<.<.<.<.<.<.<.<.<.<.<.<.<.<.<.<.<.<.<.<.<.<.<.<.<.<.<.<.<.<.<.<.<.<.<.<.<.<.<.<.<.<.<.<.<.<.<.<.<.<.<.<.<.<.<.<.<.<.<.<.<.<.<.<.<.<.<.<.<.<.<.<.<.<.<.<.2.2.<.<.<.<.<.<.<.<.p.|.`.P.I.I.P.U.p.^ <.<.<.<.S._.K.P.U.P._.3.- E 7.^ K P.sXuXjXlXpXI. .~ ! ^ 2.2.2.<.<.<.<.<.6.6.4.6.6.6.6.6.6.6.6.6.6.6.6.6.6.6.6.6.6.6.6.6.<.<.<.<.<.<.<.<.<.<.<.<.<.<.*.*.<.<.<.<.<.<.<.<.<.<.<.<.<.<.<.<.<.<.<.<.<.<.<.<.<.<.<.<.<.<.<.<.<.<.<.<.<.<.<.<.<.<.<.<.<.<.<.<.<.<.<.<.<.<.<.<.<.<.<.<.<.<.<.<.<.<.<.<.<.<.<.<.<.<.<.<.<.<.<.<.^ 7.G.`.`.`.`.`.Q.1.*.-.-.6.:.D X 5.).G.P.I.L.I.P.|.a.^ 5.^ T  .gXfXkXgX5X..~ / / <.<.2.6.6.6.w.<.<.<.<.<.<.<.<.*.*.-.-.-.<.-.*.<.<.<.<.<.<.<.<.<.<.<.<.<.<.<.<.<.<.<.<.<.<.<.<.<.<.<.<.<.<.<.<.<.<.<.<.<.<.<.<.<.<.<.<.<.<.<.<.<.<.<.<.<.<.<.<.<.<.<.<.<.<.<.<.<.<.<.<.<.<.<.<.<.<.<.<.<.<.<.<.<.<.<.<.<.<.<.<.<.<.<.<.<.<.<.<.<.<.4.<.4.4.4.<.<.<.1.S.Q.J.J.J.7.1.2.^ 2.2.2.2.6.E 3.Q.`.P.P.I.",
"P.P.U.Q.|.7.o E 6.Q ^ ) sXdXfXfXzXI.L L / 3.1.5.<.<.4.<.<.<.<.<.<.<.<.<.<.<.<.<.<.<.<.<.<.<.<.<.<.<.<.<.<.<.<.<.<.<.<.<.<.<.<.<.<.<.<.<.<.<.<.<.<.<.<.<.<.<.<.<.<.<.<.<.<.<.<.<.<.<.<.<.<.<.<.<.<.<.<.<.<.<.<.<.<.<.<.<.<.<.<.<.<.<.<.<.<.<.<.<.<.<.<.<.<.<.<.<.<.<.<.<.<.<.<.<.<.<.<.<.<.<.<.<.2.2.<.<.<.<.<.<.<./ p.|.`.P.I.I.P.U.p.^ <.<.<.<.a._.K.P.P.P._.3.- G 6.^ I P.pXjXjXjXzXtXL.| L ! / <.<.<.6.6.5.5.<.<.4.4.4.4.6.6.<.-.-.-.-.-.<.-.6.2.<.-.-.*.*.*.6.6.6.6.5.5.5.5.5.6.6.6.6.<.<.<.<.<.<.<.<.<.<.<.<.<.<.<.<.<.<.<.<.<.<.<.<.<.<.<.<.<.<.<.<.<.<.<.<.<.<.<.<.<.<.<.<.<.<.<.<.<.<.<.<.<.<.<.<.<.<.<.<.<.<.<.<.<.<.<.<.<.<.<.<.<.<.<.<.<.<.<.<.<.<.<.E 7.F.|.`.I.`._.F.^ *.-.-.,.:.q X 5.).G.I.I.L.I.P.|.p.^ 1.! T  .jXfXfXjXuXI. .L ~ / <.<.<.<.<.<.<.1.<.1.<.1.<.<.6.6.6.6.6.6.6.6.<.<.<.<.<.<.<.<.<.<.<.<.<.<.<.<.<.<.<.<.<.<.<.<.<.<.<.<.<.<.<.<.<.<.<.<.<.<.<.<.<.<.<.<.<.<.<.<.<.<.<.<.<.<.<.<.<.<.<.<.<.<.<.<.<.<.<.<.<.<.<.<.<.<.<.<.<.<.<.<.<.<.<.<.<.<.<.<.<.<.<.<.<.<.<.<.<.<.<.<.4.4.4.<.6.<.<.S.).].`.J.5.1.^ ^ <.2.2.*.6.E 1.Q.Q.P.P.P.",
"P.P.U.J.|.7.o G 6.*.2.) sXgXkXfXdX5XI.u.{ K I 3.<.<.<.<.<.<.<.<.<.<.<.<.<.<.<.<.<.<.<.<.<.<.<.<.<.<.<.<.<.<.<.<.<.<.<.<.<.<.<.<.<.<.<.<.<.<.<.<.<.<.<.<.<.<.<.<.<.<.<.<.<.<.<.<.<.<.<.<.<.<.<.<.<.<.<.<.<.<.<.<.<.<.<.<.<.<.<.<.<.<.<.<.<.<.<.<.<.<.<.<.<.<.<.<.<.<.<.<.<.<.<.<.<.<.<.<.<.<.<.<.2.2.<.<.<.<.<.<.<./ p.|.`.P.I.I.P.U.y.^ <.6.<.<.a._.K.P.P.P.|.7.7 e -.2.I u.pXjXqXfXzXgXyXL.s.u.~ ! / / / / / / / / / / / / $.<.<.<.<.6.6.6.5.7.7.7.5.6.6.6.<.<.<.<.1.<.1.1.<.1.<.^ <.^ <.^ <.<.<.<.<.<.<.<.<.<.<.<.<.<.<.<.<.<.<.<.<.<.<.<.<.<.<.<.<.<.<.<.<.<.<.<.<.<.<.<.<.<.<.<.<.<.<.<.<.<.<.<.<.<.<.<.<.<.<.<.<.<.<.<.<.<.<.<.<.<.<.<.<.<.<.<.<.<.<.<.<.<.E 7.F.|.`.`.`.`.a.^ *.-.:.-.*.7 + 7.).G.P.I.L.I.P.|.i.^ 5.^ ^ u.zXfXdXgXgXtXP.} y.y.3.3.1.1.1.1.1.1.1.1.1.5.1.1.<.<.<.^ *.E E E <.<.<.<.<.<.<.<.<.<.<.<.<.<.<.<.<.<.<.<.<.<.<.<.<.<.<.<.<.<.<.<.<.<.<.<.<.<.<.<.<.<.<.<.<.<.<.<.<.<.<.<.<.<.<.<.<.<.<.<.<.<.<.<.<.<.<.<.<.<.<.<.<.<.<.<.<.<.<.<.<.<.<.<.<.<.<.<.<.<.<.<.<.<.<.<.<.<.<.<.4.4.4.<.6.<.1.F.|.].J.S.1.2.^ ( 2.2.2.*.3.H 1.F.`.P.P.P.",
"P.P.].G.|.p.@ G 6.-.3.) uXgXkXfXzXzXgX5Xs.' K P 1.1.1.<.<.1.6.6.<.<.<.<.<.<.<.<.<.<.<.<.<.<.<.<.<.<.<.<.<.<.<.<.<.<.<.<.<.<.<.<.<.<.<.<.<.<.<.<.<.<.<.<.<.<.<.<.<.<.<.<.<.<.<.<.<.<.<.<.<.<.<.<.<.<.<.<.<.<.<.<.<.<.<.<.<.<.<.<.<.<.<.<.<.<.<.<.<.<.<.<.<.<.<.<.<.<.<.<.<.<.<.<.<.<.<.<.<.<.<.<.2.2.<.<.<.<.<.<.<./ p.`.P.P.I.I.P.U.p.<.6.6.<.1.a._.K.P.P.P.|.7.q q *.1./ t.5XzXkXkXfXkXkXdXyXyXtXtX[.Y.P.K.u.u.u.u.u.r.} } { } / / / / / / / / / ! / / 1.1.1.3.1.1.1.1.1.1.1.1.<.1.1.1.1.1.1.5.<.<.<.<.<.6.6.6.<.<.<.<.<.<.<.<.<.<.<.<.<.<.<.<.<.<.<.<.<.<.<.<.<.<.<.<.<.<.<.<.<.<.<.<.<.<.<.<.<.<.<.<.<.<.<.<.<.<.<.<.<.<.<.<.<.<.<.<.<.<.<.<.<.<.<.<.<.<.<.<.E 1.F.`.`.`.`.`.i.^ *.2.:.:.*.q + 7.).J.P.I.I.I.P.`.1.H 5.2.^ D.zXfXdXdXzXlXtXI.L L L I I / %.%.i.1.1.1.1./ 1.^ 5.1.1.^ <.2.2.6.<.<.<.<.<.<.<.<.<.<.<.<.<.<.<.<.<.<.<.<.<.<.<.<.<.<.<.<.<.<.<.<.<.<.<.<.<.<.<.<.<.<.<.<.<.<.<.<.<.<.<.<.<.<.<.<.<.<.<.<.<.<.<.<.<.<.<.<.<.<.<.<.<.<.<.<.<.<.<.<.<.<.<.<.<.<.<.<.<.<.<.<.<.<.<.<.<.<.<.<.4.4.4.<.4.<.1.Q.@X].G.y.1.^ ^ ^ 2.2.-.*.3.S ^ Q.|.P.P.P.",
"P.P.].G.|.p.7 G 6.-.3./ yXdXkXfXnXfXdXjXuX5XP.r./ / ^ E ^ <.2.6.<.<.<.<.<.<.<.<.<.<.<.<.<.<.<.<.<.<.<.<.<.<.<.<.<.<.<.<.<.<.<.<.<.<.<.<.<.<.<.<.<.<.<.<.<.<.<.<.<.<.<.<.<.<.<.<.<.<.<.<.<.<.<.<.<.<.<.<.<.<.<.<.<.<.<.<.<.<.<.<.<.<.<.<.<.<.<.<.<.<.<.<.<.<.<.<.<.<.<.<.<.<.<.<.<.<.<.<.<.<.<.<.2.2.<.<.<.<.<.<.<./ i.`.P.P.I.P.P.U.S.1.6.6.<.1.i._.K.P.P.P.|.p.q 0 O.5./ } =XkXnXfXfXfXfXhXhXdXzXlXlXlXgXgXuXuXtXyXtX5X5X;X;XY.P.D.a.u.t.r.} } } { { ~ ~ L L L 1.1.1.^ 1.^ / ^ / ^ / ^ 1.^ 1.1.1.<.<.<.*.<.<.<.<.<.<.<.<.<.<.<.<.<.<.<.<.<.<.<.<.<.<.<.<.<.<.<.<.<.<.<.<.<.<.<.<.<.<.<.<.<.<.<.<.<.<.<.<.<.<.<.<.<.<.<.<.<.<.<.<.<.<.<.<.<.<.<.<.<.<.<.<.<.<.<.<.2.y.G.`.`.P.G.3.^ <.2.-.*.*.7 7 7.~.J.I.I.L.I.P.`.1.F 1.2.^ D.jXkXdXdXzXzXlXtXs.s.u.t.r.} ] I / / / / I P P K 1.^ ^ ^ 1.2.6.7.<.<.<.<.<.<.<.<.<.<.<.<.<.<.<.<.<.<.<.<.<.<.<.<.<.<.<.<.<.<.<.<.<.<.<.<.<.<.<.<.<.<.<.<.<.<.<.<.<.<.<.<.<.<.<.<.<.<.<.<.<.<.<.<.<.<.<.<.<.<.<.<.<.<.<.<.<.<.<.<.<.<.<.<.<.<.<.<.<.<.<.<.<.<.<.<.<.<.<.<.4.4.4.<.<.<.6.F./.F.y.) ^ ^ ^ ^ 2.2.-.*.2.C ^ ~.|.P.P.P.",
"G.P.].G.|.W.7 D 6.-.2.! [.yXkXfXfXfXqXdXzXlXsX#XG.a.3.^ ^ ^ ^ 2.<.<.<.<.<.<.<.<.<.<.<.<.<.<.<.<.<.<.<.<.<.<.<.<.<.<.<.<.<.<.<.<.<.<.<.<.<.<.<.<.<.<.<.<.<.<.<.<.<.<.<.<.<.<.<.<.<.<.<.<.<.<.<.<.<.<.<.<.<.<.<.<.<.<.<.<.<.<.<.<.<.<.<.<.<.<.<.<.<.<.<.<.<.<.<.<.<.<.<.<.<.<.<.<.<.<.<.<.<.<.<.<.2.2.<.<.<.<.<.<.1./ i.Q.P.P.I.P.P.U.S.1.6.6.<.<.i.].K.P.P.P.|.F.e 6 O.7./ I L.fXfXfX<X3XfXfXfX2X:X:X2X2X2XdXdXfXhXhXzXzXkXkXkXgXlXlXlXlXsXsXpXyXyXtXtX5XY.I.I.P.u.y.i.3.1./ 1./ / ! / ! P K P K <.<.<.*.*.*.<.<.<.<.<.<.<.<.<.<.<.<.<.<.<.<.<.<.<.<.<.<.<.<.<.<.<.<.<.<.<.<.<.<.<.<.<.<.<.<.<.<.<.<.<.<.<.<.<.<.<.<.<.<.<.<.<.<.<.<.<.<.<.<.<.<.<.<.<.<.<.<.<.<.2.^ 3.S.`.[.P.y.3.^ 2.6.-.-.*.7 7 7.~.`.P.I.L.I.P.Q.1.Z 1.^ ^ u.gXfXfXdXdXzXjXgXlXlXlXpXpX8X8X[.P.G.G.a.a.y.i.3.! ^ K S S S E ^ <.<.<.<.<.<.<.<.<.<.<.<.<.<.<.<.<.<.<.<.<.<.<.<.<.<.<.<.<.<.<.<.<.<.<.<.<.<.<.<.<.<.<.<.<.<.<.<.<.<.<.<.<.<.<.<.<.<.<.<.<.<.<.<.<.<.<.<.<.<.<.<.<.<.<.<.<.<.<.<.<.<.<.<.<.<.<.<.<.<.<.<.<.<.<.<.<.<.<.<.4.4.:.-.<.<.1.3.7.3./ ) ^ ^ ^ ^ 2.2.-.*.2.C ^ ).|.P.P.I.",
"P.P.`.G.|.W.7 D ,.-.2.S [.tXkXfXfXbXnXkXdXjXlXlXsXiX_.D.y./ / 1.1.<.<.<.<.<.<.<.<.<.<.<.<.<.<.<.<.<.<.<.<.<.<.<.<.<.<.<.<.<.<.<.<.<.<.<.<.<.<.<.<.<.<.<.<.<.<.<.<.<.<.<.<.<.<.<.<.<.<.<.<.<.<.<.<.<.<.<.<.<.<.<.<.<.<.<.<.<.<.<.<.<.<.<.<.<.<.<.<.<.<.<.<.<.<.<.<.<.<.<.<.<.<.<.<.<.<.<.<.<.<.<.<.<.<.<.<.<.<.<.<.<.i.Q.J.G.`.P.J.~.S.1.6.6.<.<.i.].P.P.P.P.[.S.e 6 G 6.1.I I.jXjXfXzXzXzXkXkXkXzXzXzXzXhXgXgXgXdXdXdXdXgXgXgXgXlXsXlXlXlXlXlXlXsXsXlXlXlXlXlXlXsXaXaXaXaX%X#X#X@X@X@X].].~.J.Q.m.m.7.6.6.6.6.7.<.<.<.<.<.<.<.<.<.<.<.<.<.<.<.<.<.<.<.<.<.<.<.<.<.2.<.2.<.2.<.2.<.2.<.2.<.2.<.<.<.<.<.<.<.<.<.<.<.<.<.<.<.<.<.<.<.<.<.<.<.<.<.<.<.<.<.<.<.<.<.2.2.<.<.p.|.|.Q.y.6.<.-.6.-.:.*.q 7 m.].`.P.I.I.I.`.Q.<.C E Q R 3.tXfXzXfXdXgXgXgXdXjXyXpXpXjXjXjXsXsXsXsXaXiX#X#X X].J.G.S.S.S.S.1.<.<.<.<.<.<.<.<.<.<.<.<.<.<.<.<.<.<.<.<.<.<.<.<.<.<.<.<.<.<.<.<.<.<.<.<.<.<.<.<.<.<.<.<.<.<.<.<.<.<.<.<.<.<.<.<.<.<.<.<.<.<.<.<.<.<.<.<.<.<.<.<.<.<.<.<.<.<.<.<.<.<.<.<.<.<.<.<.<.<.<.<.<.<.<.<.<.<.<.<.<.<.<.<.<.<.1.^ ^ / 1.^ ^ ^ <.2.2.-.*.-.C H ).@XU.P.P.",
"L.=XI.P.|.6.7 &.:.:.2.<.P r.8XnXfXfXfXfXfXdXqXdXjXkXzXjX6X>XX.[ I I $.1.1.1.1.1.1.1.<.2.2.2.2.6.<.<.<.<.<.<.<.<.<.<.<.<.<.<.<.<.<.2.2.2.-.-.-.-.-.-.-.-.-.-.-.<.<.1.1.1.1.1.1.1.1.1.1.1.1.1.1.<.<.<.<.<.<.<.<.<.<.<.<.<.<.<.<.1.1.1.1.1.1.1.1.1.1.1.1.1.1.1.1.1.1.1.1.1.1.1.1.1.1.1.1.1.1.1.1.1.<.<.<.<.<.<.<.<.<.1.5.p.Q.).)./.~.W.7.<.<.6.1.^ ~ J.U.D.P.P.K.G.C 9 7 G E <.7.F.|._._._.|.|.|._.[.[.Y.[.[.[.[.[.U.U.U.U.U.U.U._.[.[.[.[.[.[._._.`.P.`.P.`.P.`.].~.~.~.~.].~.].~.~.~.].~.].~.~.~..X).).(.W.W.W.F.7.7.5.6.6.2.<.<.<.<.<.<.<.1.<.1.<.<.<.<.<.<.<.<.<.*.<.-.<.E ^ E 2.2.2.2.2.2.2.2.6.<.<.<.6.6.6.6.<.<.<.<.<.<.<.<.*.*.-.*.*.*.*.*.-.-.-.-.*.*.-.-.6.-.*.-.m.V.n.,.*.&.&.W i w 0 % C W.F.Q._.P.[.P.a.Q.6.7 7 e l :.{ =XdXjXdXzXzXgXzXzXzXzXkXjXjXjXsXsXsXsXsXsXsXsXsXsXsXsXaXiXiXiX|.)./.W.F.5.1.<.5.6.5.6.1.<.1.<.6.6.6.6.6.6.6.6.6.6.6.6.6.6.6.6.6.6.6.6.6.6.6.6.<.<.<.<.<.<.<.<.5.6.6.6.6.6.6.6.<.<.<.<.<.<.<.<.2.2.2.2.2.2.2.2.2.2.2.2.2.2.2.<.<.<.<.<.1.<.1.<.<.<.<.<.<.<.<.<.1.1.1.6.6.6.6.6.5.5.5.5.5.5.5.5./ 1.5.7.7.6.,.:.e 7 <.).~.F.P.G.",
"d.=XI.P.|.7.9 e &.:.6.6.<.1.a.[.zXzXzXzXzXzXzXzXfXkXzXzXzXkXdX9X_.Q.p.1.<.<.<.<.<.<.<.<.-.-.-.-.<.1.<.1.<.1.<.1.<.1.<.1.<.1.<.<.<.-.-.-.-.-.-.-.2.2.2.2.2.2.2.2.<.<.<.<.<.<.<.<.<.<.<.1.<.<.<.<.<.<.<.<.<.<.<.<.<.<.<.<.<.<.<.<.1.1.1.1.1.^ 1.^ 1.^ 1.^ 1.1.1.^ 2.2.2.2.1.1.1.1.2.2.1.1.5.1.1.1.6.6.6.6.6.6.6.6.<.6.6.7.W.^.W.W.m.6.2.E ^ 6.^ S / J.].D.P.P.K.G.C 8 6 9 i R *.,.-.<.<.<.<.<.<.1.^ ^ ^ ^ ^ ^ ^ ^ H S H H E E E E / / / / / / / / / / / / / / / / ^ E ^ ^ ^ ^ ^ ^ ^ ^ ^ ( ^ ^ ^ ^ 2.2.*.E E E E E 2.2.2.2.2.2.2.2.<.<.<.<.<.<.<.<.<.<.<.<.<.<.<.<.*.Q E E -.-.-.-.-.-.-.-.-.-.-.-.-.<.<.<.<.<.<.<.6.6.6.6.2.2.2.2.-.-.-.-.-.-.-.-.R R R R Y i R R *.e q q e l e 7 8 8 8 w w w w q C F.Q.~._.G.U.P. X).E X , k v 8.K u.Y.[.[.iXpXiX5X5X5X5X5X5X4X[.P.P.P.P.P.P.P.P.r.r.} } } } } / K E E E ^ ^ ^ ^ ^ ^ ^ ^ ^ ^ ^ *.<.<.<.<.<.<.<.<.*.*.*.*.*.*.*.*.<.<.<.<.<.<.<.<.6.6.6.6.6.6.6.6.<.<.<.<.*.*.*.*.*.*.*.*.*.*.*.*.2.2.2.2.2.2.2.2.2.2.2.2.2.2.2.2.<.<.<.<.<.<.<.<.<.<.<.<.<.<.<.<.*.*.*.*.*.*.*.*.*.*.*.<.*.*.*.*.<.<.<.-.:.&.O.g q 6 -.(.~.G.J.U.",
"d.Y.P.G.).B.G 6 7 q *.,.<.<.1.a.iXiXiXiXiXiXiXpXiXiXiXiXiXiXiXiX#X@X(.B.6.<.6.2.2.2.,.,.,.,.,.,.6.2.6.2.6.2.6.2.6.2.6.2.6.2.6.6.<.<.<.<.<.<.<.<.<.<.<.<.<.<.4.<.<.<.<.<.<.<.<.<.<.<.<.<.<.<.<.<.-.-.-.-.<.<.<.<.6.6.6.6.6.6.6.2.<.<.<.<.<.<.<.<.<.<.<.<.<.<.2.2.2.2.<.<.<.<.<.2.2.2.2.2.2.2.2.2.-.-.-.-.<.<.-.-.-.-.2.6.6.6.6.2.-.*.Q *.2.6.^ n / J.U.D.P.P.K.J.9 8 , 8 w w e i *.*.*.*.*.*.*.*.-.-.-.-.-.-.-.-.-.2.2.2.2.2.2.2.<.<.<.<.<.<.<.<.<.<.<.<.<.<.<.*.*.*.-.-.-.-.-.*.:.*.-.*.-.*.:.-.-.-.-.-.-.-.-.,.*.*.:.-.-.-.-.-.,.,.,.,.,.,.,.,.,.,.,.,.,.,.,.,.*.*.:.-.-.-.,.,.-.-.-.-.-.:.-.-.,.,.,.,.,.,.,.,.*.*.*.*.*.*.&.&.e i i i i i i i q q 8 8 0 8 8 q w w 0 , 0 , , , w , , 1 2 2 4 w C F.Q.|.].G.P.P.|.~.^ - 6 w w w G ! ( T S T T m ^ ! ! ^ ^ ^ ^ ^ K K P ^ P K K K / / / 1.1.1.1.1.4.4.6.6.6.6.6.6.6.6.6.6.6.6.6.6.-.-.-.-.-.-.-.-.6.6.6.6.6.6.6.6.:.:.:.:.:.:.:.:.,.,.,.,.,.,.,.,.6.6.6.6.6.6.6.6.6.6.6.6.6.6.6.6.:.:.:.:.:.:.:.:.;.:.:.:.:.:.;.:.,.,.,.,.:.,.:.,.:.:.:.:.-.,.,.,.6.6.6.6.6.6.6.6.6.6.6.6.6.6.6.6.,.-.,.=.;.l h g 6 6 <./.~.P.P.P.",
"K.Y.U.G./.(.*.X 7 6 7 e G G E 6.5.1.1.5.3.3.i.3.p.7.7.5.1.1.1.<.B.N.q.6.6.,.:.;.:.:.:.,.,.,.,.,.,.,.,.,.,.,.,.,.,.,.,.,.,.,.,.,.4.4.4.4.4.4.6.6.4.<.4.<.4.<.4.<.,.,.,.,.,.,.,.,.,.,.,.,.,.,.,.,.,.,.,.,.,.,.,.,.,.:.,.:.,.,.,.,.-.-.-.-.-.-.-.-.-.*.-.*.-.-.-.*.-.-.-.-.-.-.-.-.-.*.-.*.-.*.-.-.-.-.-.-.-.-.-.-.-.-.-.-.-.-.-.*.-.-.-.2.6.2.H n 3.Q.`.G.P.P.I.Q.R 4 2 2 w 2 w w w w q w q q q q 6 6 6 6 6 6 6 , 7 7 7 7 7 7 7 8 e e e e G e e e G G G G G e G G e i i i i i i i i i i i i i i i i l l l l l l l l l l l l l l l ;.l l l l l l l l l l l l l l l l l l l l &.&.;.&.&.&.&.&.&.&.l w w w w w w w w w w w w w w w w 0 0 w w w w 0 w w w w 2 0 2 w w 2 w 4 4 4 2 4 w f w 4 2 4 2 4 0 C W.Q.|._.a.P.P.G.F.1.C q 0 # , i R W W *.c.n.c.*.-.-.-.-.-.-.-.7.7.7.7.7.7.7.7.<.<.<.<.<.6.6.6.6.6.6.6.:.:.:.:.:.:.:.:.*.*.*.*.,.,.,.,.,.,.,.,.:.:.:.:.:.:.:.:.:.:.:.:.:.:.:.:.:.:.:.:.:.:.:.:.:.:.&.&.&.&.&.*.&.&.&.*.&.*.&.*.:.>.:.>.:.>.:.>.>.>.:.>.:.>.:.>.,.,.,.,.,.,.,.,.,.,.,.,.,.,.,.,.>.;.>.;.;.;.;.;.&.;.&.;.;.&.&.&.a i u 8 8 1 , 0 7 q 6./.].P.P.L.",
"K.U.U.G.F./.6.6 O.q 0 0 8 0 8 9 7 7 q 9 q q e e 6 6 q q q q e q 0 w q w e i u i i l l l l l l l l l l l l l l l l l l l l l l &.&.*.*.*.*.*.*.*.:.-.:.-.:.:.:.:.>.>.>.>.>.>.>.>.>.>.>.>.>.>.>.>.>.>.,.>.,.>.,.>.,.>.,.>.,.>.,.,.>.>.>.>.>.>.>.>.>.>.-.>.>.>.>.>.,.,.,.,.,.,.,.,.,.>.,.,.,.,.,.>.,.,.,.,.,.,.,.,.,.,.,.,.x.x.,.,.,.-.-.-.2.E C b p.~.`.P.`.P.f.Q.i 4 2 2 4 2 2 2 2 2 2 2 2 2 2 2 w w w w f w f w 4 4 4 4 w w w w 2 2 2 2 2 2 2 2 2 2 2 2 2 2 2 2 2 2 2 2 2 2 2 2 2 2 2 2 2 2 2 2 2 2 2 2 2 2 2 , 4 2 4 4 2 2 2 2 w 2 4 4 4 4 4 4 2 2 2 2 2 2 2 2 w w w w w w w w w w w w w w w w 2 2 2 2 2 2 2 2 2 2 2 2 2 2 2 2 2 w w w w w w w w w w w w w w w 2 2 4 4 4 4 f f 4 2 4 4 f f f q C W.Q.`.`.P.I.P.P.].3.C 7 6 q l & & 1 1 u a a u 8 8 8 w e e w e q e e q e q e e O.O.O.G O.O.O.O.e O.O.O.O.O.O.#.g g g g g g O.g q q q q q q q q g g g g g g g g O.O.O.O.O.O.O.O.O.O.O.O.O.g h O.g g g g g e e e w w w w w w w w 0 0 0 0 0 0 0 0 0 0 0 0 q 0 q 0 2 , , , 2 , , , 2 , 2 , 2 , 2 , w w w w w w w w w w w w w w w w 1 1 1 1 1 1 8 0 6 7 5.).`.I.I.I.",
"K.G.U.J.F.).W.H q q 0 q w 1 1 1 2 2 w w w w w w 2 2 w w f w w w 2 2 , , , , 4 w 2 2 2 4 w w w w 4 4 2 2 2 2 2 2 2 2 2 2 4 4 4 w q q q q q q q q q q q q q q q w w u u u u u u u u u u w u u u u l l l l l l l l l l l l l l l l l a W a W a W a W a R a a a a a &.=.&.&.&.&.&.&.=.=.&.=.&.=.=.=.=.*.*.=.*.*.*.*.=.*.*.*.=.-.-.=.-.*.*.*.G Z C Z F.Q.`.P.}.`.f.Q.&.w , 2 4 2 2 2 f f f f w w f f 2 2 2 2 2 2 4 4 2 2 2 2 2 2 2 2 4 w w w w w w w f f f f f f f f w f f f f 4 4 4 4 4 w w w w 4 4 4 4 4 4 4 4 2 2 4 4 3 3 2 2 2 2 2 2 2 2 2 2 2 2 1 1 1 2 2 2 2 2 w w w 0 2 0 2 2 w w w w w w 0 2 k k k k k d d d 4 4 4 4 4 4 4 4 w w w w w w w w w w w w 0 w w w 2 4 4 4 4 2 4 4 w w w w w w 0 6 H Q.G.P._.P.[.I.`. XQ.1.A + X q w u w w 8 8 , * 6 0 7 7 8 8 7 8 q q q q q q q q 6 6 6 6 6 6 6 6 0 0 q q q q q q q q q q q q q 0 e e e e e e e e q q q q q q q q 6 6 6 6 6 6 6 6 6 6 6 6 6 6 6 6 q q q q q q q q q q q q q q q q e e e e w e e e g g g g g g e g w w w w w w w w w w w w w w w u w w w w w 2 w w w w w w w w w 1 & & & 1 1 w w e 6 C 7.`.P.I.I.L.",
"U.D.U._.G.|.|.7.@ 7 6 w w 4 4 4 4 d d d d d d d k f f f d d 4 4 k w 4 2 2 2 4 w w w w w w w w w 2 2 2 2 2 2 2 2 2 2 2 2 2 2 2 1 1 1 1 1 < < < < 1 1 1 1 1 1 < 1 1 , , , 6 6 , , , , , , , , , , 8 w w w w w w w w w w w w w w 8 8 8 8 8 8 8 8 8 8 8 8 8 8 8 8 8 8 8 8 8 8 8 8 8 8 8 9 8 q q q 9 9 9 9 9 9 9 9 9 9 9 9 7 9 e e 9 e 9 9 9 7 C H 7.Q.Q.Q.`.[.}.f.`.-.e 0 0 q q w w 0 , , , , , , , 2 2 2 2 4 4 4 4 w w w w w w w w 2 2 2 2 w w w w w 2 2 2 2 w w w w w w w w 2 2 2 w w w w w w w 2 , 1 , , , , , , w w w w w w w w w w w w w w w w 8 8 w w w w w w q w w w w w e e e e e e e e e w , 1 1 1 , , , , w w w w 2 2 w w 0 q q q q q 7 0 q q 0 0 0 q q q w w w w w w w w f w q q q q q 7 1.|.P.P._.I.I.I.f.[.|.Q.p.H 7 q + + 7 7 7 7 D D 7 7 7 7 7 7 7 7 q q q q q q q q q q q q q q q q q D q q q q 7 7 7 q q q q q q 7 + 6 6 6 6 6 6 6 6 6 6 6 6 6 6 6 q q q q q q q q q e e e 9 9 e e q q 6 6 6 6 6 6 q q q q 7 7 q q 6 6 = 6 + + 6 + + + 6 6 6 = = = 6 6 6 6 6 6 6 6 6 , , , = , 6 , 7 0 7 0 0 6 0 6 6 6 7 0 7 0 7 8 & & & & 1 8 6 7 G <.F.|.f.f.I.g.",
"Y.D.P.[.a._. XQ.+.D q q 0 , 1 4 4 d f d d 4 4 4 w 4 2 2 2 2 4 4 2 2 w w w w w 2 0 w 0 q w q w q w w w w f w w w w w w w w w w w 4 4 4 4 4 4 4 4 r r r r r r r r 8 8 8 8 8 8 8 8 8 8 8 8 q 8 q 8 q q w q w q w q q 7 q 7 q 7 q 7 7 7 q q q q q q q q q q q q q q q q q q q q q q 6 6 6 7 7 7 7 6 6 7 - - - - - 7 7 7 = - - 7 7 7 = = - - - C 5.|.Q.`.`.`.}._.f._.5.E 7 7 D D 9 9 q q q 7 7 8 8 8 7 0 0 0 0 0 0 0 0 0 0 0 0 0 0 0 q q q q q q q q q q q q q q q q q 7 q q q 7 6 6 q q q q q q q q 6 6 6 6 7 6 7 6 = % 6 = 6 6 7 9 9 7 9 7 9 7 9 7 7 7 7 7 7 7 7 7 6 6 q q q 9 e 9 9 9 q 9 q 9 q 9 9 9 9 9 9 9 9 8 6 8 6 8 6 6 6 6 6 7 q q q q 7 6 7 6 6 6 7 7 7 q 8 8 6 6 8 8 q 6 6 6 = 6 7 G E *.p. X`.P._.I.I.f.f.P.P.Q.|./.^.).)././.Q.j.j.^./././././.{./././.W.B.C.B.C.B.C.B.w.w.w.B.B.B.B.B.B.w.w.w.w.w.w.w.w.w.w.w.w.w.w.w.w.m.B.m.B.m.B.m.7.7.7.7.7.7.7.7.6.6.6.6.6.6.6.6.6.6.6.6.6.3.6.3.6.6.6.6.6.6.6.6.6.6.6.6.6.6.6.6.6.2.6.2.6.2.6.2.2.2.2.2.2.2.2.2.2.-.-.-.-.-.-.-.-.*.-.*.-.*.-.*.*.*.*.*.*.*.*.*.*.*.*.*.*.*.*.*.Q Q Q Q *.Q E H 5.p.|. XP.f.I.d.",
"I.I.I.I.'.`.`.`.k.<.C + 6 w w w w q q q q q q q q q q q q w q q 0 0 0 0 0 0 q 7 6 7 q q q q q q 6 6 6 7 6 7 6 7 0 7 6 6 6 7 q 0 1 1 1 1 1 1 1 1 , , , 1 1 1 1 8 = = 6 6 6 7 q 7 6 6 6 6 6 6 7 7 7 6 6 7 7 7 7 7 q 7 q 7 q 7 q q 7 7 7 7 7 7 C C 7 7 7 7 C C D D C C C C C C C D G G G G G G G A H E E E E E *.*.*.<.<.<.6.6.7.7.6.3.7.m.F.W.Q.Q.Q.`.`.`.`.`.`.`.`.Q.Q.Q.Q.Q.Q./.W.W.W.W.W.W.W.W.B.B.B.B.B.B.B.B.B.B.m.m.m.m.B.m.B.B.B.B.B.B.B.B.B.B.B.B.B.B.B.B.w.7.w.B.7.7.7.7.B.B.B.B.B.B.B.B.F.m.W.m.W.m.W.m.W.m.W.m.F.m.W.F.F.S.F.S.F.S.F.S.H.F.m.S.F.S.F.m.!.!.(.!.(.!.(.!.(.(.(.(.(.(.(.(.W.W.W.W.W.W.W.W.W.W.H.W.W.W.H.H.F.F.F.F.F.F.m.m.F.m.F.F.F.F.F.m.m.m.m.m.m.m.m.m.m.m.m.H.H.F.W.Q.`.`.`.`.I.I.I.I.I.I.`.`.`.Q././.`.`.`.`.`.`.`.`.`.`.`.`.`.`.`.`.Q.Q./.Q./.Q./.Q./././.Q./.Q./.Q.Q.Q.Q.Q.Q.Q.Q.Q.Q.Q.Q.Q.Q.Q.Q.Q.Q.Q.).~.~.~.~.~.~.~.).~.).~.).~.).~.).~.~.~.~.~.~.~.~.~.~.~.~.~.~.~.~.~.~.~.~.~.~.~.~.~.~.~.~.~.).~.).~.)./.)./.).).).~.).~.).~.).~.).~.).).).~.).~.).~.).).).~.~.~.~.~.~.~.~.~.~.~.~.~.~.~.~.~.Q.~.~.~.~./.Q.Q.Q.`.`.`.`.`.I.I.",
"I.I.I.I.'.'.'.`.`.p.P C 7 q q 6 7 7 7 7 7 7 7 7 7 7 7 7 7 7 7 7 q q e e q q q 7 7 7 C D D F D D G G G G G D G G G G G G G G G G R R R R R R R R R R R *.*.*.*.*.*.*.<.<.<.2.<.2.6.6.6.6.6.6.5.5.5.6.5.6.5.6.5.5.7.7.7.7.7.7.7.7.7.7.7.7.j.W.W.W.^.^.W.^.^.^././.^.^.^.^.^.^.^.^./././././././././.)././.|.|.|.|./.Q./.)./.|.|.)./.!.(.~./.~.~.Q.`.`.`.`.`.`.`.`.`.`.`.`.`.`.`.`.P.P.P.J.~.~.~.~.).).).~.).~.).).)./.Q.~.Q.~.Q.Q.Q.Q.Q.Q.Q.Q.Q.Q.Q.Q.Q.Q.Q.Q.Q.Q.Q.Q.Q.Q.Q.Q.Q.Q.Q.Q.Q.Q.Q.Q.Q.Q.~.~.`.~.`.~.`.~.`.~.`.~.`.~.`.~.J.J.J.J.J.J.J.J.J.J.J.J.J.J.J.J.J.Q.Q.Q.Q.Q.Q.Q.~.~.~.~.~.~.~.~.~.Q.`.Q.P.J.P.J.J.J.J.J.J.J.J.J.~.~.~.~.~.~.~.~.~.~.~.~.~.~.~.~.J.J.J.J.J.J.J.J.G.G.G.G.J.J.J.].`.`.`.`.P.I.I.I.I.I.`.`.`.`.Q.Q.`.`.`.`.`.`.`.`.'.'.'.'.'.'.'.'.`.`.`.`.`.`.`.`.`.`.`.`.`.`.`.`.`.`.`.`.`.`.`.`.`.`.`.`.`.`.`.`.P.P.P.P.P.P.P.P.P.P.P.P.P.P.P.J.P.P.P.P.P.J.P.P.P.P.P.P.P.J.P.P.P.P.P.P.P.P.P.P.P.P.P.P.P.P.P.P.J.J.J.J.J.J.J.J.J.J.J.J.J.J.J.J.J.P.P.P.P.P.P.P.P.P.P.P.P.P.P.P.P.P.P.P.P.P.P.P.P.P.P.P.P.P.P.P.`.`.`.`.`.`.`.`.`.`.`.`.`.`.P.P.",
"I.I.I.I.I.'.I.'. X XQ.W.W.W.V.V.W.F.W.F.F.F.W.F.W.F.W.F.W.F.W.W.W.B.W.W.W.W.W.W.^.Q.Q.Q.Q.Q.Q.Q././././././././././././././././.|.|.|.|.|.|.|.|.`./.{.|.{.|.|.|.W.Q.Q.Q./.Q.Q.Q.Q.Q././.Q.Q.Q.Q././././././././.|.|.|.|.|.|.|.|.Q.`.{.{.{.|.|.|.Q.Q.Q.Q.Q.Q.{.{.Q.Q.Q.Q.Q.Q.Q.Q.Q.Q.Q.Q.Q.Q.Q.Q.Q.Q.Q.Q.Q.`.`.`.Q.Q.Q.Q.Q.Q.Q.Q.|.).).~.Q.Q.Q.G.`.`.`.`.`.`.`.'.I.L.I.I.I.I.I.I.I.P.P.P.P.U.U.P.P.P.`.P.`.P.`.P.`._.`.`.`.`.`.`.P.P.I.P.`.P.`.P.`.P.`.P.`.P.I.P.`.`.`.`.`.`._.I.`.`.`.P.`.P.`.P.P.P.I.P.I.P.I.P.I.P.I.P.I.P.P.P.P.P.P.P.P.P.P.P.P.P.P.P.P.P.P.P.P.P.P.P.P.P.P.P.P.P.P.P.P.P.P.P.P.P.I.P.I.P.I.P.I.P.I.P.P.P.I.P.P.U.P.P.P.P.P.P.U.U.U.P.P.P.P.P.J.J.J.J.U.U.U.U.P.P.P.P.P.U.U.P.P.P.P.P.P.I.I.I.I.I.P.P.P.`.Q.P.P.P.P.P.P.P.P.P.P.P.I.P.P.P.P.I.I.I.I.I.I.I.I.I.I.I.I.I.I.I.I.I.P.P.P.P.P.P.P.P.P.P.P.P.P.P.P.P.P.P.P.P.P.P.P.P.P.P.P.P.I.P.I.P.I.P.P.P.I.P.I.P.P.P.I.P.P.P.P.P.P.P.P.P.P.P.P.P.P.P.P.P.P.P.P.P.K.K.K.K.P.K.P.P.P.P.P.K.K.K.K.K.I.L.L.L.L.I.L.L.L.L.I.I.I.I.L.L.I.I.I.I.I.I.I.I.I.I.I.I.I.I.I.I.I.'.'.'.'.'.'.`.`.`.`.`.`.P.`.`.",
"g.I.I.I.I.I.I.P.P.`.`.`.Q.).|.|.|.|.|.|.|.|.|.|.|.|.|.|.|.|.|.|././.|.|.|.|.|.|.|.|.{.{.{.{.{.{.{.|.{./.{.{.{.{.|.|.{.|.{.|.|.{.}.}.'.'.'.'.'.'.`.'.'.'.'.'.'.}.`.`.`.`.`.`._.|.`.`.`.`.`.`.`.`.`.`.`.`.`.`.`.`.`.`.`.`.`.`.`.`.`.l.`.`.`.`.`.`.`.`.`.`.`.`._._.`.`.`.`.`.`.`.`.`.`.`.`.`.`.`.`.`.`.`.`.`.`.`.`.`.`.`.`.`.`.`.`.G.G.G.G.G.G.P.P.`.`.`.`.`.`.`.I.L.L.L.L.L.I.I.I.I.I.I.I.I.I.I.I.I.I.I.L.I.L.I.I.I.P.I.I.I.I.I.I.I.L.I.L.I.I.I.I.I.L.I.I.I.I.I.L.I.I.I.I.I.I.I.I.I.I.I.I.I.I.I.I.L.L.L.I.I.I.I.I.I.d.I.I.L.I.I.I.I.L.I.L.I.L.I.L.I.L.I.L.I.L.I.I.P.P.P.P.P.P.P.P.P.P.P.P.P.P.P.P.I.I.I.I.I.I.I.I.I.I.I.I.I.I.I.I.K.K.K.K.K.K.K.K.K.K.K.K.K.K.K.K.P.P.P.P.P.P.P.P.P.P.P.P.P.K.I.P.P.P.P.P.P.P.I.I.I.I.P.P.P.P.P.P.P.P.P.P.P.P.P.P.P.P.P.P.P.P.P.P.I.I.I.I.I.I.I.I.I.I.I.I.I.I.I.I.I.P.P.P.P.P.P.P.I.I.P.P.P.P.P.P.P.P.P.P.P.P.P.P.I.I.I.I.I.I.I.I.I.I.P.P.I.I.I.L.I.I.I.I.P.P.P.P.P.P.P.P.P.P.P.P.P.P.P.P.P.P.P.P.P.P.P.P.P.P.P.P.P.P.P.P.P.P.P.P.I.I.I.I.I.I.I.I.I.I.I.I.I.I.I.I.I.I.I.I.I.I.I.I.I.I.I.I.I.I.I.I.g.z.z.z.'.I.'.'.`.`.`.`.`.`.`.`.",
"I.I.I.I.P.P.P.P.G.P.P.P.P.G.G.G.P.P.P.P.P.P.P.P.P.P.P.P.P.P.P.P.`.`.`.`.Q.`.`.`.f.a.a.a.f.f.f.l.`.Q.`.Q.`.Q.`.`.`.`.l.k.a.Q.`.`.f.g.g.g.g.g.g.g.g.g.g.g.g.g.g.g.l.`.`.`.`.`.`.`.`.`.`.`.`.`.`.`.P.P.P.P.P.P.P.P.P.P.P.P.P.P.P.P.`.`.`.`.`.`.`.`._.`.`.`.`._.}.}._.`._._.`._.`.`._._.}.}.[._._._.`.`.`.`.`.`.`.`.`.`.`.`.`.`.`.P.I.I.I.P.P.`.`._.P.P.`.P.I.P.I.I.I.I.I.I.I.I.I.I.I.I.I.P.P.P.I.I.I.I.I.I.I.I.I.I.I.I.I.I.I.I.I.I.I.I.I.I.I.I.I.I.I.I.I.I.I.I.I.I.I.I.I.I.I.I.I.I.I.I.I.I.I.I.I.I.I.I.I.I.I.I.I.I.I.I.I.I.I.I.I.I.I.P.I.P.I.P.I.P.I.P.I.P.I.P.I.P.P.P.P.P.P.P.P.P.P.P.P.P.P.P.P.I.I.I.I.I.I.I.I.I.I.I.L.L.I.I.I.I.P.P.P.P.P.P.P.P.P.P.P.P.P.P.P.P.P.P.P.P.P.P.P.P.P.P.P.I.P.P.P.P.P.P.P.P.P.P.P.I.I.I.P.P.P.P.P.P.P.J.J.J.J.G.P.P.P.P.P.P.P.P.P.P.P.I.I.I.I.I.I.I.I.I.I.I.I.I.I.I.I.I.I.I.I.I.I.I.I.I.I.I.P.P.I.I.I.I.I.I.I.I.I.I.I.I.I.I.I.I.I.I.I.I.I.I.I.I.I.I.I.I.I.I.I.I.I.I.I.I.I.I.I.I.I.I.I.I.I.I.I.I.I.P.I.P.I.P.I.P.I.P.I.P.I.P.I.P.I.P.I.I.I.I.I.I.I.I.I.I.I.I.I.I.I.I.I.I.I.I.I.I.I.I.I.I.I.I.I.I.I.I.I.I.I.I.I.I.I.I.I.I.P.P.`.`.P.`.",
"I.I.I.I.P.P.P.U.U.U.U.Y.Y.P.I.I.`.`.`.`.`.`.`.`.P.P.`.`.P.P.P.P.`.`.`.`.`.`.`.`.`.`.`.`.'.'.'.'._._.`.`.`.`.`._._.`.`.`.`.`.`._.'.I.I.I.I.I.I.I.I.I.I.I.I.I.I.'.I.I.`.I.`.I.`.I.'.'.`.`.'._.'.'.P.P.P.P.P.P.P.P.P.P.P.P.P.P.P.P.I.I.I.I.I.I.I.P.I.I.f.s.f.f.I.I.I.I.I.I.I.I.I.I.I.I.I.I.I.I.I.I.P.P.P.P.P.P.P.P.P.P.P.P.P.P.P.f.I.I.I.I.I.I.I.I.I.P.P.P.P.P.P.P.P.P.P.P.P.P.P.P.I.P.P.P.P.P.P.P.P.P.P.P.P.P.P.P.P.P.P.P.P.P.P.P.I.I.I.I.I.I.I.I.I.I.I.I.I.I.I.I.P.P.P.P.P.P.P.P.P.P.P.P.P.P.P.P.P.I.I.I.I.I.I.I.I.I.I.I.I.I.I.I.P.P.P.P.P.P.P.P.P.P.P.P.P.P.P.P.I.I.I.I.I.I.I.I.I.I.I.I.I.I.I.I.I.I.I.I.I.I.I.I.I.I.I.I.I.I.I.P.P.P.P.P.P.P.P.P.P.P.P.P.P.P.P.P.P.I.I.I.P.P.P.P.P.P.P.P.P.P.P.P.U.P.P.P.P.P.P.P.I.I.P.P.P.P.P.P.P.P.J.J.P.P.P.P.P.P.P.P.P.P.P.P.P.P.P.P.P.P.P.P.P.P.P.P.P.P.P.P.I.I.I.I.I.I.I.I.I.I.I.I.P.P.I.I.I.I.I.I.I.I.I.I.I.P.I.I.I.I.I.I.I.I.I.I.I.I.I.P.I.I.I.I.I.I.I.I.I.I.I.I.I.I.I.P.I.I.I.I.I.I.I.I.I.P.I.P.I.P.I.P.I.P.I.P.I.P.I.P.I.P.I.P.I.P.I.P.I.P.I.P.I.P.I.P.I.P.I.P.I.P.I.P.I.P.I.P.I.P.I.I.I.I.I.I.I.I.I.I.I.I.P.P.P.`.`.`.",
"`.`.I.P.J.J.J.J.S.S.D.D.K.L.L.L.P.P.P.P.P.P.P.P.P.P.P.P.P.P.P.P.f.f.f.f.f.f.f.f.I.I.I.I.I.I.f.I.I.I.I.I.I.I.I.I.I.I.I.f.f.P.f.P.P.K.K.K.K.K.P.P.K.K.K.K.D.D.D.D.I.I.'.I.'.I.'.I.I.I.I.I.`.I.I.I.I.P.P.P.K.L.L.P.P.P.P.P.P.P.P.P.L.L.L.L.L.L.L.L.I.I.I.I.I.I.I.I.I.I.I.I.I.I.I.I.I.I.I.I.I.I.I.I.I.I.I.P.P.P.P.P.I.I.I.[.[.[.[._.I.L.L.L.I.I.I.I.I.I.I.I.P.P.P.P.P.P.P.P.P.P.P.P.P.P.U.P.P.P.P.P.P.K.P.P.P.K.P.K.P.K.P.K.P.P.P.K.P.P.P.P.P.P.P.P.P.P.P.P.P.P.P.P.P.D.P.G.G.D.G.D.G.D.G.G.G.G.G.P.P.P.P.P.P.P.P.P.P.P.P.P.P.P.P.P.`.Q.Q.Q.Q.Q.`.`.`.`.Q.Q.Q.Q.Q.P._.I.I.I.I.I.I.I.I.I.I.I.I.I.I.I.P.P.P.P.P.P.P.P.P.P.P.P.P.P.P.P.P.K.P.K.P.P.P.K.P.K.P.P.P.P.P.P.I.I.I.I.I.I.P.P.`.`.`.`.`.`.`.].U.J.P.P.P.P.P.P.P.P.P.P.P.P.P.P.P.P.P.P.P.P.P.P.I.I.I.I.I.I.I.P.P.P.P.P.P.P.P.P.P.P.P.P.P.P.P.P.P.P.I.P.I.P.I.P.I.P.I.P.I.P.I.`.`.`.`.`.`.`.`.`.`.`.`.`.`.`.`.`.`.`.`.`.`.`.`.`.`.`.`.`.`.`.`.`.`.`.`.`.`.`.`.`.`.`.`.`.`.`.`.`.`.`.`.`.`.`.`.`.`.`.`.`.`.`.`.`.`.Q.`.`.`.`.`.`.`.`.`.`.`.`.`.`.`.`.`.`.`.`.`.`.`.`.`.`.`.`.`.P.`.P.P.P.P.P.P.P.P.P.P.P.`.`.`.`.",
"Q.Q.Q.Q.~.!.H.H.R.J.J.G.P.P.P.P.`.~.~.~.~.~.~.).Q.Q.Q.Q.Q.Q.Q.`._._._._.|.|.|._.`.`.`.`.P.`.G.G.`.`.`.`.`.`.`.`.`.`.`.`.Q.Q.`.].J.J.J.J.J.J.J.J.J.J.J.J.J.J.G.P.I.I.I.I.I.I.I.I.I.I.I.I.I.`.`.P.P.P.P.P.P.P.P.P.P.P.P.P.U.U.U.P.P.P.P.P.P.P.P.P.P.P.P.P.P.P.P.P.P.P.P.P.P.P.P.P.G.P.P.P.P.P.P.G.P.`.`.P.P.G.G.G.G.G.G.P.P.`.`.P.P.I.I.I.P.P.`.`.P.P.`.`.`.`.P.Q.~.~.J.J.J.J.J.J.J.J.J.J.J.J.J.Q.J.Q.J.J.J.J.J.J.].~.~.~.~.~.~.~.~.~.~.~.~.~.~.~.~.~.~.~.~.~.~.J.J.J.J.J.J.~.~.~.J.J.J.J.J.J.J.J.~.Q.Q.Q.Q.Q.`.`.`.`.`.`.`.I.I.P.`.`.`.`.`.`.`.Q.Q.Q.Q.Q.Q.Q.Q.`._._._._._._._.`.`.`.`.`.`.`.`.`.P.J.J.J.Q.J.J.Q.J.J.J.J.J.J.J.J.J.J.J.Q.Q.Q.J.J.J.J.J.J.Q.Q.Q.`.`.`.`.`.`.`.Q.Q.Q.Q.Q.Q.Q.Q.~.~.~.J.~.~.Q.Q.`.`.P.U.P.U.P.U.P.P.`.`.`.`.`.`.`.P.`.`.`.`.`.`.`.`.J.~.~.~.J.J.J.~.~.~.J.J.J.~.~.~.Q.`.`.`.`.`.`.`.`.`.`.`.`.`.`.`.`.`.`.`.`.`.`.`.`.`.`.`.`.`.`.`.`.`.`.`.`.`.`.`.`.`.`.`.`.`.`.`.`.`.`.`.`.`.`.`.`.`.`.`.`.Q.`.`.`.`.`.`.`.`.`.`.{.`.`.`.`.`.`.|.).).).).).).).).).).).).|.).).).Q.Q.Q.Q.Q.Q.Q.Q.Q.Q.Q.Q.Q.Q.Q./.~.~.~.~.~.~.~.~.Q.Q.`.Q.`.Q.`.Q.",
"6.6.6.6.6.6.2.2.2.2.2.2.2.2.6.6.6.6.6.6.6.6.6.6.6.6.6.6.6.6.6.6.5.5.5.5.5.5.5.5.7.7.7.7.7.7.7.7.7.7.7.7.7.7.7.7.7.7.7.7.7.7.7.7.m.m.m.F.F.F.F.F.W.H.H.~.].|.|.`.`.`.P.P.I.I.I.I.I.a.`.|.Q.).|./.!.).).)./.~./.~././.~.~.~.~.~.~././././././././.).).).).).).).)./././././././././././././././././././.(./././././././.(./././././././././././.(././././.).).).).(.(./.).).).(.(.(.(.(.(.(.(.(.(./././.).)././././././././.)./.)././.)././././././././././.)./.).~.~.).~.).)././././././././.).!.!.!.!./.)./././././.).|.`.f.g.=XI.P.P.D.G.J.~.Q.Q.Q.Q./././././.|.|.|.|.|.|.|.|.|.).|.).|.).|.)././.).).)./././.).).).).).).).).(./././././././././././././.(.(././././././././././.).).).).).).).(.(.).).).(.(.(.(./.(./.(./.~./././././././././././././././././.).).)./././.(.(./.).).)./.(.(././././././.).).(././././././.(.).).).).).)./././.)././.)./.).Q./.|.).).).].U.P.I.I.I.I._.I.P.J.).~.~.Q././.^.W.W.W.W.W.F.H.H.F.m.m.m.m.m.m.m.m.7.7.7.7.7.7.m.m.7.7.7.7.7.7.7.7.6.6.7.6.6.6.7.6.6.6.6.6.6.6.6.6.6.6.6.6.6.6.6.6.6.,.,.,.2.6.6.6.2.2.2.2.2.6.6.6.",
"&.&.&.&.&.&.&.&.&.&.&.&.&.&.*.*.&.&.G G &.&.&.&.*.*.&.&.&.&.*.*.*.*.*.*.*.*.*.*.*.*.*.*.*.*.*.*.*.*.*.*.*.*.*.*.*.*.*.*.*.*.*.*.*.*.*.*.*.*.*.*.-.*.*.<.5.p.Q.`.`.`.`.P.I.I.I.I.I.P.`.Q.7.7.w.4.2.2.6.6.2.2.6.6.6.6.6.6.6.6.6.6.6.6.6.6.6.6.6.6.2.2.2.2.2.2.-.2.-.-.-.-.-.-.-.-.-.-.-.-.-.-.-.-.2.2.2.-.2.2.2.<.2.2.2.2.2.2.2.-.-.-.-.-.-.-.-.-.-.-.2.2.2.2.-.2.2.2.2.2.2.2.2.2.-.-.-.-.-.-.-.-.*.*.-.-.-.-.-.-.-.-.-.-.-.-.*.*.-.-.*.-.*.*.-.-.-.-.-.-.-.-.*.*.^ ^ ^ <.<.<.<.<.<.<.<.<.<.2.2.-.-.-.2.6.6.5.7.7.4.6.p.Q.`.I.g.=XL.P.P.K.G.].~.F.~././.^.W.W.W.B.7.7.7.7.7.7.7.7.5.5.5.5.5.5.5.5.6.2.6.6.6.6.6.6.2.2.2.2.-.2.-.-.2.2.2.2.2.2.2.2.2.2.2.2.2.2.-.-.2.2.2.2.2.2.2.2.2.2.2.2.2.2.2.2.2.2.2.2.2.2.-.2.-.-.-.-.-.-.-.-.2.2.2.2.2.2.2.2.2.2.2.2.2.2.2.<.-.-.-.-.-.-.-.-.-.-.-.-.-.-.-.-.6.6.6.6.6.6.6.6.6.6.6.6.6.6.6.6.6.3.6.3.6.6.5.5.W.W.W.^.W.W.W.W.p.p.p.F.F.J.J.P.I.I.I.L.I.I.P.J.~.m.7.2.<.2.:.:.*.*.*.*.Q Q E E *.*.*.*.*.Q *.*.E E E E E E E *.*.*.*.*.*.*.*.*.*.*.*.*.*.*.*.*.*.*.&.&.&.&.&.&.R R &.&.&.&.R &.&.&.&.&.&.&.&.&.&.&.&.&.&.&.&.&.",
"G G G G G G G G G G G G G G G G G G G G G G G G G G G G G G G G *.*.*.*.&.&.R R G G G G G G G G G G G G G G G G G G G G G G G G i i G G G G G G R R e C H 1.F.).|.`.`.P.I.I.I.I.I.P.`.Q.<.+.*.D G G D D D G G G G G G G A G G G G G G G G G G G G G G G G G G G G G G G G G G G G G G G G G G G G G G G G G G G G G G G G G G G G G G G G G G G R R R R R R R R G G G G G G G G G G G G G G G G D D D D G D D D D D D D D D D G G G D D G G G D D D D D D D D G A A A G G G G G G G G G G Y Y Y y y Y G G H +.O.G G <.F.|._.I.I.I.I.P.P.U.].F.S.^ ^ E H H A A A *.*.*.E E E E E H R H G H G H G G G G G G G G G G G G G G G G G G G G G G G G G G G G G G G G G G G G G G G G G G G G R G G G R R R R R R R R R G G G G G G G G G G G G G G G G G G G G G G G G G G G G G G G G G G G G G G G G G G G G G G G G G G G G G G G G G G R R G H H H F F F H H H F F <.<.<.1.7.S.J.U.P.I.I.I.I._.P.J.W.7.E G G R *.O.G G G G G A A A R R R R R R R R G G G G G G G G G G G G G G G G R &.R R O.O.O.*.G G G G G G G G G G G G G G G G R i i i i i i i i i i i i i i i ",
"*.*.*.*.*.*.*.*.*.*.*.*.*.*.*.*.*.*.*.*.*.*.*.*.*.*.*.*.*.*.*.*.;.;.;.;.;.;.;.;.*.*.*.*.*.*.*.*.&.*.*.*.*.*.*.*.*.*.*.*.*.*.*.*.&.l &.&.*.*.*.*.*.&.R e G E 2.m./.Q.`.P.P.I.P.I.P.P.|.Q.<.G O.O.*.G G G G R R G G G G G G G A G G G G G G G G G O.R *.R O.R O.R *.*.*.*.*.*.*.R *.R *.*.*.*.*.*.O.R O.R O.R O.G O.R O.R O.R O.G *.*.*.*.*.*.*.*.&.R *.R &.R &.R *.R *.R *.R *.R *.R *.R *.R *.R *.R *.R *.R *.R *.R *.*.*.R *.R *.R *.R *.R *.R *.R *.*.*.R *.R R R R W *.*.*.*.&.&.&.R R R R R R R Y R R G O.O.*.R E 7.Q.|.I.L.I.P.P.J.J.J.S.1.H H F G A G G G G R G R G R G R R R R R R R R R G R G G G G G G *.*.*.*.*.*.*.*.O.R O.R *.R O.R O.G O.R O.R *.R O.R O.R O.R O.R *.R *.R *.R *.R R R R R R R R R R R R R R R R R R R O.R O.R O.R O.R O.R O.R O.G *.R *.R *.*.*.*.*.*.*.R *.R *.*.G G G G G G G R G G G G G G G D G G G G G G G G G G G G G G G G H A H E <.2.S.J.P.I.I.g.I.}.`.Q.7.2.G G G *.&.*.&.&.*.*.*.W W W R R *.R *.R *.R *.R *.R *.R *.*.*.*.*.*.*.*.*.*.*.*.*.*.&.&.;.;.*.*.*.*.*.*.*.*.*.*.*.*.*.*.*.*.&.&.&.&.&.&.&.&.&.&.&.&.&.&.&.&.",
"&.&.&.&.&.&.&.&.&.&.&.&.&.&.&.&.&.&.&.&.&.&.&.&.&.&.&.&.&.&.&.&.*.*.*.&.&.&.&.*.&.&.&.&.&.&.&.&.&.&.&.&.&.&.&.&.&.&.&.&.&.&.&.&.l l l l ;.&.&.&.W &.&.a i e i *.F.F.Q.`.P.I.I.I.P.P.|.Q.*.G *.:.:.:.*.*.*.:.:.*.*.R *.R *.R *.*.*.*.&.*.&.*.&.*.O.&.O.&.O.&.O.&.&.*.&.*.&.*.&.*.*.*.&.*.&.*.&.*.O.&.O.&.O.O.O.O.O.&.O.&.O.O.O.O.;.*.&.&.&.*.&.*.&.&.&.&.&.&.&.&.*.*.*.*.*.*.&.*.*.*.&.*.&.*.&.*.&.*.&.*.*.*.&.*.&.*.&.*.&.*.&.*.&.*.&.*.*.*.*.*.&.*.&.*.&.*.&.*.W &.&.l &.l ;.l l l l l i i i y y y W *.*.*.;.;.;.&.R *.F.).`.P.P.P.G.J.F.p.^ H E E E *.*.*.:.:.*.&.&.&.&.&.&.&.&.&.&.&.;.&.*.*.*.*.&.*.*.*.&.*.*.*.&.*.&.*.&.&.O.O.O.*.&.&.O.&.O.O.O.O.O.&.O.O.O.&.O.&.O.*.O.&.*.*.*.*.*.&.*.*.&.R &.R &.R &.R R R &.R R R R &.&.&.O.&.O.O.O.&.O.&.*.&.O.O.O.O.*.*.&.*.&.*.&.*.&.*.&.*.*.*.&.*.&.*.&.*.&.*.&.*.*.&.*.*.*.*.O.*.*.*.*.*.*.*.*.*.:.:.:.:.:.:.:.:.+.G G R E Q 2.S.`.I.'.g.'.[.`.F.<.E G G *.:.&.&.&.&.&.*.*.*.*.W R R &.R &.R &.R &.R &.R &.&.&.&.&.&.&.&.&.&.&.&.*.*.&.*.&.&.&.&.&.&.&.&.&.&.&.&.&.&.*.&.&.&.&.&.&.&.&.&.&.&.&.&.&.&.&.&.&.&.&.&.",
"&.&.&.&.&.&.&.&.*.*.*.&.&.&.&.&.&.&.&.&.&.&.&.&.&.&.&.&.&.&.&.&.&.&.&.&.l &.&.&.&.&.&.&.&.&.&.&.&.&.&.&.l l l l &.&.&.&.&.&.&.l l l l l l l l l i W &.=.&.a i i 6.p.Q.|.`.P.P.P.P.G.|.W.*.G &.&.&.*.;.*.*.R *.*.*.*.*.*.&.*.*.*.&.&.&.&.&.&.O.&.O.&.O.&.O.&.O.&.O.&.&.&.&.&.&.&.&.&.&.&.&.&.O.&.&.&.&.&.&.&.&.&.&.&.&.&.&.&.&.&.l &.&.l &.&.&.&.&.&.&.&.&.&.&.&.&.&.&.&.&.&.&.&.&.&.O.&.&.&.&.&.&.&.&.&.&.*.&.&.&.&.&.&.&.&.&.&.&.&.&.&.&.*.&.&.&.&.&.&.&.&.&.&.i a l l l l k l l l l l l a a a y y i Y R *.;.;.l i e Y 3.Q.|.P.`.P.P.Q.S.1.H G G G G O.O.O.O.O.;.&.;.&.;.&.;.&.l l l l l l l &.&.&.&.&.&.&.&.&.&.&.&.&.&.&.&.&.&.*.&.&.&.&.&.&.&.&.&.&.&.&.&.&.&.&.&.&.&.*.&.&.&.&.&.&.&.&.&.&.&.&.&.&.&.&.&.&.&.&.&.&.&.&.&.&.&.&.&.&.&.*.&.*.&.&.&.&.&.&.&.&.&.&.O.&.&.&.O.&.&.&.&.&.&.&.O.&.&.&.&.&.&.&.&.&.&.&.&.&.&.&.&.&.*.*.*.*.*.&.&.&.l i i i i l i &.:.O.O.*.R G E 3.`.`.'.f.'. X`.3.E R R *.&.&.&.&.O.O.&.&.&.i i i &.R &.&.&.&.&.R &.R &.&.&.&.&.&.&.&.&.&.l l l l &.&.l l &.&.&.&.&.&.&.&.&.&.&.&.&.&.&.&.&.&.&.&.&.&.&.&.&.&.&.&.&.&.&.&.&.&.&.&.",
"&.&.*.*.&.&.&.&.;.;.;.;.;.;.;.;.&.&.*.*.&.&.&.&.&.&.&.&.&.&.&.&.&.&.&.;.&.&.&.&.&.&.&.&.;.;.;.;.&.&.&.&.&.&.l l &.&.&.&.&.&.&.&.;.;.c l l l l &.&.&.&.&.&.x x a E 5.F.|.`.P.P.P.`.G.Q.W.*.G &.&.e *.:.:.&.G G &.O.&.&.&.&.&.&.&.&.l O.l O.l O.g &.&.&.&.&.&.&.&.&.&.&.&.&.&.&.&.&.&.&.&.&.&.&.&.;.&.;.&.;.&.;.&.;.&.;.&.;.&.;.&.&.l l l ;.&.&.&.;.;.;.;.;.;.;.;.;.;.;.;.;.&.;.;.&.&.;.&.;.&.;.&.;.&.;.&.;.&.;.&.;.&.;.&.;.&.;.&.;.&.;.&.;.&.;.&.;.&.;.&.;.&.;.&.&.l l l l l z z c c l l &.&.&.W i Y Y R R *.&.&.l l e Y 2.F.|.`.`.`.].~.p.E G G :.:.;.;.;.;.;.&.;.l l l l l l l l l l l l l l &.l l O.l O.l O.l ;.&.;.&.;.&.;.&.;.&.;.&.;.&.;.&.;.&.;.&.;.&.;.&.;.&.;.&.;.&.;.&.;.;.;.&.;.;.;.&.;.;.;.;.;.;.;.;.;.;.;.;.;.&.;.&.&.&.;.&.;.&.;.&.;.&.;.&.;.&.;.&.&.&.&.&.;.&.&.&.;.&.&.&.&.&.&.&.O.g O.l O.l O.l &.&.&.&.&.&.O.O.&.&.&.&.&.&.l l ;.;.;.;.;.;.;.;.;.l &.;.R 9 E 3.Q._.'.l.'.}.a.<.G *.;.;.&.&.>.:.&.&.&.&.&.l l l ;.;.;.;.;.&.;.;.&.&.&.&.&.&.&.&.&.&.&.&.&.l l l ;.&.&.&.;.;.;.&.;.;.;.;.;.;.;.;.&.&.&.&.&.&.&.&.;.;.;.;.;.;.;.;.;.;.;.;.;.;.;.;.",
"&.&.&.&.&.&.&.&.&.&.&.&.&.&.&.&.&.&.&.&.&.&.&.&.&.&.&.&.&.&.&.&.l l &.&.&.&.&.&.&.&.&.&.&.&.;.;.l l l l l l l l l l l l l l l &.O.O.&.l l l l &.:.*.e e e l x l G <.F.)._.P.P.P.`.G.Q.W.*.&.;.l e :.6.6.;.O.&.;.&.&.&.&.&.&.&.&.;.;.;.;.;.;.;.;.;.;.&.;.;.;.;.;.&.&.&.;.&.&.&.&.&.&.&.&.&.&.&.&.&.&.l l l l l l &.&.l l l l l l l l l l ;.;.&.&.l l l l l l l l &.&.&.&.&.&.&.l ;.;.;.;.;.;.;.;.&.&.&.&.&.&.&.&.&.&.&.&.&.&.;.;.&.&.&.&.&.&.&.&.&.&.&.&.&.&.;.;.&.&.l l l c c l l l l l l G R R 2.2.2.*.*.*.&.l ;.;.&.R 6.F.`.`.`.`.|.|.p.E G R G i g g h O.O.O.&.;.;.;.;.&.&.&.l l l &.&.&.&.&.;.;.;.;.;.;.;.;.;.;.;.;.;.;.;.;.l l l l h l l l l l l &.l l h h l l l l h h h l &.&.&.&.l &.&.l l l l l l l l l l l l l l l l l l l l l &.h h l l l l l l l l l &.&.&.&.;.&.&.&.&.&.&.&.&.&.&.&.;.;.;.;.;.;.;.;.;.;.;.;.;.;.;.;.;.;.;.;.;.&.l l l l l l l l l l &.g l ;.&.e E 7.W._.'.l.`.}.a.P e e &.&.O.&.:.,.&.&.&.&.l l l l l &.&.&.l &.&.&.l l l l l l l l l l l l l l l l &.&.&.&.&.&.&.&.&.&.&.&.&.&.&.&.&.&.&.*.&.&.&.&.&.&.&.&.&.&.&.&.&.&.&.&.&.&.&.&.",
"&.&.&.&.&.&.&.&.&.&.&.&.&.&.&.&.&.&.&.&.&.&.&.&.&.&.&.&.&.&.&.&.l l l l l l l l l l l l l l l l l l l l l l l l l l l l l l l &.:.#.h g &.;.*.R G *.6.-.e e >.l R H W.~.G._.I.P.P.Q.).W.*.&.>.l R R :.$Xq ;.&.;.&.&.&.&.&.&.;.;.;.;.;.;.;.;.c c ;.;.;.;.;.;.;.;.;.;.;.;.;.;.c c ;.;.;.;.;.;.c c ;.;.;.;.;.;.;.;.;.;.;.;.;.;.c c ;.c c c c c c c c c c c c c c c ;.;.;.;.;.;.c c ;.;.;.;.;.;.c c ;.;.;.;.;.;.;.;.;.;.;.;.;.;.;.;.;.;.;.;.;.;.;.;.;.;.;.;.;.;.;.;.&.&.&.;.c c c c l l ;.>.&.e *.m.!.~./.Q.W.*.D *.&.g *.9 E Q.`.`.`.`.`.).F.E G R ;.i &.;.l ;.:.&.&.&.&.&.&.&.&.&.&.&.&.&.&.&.&.&.;.;.;.;.;.;.;.;.;.;.;.;.;.;.;.;.;.;.;.;.;.;.;.;.;.;.;.;.;.;.;.;.;.;.;.;.;.;.c c ;.;.c c c ;.;.;.&.l l l l l c c c c c c l l l l &.;.;.;.;.;.;.;.;.;.;.;.;.;.c c ;.;.;.;.;.;.c c ;.;.;.;.c ;.;.;.;.;.;.;.;.;.c c ;.;.c ;.;.;.;.;.;.@.;.;.c l l l l l =.l l ;.&.g ;.h ;.l =.W A 7.).`.`.'.l.{.Q.P &.l &.&.;.q N.,.&.&.&.;.l l l l l l l l l l l l l l l c l l l l l l l l l l l l l l l l l l l &.&.&.&.&.&.&.&.&.&.&.&.&.&.&.&.&.&.&.&.&.&.&.&.&.&.&.&.&.&.&.&.&.",
"&.&.&.&.&.&.&.&.&.&.&.&.&.&.&.&.&.&.&.&.&.&.&.&.&.&.&.&.&.&.&.&.l l l l l l l l l l l l l l l l l l l l l l l l l l l l l l l &.#.#.O.O.&.&.R G 7.j./.j.*.&.>.l R H W.).G._.I.I.P.`.).m.*.&.;.l &.G -.$Xe ;.R ;.&.&.&.&.&.&.c c ;.;.;.;.;.;.;.c ;.;.;.;.;.;.;.;.;.;.;.;.;.;.c c ;.;.c ;.;.;.;.c ;.;.;.;.;.;.;.;.;.;.;.;.;.;.c c ;.c c c c c c c c c c c c c c c ;.;.;.;.;.;.c c ;.;.c ;.;.;.;.c ;.;.;.;.c c ;.;.;.;.;.;.c c ;.;.;.;.;.;.;.;.;.;.;.;.c c ;.;.;.;.&.&.;.;.;.c ;.;.;.h &.*.O.A <.W.Q.].`.Q.W.<.A *.&.O.*.C P Q.`.'.`.`.`.).F.E G R &.i l ;.l &.:.&.&.&.&.&.&.&.&.&.#.&.;.;.&.&.&.&.;.;.;.;.c c ;.;.;.;.;.;.c c ;.;.;.;.;.;.c c ;.;.;.;.;.;.c c ;.;.;.;.;.;.;.;.;.c ;.;.;.;.;.;.;.;.&.l l l l l c c l c c c l l l l ;.;.;.;.;.;.;.;.;.;.;.;.;.;.c c ;.;.;.;.;.;.;.c ;.;.;.;.;.;.;.;.;.;.;.;.;.;.c c ;.;.;.;.;.;.;.;.@.@.;.;.c c l l l l l l l ;.:.;.;.h ;.l =.W A m.).`.`.`.`.{.Q.+.*.l &.&.;.e B.6.R &.&.;.l l l l l l l l l l l l l l c c l l l l l l l l l l l l l l l l l l l &.&.&.&.&.&.&.&.&.&.&.&.&.&.&.&.&.&.&.&.&.&.&.&.&.&.&.&.&.&.&.&.&.",
"&.&.&.&.&.&.&.&.&.&.&.&.&.&.&.&.&.&.&.&.&.&.&.&.&.&.&.&.&.&.&.&.&.&.l l &.&.&.&.&.&.&.&.&.&.&.&.&.&.&.&.&.&.&.&.&.&.&.&.&.&.&.&.#.#.#.&.&.W R H /.Q.|.Q.*.*.;.l R H W.).G.`.I.I.I.`.|.W.*.l ;.l R G 6.$XG *.R *.&.&.l l l l l l ;.;.&.&.&.&.&.&.&.&.&.&.&.&.;.&.&.&.&.&.;.&.&.&.;.;.&.&.&.&.&.&.&.&.&.&.&.&.;.&.&.&.&.&.;.&.&.l ;.;.&.&.&.&.&.&.&.&.&.&.&.&.;.;.&.&.&.&.;.&.&.&.&.&.&.&.&.&.&.&.&.&.&.&.l &.&.&.&.&.&.&.l &.&.&.&.&.&.&.&.&.&.&.&.&.&.&.&.&.&.&.&.#.@.;.;.;.;.;.;.O.&.*.H F 1.Q.J.U.P.`.{.7.H +.*.G *.C ^ Q.P.'.`.`.`.|.F.E G W l i l ;.g &.>.&.&.&.&.&.&.&.&.&.&.&.&.&.&.&.&.&.&.&.&.&.l &.&.&.&.&.&.&.l &.&.&.&.&.&.&.l &.&.&.&.&.&.&.l &.&.&.;.;.&.&.&.&.&.&.&.&.&.&.&.&.;.&.&.&.&.&.&.&.&.&.&.&.&.&.&.&.&.&.&.&.&.&.&.&.;.;.&.&.&.&.;.&.&.&.;.;.&.&.&.&.&.&.&.&.&.&.&.&.;.;.&.&.&.&.;.&.&.&.;.&.&.&.&.&.&.;.@.@.;.;.;.c l l l l l i &.-.6.6.&.h ;.l &.W C 7.).`._.`.`.{.W.+.&.l ;.l ;.e V.6.G R W &.l l l l l &.&.&.&.&.&.&.&.&.&.&.&.&.&.&.&.&.&.&.&.&.&.&.&.&.&.&.&.&.&.&.&.&.&.&.&.&.&.&.&.&.&.&.&.&.&.&.&.&.&.&.&.&.&.&.&.&.&.&.&.&.&.&.",
"&.&.&.&.&.&.&.&.&.&.&.&.&.&.&.&.&.&.&.&.&.&.&.&.&.&.&.&.&.&.&.&.&.&.&.&.&.&.&.&.&.&.&.&.&.&.&.&.&.&.&.&.&.&.&.&.&.&.&.&.&.&.&.;.#.#.&.&.&.W R S Q.Q._.k.$.G l l R H ^.).P._.I.I.I.`.`.j.O.O.;.l R A 6.$X*.R R *.&.&.&.&.&.l l &.&.;.&.;.&.&.&.&.&.&.&.&.&.&.&.&.&.&.&.&.&.&.&.&.&.;.&.;.&.&.&.&.&.&.&.&.&.&.&.&.&.&.&.&.&.&.&.&.&.;.&.;.&.&.&.&.&.&.&.&.&.&.&.&.&.&.&.&.&.&.&.&.&.&.;.;.;.;.l &.&.&.&.&.l l &.&.&.&.&.&.l l &.&.&.&.&.&.l l &.&.&.&.&.&.&.l &.&.;.#.@.;.;.;.;.c ;.O.O.*.H H 3.|.P.I.I.I.|.W.<.H *.G *.C ^ Q.P.'.'.`.`.|.F.E G W a i l =.l l >.O.&.&.&.&.&.&.&.&.&.&.&.&.&.&.&.&.&.&.&.&.l l &.&.&.&.&.&.l l &.&.&.&.&.&.l &.&.&.&.&.&.&.l l l &.&.;.&.;.&.&.&.&.&.&.&.&.&.&.&.&.&.&.&.&.&.&.&.&.&.&.&.&.&.&.&.&.&.&.&.&.&.&.&.&.&.&.&.&.&.&.&.&.&.;.&.;.&.&.&.&.&.&.&.&.&.&.&.&.&.&.&.&.&.&.&.&.&.&.&.&.;.;.&.&.@.@.;.;.;.l l l l l i G *.6.W.W.:.O.;.&.*.W C 7.).`._.`.`.{.W.H R l ;.R *.G !.v.G R W &.l l l l l &.&.&.&.&.&.&.&.&.&.&.&.&.&.&.&.&.&.&.&.&.&.&.&.&.&.&.&.&.&.&.&.&.&.&.&.&.&.&.&.&.&.&.&.&.&.&.&.&.&.&.&.&.&.&.&.&.&.&.&.&.&.&.",
"&.&.;.;.c c &.&.&.&.c c c c &.&.&.&.;.;.c c &.&.&.&.c c c c &.&.&.&.;.;.;.;.&.&.;.;.&.&.&.&.;.;.&.&.;.;.;.;.&.&.;.;.&.&.&.&.;.;.#.#.;.l a a R E Q.`._.Q.<.&.x l R H ^.).P.}.z.'.'.`.`.p.G O.;.l *.C m.%X3.R R R R &.&.&.l l l &.&.&.&.&.&.&.&.&.&.&.&.&.&.&.&.&.&.&.&.&.&.&.&.&.&.&.&.&.&.&.&.&.&.&.&.&.&.&.&.&.&.&.&.&.&.&.&.&.&.&.&.&.&.&.&.&.&.&.&.&.&.&.&.&.&.&.&.&.&.&.&.&.&.&.&.&.&.&.&.&.&.&.&.&.&.&.&.&.&.&.&.&.&.&.&.&.&.&.&.&.&.&.&.&.&.&.&.&.&.&.&.&.;.#.&.&.;.c c c ;.l O.*.H H 7.].P.I.L.I. XQ.<.G W i *.C ^ Q.P.I.'.f.`.|.S.E G W a i =.>.g g &.O.&.&.*.*.*.&.&.&.&.&.*.*.*.&.&.&.&.&.&.&.&.&.&.&.&.&.&.&.&.&.&.&.&.&.&.&.&.&.&.&.&.&.&.&.&.&.&.&.&.&.&.&.&.&.&.&.&.&.&.&.&.&.&.&.&.&.&.&.&.&.&.&.&.&.&.&.&.&.&.&.&.&.&.&.&.&.&.&.&.&.&.&.&.&.&.&.&.&.&.&.&.&.&.&.&.&.&.&.&.&.&.&.&.&.&.&.&.&.&.&.&.&.&.&.&.&.&.&.;.;.;.;.;.c c l l &.G G -.B./.).*.O.;.R *.R C 7.).`._.`.Q.|.G.H G l &.e *.R (.m.G R R W W l l l &.&.&.&.&.&.&.&.&.&.&.&.&.&.&.&.&.&.;.;.;.;.&.&.;.;.&.&.&.&.;.;.&.&.;.;.;.c &.&.&.&.;.c c c &.&.&.&.;.;.;.;.&.&.&.&.;.;.;.;.&.&.",
"&.&.;.;.c c &.&.&.&.;.;.l c &.&.&.&.;.;.c c &.&.&.&.;.;.l c &.&.&.&.;.;.;.;.&.&.;.;.&.&.&.&.;.;.&.&.;.;.;.;.&.&.;.;.&.&.&.&.;.;.#.&.&.l a a R E ].`.}.`.<.G x x R H /.|.`.}.z.'.z.l.`.p.G g ;.&.Q C H.%Xm.R R R R R &.&.l l l &.&.&.&.&.&.&.&.&.&.&.&.&.&.&.&.&.&.&.&.&.&.&.&.&.&.&.&.&.&.&.&.&.&.&.&.&.&.&.&.&.&.&.&.&.&.&.&.&.&.&.&.&.&.&.&.&.&.&.&.&.&.&.&.&.&.&.&.&.&.&.&.&.&.&.&.&.&.&.&.&.&.&.&.&.&.&.&.&.&.&.&.&.&.&.&.&.&.&.&.&.&.&.&.&.&.&.&.&.&.&.&.&.&.&.&.&.c c c c l l i *.G H 5.].K.I.L.K.[.Q.<.G W i *.9 ^ ~.G.P.'.g.`.`.S.E A W a a =.>.l O.>.&.&.&.&.&.&.&.&.&.&.&.&.&.&.&.&.&.&.&.&.&.&.&.&.&.&.&.&.&.&.&.&.&.&.&.&.&.&.&.&.&.&.&.&.&.&.&.&.&.&.&.&.&.&.&.&.&.&.&.&.&.&.&.&.&.&.&.&.&.&.&.&.&.&.&.&.&.&.&.&.&.&.&.&.&.&.&.&.&.&.&.&.&.&.&.&.&.&.&.&.&.&.&.&.&.&.&.&.&.&.&.&.&.&.&.&.&.&.&.&.&.&.&.&.&.&.&.&.&.;.;.;.;.;.l l l &.R G H <.W.|.).*.O.:.R W R C 7.|.`._.`.Q.|.G.H e i *.e W E XXm.H R R W W l l l &.&.&.&.&.&.&.&.&.&.&.&.&.&.&.&.&.&.;.&.;.;.&.&.;.;.&.&.&.&.;.;.&.&.;.&.;.;.&.&.&.&.;.;.l c &.&.&.&.;.&.;.;.&.&.&.&.;.;.&.;.&.&.",
"&.&.&.&.c ;.;.&.&.;.;.;.l &.&.&.&.&.&.&.c ;.;.&.&.;.;.;.l &.&.&.&.&.&.;.;.;.&.&.;.&.&.&.&.;.;.;.&.&.&.;.;.&.&.&.;.&.&.&.&.;.;.;.O.&.l z s p W Q ~.G._.`.<.e u u R H /.|.`.}.z.'.z.l.`.p.O.g ;.;.Q n !.aX!.R E Y R R &.&.&.&.&.&.&.*.&.*.*.*.*.&.&.&.*.*.*.&.&.&.*.*.&.&.&.&.*.*.*.*.*.*.*.*.&.*.*.*.*.*.&.&.&.&.*.*.*.*.*.*.*.&.&.&.&.&.&.&.&.&.&.&.&.&.&.&.&.&.*.*.&.&.&.&.*.*.*.&.*.*.*.*.*.*.*.&.&.&.*.*.*.*.*.&.&.&.*.*.*.*.*.&.&.&.*.*.*.*.*.&.&.&.*.*.*.&.&.&.l l c c c c z l i W G R 6.~.K.I.L.D.].J.^ Y W p W y E ~.J.P.I.g.`.`.S.E A W a a =.,.&.l ;.&.&.l l l l l l l l l l l l l l l &.&.&.&.*.*.*.*.*.&.&.&.*.*.*.*.*.&.&.&.&.*.*.*.&.&.&.&.*.*.*.*.*.*.*.*.*.*.*.&.&.&.*.*.*.&.&.&.&.&.&.&.&.&.&.&.&.&.&.&.&.&.&.&.&.&.*.*.*.&.*.&.*.*.&.&.&.&.*.*.*.*.*.*.*.*.&.&.&.&.*.*.*.&.*.&.*.*.&.&.*.*.*.*.&.&.*.*.*.*.*.&.@.;.;.;.l l &.&.&.R G *.7.Q.{./.<.O.:.R W R C 7.].P.`.`.Q.|.F.E e i *.9 E Q XXH.S Y R R R l l x &.&.&.&.&.&.&.&.&.&.&.&.&.&.&.&.&.&.&.&.;.;.;.&.;.&.&.&.&.;.;.;.&.&.&.&.;.c c l &.;.;.;.l l &.&.&.&.&.&.;.;.;.&.&.;.;.;.&.&.&.&.",
"&.&.&.&.;.;.&.&.&.&.;.;.l l &.&.&.&.&.&.;.;.&.&.&.&.;.;.l l &.&.&.&.&.&.;.;.&.&.;.;.&.&.;.;.;.;.&.&.&.&.;.;.&.&.;.;.&.&.;.;.;.;.&.;.z u s p W 2.].P._.`.6.G z x R H /.`.P._.g.'.g.l.Q.7.G g ;.;.*.m ~.aX).S W Y R *.*.&.&.&.&.&.&.&.*.&.*.&.*.&.&.&.*.&.*.&.&.&.*.&.*.&.&.&.*.&.*.&.*.&.*.&.*.&.&.&.&.&.&.&.&.&.&.&.&.&.&.&.&.&.&.&.&.&.&.&.&.&.&.&.&.&.&.&.&.&.&.&.*.&.&.&.*.&.*.&.&.&.*.&.*.&.&.&.&.&.*.*.*.&.&.&.&.&.*.*.*.&.&.&.&.&.*.*.&.&.&.&.&.&.*.*.&.&.&.&.l l c c c c z u i &.R G 2.J.K.Y.K.D.U.F.<.G W p W y Q ~.J.P.I.g.I.`.a.E Y W a a >.,.*.&.;.;.l l l l l l l l l l l l l l l &.&.&.&.&.*.*.*.&.&.&.&.&.*.*.*.&.*.&.&.&.*.*.*.&.*.&.&.&.*.*.*.&.*.&.*.&.*.&.*.&.&.&.*.&.*.&.&.&.&.&.&.&.&.&.&.&.&.&.&.&.&.&.&.&.&.&.*.&.*.&.&.&.&.&.&.&.&.&.&.&.*.&.*.&.*.&.*.&.&.&.*.&.*.&.&.&.&.&.&.&.&.&.&.&.&.&.&.&.&.&.&.&.&.;.;.&.&.&.&.&.i R E *.i.Q._.Q.<.O.*.R *.E C 7.].P.`.P.G.|.F.E e &.&.9 E Q @XH.A Y R W &.&.l l &.&.&.&.&.&.&.&.&.&.&.&.&.&.&.&.&.&.&.&.;.;.&.&.;.;.&.&.;.;.;.;.&.&.&.&.c c l l &.&.;.;.l l &.&.&.&.&.&.;.;.&.&.&.&.;.;.&.&.&.&.",
"&.&.&.&.&.&.&.&.&.&.&.&.&.&.&.&.&.&.&.&.&.&.&.&.&.&.&.&.&.&.&.&.&.&.&.&.&.&.&.&.&.&.&.&.&.&.&.&.&.&.&.&.&.&.&.&.&.&.&.&.&.&.&.&.;.;.l l =.i R m.Q.`.{.Q.<.&.l l E H /.`.P._.`.'.I.`.Q.1.E *.l i W C `.pX#XS y a &.&.@.@.;.&.&.&.&.&.&.&.&.&.&.&.&.&.&.&.&.&.&.&.&.&.&.&.&.&.&.&.&.&.&.&.&.&.&.&.&.&.;.&.;.&.;.&.&.&.&.&.;.&.&.&.&.&.&.&.&.&.&.&.&.&.&.&.&.&.&.&.&.&.&.&.&.&.&.&.&.&.&.&.&.&.&.&.&.&.&.&.&.&.&.&.&.&.&.&.&.&.&.&.&.&.&.&.&.&.&.&.&.&.&.&.&.&.&.&.&.&.&.&.;.;.c c v u x =.9 R S.].P.P.K.P.].F.<.R R &.i Y m.~.P.P.L.L.I.`.a.E G a a i 2.(.A *.l l l &.&.&.&.&.&.&.&.&.&.&.&.&.&.&.&.&.&.&.&.&.&.&.&.&.&.&.&.&.&.&.&.&.&.&.&.&.&.&.&.&.&.&.&.&.&.&.&.&.&.&.&.&.&.&.&.&.&.&.&.&.&.&.&.*.&.&.&.&.&.&.l l &.&.R i i i &.&.&.&.&.&.&.&.;.;.;.&.&.&.;.&.&.&.&.&.&.&.&.&.&.&.&.&.&.&.&.&.&.&.&.&.&.&.&.&.&.&.&.&.&.&.&.&.l l ;.;.;.&.&.&.&.W G *.W.Q.P.`.5.G R *.&.*.G 7.~.G.P.P.P.|.F.H O.l =.i A ^ #XH.Y y a &.*.*.l x &.&.&.&.&.&.&.&.&.&.&.&.&.&.&.&.&.&.&.&.&.&.&.&.&.&.&.&.&.&.&.&.&.&.&.&.;.;.&.&.&.&.;.;.&.&.&.&.&.&.&.&.&.&.&.&.&.&.&.&.&.&.&.&.",
"&.&.&.&.&.&.&.&.&.&.&.&.&.&.&.&.&.&.&.&.&.&.&.&.&.&.&.&.&.&.&.&.&.&.&.&.&.&.&.&.&.&.&.&.&.&.&.&.&.&.&.&.&.&.&.&.&.&.&.&.&.&.&.&.c ;.c ;.;.G E p.`.`.|.Q.*.&.;.l H H /.`.P._.I.I.P.`.Q.6.E W l i a C `.jXiXS y x l ;.@.@.;.&.&.&.&.&.&.&.&.&.&.&.&.&.&.&.&.&.&.&.&.&.&.&.&.&.&.&.&.&.&.&.&.&.&.&.&.&.;.;.c c l c &.&.c c &.l &.&.&.&.&.&.&.&.&.&.&.&.&.&.&.&.&.&.&.&.&.&.&.&.&.&.&.&.&.&.&.&.&.&.&.&.&.&.&.&.&.&.&.&.&.&.&.&.&.&.l &.&.&.&.l l l l &.&.&.&.l l &.&.&.&.&.;.;.;.c x u x =.e E F.].P.P.P.P.|.F.<.R R *.Y R m.~.P.P.L.K.I._.a.*.e a a i 2./.H G l c l &.&.&.&.&.&.&.&.&.&.&.&.&.&.&.&.&.&.&.&.&.&.&.&.&.&.&.&.&.&.&.&.&.&.&.&.&.&.&.&.&.&.&.&.&.&.&.&.&.&.&.&.&.&.&.&.&.&.&.&.&.&.&.&.&.&.&.&.&.&.&.&.&.&.&.W W a &.&.&.&.&.&.&.&.&.;.;.;.;.;.;.;.;.&.&.&.&.&.&.&.&.&.&.&.&.&.&.&.&.&.&.&.&.l l &.&.&.&.l l &.&.&.l l l &.&.;.;.&.&.;.W i E F.Q.P.`.5.G R *.;.&.G 7.~.D.P.P.P.|.W.H #.l =.y S ! aXJ.Y a l &.*.*.l x &.&.&.&.&.&.&.&.&.&.&.&.&.&.&.&.&.&.&.&.&.&.&.&.&.&.&.&.&.&.&.&.&.&.&.&.;.;.;.&.&.&.;.;.&.&.&.&.&.&.&.&.&.&.&.&.&.&.&.&.&.&.&.&.",
"&.&.&.&.&.&.&.&.&.&.&.&.&.&.&.&.&.&.&.&.&.&.&.&.&.&.&.&.&.&.&.&.&.&.&.&.&.&.&.&.&.&.&.&.&.&.&.&.&.&.&.&.&.&.&.&.&.&.&.&.&.&.&.&.c c c ;.;.G E F.`.Q.|.Q.<.O.;.l H H /.`.P._.I.I.P.`.F.1.R W ;.a a C }.jXiXS y x l ;.@.@.;.&.&.&.&.&.&.&.&.&.&.&.&.&.&.&.&.&.&.&.&.&.&.&.&.&.&.&.&.&.&.&.&.&.&.&.&.&.&.;.&.&.&.&.;.;.&.&.&.;.;.&.&.&.&.&.&.&.&.&.&.&.&.&.;.&.&.&.&.&.&.&.&.&.&.&.&.&.&.&.&.&.&.&.&.&.&.&.&.&.&.&.&.&.&.&.&.&.&.&.l l &.&.&.&.&.&.l l &.&.&.&.&.&.&.&.&.&.&.&.;.c ;.l l &.G E F.].P.P.P.P.|.F.<.R R *.Y R m.~.P.P.L.K.I._.a.<.i a a i 6.).H *.l c l &.&.&.&.&.&.&.&.&.&.&.&.&.&.&.&.&.&.&.&.&.&.&.&.&.&.&.&.&.&.&.&.&.&.&.&.&.&.&.&.&.&.&.&.&.&.&.&.&.l &.&.&.&.&.&.&.&.&.&.&.&.&.&.&.&.&.&.&.&.&.&.&.&.&.a a W &.&.&.&.&.&.&.&.&.;.;.;.;.;.;.;.;.&.&.&.&.&.&.&.&.&.&.&.&.&.&.&.&.&.&.&.&.l &.&.&.&.&.l &.&.&.&.l l l &.&.&.&.&.&.;.W i E W.Q.P.`.5.G *.&.;.&.H 7.~.K.P.P.J.|.W.H #.l =.y S / aX~.Y a l &.*.+.&.l &.&.&.&.&.&.&.&.&.&.&.&.&.&.&.&.&.&.&.&.&.&.&.&.&.&.&.&.&.&.&.&.&.&.;.&.;.;.&.&.&.&.;.;.;.;.&.&.&.&.&.&.&.&.&.&.&.&.&.&.&.&.&.&.",
"&.&.&.&.&.&.&.&.&.&.&.&.&.&.&.&.&.&.&.&.&.&.&.&.&.&.&.&.&.&.&.&.&.&.&.&.&.&.&.&.&.&.&.&.&.&.&.&.&.&.&.&.&.&.&.&.&.&.&.&.&.&.&.&.c c l &.;.R E W.`.`._.W.<.O.;.l H H /.`.P._.I.I.P.`.F.1.R &.;.l l G  XjXiXK R x l ;.@.@.;.&.&.*.&.&.&.&.&.&.&.&.&.&.&.&.&.&.&.&.&.&.&.&.&.&.&.&.&.&.&.&.&.&.&.&.&.&.&.;.&.&.&.&.;.;.&.&.&.&.;.&.&.&.&.&.&.&.&.&.&.&.&.&.;.&.&.&.&.&.&.&.&.&.&.&.&.&.&.&.&.&.&.&.&.&.&.&.&.&.&.&.&.&.&.&.&.&.&.&.&.l &.&.&.&.&.&.&.l &.&.&.&.&.&.&.&.&.&.&.&.;.c l l l W G E W.~.P.P.P.P.|.F.<.R R *.Y R m.~.P.P.L.K.I._.a.<.i a a Y 6.|.+.*.l c l &.&.&.&.&.&.&.&.&.&.&.&.&.&.&.&.&.&.&.&.&.&.&.&.&.&.&.&.&.&.&.&.&.&.&.&.&.&.&.&.&.&.&.&.&.&.&.&.&.&.&.&.&.&.&.&.&.&.&.&.&.&.&.&.&.&.&.&.&.&.&.&.&.&.R i a W W &.&.&.&.&.&.&.&.;.;.;.;.;.;.;.&.;.&.&.&.&.&.&.&.&.&.&.&.&.&.&.&.&.&.&.&.&.&.&.&.&.&.&.&.&.&.&.l l l &.&.&.&.&.&.;.R i E F.Q.P.`.7.G *.&.&.*.H 7.].K.P.P.J.|.W.H #.&.=.y S / aX~.Y a l &.*.+.&.l &.&.&.&.&.&.&.&.&.&.&.&.&.&.&.&.&.&.&.&.&.&.&.&.&.&.&.&.&.&.&.&.&.&.;.;.;.;.&.&.&.&.;.;.;.;.&.&.&.&.&.&.&.&.&.&.&.&.&.&.&.&.&.&.",
"&.&.&.&.&.&.&.&.&.&.&.&.&.&.&.&.&.&.&.&.&.&.&.&.&.&.&.&.&.&.&.&.&.&.&.&.&.&.&.&.&.&.&.&.&.&.&.&.&.&.&.&.&.&.&.&.&.&.&.&.&.&.&.&.c ;.l &.*.R ^ Q.`.Q.{.Q.<.*.;.R H H /.`.`._.I._.P._.F.1.R &.;.l l H 8XjXpX! R a &.&.@.@.c l *.&.&.&.&.&.&.&.&.&.&.&.&.&.&.&.&.&.&.&.&.&.&.&.&.&.&.&.&.&.&.&.&.&.&.&.&.&.&.&.&.&.&.&.&.&.&.&.&.&.&.&.&.&.&.&.&.&.&.&.&.&.;.;.;.;.&.&.&.&.&.&.&.&.&.&.&.&.&.&.&.&.&.&.&.&.&.&.&.&.&.&.&.&.&.&.&.&.&.&.&.&.&.&.&.&.&.&.&.&.&.&.&.&.&.&.&.&.&.&.&.;.l l l W G <.W.~.P.P.P.P.|.F.<.R R *.Y Y m.~.P.P.L.K.I._.a.*.i a a Y 6.@X<.*.l v l &.&.&.&.&.&.&.&.&.&.&.&.&.&.&.&.&.&.&.&.&.&.&.&.&.&.&.&.&.&.&.&.&.&.&.&.&.&.&.&.&.&.&.&.&.&.&.&.&.&.&.&.&.&.&.&.&.&.&.&.&.&.&.&.&.&.&.&.&.&.&.&.&.R R R R R R &.&.&.&.&.&.&.&.&.&.&.&.;.;.;.;.&.&.&.&.&.&.&.&.&.&.&.&.&.&.&.&.&.&.&.&.&.&.&.&.&.&.&.&.&.&.&.&.l l &.&.&.&.&.&.&.R e E W.Q.P.`.7.G W *.&.*.H m.].P.P.P.J.|.W.H #.&.=.y Y / sX].Y a l &.*.+.&.l &.&.&.&.&.&.&.&.&.&.&.&.&.&.&.&.&.&.&.&.&.&.&.&.&.&.&.&.&.&.&.&.&.&.&.&.&.&.&.&.&.&.&.&.&.&.&.&.&.&.&.&.&.&.&.&.&.&.&.&.&.&.&.&.",
"&.&.&.&.&.&.&.&.&.&.&.&.&.&.&.&.&.&.&.&.&.&.&.&.&.&.&.&.&.&.&.&.&.&.&.&.&.&.&.&.&.&.&.&.&.&.&.&.&.&.&.&.&.&.&.&.&.&.&.&.&.&.&.&.;.;.l &.*.R <.Q.`.`.{.Q.<.R ;.R +.H /.`.P._.I._.I._.F.<.G R ;.l l E 8XjXpX! R p &.;.@.@.c l *.*.&.&.&.&.&.&.&.&.&.&.&.&.&.&.&.&.&.&.&.&.&.&.&.&.&.&.&.&.&.&.&.&.&.&.&.&.&.&.&.&.l l &.&.&.&.&.l &.&.&.&.&.&.&.&.&.&.&.&.;.;.;.;.&.&.&.&.&.&.&.&.&.&.&.&.&.&.&.&.&.&.&.&.&.&.&.&.&.&.&.&.&.&.&.&.&.&.&.&.&.&.&.&.&.&.&.&.&.&.&.&.&.&.&.&.&.&.&.&.l l &.R G 6./.`.P.P.P.P.|.F.<.R R *.i Y m.~.P.P.L.K.I._.a.*.i a a A 1.#X<.*.l v &.&.&.&.&.&.&.&.&.&.&.&.&.&.&.&.&.&.&.&.&.&.&.&.&.&.&.&.&.&.&.&.&.&.&.&.&.&.&.&.&.&.&.&.&.&.&.&.&.&.&.&.&.&.&.&.&.&.&.&.&.&.&.&.&.&.&.&.&.&.&.&.R &.R *.*.*.R R &.&.&.&.&.&.&.&.&.&.&.&.;.;.;.&.&.&.&.&.&.&.&.&.&.&.&.&.&.&.&.&.&.&.&.&.&.&.&.&.&.&.&.&.&.&.&.&.l l &.&.&.&.&.&.&.R e E W.Q.P.`.7.G R &.&.*.H S.~.P.P.P.P.|.F.A +.&.=.y Y ) sX@XR a l &.+.+.&.l &.&.&.&.&.&.&.&.&.&.&.&.&.&.&.&.&.&.&.&.&.&.&.&.&.&.&.&.&.&.&.&.&.&.&.&.&.&.&.&.&.&.&.&.&.&.&.&.&.&.&.&.&.&.&.&.&.&.&.&.&.&.&.&.",
"&.&.&.&.&.&.&.&.&.&.&.&.&.&.&.&.&.&.&.&.&.&.&.&.&.&.&.&.&.&.&.&.&.&.&.&.&.&.&.&.&.&.&.&.&.&.&.&.&.&.&.&.&.&.&.&.&.&.&.&.&.&.&.&.;.c l &.*.E 1.).`.`.{.Q.<.G ;.R +.H /.`.P._.I.`.P._.G.<.G R ;.l &.E 8XkXpX~ W p l #.@.@.l l *.*.&.&.&.&.&.&.&.&.&.&.&.&.&.&.&.&.&.&.&.&.&.&.&.&.&.&.&.&.&.&.&.&.&.l &.&.&.&.l l l l &.&.&.&.l l &.&.&.&.&.&.&.&.&.&.&.&.&.&.;.;.&.&.&.&.&.&.&.&.&.&.&.&.&.&.&.&.&.&.&.&.&.&.&.&.&.&.&.&.&.&.&.&.&.&.&.&.&.&.l l &.&.&.&.l &.l l &.&.&.&.&.&.&.&.;.x ;.R G 6.Q.`.P.P.P.P.|.F.<.R R &.i Y m.~.P.I.K.K.I._.a.*.G a W A 1.#X1.H i x &.&.&.&.&.&.&.&.&.&.&.&.&.&.&.&.&.&.&.&.&.&.&.&.&.&.&.&.&.&.&.&.&.&.&.&.&.&.&.&.&.&.&.&.&.&.&.&.&.&.&.&.&.&.&.&.&.&.&.&.&.&.&.&.&.&.&.&.&.&.*.*.R *.*.-.:.*.*.R &.&.&.&.&.&.&.&.&.&.&.;.;.;.&.&.&.&.&.&.&.&.&.&.&.&.&.&.&.&.&.&.&.&.&.&.&.&.&.&.&.&.&.&.&.&.&.&.l l &.&.@.@.&.&.&.R e Q W.Q.f.`.7.G R &.&.*.H S.].P.P.P.P.|.F.A &.&.=.y T ) sX+XR W &.&.+.+.l x &.&.&.&.&.&.&.&.&.&.&.&.&.&.&.&.&.&.&.&.&.&.&.&.&.&.&.&.&.&.&.&.&.&.&.&.&.&.&.&.&.&.&.&.&.&.&.&.&.&.&.&.&.&.&.&.&.&.&.&.&.&.&.&.",
"&.&.&.&.&.&.&.&.&.&.&.&.&.&.&.&.&.&.&.&.&.&.&.&.&.&.&.&.&.&.&.&.&.&.&.&.&.&.&.&.&.&.&.&.&.&.&.&.&.&.&.&.&.&.&.&.&.&.&.&.&.&.&.&.&.c l &.*.E 1.).`.`._.W.<.G &.R H H /.`.P._.I._.P._.G.<.G R ;.l &.E 9XkXpX/ W p l O.@.@.c l &.*.&.&.&.&.&.&.&.&.&.&.&.&.&.&.&.&.&.&.&.&.&.&.&.&.&.&.&.&.&.&.&.&.l l &.&.&.l l l l &.&.&.&.&.l l &.&.&.&.&.&.&.&.&.&.&.&.&.&.&.&.&.&.&.&.&.&.&.&.&.&.&.&.&.&.&.&.&.&.&.&.&.&.&.&.&.&.&.&.&.&.&.&.l &.&.&.&.&.l l l &.&.&.l l l l &.&.&.&.&.&.&.&.;.l &.R G 5.Q.P.P.P.P.P.|.F.<.R R &.i Y m.~.P.I.K.K.I.}.k.*.G a W A 1.#X1.H i =.&.&.&.&.&.&.&.&.&.&.&.&.&.&.&.&.&.&.&.&.&.&.&.&.&.&.&.&.&.&.&.&.&.&.&.&.&.&.&.&.&.&.&.&.&.&.&.&.&.&.&.&.&.&.&.&.&.&.&.&.&.&.&.&.&.&.&.&.&.&.&.*.R *.-.-.-.-.*.R R &.&.&.&.&.&.&.&.&.&.;.;.;.&.&.&.&.&.&.&.&.&.&.&.&.&.&.&.&.&.&.&.&.&.&.&.&.&.&.&.&.&.&.&.&.&.&.l l &.&.@.@.&.&.&.R e Q W.Q.f.`.m.G R &.&.*.H S.].P.P.P.P.].F.A &.l =.y T  .lX+XR W &.&.+.+.l x &.&.&.&.&.&.&.&.&.&.&.&.&.&.&.&.&.&.&.&.&.&.&.&.&.&.&.&.&.&.&.&.&.&.&.&.&.&.&.&.&.&.&.&.&.&.&.&.&.&.&.&.&.&.&.&.&.&.&.&.&.&.&.&.",
"&.&.&.&.&.&.&.&.&.&.&.&.&.&.&.&.&.&.&.&.&.&.&.&.&.&.&.&.&.&.&.&.&.&.&.&.&.&.&.&.&.&.&.&.&.&.&.&.&.&.&.&.&.&.&.&.&.&.&.&.&.&.&.&.;.g &.*.G E m.~.`.`._.W.<.G &.&.H H /.`.P._.I._.P.|.S.^ E &.l l i H pXkXpX) 9 a &.&.@.@.;.l &.*.&.&.&.&.&.&.&.&.&.&.&.&.&.&.&.&.&.&.&.&.&.&.&.&.&.&.&.&.&.&.&.&.l &.&.&.&.&.&.l l &.&.&.&.&.&.&.&.&.&.&.&.&.&.&.&.&.&.&.&.&.&.&.&.&.&.&.&.&.&.&.&.&.&.&.&.&.&.&.&.&.&.&.&.&.&.&.&.&.&.&.&.&.&.&.l l &.&.&.&.l l &.&.&.&.&.&.&.&.l &.&.&.&.&.&.&.l l ;.R A 5.`.P.U.P.P.P.|.Q.H *.*.&.Y W H.~.P.P.P.K.P._.k.*.G l y Y 5.#XQ.Z R l &.&.&.&.&.&.&.&.&.&.&.&.&.&.&.&.&.&.&.&.&.&.&.&.&.&.&.&.&.&.&.&.&.&.&.&.&.&.&.&.&.&.&.&.&.&.&.&.&.&.&.&.&.&.&.&.&.&.&.&.&.&.&.&.g &.;.*.G G R *.-.-.-.-.-.-.2.-.R &.&.R R i &.&.&.&.&.&.&.&.&.&.&.&.&.&.&.&.&.&.&.&.&.&.&.&.&.&.&.&.R &.&.*.*.*.&.&.&.*.&.&.&.&.l l &.&.;.&.O.g &.R G *.W.~.P.`.7.G *.&.&.*.H 7.~.P.K.P._.~.7.H &.;.l y S G.pXiXE R &.&.+.O.l x &.&.&.&.&.&.&.&.&.&.&.&.&.&.&.&.&.&.&.&.&.&.&.&.&.&.&.&.&.&.&.&.&.&.&.&.&.&.&.&.&.&.&.&.&.&.&.&.&.&.&.&.&.&.&.&.&.&.&.&.&.&.&.&.",
"&.&.&.&.&.&.&.&.&.&.&.&.&.&.&.&.&.&.&.&.&.&.&.&.&.&.&.&.&.&.&.&.&.&.&.&.&.&.&.&.&.&.&.&.&.&.&.&.&.&.&.&.&.&.&.&.&.&.&.&.&.&.&.&.;.e l *.G E S.~.`.`._.W.<.G &.R H H /.`.P._.I.I.P.|.S.E Q &.l l R ^ pXkXpX) y a R &.@.@.&.l &.&.&.&.&.&.&.&.&.&.&.&.&.&.&.&.&.&.&.&.&.&.&.&.&.&.&.&.&.&.&.&.&.&.l &.&.&.&.&.&.l l l &.&.&.&.&.&.&.&.&.&.&.&.&.&.&.&.&.&.&.&.;.&.&.&.&.&.&.&.&.&.&.&.&.&.&.&.&.&.&.&.&.&.&.&.&.&.&.&.&.&.&.&.&.&.l l &.&.&.&.l l &.&.&.&.&.&.&.&.l &.&.&.&.&.;.&.&.&.;.R A 3.`.P.I.P.P.P.|.Q.H *.*.&.Y W H.~.P.P.P.P.`._.k.*.G l y Y 3.iX|.F R l &.&.&.&.&.&.&.&.&.&.&.&.&.&.&.&.&.&.&.&.&.&.&.&.&.&.&.&.&.&.&.&.&.&.&.&.&.&.&.&.&.&.&.&.&.&.&.&.&.&.&.&.&.&.&.&.&.&.&.&.&.&.&.&.&.&.*.&.R G R *.-.-.-.2.2.2.2.-.*.&.&.&.R &.&.&.&.&.&.&.&.&.&.&.&.&.&.&.&.&.&.&.&.&.&.&.&.&.&.&.&.R R R &.&.&.&.R R R R R R R i l l l &.;.&.&.&.&.R G *.~.~.P.`.7.G *.*.&.*.H 7.~.P.K.P.].~.7.H &.&.x y S P.pXiXE R &.&.+.O.l x &.&.&.&.&.&.&.&.&.&.&.&.&.&.&.&.&.&.&.&.&.&.&.&.&.&.&.&.&.&.&.&.&.&.&.&.&.&.&.&.&.&.&.&.&.&.&.&.&.&.&.&.&.&.&.&.&.&.&.&.&.&.&.&.",
"&.&.&.&.&.&.&.&.&.&.&.&.&.&.&.&.&.&.&.&.&.&.&.&.&.&.&.&.&.&.&.&.&.&.&.&.&.&.&.&.&.&.&.&.&.&.&.&.&.&.&.&.&.&.&.&.&.&.&.&.&.&.&.&.;.g &.*.G E S.~.`.`._.W.<.G *.R H H /.`.P._.I.I.P.|.S.E E &.l l Y ^ jXkXpX .Y a R &.+.@.&.l R R &.&.&.&.&.&.&.&.&.&.&.&.&.&.&.&.&.&.&.&.&.&.&.&.&.&.&.&.&.&.&.&.&.&.&.&.&.&.&.&.&.&.&.&.&.&.&.&.&.&.&.&.&.&.&.&.&.&.&.&.;.;.;.;.&.&.&.&.&.&.&.&.&.&.&.&.&.&.&.&.&.&.&.&.&.&.&.&.&.&.&.&.&.&.&.&.&.&.&.&.&.&.l &.l &.l l &.&.&.&.l &.&.&.;.;.;.;.&.&.;.R F 7.`.P.P.P.P.P.|.Q.H *.R &.i W H.~.P.P.P.P.`._.k.*.G l y A 3.iX|.F R &.&.&.&.&.&.&.&.&.&.&.&.&.&.&.&.&.&.&.&.&.&.&.&.&.&.&.&.&.&.&.&.&.&.&.&.&.&.&.&.&.&.&.&.&.&.&.&.&.&.&.&.&.&.&.&.&.&.&.&.&.&.&.&.&.&.&.*.&.R R *.-.2.2.2.2.2.2.<.2.*.&.W R &.&.&.&.&.&.&.&.&.&.&.&.&.&.&.&.&.&.&.&.&.&.&.&.&.&.&.&.&.R &.&.R &.&.R &.&.*.*.&.&.&.&.l l l &.;.;.&.&.&.R G -.!.~.G.`.7.G R &.&.*.H 7.~.P.K.P._.~.7.H &.&.l 9 S P.sXiX^ R &.&.+.O.l l &.&.&.&.&.&.&.&.&.&.&.&.&.&.&.&.&.&.&.&.&.&.&.&.&.&.&.&.&.&.&.&.&.&.&.&.&.&.&.&.&.&.&.&.&.&.&.&.&.&.&.&.&.&.&.&.&.&.&.&.&.&.&.&.",
"&.&.&.&.&.&.&.&.&.&.&.&.&.&.&.&.&.&.&.&.&.&.&.&.&.&.&.&.&.&.&.&.&.&.&.&.&.&.&.&.&.&.&.&.&.&.&.&.&.&.&.&.&.&.&.&.&.&.&.&.&.&.&.&.;.l &.*.G E F.~.`.P._.G.P G *.R H H /.`.P._.I.I.P.|.S.E E &.l l G ^ jXkXpX .Y y R &.+.&.&.l R R &.&.&.&.&.&.&.&.&.&.&.&.&.&.&.&.&.&.&.&.&.&.&.&.&.&.&.&.&.&.&.&.&.&.&.&.&.&.&.&.&.&.&.&.&.&.&.&.&.&.&.&.&.&.&.&.&.&.&.&.;.;.;.;.&.&.&.&.&.&.&.&.&.&.&.&.&.&.&.&.&.&.&.&.&.&.&.&.&.&.&.&.&.&.&.&.&.&.&.&.&.&.&.&.l l l l &.&.&.&.l &.&.&.@.;.;.;.&.l *.R H p.{.P.P.K.P.P.|.Q.H E R &.R Q H.~.P.P.P.P.`._.k.*.G &.W A 1.aX XH R &.&.&.&.&.&.&.&.&.&.&.&.&.&.&.&.&.&.&.&.&.&.&.&.&.&.&.&.&.&.&.&.&.&.&.&.&.&.&.&.&.&.&.&.&.&.&.&.&.&.&.&.&.&.&.&.&.&.&.&.&.&.&.&.&.*.*.*.R R *.*.-.2.2.2.<.<.<.<.2.*.*.*.W &.&.&.&.&.&.&.&.&.&.&.&.&.&.&.&.&.&.&.&.&.&.&.&.&.&.&.&.&.&.&.&.R R R R &.&.*.*.*.*.*.&.l l l &.&.;.&.&.&.R Y -.!.).G.`.7.G R &.&.*.H S.~.P.K.P._.~.7.H ;.&.l y K U.lXiX<.R &.&.+.O.l x &.&.&.&.&.&.&.&.&.&.&.&.&.&.&.&.&.&.&.&.&.&.&.&.&.&.&.&.&.&.&.&.&.&.&.&.&.&.&.&.&.&.&.&.&.&.&.&.&.&.&.&.&.&.&.&.&.&.&.&.&.&.&.&.",
"&.&.&.&.&.&.&.&.&.&.&.&.&.&.&.&.&.&.&.&.&.&.&.&.&.&.&.&.&.&.&.&.&.&.&.&.&.&.&.&.&.&.&.&.&.&.&.&.&.&.&.&.&.&.&.&.&.&.&.&.&.&.&.&.&.g &.*.A ^ F.~.`.P.`.a.P G *.R H H /.`.P._.I.I.P.|.a.H R &.l &.G / jXkXjXr.Y y R *.#.#.l l R R &.&.&.&.&.&.&.&.&.&.&.&.&.&.&.&.&.&.&.&.&.&.&.&.&.&.&.&.&.&.&.&.&.&.&.&.&.&.&.&.&.&.&.&.&.&.l l &.&.&.&.&.&.&.&.&.&.&.&.;.&.&.&.&.&.&.&.&.&.&.&.&.&.&.&.&.&.&.&.&.&.&.&.&.&.&.&.&.&.&.&.&.&.&.&.l W R R W W W W R R W a a a W &.l l &.&.@.&.&.&.&.l *.R H p.|.P.P.K.P.P.|.Q.F R R W R Q W.].P.P.P.P.`._.k.*.G &.W A 1.aX#XK R &.&.&.&.&.&.&.&.&.&.&.&.&.&.&.&.&.&.&.&.&.&.&.&.&.&.&.&.&.&.&.&.&.&.&.&.&.&.&.&.&.&.&.&.&.&.&.&.&.&.&.&.&.&.&.&.&.&.&.&.&.&.&.&.&.*.R R R *.*.-.2.<.<.<.<.<.<.1.2.-.=.*.&.&.W &.&.&.&.&.&.&.&.&.&.&.&.&.&.&.&.&.&.&.&.&.&.&.&.&.&.&.R R R R R R R R R R R R R R i x k l &.&.;.&.;.&.R Y -.~.~.P.`.7.G R R &.*.H S.~.P.P.P._.~.7.H ;.&.l y ^ [.lXpX1.*.O.&.+.O.l x &.&.&.&.&.&.&.&.&.&.&.&.&.&.&.&.&.&.&.&.&.&.&.&.&.&.&.&.&.&.&.&.&.&.&.&.&.&.&.&.&.&.&.&.&.&.&.&.&.&.&.&.&.&.&.&.&.&.&.&.&.&.&.&.",
"&.&.&.&.&.&.&.&.&.&.&.&.&.&.&.&.&.&.&.&.&.&.&.&.&.&.&.&.&.&.&.&.&.&.&.&.&.&.&.&.&.&.&.&.&.&.&.&.&.&.&.&.&.&.&.&.&.&.&.&.&.&.&.&.&.l ;.R C ^ F.Q.`.P.`.a.K G *.R H H /.`.P.`.I.I.I.|.a.H R &.l &.G 1.jXkXjXu.Y y R *.#.&.l l R R &.&.&.&.&.&.&.&.&.&.&.&.&.&.&.&.&.&.&.&.&.&.&.&.&.&.&.&.&.&.&.&.l l &.&.&.&.l l l &.&.&.&.&.l l &.&.&.&.&.&.&.&.&.&.&.&.;.;.&.&.&.&.&.&.&.&.&.&.&.&.&.&.&.&.&.&.&.&.&.&.&.&.&.&.&.&.&.&.&.&.&.&.&.W R i W W W W R R a a a W W l l l &.&.@.@.#.&.&.l *.R $.p. XP.P.K.P.P.|.W.F R R W R Q !.].P.P.P.P.`._.k.*.G &.W C / sXiXK R &.&.&.&.&.&.&.&.&.&.&.&.&.&.&.&.&.&.&.&.&.&.&.&.&.&.&.&.&.&.&.&.&.&.&.&.&.&.&.&.&.&.&.&.&.&.&.&.&.&.&.&.&.&.&.&.&.&.&.&.&.&.&.&.&.&.R R R *.-.2.2.<.<.<.<.<.<.1.<.-.-.=.&.&.W &.R &.&.&.&.&.&.&.&.&.&.&.&.&.&.&.&.&.&.&.&.&.&.&.&.&.R R R R *.*.*.&.*.*.*.*.*.*.&.;.l l &.&.&.&.&.&.&.Y -.~.~.P.`.7.G R R &.*.H F.~.P.P.P._.~.7.H ;.l l y ! [.lXsX5.*.O.&.+.*.l x &.&.&.&.&.&.&.&.&.&.&.&.&.&.&.&.&.&.&.&.&.&.&.&.&.&.&.&.&.&.&.&.&.&.&.&.&.&.&.&.&.&.&.&.&.&.&.&.&.&.&.&.&.&.&.&.&.&.&.&.&.&.&.&.",
"&.&.&.&.&.&.&.&.&.&.&.&.&.&.&.&.&.&.&.&.&.&.&.&.&.&.&.&.&.&.&.&.&.&.&.&.&.&.&.&.&.&.&.&.&.&.&.&.&.&.&.&.&.&.&.&.&.&.&.&.&.&.&.&.&.&.;.R C <.~.Q.P.P.`.a.K G &.R H H /.`.P._.I.I.P.|.a.H R &.l ;.G 1.zXkXjXu.Y y R *.#.&.l l R R &.&.&.&.&.&.&.&.&.&.&.&.&.&.&.&.&.&.&.&.&.&.&.&.&.&.&.&.&.&.&.&.l &.&.&.&.l l l l l l &.&.&.&.l &.&.R R &.&.&.&.&.&.&.&.&.&.&.&.&.&.&.&.&.&.&.&.&.&.&.&.&.&.&.&.&.&.&.&.&.&.&.&.&.&.&.&.&.&.&.&.&.W i i i i a a R R R R a a W l l l &.&.&.&.#.&.&.l *.H <.p. XI.P.K.P.P.|.W.F R R *.R -.!.].P.P.P.P.`._.j.+.G &.W C / sXiXP R &.&.&.&.&.&.&.&.&.&.&.&.&.&.&.&.&.&.&.&.&.&.&.&.&.&.&.&.&.&.&.&.&.&.&.&.&.&.&.&.&.&.&.&.&.&.&.&.&.&.&.&.&.&.&.&.&.&.&.&.&.&.&.&.&.&.R R *.:.,.2.2.2.<.<.<.1.1.1.<.-.>.=.=.&.R &.R &.&.&.&.&.&.&.&.&.&.&.&.&.&.&.&.&.&.&.&.&.&.&.&.G R R R *.*.*.*.-.-.-.-.-.-.-.:.=.;.;.&.O.O.&.&.&.&.R -.~.|.P.`.m.G R R &.*.H S.~.P.P.P._.~.7.H ;.l a y ! [.zXsX5.*.O.#.+.*.l x &.&.&.&.&.&.&.&.&.&.&.&.&.&.&.&.&.&.&.&.&.&.&.&.&.&.&.&.&.&.&.&.&.&.&.&.&.&.&.&.&.&.&.&.&.&.&.&.&.&.&.&.&.&.&.&.&.&.&.&.&.&.&.&.",
"&.&.&.&.&.&.&.&.&.&.&.&.&.&.&.&.&.&.&.&.&.&.&.&.&.&.&.&.&.&.&.&.&.&.&.&.&.&.&.&.&.&.&.&.&.&.&.&.&.&.&.&.&.&.&.&.&.&.&.&.&.&.&.&.l l ;.R C 1.Q.Q.`.P.`.a.H G &.R R H /.`.P._.I._.P.|.a.H R &.l &.G 1.zXkXpXu.T y W &.&.&.&.l W &.&.&.&.&.&.&.&.&.&.&.&.&.&.&.&.&.&.&.&.&.&.&.&.&.&.&.&.&.&.&.&.&.&.R &.R &.R &.R &.R &.R &.R &.R &.R &.R &.&.&.&.&.&.&.&.&.&.&.&.&.&.&.&.&.&.&.&.&.&.&.&.&.&.&.&.&.&.&.&.&.&.&.&.&.&.&.&.&.&.&.&.R R R R R R R R R R R R R R R R l l &.&.&.&.&.&.&.i R R <.W. XP.I.K.P.G.|.W.G R R *.R -.~.|.P.P.P.P.`._.j.+.G l W C / sXiXP G &.&.&.&.&.&.&.&.&.&.&.&.&.&.&.&.&.&.&.&.&.&.&.&.&.&.&.&.&.&.&.&.&.&.&.&.&.&.&.&.&.&.&.&.&.&.&.&.&.&.&.&.&.&.&.&.&.&.&.&.&.&.&.&.&.&.G R *.-.6.2.<.<.<.<.<.<.1.<.<.,.-.-.*.*.R &.l &.&.&.&.&.&.&.&.&.&.&.&.&.&.&.&.&.&.&.&.&.&.&.&.R R R R *.*.:.-.-.-.-.-.-.-.-.-.=.;.;.*.&.&.&.&.*.*.R 2.~.|.P.`.m.G &.&.&.*.R m.~.G.P.P.].).7.H ;.l a 9 ! [.zXlX3.*.G &.&.&.l l &.&.&.&.&.&.&.&.&.&.&.&.&.&.&.&.&.&.&.&.&.&.&.&.&.&.&.&.&.&.*.*.&.R &.R &.R &.R &.R &.R &.R &.&.&.&.&.&.&.&.&.&.&.&.&.&.&.&.&.&.",
"&.&.&.&.&.&.&.l l l &.&.&.&.&.l &.&.&.&.&.&.&.&.&.&.&.&.&.&.&.&.&.&.&.&.&.&.&.&.&.&.&.&.&.&.&.&.;.;.;.&.&.&.l l l &.&.l &.l &.l l l ;.R Z 5.~.`.`.`.|.F.*.R &.i R G W.Q.f.}.f.I.`.|.7.E R W l *.C S.pXjXlXU.m W a l ;.;.&.&.x a l &.&.&.&.&.&.&.&.&.&.&.&.&.&.&.l l l &.&.&.&.&.&.&.&.&.&.&.&.&.R G R R R R *.R -.-.-.-.-.-.-.-.*.*.*.*.*.R R R G G G R R R *.&.&.l l &.&.&.&.&.&.&.&.&.&.l l l ;.&.;.&.&.l l i l l &.&.&.&.&.&.G G R R *.:.-.-.6.,.-.-.:.*.*.*.i i R &.*.&.&.&.&.i W A ^ ~.J.P.I.I.P.`.).7.R R =.Y Y 7.)._.I.I.U.P.P._.W.2.W =.W G 1.sXiXp.C Y l l x x x l x l l &.;.;.&.&.l e &.&.&.&.&.&.&.&.&.&.&.&.&.&.&.&.&.&.&.&.&.&.&.&.&.&.&.&.&.&.&.&.&.&.&.&.l &.&.&.;.l ;.;.;.l l &.G H *.<.<.<.<.<.<.<.<.<.<.<.<.<.-.-.,.:.*.R R R &.&.&.&.&.l &.&.&.&.&.&.&.&.&.&.&.&.&.&.&.l l i G R *.:.-.-.-.-.-.-.-.-.-.-.-.-.*.-.-.-.*.&.O.G G R H 5.).|.G.`.W.G &.&.&.O.G W.~.J.G.G.)./.7.O.l l =.9 / iXjXjXa.Z *.l z l g ;.&.&.&.&.&.&.l &.i l &.;.;.l &.l l i i i R R R R -.:.-.-.2.6.6.6.6.-.-.-.-.-.:.:.R R G G G R *.*.&.&.&.&.&.&.&.&.&.&.&.&.l l &.l ",
"&.&.&.&.&.&.&.&.l l &.&.&.&.l l &.&.&.&.&.&.&.&.&.&.&.&.&.&.&.&.&.&.&.&.&.&.&.&.&.&.&.&.&.&.&.&.;.;.;.&.&.&.&.&.l l l l l l l l x x ;.R A 3.].`.`.`.).W.*.*.=.i W Y W.).`.}.'.'.P.Q.5.A R R i *.A G.sXjXlXU.m R a x &.&.O.&.a u l l &.&.&.&.&.&.&.&.&.&.&.&.&.l l l l l &.&.&.&.&.&.&.&.&.&.*.*.*.*.*.*.*.*.-.-.-.-.-.-.-.-.-.-.-.-.-.*.-.*.*.*.R R R R R R R R &.l l &.&.&.&.&.&.;.&.&.&.l l l l l &.&.&.&.&.&.&.&.&.&.*.*.*.*.*.*.-.-.-.-.2.2.6.6.2.-.-.*.*.*.*.&.*.*.*.*.&.R &.i W 9 ^ ~.J.P.I.I.P.Q.).v.R W =.Y G 7.~.`.I.I.U.J.P.`.G.^ y a &.R 1.sXiXQ.Z R l x l l l l l l l l &.;.&.&.&.g &.&.&.&.&.&.&.&.&.&.&.&.&.&.&.&.&.&.&.&.&.&.&.&.&.&.&.&.&.&.&.&.&.&.&.&.&.&.l &.l l l l l l l &.*.*.<.<.<.<.<.<.<.<.<.<.<.<.<.<.-.-.-.-.*.R R R &.&.&.&.&.l l &.&.&.&.&.&.&.&.&.&.&.l &.&.l i i G E *.-.-.2.-.-.-.-.-.-.-.-.-.2.<.<.<.2.:.:.*.R G H F 1.Q.`.G.~.W.G *.&.&.#.G ^.~.P.G.J.|./.7.O.&.l ;.9 / iXjXzXf.K *.x k v &.&.&.&.&.&.&.&.&.&.&.&.&.l &.l l i a a a W W *.*.*.:.-.-.2.<.6.6.6.2.2.2.-.-.-.-.-.*.*.*.E R R R R *.&.&.&.&.&.;.;.&.&.&.&.l l l l ",
"&.&.&.&.&.&.&.&.l &.&.&.&.&.l &.&.&.&.&.&.&.&.&.&.&.&.&.&.&.&.&.&.&.&.&.&.&.&.&.&.&.&.&.&.&.&.&.;.;.;.&.&.&.&.&.&.&.&.&.l l l l x x ;.R H 7.].P.`.`.).F.*.&.>.l W R W.|.`.}.'.'.a.Q.6.A R R i *.S J.sXjXjXU.m R a x l O.#.&.i i i l l ;.&.&.&.l &.&.&.&.&.&.&.&.l l &.&.&.&.&.&.&.&.*.*.&.&.&.:.-.2.2.2.2.2.2.2.-.-.-.-.-.-.-.-.2.2.2.2.2.-.-.-.*.*.*.R R R R R &.l &.&.&.&.&.&.&.&.&.&.&.&.&.&.i i R R &.&.*.*.R R R R *.*.*.*.6.6.6.2.2.2.2.2.2.2.2.2.-.-.-.:.-.=.:.*.*.*.*.R &.i W A ^ ~.`.P.I.I.P.Q.(.v.R R =.Y R 7.~.`.I.I.U.P.I.`.F.E i y W G 1.sXiX`.F W &.l l l l l l l l l &.&.&.&.&.l &.&.&.&.&.&.&.&.&.&.&.&.&.&.&.&.&.&.&.&.&.&.&.&.&.&.&.&.&.&.&.&.&.&.&.&.&.&.l l ;.;.l l l l l &.*.<.<.<.<.<.<.<.<.<.<.<.<.<.<.<.2.2.2.-.*.R R R &.&.&.&.l &.l &.;.;.&.;.&.&.&.&.&.&.&.&.&.&.&.R R *.*.-.2.2.2.2.2.2.2.2.2.2.-.-.<.<.6.6.6.,.:.:.G E H ^ W.J.G.`.m.G *.&.&.O.H ^.~.P.P.P.|.Q.5.O.&.k &.9 ) iXjXzXf.K &.x k v &.&.&.&.&.&.&.&.&.&.;.;.&.l &.l &.i &.W &.*.*.-.-.-.-.-.-.<.<.4.6.6.6.6.2.2.2.-.-.-.-.-.-.*.*.E G G *.&.&.&.&.;.;.;.&.&.&.&.&.&.l l ",
"l &.&.&.&.&.&.&.&.&.&.&.&.&.&.&.&.&.&.&.&.&.&.&.&.&.&.&.&.&.&.&.&.&.&.&.&.&.&.&.&.&.&.&.&.&.&.&.;.;.;.&.&.&.&.l &.&.&.&.&.l &.l x x &.R H y.|.P.`.`.Q.7.E R ;.i W R W.|.`.}.'.`.`.~.7.E R R R *.S J.lXjXjXY.M W a l ;.;.&.*.l i i l &.;.;.;.;.&.&.&.&.&.&.&.&.&.&.&.&.&.&.O.O.O.*.*.&.*.*.:.:.-.2.2.2.2.-.2.2.2.<.2.2.2.2.2.2.2.*.*.<.-.<.2.2.2.-.-.*.*.E R G G &.&.&.&.&.&.&.&.&.&.&.&.&.&.&.&.W *.R R R R R R R R R *.*.*.-.-.2.2.2.2.-.-.-.-.2.2.2.2.2.2.2.-.-.-.-.-.*.*.*.*.&.i W A 1.].`.P.I.P.P.Q.(.6.R R *.G E 7.~.P.I.I.U.P.I.`.G.^ y y i G 1.sXpX`.S E R l l l l l l l l l l &.l l l &.&.&.&.&.&.&.&.&.&.&.&.&.&.&.&.&.&.&.&.&.&.&.&.&.&.&.&.&.&.&.&.&.&.&.&.&.&.&.&.l ;.;.&.l l l l &.-.<.<.<.<.<.<.<.<.<.<.<.<.<.<.<.2.-.-.-.*.*.R R &.&.&.&.&.&.l &.;.;.;.;.&.&.&.&.&.&.&.&.&.&.&.R *.*.-.-.2.2.2.2.2.2.2.2.2.2.-.<.<.<.6.6.6.6.,.-.*.E H ^ G.P.G.|.m.G *.&.&.O.H Q.~.U.P.P.|./.5.O.;.k &.A ) aXjXkXI.K &.x k v &.&.&.&.&.&.&.&.&.&.;.*.&.&.&.&.*.*.:.=.-.-.-.-.,.6.-.<.<.<.<.<.<.<.2.2.2.2.2.-.-.-.2.2.2.2.-.*.E G *.&.&.&.&.*.;.;.&.&.&.&.&.&.&.l ",
"&.&.&.&.&.&.&.&.&.&.&.&.&.&.&.&.&.&.&.&.&.&.&.&.&.&.&.&.&.&.&.&.&.&.&.&.&.&.&.&.&.&.&.&.&.&.&.&.&.&.&.&.&.&.&.&.&.&.&.&.&.&.&.l l x W R H p.|.P.`.`.Q.7.H e &.e R G F.Q.f.}.f.I.`.).7.E R W R Q S P.lXjXjX5X! Q =.=.:.:.:.*.&.&.i i l &.&.&.&.&.R R &.&.&.&.&.&.&.O.O.&.&.*.*.*.:.:.:.-.:.:.4.6.2.2.2.2.2.2.2.2.<.<.2.2.2.2.2.2.<.<.<.<.<.<.<.2.2.2.-.*.*.E R G &.&.&.&.&.&.&.&.&.&.&.&.&.&.&.&.R R R R R R R R *.*.*.*.-.-.-.-.-.-.-.-.-.-.-.-.-.2.2.2.2.2.2.2.-.-.2.<.4.<.-.:.*.Y *.Y 1.|.`.I.I.P.P.Q./.6.R R *.G E 7.~.P.I.I.U.P.I.`.G.^ Y R R H 1.pXpX}.P E *.*.*.*.*.*.*.*.R R &.&.&.&.R &.&.&.&.&.&.&.&.&.&.&.&.&.&.&.&.&.&.&.&.&.&.&.&.&.&.&.&.&.&.&.&.&.&.&.&.&.&.&.&.&.&.&.&.l &.&.&.*.6.<.<.<.<.<.<.<.<.<.<.<.<.<.<.<.2.2.-.-.-.*.R R &.&.&.&.&.l &.&.;.;.&.&.&.&.&.&.&.&.&.&.&.*.*.*.-.-.-.2.2.2.2.2.2.2.-.-.2.2.2.<.<.<.<.<.6.6.,.-.-.<.^ 3.Q.`.P.|.7.G *.&.&.O.H W.~.U.P.P.].Q.5.O.;.k &.A ) sXjXkX'.K W x z v &.*.&.l &.&.&.&.&.&.&.&.&.&.*.;.:.:.,.,.-.-.-.2.2.2.<.<.<.<.<.<.1.<.2.2.2.2.2.2.-.-.-.-.2.2.2.-.*.*.*.&.O.G O.&.&.&.&.&.&.&.&.l &.&.",
"&.&.&.&.&.&.&.&.&.&.&.&.&.&.&.&.&.&.&.&.&.&.&.&.&.&.&.&.&.&.&.&.&.&.&.&.&.&.&.&.&.&.&.&.&.&.&.&.l &.&.&.&.&.&.&.&.&.&.&.&.&.&.&.l i W R E S.|.P.`.P.Q.7.H G *.i R G F.Q.f.}.f.P.`.~.7.R Y R R E S P.jXjXkX5X~ 2.*.:.,.4.4.:.:.=.&.&.&.&.l &.&.&.&.R &.&.&.&.l &.O.O.O.*.O.*.*.*.-.-.-.4.4.4.4.6.6.6.6.6.6.6.2.2.2.2.2.2.2.2.2.2.<.<.<.<.<.<.6.6.6.2.<.-.*.*.*.E *.*.*.&.*.&.R R G R &.&.&.&.*.*.R G R *.*.*.-.-.*.*.-.<.<.<.6.6.-.-.-.-.2.2.2.6.2.2.2.2.2.2.2.2.-.-.<.<.4.4.4.2.:.W -.E 3.|.`.I.I.I.P.Q.~.6.G R *.G E m.~.P.I.I.P.P.I._.G.^ Y W *.E r.jXjX8X/ ^ <.:.,.,.,.,.,.,.*.*.&.R &.&.R &.&.&.&.&.&.&.&.&.&.&.&.&.&.&.&.&.&.&.&.&.&.&.&.&.&.&.&.&.&.&.&.&.&.&.&.&.&.&.&.&.&.&.&.&.&.;.;.:.6.<.<.<.<.<.<.<.<.<.<.<.<.<.<.<.<.-.-.-.-.*.*.R *.&.&.&.&.l &.&.&.;.&.&.&.&.&.&.&.&.&.&.&.*.*.*.-.-.2.2.2.2.2.2.2.2.-.-.2.2.2.<.<.<.<.<.:.,.,.-.<.6.<.3.|.].P.|.7.G O.*.&.*.*./.~.U.P.P.].Q.5.G ;.k &.A y.sXkXjX'.P W a z v &.*.&.l &.&.&.&.R *.G *.*.*.:.-.6.6.6.6.6.6.2.2.2.<.<.<.<.<.<.<.<.<.<.2.2.2.2.2.-.-.-.-.-.2.2.2.2.2.*.*.*.G O.G O.&.&.&.&.&.&.&.&.R ",
"&.&.&.&.&.&.&.&.&.&.&.&.&.&.&.&.&.&.&.&.&.&.&.&.&.&.&.&.&.&.&.&.&.&.&.&.&.&.&.&.&.&.&.&.&.&.&.&.l &.&.&.&.&.&.&.&.&.&.&.R R R R l i R R E S.|.P.P.P.Q.7.H R :.*.R S W.`.P.}.I.I.G.~.7.E E *.R <.Z I.zXkXkX6X~ ( -.,.4.0.4.4.-.=.=.*.&.&.i i &.&.&.&.&.&.&.&.&.&.G O.O.*.*.*.*.*.<.4.4.4.4.4.4.<.6.6.6.6.6.6.2.<.2.2.2.2.2.2.2.2.<.<.<.<.<.6.6.6.<.<.<.<.<.*.*.*.*.*.*.*.*.R R R R G G &.*.*.*.*.R *.*.*.-.-.2.6.<.<.<.<.<.<.<.<.<.<.<.<.<.2.2.2.2.2.2.2.2.6.<.2.-.-.<.<.4.4.4.<.6.*.3.E 3.|.`.I.I.I.P.Q.~.6.G R R G E S.~.P.I.I.P.P.I.}.P.1.Q *.*.<.t.jXjX9Xr.^ <.4.4.4.6.6.6.6.-.:.*.*.O.G G &.&.&.&.&.&.&.&.&.&.&.&.&.&.&.&.&.&.&.&.&.&.&.&.&.&.&.&.&.&.&.&.&.&.&.&.&.&.&.&.&.&.&.&.&.&.;.:.,.<.<.<.<.<.<.<.<.<.<.<.<.<.<.<.<.<.-.-.2.2.-.*.R *.&.&.R &.&.&.&.&.&.&.&.&.&.&.&.&.&.&.G R R *.*.6.2.6.<.<.<.2.2.<.<.<.<.<.<.<.<.<.<.<.<.:.:.,.-.<.6.1.y.|.].P.`.7.D O.*.*.*.H /.~.U.P.P.].Q.5.G ;.l W A y.sXkXjX4XP R a z v R *.&.l l &.&.&.&.R *.*.*.-.<.4.4.6.6.2.2.2.2.<.<.<.<.<.<.<.<.<.1.<.<.<.<.<.<.<.<.<.<.<.<.<.<.<.2.6.-.:.:.*.*.G O.O.*.&.&.&.&.&.&.R ",
"&.&.&.&.&.&.&.&.&.&.&.&.&.&.&.&.&.&.&.&.&.&.&.&.&.&.&.&.&.&.&.&.&.&.&.&.&.&.&.&.&.&.&.&.&.&.&.&.l l &.&.&.&.&.&.&.&.&.&.R R R R &.i R E ^ G.|.P.P.G.Q.p.E *.6.,.E H Q.|.P.}.'.`.G.Q.7.E *.*.-.3.K [.zXrXfX6X~ ( -.,.4.4.5.4.-.-.-.=.*.i e i &.&.&.&.&.&.&.&.&.&.G G O.+.*.*.<.<.4.<.<.<.<.<.<.<.<.2.2.<.<.<.<.<.2.2.2.2.2.2.2.<.<.<.<.<.<.<.<.<.<.<.<.<.<.<.<.<.R *.*.*.*.R G R G G G *.O.*.*.*.-.-.2.2.2.2.2.2.<.<.<.<.<.<.<.<.<.<.<.<.<.<.<.<.6.6.6.2.2.<.<.<.2.2.4.<.4.5.4.<.6.2.7.^ i.[.I.g.I.I.P.Q.~.7.G G G G *.F.~.P.I.I.P.P.'.}.`.3.E -.*./ t.jXjX9X} / <.4.4.4.4.4.4.:.4.-.*.*.*.G G &.&.&.&.&.&.&.&.&.&.&.&.&.&.&.&.&.&.&.&.&.&.&.&.&.&.&.&.&.&.&.&.&.&.&.&.&.&.&.&.&.&.&.&.*.&.:.,.6.<.<.<.<.<.<.<.<.<.<.<.<.<.<.<.<.<.-.-.2.2.-.*.G *.*.&.R &.&.&.&.&.&.&.&.&.&.&.&.*.&.R G R R *.:.6.6.2.<.<.<.2.2.<.<.<.<.<.<.<.<.6.6.4.<.4.4.,.6.<.<.1.y.|.`.a.P.7.D G *.*.*.H Q.].U.P.P.].Q.5.G ;.l W S u.sXkXkX4XP R a u =.&.*.&.&.&.&.&.&.*.*.*.*.-.<.4.4.4.<.<.<.<.<.<.<.<.<.<.<.<.<.<.<.1.<.<.<.<.<.<.<.<.<.6.2.<.<.<.<.2.6.6.6.-.:.*.*.*.*.*.*.*.&.&.&.&.R ",
"*.*.*.&.&.&.&.&.&.&.&.&.&.&.&.&.&.&.&.&.&.&.&.&.&.&.&.&.&.&.&.&.&.&.&.&.&.&.&.&.&.&.&.&.&.&.&.&.&.&.&.l &.&.&.&.;.*.R R G R R *.&.:.-.<.7.G.`.P.P.`.Q.y.<.-.6.-.<.7.F.`.`.I.I.P.`.~.7.E 2.2.-.3.I 5XkXkXkX6X{ 2.-.-.4.5.5.4.<.-.,.-.-.*.*.R R G R R R R R R R R *.*.*.*.-.<.<.4.<.<.<.<.<.<.<.<.<.<.<.<.<.<.<.<.<.<.<.<.<.<.<.<.<.<.<.<.<.<.<.<.<.<.<.<.<.<.<.<.-.-.-.-.2.-.2.-.2.-.2.-.2.-.2.2.2.<.<.<.<.<.<.<.<.<.<.<.<.<.<.<.<.<.<.<.<.<.<.<.<.<.<.<.<.<.<.<.<.<.<.<.5.5.4.<.<.2.*.1.G.`.I.'.f.P.P.Q.~.7.*.-.-.*.<.F.|.P.P.I.P.I.g.'.P.3.Q -.^ / t.kXjX9Xt.P 1.<.<.<.<.<.<.<.<.-.<.-.-.*.R G &.&.&.;.;.;.&.&.&.&.&.&.&.&.&.&.&.&.&.&.&.&.&.&.&.&.&.&.&.&.&.&.e i &.&.*.*.&.G G G *.:.,.,.,.,.<.<.<.<.<.<.<.<.<.<.<.<.<.<.<.<.<.<.<.2.6.-.*.*.G G R &.&.&.&.&.l &.&.;.;.*.&.R *.*.R *.*.-.6.6.2.<.<.<.<.<.<.<.<.<.<.<.<.<.<.<.<.<.<.<.4.4.4.2.6.<.<.F.`.`.P.`.7.A E O.O.*.E F.].P.P.P.].Q.5.A &.;.*.S G.lXkXkX9XI Y a x >.*.*.*.&.&.*.*.*.*.*.-.<.<.<.<.<.<.<.<.<.<.<.<.<.<.<.<.<.<.<.<.<.<.<.<.<.<.<.<.<.<.<.<.<.<.<.<.<.<.<.2.2.2.-.-.-.-.:.R R R R R R R *.",
"&.R R R &.&.&.&.&.&.&.&.&.*.&.&.&.&.&.&.&.&.&.&.&.&.&.&.&.&.&.&.&.&.&.&.&.&.&.&.&.&.&.&.&.&.&.&.&.&.&.&.&.&.&.&.&.&.R R R R *.*.*.-.-.<.3.F.P.P.P.].J.i.1.<.6.2.<.5.G.`.`.I.I.P.Q.F.7.^ 2.2.*.5.~ 5XkXkXbX6X} ) -.-.4.5.5.5.<.-.-.-.:.:.:.*.*.*.*.*.*.*.*.*.*.*.*.*.*.-.<.<.<.4.<.<.<.4.<.<.<.<.<.<.<.<.<.<.<.<.<.<.<.<.<.<.<.<.<.<.<.<.<.<.<.<.<.<.<.<.<.<.<.<.<.-.-.-.2.2.2.2.2.2.6.6.2.2.2.2.<.<.<.<.<.<.<.<.<.<.<.<.<.<.<.<.<.<.<.<.<.<.<.<.<.<.<.<.<.<.<.<.<.<.<.<.5.5.5.<.<.6.<.1.G.`.I.I.I.P.P.Q.~.7.*.-.2.*.6.F.|.P.P.I.P.I.g.'.P.3.Q -.^ / t.kXjXjXu.I 1.<.<.<.<.<.<.<.<.<.<.<.-.-.*.*.&.&.&.&.&.&.&.&.&.&.&.&.&.&.&.&.&.&.&.&.&.&.&.&.&.&.&.&.&.&.&.&.l R &.&.&.&.R G G *.:.-.6.6.4.-.<.<.<.<.<.<.<.<.<.<.<.<.<.<.<.<.<.<.<.2.6.2.-.*.G O.R &.&.l &.&.&.&.&.&.&.&.R G G R R R *.-.-.6.<.<.<.<.<.<.<.<.<.<.<.<.<.<.<.<.<.<.<.<.4.4.4.2.4.<.<.F.`.`.I.`.7.G *.O.O.*.E F.U.P.P.P.].Q.7.H &.&.R S G.zXkXkX9XI R a x =.G H G R R *.*.:.-.6.<.<.<.<.<.<.<.<.<.<.<.<.<.<.<.<.<.<.<.<.<.<.<.<.<.<.<.<.<.<.<.<.<.<.<.<.<.<.<.<.<.2.2.-.-.-.-.-.*.*.*.*.*.R R R ",
"G G R R R &.&.*.&.&.&.&.&.&.&.R &.&.&.&.&.&.&.&.&.&.&.&.&.&.&.&.&.&.&.&.&.&.&.&.&.&.&.&.&.&.&.&.&.l &.&.&.&.&.&.R R R *.*.*.*.*.*.*.-.<.7.F.P.P.P.`.J.i.1.<.6.2.^ 1.G.`.`.I.I.P.P.F.7.^ 2.2.*.5.~ 5XkXrXbX-X .^ -.-.4.5.5.<.<.-.-.-.-.-.-.-.-.-.*.*.-.*.-.*.-.-.-.<.<.<.<.<.<.<.<.<.<.<.<.<.<.<.<.<.<.<.<.<.<.<.<.<.<.<.<.<.<.<.<.<.<.<.<.<.<.<.<.<.<.<.<.<.<.<.<.<.<.<.<.<.<.<.<.<.<.<.<.<.<.<.<.2.2.2.<.<.<.<.<.<.<.<.<.<.<.<.<.<.<.<.<.<.<.<.<.<.<.<.<.<.<.<.<.<.<.<.5.4.4.<.<.2.<.^ Q.`.f.I.I.P.P.Q.Q.7.*.<.6.<.5.Q.|.P.P.I.P.P.I._.P.3.Q -.( ! t.kXeXjXs.~ 1.<.<.<.<.<.<.<.<.<.<.<.<.-.*.*.&.&.&.&.&.&.&.&.&.&.&.&.&.&.&.&.&.&.&.&.&.&.&.&.&.&.&.&.&.&.&.&.&.&.&.&.&.&.*.R *.:.-.:.4.4.4.<.<.<.<.<.<.<.<.<.<.<.<.<.<.<.<.<.<.<.<.2.6.2.-.*.*.&.&.&.&.&.&.&.&.&.&.&.&.&.G G G R E *.*.-.-.-.<.<.<.<.<.<.<.<.<.<.<.<.<.<.<.<.<.<.<.<.4.4.4.2.<.^ <.F.`.`.I.`.7.H *.*.*.*.E Q.J.P.P.P.U.Q.7.+.&.&.R S G.zXfXkX9XI G a x ;.D H G R R *.-.2.6.6.<.<.<.<.<.<.<.<.<.<.<.<.<.<.<.<.<.<.<.<.<.<.<.<.<.<.<.<.<.<.<.<.<.<.<.<.<.<.<.<.<.<.<.2.-.-.-.-.-.-.-.*.*.R R G ",
"R R R R R R &.&.&.&.&.&.&.&.R &.&.&.&.&.&.&.&.&.&.&.&.&.&.&.&.&.&.&.&.&.&.&.&.&.&.&.&.&.&.&.&.&.&.l &.&.&.&.&.&.e R *.*.-.-.-.-.*.-.*.1.y.J.].P.P.P.J.i.1.<.2.2.^ 3.G.`.P.I.I.P.J.J.7.E 2.2.*.1.~ 5XkXrXbX6X .^ Q -.4.5.5.1.<.-.-.-.2.2.2.2.6.6.-.-.-.2.-.-.-.-.<.<.<.<.<.<.<.<.<.<.<.<.<.<.<.<.<.<.<.<.<.<.<.<.<.<.<.<.<.<.<.<.<.<.<.<.<.<.<.<.<.<.<.<.<.<.<.<.<.<.<.<.<.<.<.<.<.<.<.<.<.<.<.<.2.2.2.2.<.<.<.<.<.<.<.<.<.<.<.<.<.<.<.<.<.<.<.<.<.<.<.<.<.<.<.<.<.<.<.<.4.4.4.<.<.2.<.1.Q.`.g.I.I.P.P.G.Q.7.*.<.6.<.5.Q.|.P.P.P.`.P.I._.P.1.Q -.Q / t.kXeXjXK.~ 1.<.<.<.<.<.<.<.<.<.<.<.<.2.<.-.&.&.&.&.&.&.&.&.&.&.&.&.&.&.&.&.&.&.&.&.&.&.&.&.&.&.&.&.&.&.&.&.&.&.&.&.&.*.*.*.:.:.:.6.4.4.4.<.<.<.<.<.<.<.<.<.<.<.<.<.<.<.<.<.<.<.<.<.2.2.-.*.*.*.&.O.&.&.&.&.;.&.&.&.&.&.G G R R *.-.-.-.-.<.<.<.<.<.<.<.<.<.<.<.<.<.<.<.<.<.<.<.<.<.4.4.4.<.4.^ 1.F.`.`.I.`.p.E <.*.:.-.<.~.J.P.K.K.P.J.p.*.&.&.R S P.zXfXfXeXI G i a =.G H *.*.-.-.<.<.<.<.<.<.<.<.<.<.<.<.<.<.<.<.<.<.<.<.<.<.<.<.<.<.<.<.<.<.<.<.<.<.<.<.<.<.<.<.<.<.<.<.<.<.<.<.<.2.2.-.2.-.-.-.*.*.*.R ",
"*.*.*.*.R R R R R R R R R R R *.&.&.&.&.&.&.&.&.&.&.&.&.&.&.&.&.&.&.&.&.&.&.&.&.&.&.&.&.&.&.&.&.&.l l &.&.&.R R G R *.-.2.2.2.-.-.-.<.2.p.J._.P.P.P.J.y./ 1.<.2.^ 3.G.`.I.I.I.P.J.J.7.Q 2.2.<.1.~ pXkXwXbX6X..^ -.-.4.5.5.<.2.-.-.<.<.<.<.<.<.<.<.<.<.<.<.<.<.<.2.2.2.2.<.<.<.<.<.<.<.<.<.<.<.<.<.<.<.<.<.<.<.<.<.<.<.<.<.<.<.<.<.<.<.<.<.<.<.<.<.<.<.<.<.2.2.<.<.<.<.<.<.<.<.<.<.<.<.<.<.<.<.<.2.2.2.2.2.2.2.2.<.<.<.<.<.<.<.<.<.<.<.<.<.<.<.<.<.<.<.<.<.<.<.<.<.<.<.<.5.5.4.<.<.2.<.1.Q.`.g.I.I.P.G.G.Q.7.<.<.6.<.7.Q.|.P.P.P.`.P.I.}.G.1.Q -.( / t.jXeXzXI.~ 1.<.<.<.<.<.<.<.<.<.<.<.<.<.<.4.;.;.&.&.&.&.&.&.&.&.&.&.&.&.&.&.&.&.&.&.&.&.&.&.&.&.&.&.&.&.&.&.&.W R R *.*.*.*.,.6.6.6.4.<.<.<.<.<.<.<.<.<.<.<.<.<.<.<.<.<.<.<.6.<.<.<.2.2.-.-.*.*.*.O.&.&.&.&.;.;.&.&.&.&.R R *.*.-.2.6.2.2.<.<.<.<.<.<.<.<.<.<.<.<.<.<.<.<.<.<.<.<.<.4.4.4.<.4.<.1.p.`.`.I.`.F.E <.2.:.6.<.).G.K.P.K.P.J.p.<.:.*.W T U.zXfXfXeXI G i a =.E <.<.2.2.<.<.<.<.<.<.<.<.<.<.<.<.<.<.<.<.<.<.<.<.<.<.<.<.<.<.<.<.<.<.<.<.<.<.<.<.<.<.<.<.<.<.<.<.<.<.<.<.<.<.<.<.2.-.-.-.-.-.-.-.-.",
"-.-.-.*.*.*.R R R R R R R R R *.&.&.&.&.&.&.&.&.&.&.&.&.&.&.&.&.&.&.&.&.&.&.&.&.&.&.&.&.&.&.&.&.&.l l l &.&.R R R *.*.-.2.2.<.<.2.-.<.2.S.U._.P.P.P.J.y./ 1.<.<.^ 3.G.`.I.I.I.P.J.J.3.E 2.<.<.1.~ pXkXwXbXdX..! -.-.4.5.5.1.2.-.2.<.<.<.<.<.<.<.<.<.<.<.<.<.<.<.2.2.2.2.<.<.<.<.<.<.<.<.<.<.<.<.<.<.<.<.<.<.<.<.<.<.<.<.<.<.<.<.<.<.<.<.<.<.<.<.<.<.<.2.2.2.2.<.<.<.<.<.<.<.<.<.<.<.<.<.<.<.<.<.2.2.2.2.2.2.2.2.<.<.<.<.<.<.1.<.<.<.<.<.<.<.<.<.<.<.<.<.<.<.<.<.<.<.<.<.4.4.4.<.-.2.*.1.Q.`.I.I.I.P.P.G.Q.7.<.4.4.<.5.Q.|.P.P.P.`.P.I.}.G.1.Q -.( / t.jXjXzXI.~ 1.2.<.<.<.<.<.<.<.<.<.<.<.<.<.6.:.>.&.&.&.&.&.&.&.&.&.&.&.&.&.&.&.&.&.&.&.&.&.&.&.&.&.&.&.&.&.&.&.W *.*.*.:.:.-.6.6.6.<.<.<.<.<.<.<.<.<.<.<.<.<.<.<.<.<.<.<.<.<.6.<.<.<.2.6.6.-.*.*.*.O.&.&.&.&.&.&.&.&.&.&.*.R -.-.2.2.6.6.4.4.<.<.<.<.<.<.<.<.<.<.<.<.<.<.<.<.<.<.<.<.4.4.4.<.4.<.1.a.`.`.I.`.F.<.6.6.6.6.<.).G.P.L.K.P.J.p.<.,.*.*.! Y.zXwXfXjX{ E a x ,.*.<.<.<.<.<.<.<.<.<.<.<.<.<.<.<.<.<.<.<.<.<.<.<.<.<.<.<.<.<.<.<.<.<.<.<.<.<.<.<.<.<.<.<.<.<.<.<.<.<.<.<.<.<.2.2.2.2.-.-.-.-.-.2.2.-.",
",.,.-.-.-.:.*.*.R R R R R R R &.&.&.&.&.&.&.&.&.&.&.&.&.&.&.&.&.&.&.&.&.&.&.&.&.&.&.&.&.&.&.&.&.&.l l l &.&.R R :.:.-.2.2.2.2.<.2.2.<.1.S.].U.P.P.P.J.i./ 1.<.<.^ 3.G.`.I.I.I.P.G.G.1.Q ( 2.E 1.~ pXkXwXbXdXu.! -.-.4.5.5.<.2.-.<.<.<.<.<.<.<.<.<.<.<.<.<.<.<.<.-.-.-.-.2.2.<.<.<.<.<.<.<.<.<.<.<.<.<.<.<.<.<.<.<.<.<.<.<.<.<.<.<.<.<.<.<.<.<.<.<.2.2.2.-.-.-.2.<.<.<.<.<.<.<.<.<.<.<.<.<.<.<.<.2.-.2.2.2.2.2.2.2.2.<.<.<.1.1.1.<.<.<.<.<.<.<.<.<.<.<.<.<.<.<.<.<.<.<.<.4.4.4.<.-.2.<.6.Q.`.f.I.I.P.P.G.G.7.<.4.<.<.1.G.|.P.P.P.`.G.P.`.G.1.Q -.( / t.jXjXzXY.~ <.-.2.2.2.2.<.<.<.<.<.<.<.<.<.<.:.>.>.&.&.&.&.;.&.&.&.&.&.&.&.&.&.&.&.&.&.&.&.&.&.&.&.&.&.&.&.&.i R *.-.-.,.-.,.6.2.<.<.<.<.<.<.<.<.<.<.<.<.<.<.<.<.<.<.<.<.<.<.6.<.<.<.2.6.6.2.-.:.*.R O.&.&.&.R i i i &.&.*.*.2.2.2.2.2.6.6.6.<.<.<.<.<.<.<.<.<.<.<.<.<.<.<.<.<.<.<.<.4.4.4.<.4.<.1.G._.`.I.`.F.E 2.6.6.6.1.).G.P.L.K.P.G.p.<.6.:.-.^ [.zXwXfXkX} E W =.,.*.5.<.<.<.<.<.5.5.5.<.<.<.<.<.<.<.<.<.<.<.<.<.<.<.<.<.2.2.2.2.2.2.<.<.<.<.<.<.<.<.<.<.<.<.<.<.<.<.<.<.<.<.<.<.6.6.6.-.-.-.2.-.2.2.2.",
",.,.,.,.-.-.-.-.R R R R R R R R &.&.&.&.&.&.&.&.&.&.&.&.&.&.&.&.&.&.&.&.&.&.&.&.&.&.&.&.&.&.&.&.&.R &.R &.R R R 6.6.2.2.2.2.<.<.6.2.<.1.S._.[.P.P.P.J.y.1.1.<.<.^ 3.G.`.I.I.I.P.J.F.1.Q ( <.^ 1.~ pXkXqXkXdXu.! 2.-.4.4.4.<.2.2.<.<.<.<.<.<.5.6.1.<.<.<.<.<.<.<.<.-.-.-.<.<.<.<.<.<.<.<.<.<.<.<.<.<.<.<.<.<.<.<.<.<.<.<.<.<.<.<.<.<.<.<.<.<.<.<.<.2.<.2.-.-.2.2.<.<.<.<.<.<.<.<.<.<.<.<.<.<.<.<.2.2.2.2.2.2.2.2.2.2.<.<.<.1.1.1.<.<.<.<.<.<.<.<.<.<.<.<.<.<.<.<.<.<.<.<.<.<.4.<.*.2.<.1.Q._.I.I.I.P.P.G.G.3.<.4.<.<.1.G.].P.P.P.P.P.P._.F.1.E -.^ / t.pXjXzXY.~ 1.-.-.-.2.2.<.<.<.<.<.<.<.<.<.<.,.:.>.&.&.&.;.>.&.&.&.&.&.&.&.&.&.&.&.&.&.&.&.&.&.&.&.&.&.&.&.&.G R *.-.,.6.6.6.2.<.<.<.<.<.<.<.<.<.<.<.<.<.<.<.<.<.<.<.<.<.<.<.6.<.<.<.2.6.6.6.-.*.*.R G &.*.*.R R R R &.*.*.-.6.6.-.<.<.<.<.6.<.<.<.<.<.<.<.<.<.<.<.<.<.<.<.<.<.<.<.<.<.<.4.<.<.<.1.G._.`.I.`.S.E <.2.<.6.^ ~.P.P.P.P.P.G.y.<.6.,.2.) 5XzXqXfXzXt.^ *.-.6.*.6.<.<.<.<.<.<.<.<.<.<.<.<.<.<.<.<.<.<.<.<.<.<.<.<.<.2.<.2.<.2.<.<.<.<.<.<.<.<.<.<.<.<.<.<.<.<.<.<.<.<.<.<.<.6.6.6.<.2.<.2.2.2.2.2.",
"<.<.<.<.<.<.<.<.<.<.<.<.<.<.<.2.*.*.*.R R R G G R R R R R R R R *.*.&.*.&.*.&.&.&.&.&.&.&.R &.G G G E *.*.*.-.<.<.<.<.<.<.<.<.<.<.6.^ / G.P.P.U.P.P.G.1.<.<.6.<.<.3.F.`.`.I.I.I.].S.1.^ 2.6.<./ t.pXzXjXdXgXK.K 1.<.:.4.4.<.<.<.<.<.<.<.<.<.<.<.<.<.<.<.<.<.<.<.<.<.<.<.<.<.<.<.<.<.<.<.<.<.<.<.<.<.<.<.<.<.<.<.<.<.<.<.<.<.<.<.<.<.<.<.<.<.<.<.<.<.<.<.<.<.<.<.<.<.<.<.<.<.<.<.<.<.<.<.<.<.<.<.<.<.<.<.<.<.<.<.<.<.<.<.<.<.<.<.<.<.<.<.<.<.<.<.<.<.<.<.<.<.<.<.<.2.<.<.<.<.<.<.<.<.1.p.F.J.P.P.P.P.U.~.S.2.<.6.6.H 5.Q.P.P.I.I.P.P.P.].J.7.2.2.2.! r.pXjXjXyX} ^ -.<.2.2.-.-.-.<.<.<.<.<.<.<.4.6.,.:.:.&.&.&.&.;.;.l l l l l l l l l l l l &.&.&.&.&.&.&.&.O.O.2.2.2.<.<.<.<.<.<.<.<.<.<.<.<.<.<.<.<.<.<.<.<.<.<.<.<.<.<.<.<.<.<.<.<.<.<.<.<.<.2.-.-.*.*.G G G E E *.*.-.<.<.<.<.<.<.<.<.<.<.<.<.<.<.<.<.<.<.<.<.<.<.<.<.<.<.<.<.<.<.<.<.<.<.<.<.<.1.a.`.`.I.P.3.<.<.2.1.^ 3.J.P.I.I.P._.F.1.<.2.-.2./ yXfXzXdXfXg./ -.6.6.-.-.<.<.<.<.<.<.<.<.<.<.<.<.<.<.<.<.<.<.<.<.<.<.<.<.<.<.<.<.<.<.<.<.<.<.<.<.<.<.<.<.<.<.<.<.<.<.<.<.<.<.<.<.<.<.<.<.<.<.<.<.<.<.<.<.",
"<.<.<.<.<.<.<.<.<.<.<.<.<.<.<.<.*.*.*.*.*.R R R R R R R R R R R R &.&.&.R &.G R G G G R &.&.&.R *.*.*.*.<.<.<.<.<.<.<.<.<.<.<.<.<.6./ / J.P.P.P.P.`.G.1.<.<.6.-.<.7.F.Q.`._.I.I._.S.1.^ 6.6.<./ t.yXzXdXjXgXL.K 1.<.,.,.:.<.<.<.<.<.<.<.<.<.<.<.<.<.<.<.<.<.<.<.<.<.<.<.<.<.<.<.<.<.<.<.<.<.<.<.<.<.<.<.<.<.<.<.<.<.<.<.<.<.<.<.<.<.<.<.<.<.<.<.<.<.<.<.<.<.<.<.<.<.<.<.<.<.<.<.<.<.<.<.<.<.<.<.<.<.<.<.<.<.<.<.<.<.<.<.<.<.<.<.<.<.<.<.<.<.<.<.<.<.<.<.<.<.<.<.<.<.2.<.<.<.<.<.<.1.1.p.F.J.P.P.P.P.U.Q.S.2.<.6.6.H 5.Q.P.P.I.I.P.K.P.].F.7.6.<.1.^ r.iXlXgXdX| ^ -.<.2.2.2.2.-.<.<.<.<.<.<.4.4.6.,.:.:.*.&.*.&.&.&.l l l l l l l x l l l l &.&.G G &.*.*.*.*.*.<.<.<.<.<.<.<.<.<.<.<.<.<.<.<.<.<.<.<.<.<.<.<.<.<.<.<.<.<.<.<.<.<.<.<.<.<.<.<.<.<.<.-.*.*.*.*.*.*.*.*.<.<.<.<.<.<.<.<.<.<.<.<.<.<.<.<.<.<.<.<.<.<.<.<.<.<.<.<.<.2.2.<.<.<.<.<.<.<.<.1.a.`.`.I.P.3.<.<.2.1.! 3.J.P.I.I.P.|.F.1.( 2.2.2./ dXfXzXdXfXg./ ^ 5.1.-.-.<.<.<.<.<.<.<.<.<.<.<.<.<.<.<.<.<.<.<.<.<.<.<.<.<.<.<.<.<.<.<.<.<.<.<.<.<.<.<.<.<.<.<.<.<.<.<.<.<.<.<.<.<.<.<.<.<.<.<.<.<.<.<.<.",
"<.<.<.<.<.<.<.<.<.<.<.<.<.<.<.<.-.-.-.-.-.*.*.*.*.*.*.*.*.*.*.*.R R R R R R R R R R R *.*.*.:.-.<.<.<.<.<.<.<.<.<.<.<.<.<.<.<.<.<.6./ 1.J._.P.P.P.`.G.1.<.<.6.-.<.7.F.`.`.`.I.P._.S.5.^ 6.6.<./ t.jXzXjXjXgXI.L 1.<.4.,.4.<.<.<.<.<.<.<.<.<.<.<.<.<.<.<.<.<.<.<.<.<.<.<.<.<.<.<.<.<.<.<.<.<.<.<.<.<.<.<.<.<.<.<.<.<.<.<.<.<.<.<.<.<.<.<.<.<.<.<.<.<.<.<.<.<.<.<.<.<.<.<.<.<.<.<.<.<.<.<.<.<.<.<.<.<.<.<.<.<.<.<.<.<.<.<.<.<.<.<.<.<.<.<.<.<.<.<.<.<.<.<.<.<.<.<.<.<.<.<.<.<.<.<.<.<.1.p.J.P.P.P.P.P.P.Q.S.1.<.<.<.H 5.Q.`.P.I.I.P.K.P.].J.7.2.<.2.^ y.aXlXgXdX| / 2.2.2.2.2.<.<.<.<.<.<.<.<.4.4.:.:.4.:.:.*.&.&.&.&.&.l l l ;.l l a a a a W &.*.G R R *.*.-.2.2.<.<.<.<.<.<.<.<.<.<.<.<.<.<.<.<.<.<.<.<.<.<.<.<.<.<.<.<.<.<.<.<.<.<.<.<.<.<.<.<.<.<.<.<.<.<.<.<.<.<.<.<.<.<.<.<.<.<.<.<.<.<.<.<.<.<.<.<.<.<.<.<.<.<.<.<.<.<.<.<.2.2.<.<.<.<.<.<.<.<.1.G.`.P.I.P.3.<.<.2.^ ! 3.J.P.I.I.P.|.F.1.( 2.-.2./ jXfXgXdXkXg./ ^ 5.1.-.-.<.<.<.<.<.<.<.<.<.<.<.<.<.<.<.<.<.<.<.<.<.<.<.<.<.<.<.<.<.<.<.<.<.<.<.<.<.<.<.<.<.<.<.<.<.<.<.<.<.<.<.<.<.<.<.<.<.<.<.<.<.<.<.<.",
"<.<.<.<.<.<.<.<.<.<.<.<.<.<.<.<.6.-.2.-.2.-.-.-.2.-.-.-.2.-.2.-.-.:.-.:.-.:.-.:.-.:.-.-.-.,.6.6.2.<.<.<.<.<.<.<.<.<.<.<.<.<.<.<.<.6.<.1.J._.P.P.P.`.G.1.<.<.6.-.<.7.F.Q.`.`.I.P._.S.5.^ 6.6.<.1.u.jXzXdXgXlXI.L 1.<.4.,.4.<.<.<.<.<.<.<.<.<.<.<.<.<.<.<.<.<.<.<.<.<.<.<.<.<.<.<.<.<.<.<.<.<.<.<.<.<.<.<.<.<.<.<.<.<.<.<.<.<.<.<.<.<.<.<.<.<.<.<.<.<.<.<.<.<.<.<.<.<.<.<.<.<.<.<.<.<.<.<.<.<.<.<.<.<.<.<.<.<.<.<.<.<.<.<.<.<.<.<.<.<.<.<.<.<.<.<.<.<.<.<.<.<.<.<.<.<.<.<.<.<.<.<.<.<.1.a.J.U.P.P.P.P.P.Q.S.1.<.<.<.H 5.Q.`.I.I.I.P.K.P.].J.7.2.1.2.! y.sXlXgXjXo./ 2.2.2.2.2.<.<.<.<.<.<.<.<.4.4.4.:.4.4.4.:.&.&.&.&.&.&.&.&.l &.a a a W R W R *.R *.*.*.-.-.6.6.<.<.<.<.<.<.<.<.<.<.<.<.<.<.<.<.<.<.<.<.<.<.<.<.<.<.<.<.<.<.<.<.<.<.<.<.<.<.<.<.<.<.<.<.2.2.6.6.<.<.<.<.<.<.<.<.<.<.<.<.<.<.<.<.<.<.<.<.<.<.<.<.<.<.<.<.<.<.<.<.2.2.<.<.<.<.<.<.1.1.3.G.`.P.I.P.3.<.^ 2.1.^ 3.J.P.I.I.P.|.F.1.( 6.<.2.} dXfXgXdXkX&X/ ^ 5.<.-.-.<.<.<.<.<.<.<.<.<.<.<.<.<.<.<.<.<.<.<.<.<.<.<.<.<.<.<.<.<.<.<.<.<.<.<.<.<.<.<.<.<.<.<.<.<.<.<.<.<.<.<.<.<.<.<.<.<.<.<.<.<.<.<.<.",
"<.<.<.<.<.<.<.<.<.<.<.<.<.<.<.<.2.2.2.2.<.2.<.-.2.2.2.2.2.2.2.2.6.6.6.6.6.6.6.6.6.6.6.,.6.,.6.6.2.<.<.<.<.<.<.<.<.<.<.<.<.<.<.<.<.6.<.1.J._.P.P.P.`.G.1.<.<.6.-.<.7.S.`.`._.I.P._.S.5.^ 6.6.<.1.s.jXzXdXjXlXI.~ 1.<.4.,.4.<.<.<.<.<.<.<.<.<.<.<.<.<.<.<.<.<.<.<.<.<.<.<.<.<.<.<.<.<.<.<.<.<.<.<.<.<.<.<.<.<.<.<.<.<.<.<.<.<.<.<.<.<.<.<.<.<.<.<.<.<.<.<.<.<.<.<.<.<.<.<.<.<.<.<.<.<.<.<.<.<.<.<.<.<.<.<.<.<.<.<.<.<.<.<.<.<.<.<.<.<.<.<.<.<.<.<.<.<.<.<.<.<.<.<.<.2.2.<.2.2.<.<.<.^ 1.S.~.U.P.P.P.P.P.Q.S.1.<.<.<.H 5.~.`.I.I.I.I.L.P.].J.7.2.1.1./ y.sXlXgXkXs./ 2.2.2.2.2.<.<.<.<.<.<.<.<.4.4.*.4.4.4.4.:.*.*.*.*.*.&.&.i e i i R R R R R R R -.-.-.<.<.<.4.4.<.<.<.<.<.<.<.<.<.<.<.<.<.<.<.<.<.<.<.<.<.<.<.<.<.<.<.<.<.<.<.<.<.<.<.<.<.2.<.<.<.<.<.<.<.<.<.<.<.<.<.<.<.<.<.<.<.<.<.<.<.<.<.<.<.<.<.<.<.<.<.<.<.<.<.<.<.<.<.<.2.2.<.<.<.<.<.<.1.1.3.G.`.P.I.P.3.<.^ 2.<.! 3.J.P.I.I.P._.G.1.( 6.<.2. .fXfXgXdXkX=X/ ^ 1.<.-.-.<.<.<.<.<.<.<.<.<.<.<.<.<.<.<.<.<.<.<.<.<.<.<.<.<.<.<.<.<.<.<.<.<.<.<.<.<.<.<.<.<.<.<.<.<.<.<.<.<.<.<.<.<.<.<.<.<.<.<.<.<.<.<.<.",
"<.<.<.<.<.<.<.<.<.<.<.<.<.<.<.<.<.<.<.<.<.<.<.<.<.<.<.<.<.<.<.<.6.6.6.6.6.6.6.6.2.6.<.2.<.-.<.<.<.<.<.<.<.<.<.<.<.<.<.<.<.<.<.<.<.6.1.3.`._.P.P.P.`.G.1.<.<.6.-.<.7.S.`.`._.I.P._.S.5.^ 6.6.<.1.f.jXkXdXzXlXI.~ 1.<.4.4.4.<.<.1.<.<.<.<.<.<.<.<.<.<.<.<.<.<.<.<.<.<.<.<.<.<.<.<.<.<.<.<.<.<.<.<.<.<.<.<.<.<.<.<.<.<.<.<.<.<.<.<.<.<.<.<.<.<.<.<.<.<.<.<.<.<.<.<.<.<.<.<.<.<.<.<.<.<.<.<.<.<.<.<.<.<.<.<.<.<.<.<.<.<.<.<.<.<.<.<.<.<.<.<.<.<.<.<.<.<.<.<.<.<.<.<.<.<.<.<.<.2.<.<.<.^ 5.S.~.].P.P.P.P.P.Q.S.1.<.<.<.H 5.~.`.P.I.I.I.L.P.U.J.y.1.1.1./ y.sXlXgXkXd./ 2.<.2.2.2.<.<.<.<.<.<.<.<.4.4.<.4.4.4.4.4.<.-.-.:.:.*.*.&.G G R R *.*.*.*.*.*.2.<.<.<.<.<.<.<.<.<.<.<.<.<.<.<.<.<.<.<.<.<.<.<.<.<.<.<.<.<.<.<.<.<.<.<.<.<.<.<.<.<.<.<.<.<.2.<.2.2.<.<.<.<.<.<.<.<.<.<.<.<.<.<.<.<.<.<.<.<.<.<.<.<.<.<.<.<.<.<.<.<.<.<.<.<.<.<.2.2.<.<.<.<.<.<.1.1.i.G.`.P.I.`.3.<.^ 2.<.! 3.J.P.I.I.P._.G.1.( 6.<.2.r.kXfXgXgXbX=X1.^ 1.1.2.-.<.<.<.<.<.<.<.<.<.<.<.<.<.<.<.<.<.<.<.<.<.<.<.<.<.<.<.<.<.<.<.<.<.<.<.<.<.<.<.<.<.<.<.<.<.<.<.<.<.<.<.<.<.<.<.<.<.<.<.<.<.<.<.<.",
"<.<.<.<.<.<.<.<.<.<.<.<.<.<.<.<.<.<.<.<.<.<.<.<.<.<.<.<.<.<.<.<.<.<.<.<.<.<.<.<.<.<.<.<.<.<.<.<.<.<.<.<.<.<.<.<.<.<.<.<.<.<.<.<.<.2.1.3.`._.P.P.P.P.G.1.<.<.6.-.<.7.S.`.`._.I.P.|.S.5.^ 6.6.<./ f.jXkXdXzXzXY.~ 1.<.4.4.4.<.<.1.<.<.<.<.<.<.<.<.<.<.<.<.<.<.<.<.<.<.<.<.<.<.<.<.<.<.<.<.<.<.<.<.<.<.<.<.<.<.<.<.<.<.<.<.<.<.<.<.<.<.<.<.<.<.<.<.<.<.<.<.<.<.<.<.<.<.<.<.<.<.<.<.<.<.<.<.<.<.<.<.<.<.<.<.<.<.<.<.<.<.<.<.<.<.<.<.<.<.<.<.<.<.<.<.<.<.<.<.<.<.<.<.<.<.<.<.<.<.<.<.<.<.5.G.].].P.P.P.P.P.Q.S.1.<.<.*.H 1.~._.P.I.I.I.L.P.U.J.7.1.1.1./ y.sXlXjXkXg./ <.<.6.6.<.<.<.<.<.<.<.<.<.4.4.4.4.4.4.4.4.4.4.4.4.-.-.-.:.&.*.*.*.*.*.-.-.-.<.<.<.<.<.<.<.<.<.<.<.<.<.<.<.<.<.<.<.<.<.<.<.<.<.<.<.<.<.<.<.<.<.<.<.<.<.<.<.<.<.<.<.<.<.<.<.<.<.<.<.<.<.<.<.<.<.<.<.<.<.<.<.<.<.<.<.<.<.<.<.<.<.<.<.<.<.<.<.<.<.<.<.<.<.<.<.<.<.2.2.<.<.<.<.<.<.<.1.i.Q.`.P.I._.3.<.<.2.<.! 3.J.P.I.I.P.|.F.1.2.6.*.1.u.kXfXdXdXbX=X1.^ 1.1.2.2.<.<.<.<.<.<.<.<.<.<.<.<.<.<.<.<.<.<.<.<.<.<.<.<.<.<.<.<.<.<.<.<.<.<.<.<.<.<.<.<.<.<.<.<.<.<.<.<.<.<.<.<.<.<.<.<.<.<.<.<.<.<.<.<.",
"<.<.<.<.<.<.<.<.<.<.<.<.<.<.<.<.<.<.<.<.<.<.<.<.<.<.<.<.<.<.<.<.<.<.<.<.<.<.<.<.<.<.<.<.6.6.6.6.<.<.<.<.<.6.6.6.<.<.<.<.<.<.<.<.<.2.1.3.].[.P.P.P.P.G.1.<.<.6.-.<.7.S.`.`._.I.P._.S.5.^ 6.6.<./ f.jXkXdXzXzXY.{ / <.4.:.<.<.1.1.<.<.<.<.<.<.<.<.<.<.<.<.<.<.<.<.<.<.<.<.<.<.<.<.<.<.<.<.<.<.<.<.<.<.<.<.<.<.<.<.<.<.<.<.<.<.<.<.<.<.<.<.<.<.<.<.<.<.<.<.<.<.<.<.<.<.<.<.<.<.<.<.<.<.<.<.<.<.<.<.<.<.<.<.<.<.<.<.<.<.<.<.<.<.<.<.<.<.<.<.<.<.<.<.<.<.<.<.<.<.<.<.<.<.<.<.<.<.<.<.1.1.5.G.].].P.P.P.P.P.Q.S.1.<.<.*.F 1.)._.P.I.L.I.L.P.].J.7.1.1.1./ y.sXlXjXzXL./ <.<.<.<.<.<.<.<.<.<.<.<.4.4.4.4.4.4.4.4.4.4.6.4.4.4.6.4.:.:.-.-.-.-.2.2.6.6.6.<.<.<.<.<.<.<.<.<.<.<.<.<.<.<.<.<.<.<.<.<.<.<.<.<.<.<.<.<.<.<.<.<.<.<.<.<.<.<.<.<.<.<.<.<.<.<.<.<.<.<.<.<.<.6.6.<.<.<.<.<.<.<.<.<.<.<.<.<.<.<.<.<.<.<.<.<.<.<.<.<.<.<.<.<.<.<.<.2.2.<.<.<.<.<.<.<.1.p.Q.`.P.I._.3.<.<.2.<.! 3.J.P.I.I.P.|.F.1.<.6.*.1.u.zXfXdXdXbX=X1.^ 1.1.2.2.<.<.<.<.<.<.<.<.<.<.<.<.<.<.<.<.<.<.<.<.<.<.<.<.<.<.<.<.<.<.<.<.<.<.<.<.<.<.<.<.<.<.<.<.<.<.<.<.<.<.<.<.<.<.<.<.<.<.<.<.<.<.<.<.",
"<.<.<.<.<.<.<.<.<.<.<.<.<.<.<.<.<.<.<.<.<.<.<.<.<.<.<.<.<.<.<.<.<.<.<.<.<.<.<.<.<.<.<.<.<.<.<.<.<.<.<.<.<.<.<.<.<.<.<.<.<.<.<.<.<.^ 1.p.J.P.P.P.P._.G./ <.6.6.6.2.2.G.|.I._.[.P._.S.2.^ 2.6.<.P f.kXkXfXkXzXtX~ / <.4.6.<.1.1.1.<.<.<.<.<.<.<.<.<.<.<.<.<.<.<.<.<.<.<.<.<.<.<.<.<.<.<.<.<.<.<.<.<.<.<.<.<.<.<.<.<.<.<.<.<.<.<.<.<.<.<.<.<.<.<.<.<.<.<.<.<.<.<.<.<.<.<.<.<.<.<.<.<.<.<.<.<.<.<.<.<.<.<.<.<.<.<.<.<.<.<.<.<.<.<.<.<.<.<.<.<.<.<.<.<.<.<.<.<.<.<.<.<.<.<.<.<.<.<.<.<.1.5.G.Q.J.P.P.P.D.P.J.1.<.<.<.H C F.G._.P.I.I.L.I.P.J.~.p./ 5.^ / } lXjXdXfXyX/ <.1.1.<.<.<.6.<.<.<.<.<.<.4.4.<.<.<.<.<.<.4.<.<.<.<.4.<.<.<.2.<.<.<.<.<.<.<.<.<.<.<.<.<.<.<.<.<.<.<.<.<.<.<.<.<.<.<.<.<.<.<.<.<.<.<.<.<.<.<.<.<.<.<.<.<.<.<.<.<.<.<.<.<.<.<.<.<.<.<.<.<.<.<.<.<.<.<.<.<.<.<.<.<.<.<.<.<.<.<.<.<.<.<.<.<.<.<.<.<.<.<.<.<.<.<.<.2.2.<.<.<.<.<.<.<.1.p.`.`.P.f.`.1.1.<.^ ^ ( y.G.P.I.I.P.`.S.^ <.<.6.^ P.fXwXdXgXkX6XI ^ 5.<.2.2.<.<.<.<.<.<.<.<.<.<.<.<.<.<.<.<.<.<.<.<.<.<.<.<.<.<.<.<.<.<.<.<.<.<.<.<.<.<.<.<.<.<.<.<.<.<.<.<.<.<.<.<.<.<.<.<.<.<.<.<.<.<.<.<.",
"<.<.<.<.<.<.<.<.<.<.<.<.<.<.<.<.<.<.<.<.<.<.<.<.<.<.<.<.<.<.<.<.<.<.<.<.<.<.<.<.<.<.<.<.<.<.<.<.<.<.<.<.<.<.<.<.<.<.<.<.<.<.<.<.<.^ 1.a.J.P.P.P.P._.a./ 1.6.4.6.2.2.G.].I._.[.P.].S.1.^ 6.6.<./ I.zXkXdXfXgXyX{ / <.4.4.<.1.1.1.<.<.<.<.<.<.<.<.<.<.<.<.<.<.<.<.<.<.<.<.<.<.<.<.<.<.<.<.<.<.<.<.<.<.<.<.<.<.<.<.<.<.<.<.<.<.<.<.<.<.<.<.<.<.<.<.<.<.<.<.<.<.<.<.<.<.<.<.<.<.<.<.<.<.<.<.<.<.<.<.<.<.<.<.<.<.<.<.<.<.<.<.<.<.<.<.<.<.<.<.<.<.<.<.<.<.<.<.<.<.<.<.<.<.<.<.<.<.<.<.<.1.5.G.~.J.P.P.P.D.P.F.1.<.6.<.H C W.G.|.P.I.I.L.I.P.P.~.y./ 5./ 1.} lXjXdXfXjX/ <.1.<.1.<.<.<.<.<.<.<.<.<.:.4.<.<.<.<.<.<.4.4.<.<.<.<.<.<.<.<.<.<.<.<.<.<.<.<.<.<.<.<.<.<.<.<.<.<.<.<.<.<.<.<.<.<.<.<.<.<.<.<.<.<.<.<.<.<.<.<.<.<.<.<.<.<.<.<.<.<.<.<.<.<.<.<.<.<.<.<.<.<.<.<.<.<.<.<.<.<.<.<.<.<.<.<.<.<.<.<.<.<.<.<.<.<.<.<.<.<.<.<.<.<.<.<.2.2.<.<.<.<.<.<.1.1.p.`.`.P.P.P.1.<.<.^ ^ ( y.G.f.I.I.P.`.S.^ <.<.6.^ P.fXwXdXfXkX6XI ^ 5.<.2.2.<.<.<.<.<.<.<.<.<.<.<.<.<.<.<.<.<.<.<.<.<.<.<.<.<.<.<.<.<.<.<.<.<.<.<.<.<.<.<.<.<.<.<.<.<.<.<.<.<.<.<.<.<.<.<.<.<.<.<.<.<.<.<.<.",
"<.<.<.<.<.<.<.<.<.<.<.<.<.<.<.<.<.<.<.<.<.<.<.<.<.<.<.<.<.<.<.<.1.1.<.1.<.<.<.<.<.<.<.<.1.1.<.<.<.<.<.<.<.<.<.<.<.<.<.<.<.<.<.<.<.^ 1.a.J.P.P.P.P._.a./ <.6.4.6.2.2.G.|.I.`._.P._.S.1.^ 6.6.<./ 4XzXfXdXdXgXuX| / 1.<.2.<.<.1.1.<.<.<.<.<.<.<.<.<.<.<.<.<.<.<.<.<.<.<.<.<.<.<.<.<.<.<.<.<.<.<.<.<.<.<.<.<.<.<.<.<.<.<.<.<.<.<.<.<.<.<.<.<.<.<.<.<.<.<.<.<.<.<.<.<.<.<.<.<.<.<.<.<.<.<.<.<.<.<.<.<.<.<.<.<.<.<.<.<.<.<.<.<.<.<.<.<.<.<.<.<.<.<.<.<.<.<.<.<.<.<.<.<.<.<.<.<.2.<.<.1.1.5.G.~.J.P.P.P.D.P.J.1.<.6.<.H C W.G._.P.I.I.L.I.P.P.~.y./ 1./ 1.} lXjXdXfXjXr.1.1.1.<.<.<.<.<.<.<.<.2.2.:.4.<.<.<.<.<.<.<.<.<.<.<.<.<.<.<.<.<.<.<.<.<.<.<.<.<.<.<.<.<.<.<.<.<.<.<.<.<.<.<.<.<.<.<.<.<.<.<.<.<.<.<.<.<.<.<.<.<.<.<.<.<.<.<.<.<.<.<.<.<.<.<.<.<.<.<.<.<.<.<.<.<.<.<.<.<.<.<.<.<.<.<.<.<.<.<.<.<.<.<.<.<.<.<.<.<.<.<.<.<.<.<.<.2.2.<.<.<.<.<.<.<.1.p.`.`.P.I.P.1.<.^ ^ ^ ^ y.J.P.I.I.P.`.S.^ <.<.6.^ P.kXwXdXfXkXeX/ ^ 1.<.2.2.<.<.<.<.<.<.<.<.<.<.<.<.<.<.<.<.<.<.<.<.<.<.<.<.<.<.<.<.<.<.<.<.<.<.<.<.<.<.<.<.<.<.<.<.<.<.<.<.<.<.<.<.<.<.<.<.<.<.<.<.<.<.<.<.",
"<.<.<.<.<.<.<.<.<.<.<.<.<.<.<.<.<.<.<.<.<.<.<.<.<.<.<.<.<.<.<.<.1.<.<.<.<.<.<.<.<.<.<.<.<.1.<.<.<.<.<.<.<.<.<.<.<.<.<.<.<.<.<.<.<.^ 1.a.`.P.P.P.P._.G./ 1.6.:.6.2.2.S.|.I._._.P.].S.1.^ 6.6.<./ 4XzXfXfXfXgXuX} / 1.<.<.<.1.1.1.<.<.<.<.<.<.<.<.<.<.<.<.<.<.<.<.<.<.<.<.<.<.<.<.<.<.<.<.<.<.<.<.<.<.<.<.<.<.<.<.<.<.<.<.<.<.<.<.<.<.<.<.<.<.<.<.<.<.<.<.<.<.<.<.<.<.<.<.<.<.<.<.<.<.<.<.<.<.<.<.<.<.<.<.<.<.<.<.<.<.<.<.<.<.<.<.<.<.<.<.<.<.<.<.<.<.<.<.<.<.<.<.2.2.<.<.<.2.<.<.<.1.5.G.~.J.P.P.P.D.P.J.1.<.6.<.A C Q.G._.P.I.I.L.I.P.P.`.p.<.1./ 1.} lXjXkXkXjXt.7.1.1.1.<.<.<.<.<.<.<.2.6.4.4.<.<.<.<.<.<.<.<.<.<.<.<.<.<.<.<.<.<.<.<.<.<.<.<.<.<.<.<.<.<.<.<.<.<.<.<.<.<.<.<.<.<.<.<.<.<.<.<.<.<.<.<.<.<.<.<.<.<.<.<.<.<.<.<.<.<.<.<.<.<.<.<.<.<.<.<.<.<.<.<.<.<.<.<.<.<.<.<.<.<.<.<.<.<.<.<.<.<.<.<.<.<.<.<.<.<.<.<.<.<.<.<.2.2.<.<.<.<.<.<.<.1.p.`.`.P.I.P.1.^ ^ 2.^ ! y.U.P.I.I.P.`.S.^ <.<.6.^ P.kXfXhXdXkXeXr./ 1.<.6.2.<.<.<.<.<.<.<.<.<.<.<.<.<.<.<.<.<.<.<.<.<.<.<.<.<.<.<.<.<.<.<.<.<.<.<.<.<.<.<.<.<.<.<.<.<.<.<.<.<.<.<.<.<.<.<.<.<.<.<.<.<.<.<.<.",
"<.<.<.<.<.<.<.<.<.<.<.<.<.<.<.<.<.<.<.<.<.<.<.<.<.<.<.<.<.<.<.<.<.<.<.<.<.<.<.<.<.<.<.<.<.<.<.<.<.<.<.<.<.<.<.<.<.<.<.<.<.<.<.<.6.<.5.a.`.P.P.P.G._.u./ 1.6.-.2.<.1.F.`.I.`._.P.`.S.^ ^ 6.5.<./ 4XzXfXfXkXgXyX../ 1.<.<.<.1.1.1.<.<.<.<.<.<.<.<.<.<.<.<.<.<.<.<.<.<.<.<.<.<.<.<.<.<.<.<.<.<.<.<.<.<.<.<.<.<.<.<.<.<.<.<.<.<.<.<.<.<.<.<.<.<.<.<.<.<.<.<.<.<.<.<.<.<.<.<.<.<.<.<.<.<.<.<.<.<.<.<.<.<.<.<.<.<.<.<.<.<.<.<.<.<.<.<.<.<.<.<.<.<.<.<.<.<.<.<.<.<.<.<.<.<.<.<.<.<.<.<.<.1.5.G.].U.P.P.P.D.P.J.1.<.6.<.C C /.G.`.I.I.I.L.I.I.P.`.p.<.1./ 1.} lXjXkXkXjXt.1.1.<.1.<.<.<.<.<.<.<.2.2.4.2.<.<.<.<.<.<.<.<.<.<.<.<.<.<.<.<.<.<.<.<.<.<.<.<.<.<.2.2.2.2.<.<.<.<.<.<.<.<.<.<.<.<.<.<.<.<.<.<.<.<.<.<.<.<.<.<.<.<.<.<.<.<.<.<.<.<.<.<.<.<.<.<.<.<.<.<.<.<.<.<.<.<.<.<.<.<.<.<.<.<.<.<.<.<.<.<.<.<.<.<.<.<.<.<.<.<.<.<.<.<.<.<.2.2.<.<.<.<.<.<.<.3.G.`.`.P.I.G.1.<.^ 2.^ E 3.].P.I.I.P.`.S.^ <.<.5.^ U.kXfXkXdXkXeXt./ 1.<.2.2.<.<.<.<.<.<.<.<.<.<.<.<.<.<.<.<.<.<.<.<.<.<.<.<.<.<.<.<.<.<.<.<.<.<.<.<.<.<.<.<.<.<.<.<.<.<.<.<.<.<.<.<.<.<.<.<.<.<.<.<.<.<.<.<.",
"<.<.<.<.<.<.<.<.<.<.<.<.<.<.<.<.<.<.<.<.<.<.<.<.<.<.<.<.<.<.<.<.<.1.<.<.<.<.<.<.<.<.<.<.<.<.<.<.<.<.<.<.<.<.<.<.<.<.<.<.<.<.<.<.6.1.5.S.`.P.P.P.G._.a./ 1.6.-.2.<.1.F.|.P.`._.P.`.S.1.^ 6.5.6./ 5XzXfXkXzXgXuXu.~ <.<.<.<.1.1.1.<.<.<.<.<.<.<.<.<.<.<.<.<.<.<.<.<.<.<.<.<.<.<.<.<.<.<.<.<.<.<.<.<.<.<.<.<.<.<.<.<.<.<.<.<.<.<.<.<.<.<.<.<.<.<.<.<.<.<.<.<.<.<.<.<.<.<.<.<.<.<.<.<.<.<.<.<.<.<.<.<.<.<.<.<.<.<.<.<.<.<.<.<.<.<.<.<.<.<.<.<.<.<.<.<.<.<.<.<.<.<.<.<.<.<.<.<.<.<.<.<.1.3.G.].U.P.P.P.D.P.J.1.<.6.<.C C ).G.`.P.I.I.L.I.I.P.`.p.<.1./ 1.} lXjXkXkXjXu.5.$.P <.1.5.5.<.<.<.<.2.2.4.2.<.<.<.<.<.<.<.<.<.<.<.<.<.<.<.<.<.<.<.<.<.<.<.<.<.2.2.2.2.2.2.2.<.<.<.<.<.<.<.<.<.<.<.<.<.<.<.<.<.<.<.<.<.<.<.<.<.<.<.<.<.<.<.<.<.<.<.<.<.<.<.<.<.<.<.<.<.<.<.<.<.<.<.<.<.<.<.<.<.<.<.<.<.<.<.<.<.<.<.<.<.<.<.<.<.<.<.<.<.<.<.<.2.2.<.<.<.<.<.<.5.p.Q.Q.P.P.I.G.1.<.<.2.^ S ) U.P.I.I.P.`.S.^ <.<.5./ U.nXfXhXfXkXkXu./ 1.<.6.-.<.<.<.<.<.<.<.<.<.<.<.<.<.<.<.<.<.<.<.<.<.<.<.<.<.<.<.<.<.<.<.<.<.<.<.<.<.<.<.<.<.<.<.<.<.<.<.<.<.<.<.<.<.<.<.<.<.<.<.<.<.<.<.<.",
"<.<.<.<.<.<.<.<.<.<.<.<.<.<.<.<.<.<.<.<.<.<.<.<.<.<.<.<.<.<.<.<.<.<.<.<.<.<.<.<.1.1.<.<.<.<.<.<.<.<.<.<.<.<.<.<.<.<.<.<.<.<.<.<.6.1.5.S.`.P.P.P.u._.a./ <.<.-.2.<.1.S.|.P.`._.P.`.y.1.^ 6.5.6./ 8XkXdXfXkXgXuXK.~ <.<.<.<.1.1.1.<.<.<.<.<.<.<.<.<.<.<.<.<.<.<.<.<.<.<.<.<.<.<.<.<.<.<.<.<.<.<.<.<.<.<.<.<.<.<.<.<.<.<.<.<.<.<.<.<.<.<.<.<.<.<.<.<.<.<.<.<.<.<.<.<.<.<.<.<.<.<.<.<.<.<.<.<.<.<.<.<.<.<.<.<.<.<.<.<.<.<.<.<.<.<.<.<.<.<.<.<.<.<.<.<.<.<.<.<.<.<.<.<.<.<.2.<.<.<.<.<.1.3.F.].U.P.P.P.D.P.J.1.<.6.<.7 C ).G.`.P._.I.L.I.I.P.`.p.<.1./ 1.} lXjXkXkXjX X/.i.1.1.1.1.<.<.<.<.<.,.,.,.-.2.2.2.2.-.-.<.<.<.<.<.<.<.<.<.<.<.<.<.<.<.<.2.2.2.2.2.2.2.2.2.2.<.<.<.<.<.<.<.<.<.<.<.<.<.<.<.<.<.<.<.<.<.<.<.<.<.<.<.<.<.<.<.<.<.<.<.<.<.<.<.<.<.<.<.<.<.<.<.<.<.<.<.<.<.<.<.<.<.<.<.<.<.<.<.<.<.<.<.<.<.<.<.<.<.<.<.<.<.<.<.<.2.2.<.<.<.<.<.<.7.Q.).Q.P.P.I.G.1.<.<.2.^ S / U.P.I.I.P.`.S.^ <.<.5./ _.nXbXfXfXbXkXa./ 1.<.6.-.<.<.<.<.<.<.<.<.<.<.<.<.<.<.<.<.<.<.<.<.<.<.<.<.<.<.<.<.<.<.<.<.<.<.<.<.<.<.<.<.<.<.<.<.<.<.<.<.<.<.<.<.<.<.<.<.<.<.<.<.<.<.<.<.",
"<.<.<.<.<.<.<.<.<.<.<.<.<.<.<.<.<.<.<.<.<.<.<.<.<.<.<.<.<.<.<.<.<.<.<.<.<.<.<.<.<.<.<.<.<.<.<.<.<.<.<.<.<.<.<.<.<.<.<.<.<.<.<.<.6.<.5.S.].P.P.P.u.`.a./ <.4.:.-.-.<.p.`.I.I._.P.Q.S.<.E 2.5.1./ 6XzXqXfXfXfXgXI.' / / 1.1.1.1.1.1.<.<.<.<.<.<.<.<.<.<.<.<.<.<.<.<.<.<.<.<.<.<.<.<.<.<.<.<.<.<.<.<.<.<.<.<.<.<.<.<.<.<.<.<.<.<.<.<.<.<.<.<.<.<.<.<.<.<.<.<.<.<.<.<.<.<.<.<.<.<.<.<.<.<.<.<.<.<.<.<.<.<.<.<.<.<.<.<.<.<.<.<.<.<.<.<.<.<.<.<.<.<.<.<.<.<.<.<.<.<.<.<.<.<.2.<.<.<.<.6.<.3.F.|.`.`.P.P.K.P.J.1.<.6.*.7 C |.G.`.P.Y.I.g.'.I.`.`.p.<.<.<.1.} lXlXkXzXdXzXsX_.t.r.1.1./ 1.<.<.<.4.<.:.-.2.-.2.-.2.2.2.2.2.2.<.<.<.<.<.<.<.<.<.<.<.<.<.<.<.<.2.2.2.2.2.2.<.<.<.<.<.<.<.<.<.<.<.<.<.<.<.<.<.<.<.<.<.<.<.<.<.<.<.<.<.<.<.<.<.<.<.<.<.<.<.<.<.<.<.<.<.<.<.<.<.<.<.<.<.<.<.<.<.<.<.<.<.<.<.<.<.<.<.<.<.<.<.<.<.<.<.<.<.<.<.<.<.1.1.1.<.<.<.1.F.~.).Q.G.P.P.G.3.^ <.7.<.A ^ J.G.U.P.P.].F.<.<.<.5./ [.zXfXfXfXbXkXu./ / / 6.-.<.<.<.<.<.<.<.<.<.2.2.2.2.2.2.2.<.<.<.<.<.<.<.<.<.<.<.<.<.<.<.<.<.<.<.<.<.<.<.<.<.<.<.<.<.<.<.<.<.<.<.<.<.<.<.<.<.<.<.<.<.<.<.<.",
"5.4.5.4.5.<.4.<.4.4.4.4.5.<.5.4.<.<.<.<.6.6.<.<.<.<.<.<.<.<.<.<.<.<.<.<.<.<.<.<.<.<.<.<.<.<.<.<.6.2.2.2.2.6.2.2.<.<.<.<.<.<.<.<.<.$.1.F.|._.P.U.P.P.y.^ *.6.6.:.*.A Q.a.'.I.I.P.~.2.R E 6.1.} | 9XjXkXfXfXkXfXqX6X-Xg.X.} ' L L r.1.1.1.1.1.1.1.5.5.6.2.2.2.2.<.<.<.<.<.<.<.<.<.<.<.<.<.<.<.<.<.2.-.-.-.-.-.-.-.-.-.-.-.-.-.-.-.-.-.-.-.-.-.2.-.2.2.-.-.-.-.2.2.-.-.-.-.2.2.-.-.-.2.2.2.-.-.2.-.-.-.-.-.-.-.-.-.-.-.-.-.-.-.-.2.<.<.<.<.<.<.<.<.4.4.4.4.4.4.4.<.6.6.2.2.<.*.*.<.<.<.p.Q._.`.l.'.g.=X'.a.1.E *.*.X <./.`.P.I.I.I.z.}.`.`./.p.4.6.6.1.y.iXlXkXfXfXdXgXjXjX5XI.t.} / / 1.1.5.6.4.<.-.-.-.-.-.6.6.6.-.,.,.,.:.,.:.6.4.2.<.2.<.-.-.2.2.2.2.2.2.-.-.2.4.4.4.4.4.4.4.4.4.4.:.4.4.4.4.4.4.4.4.4.4.4.:.4.4.4.4.4.4.4.4.4.4.4.:.:.4.4.4.4.4.4.:.:.4.4.4.4.4.4.4.4.4.4.4.4.6.6.6.6.6.6.6.6.6.6.6.6.6.6.6.6.6.4.6.6.6.6.4.<.1.3.S.F.~.~.Q.F.].].].F.J.U.J.G./ 1.<.7.E X <.~.J.U.G.P.].p.<.6.H 1.t.I.jXkXdXfXkXdX5Xu.! S Q 3.-.-.-.-.6.6.-.:.-.-.*.*.*.-.-.-.,.4.4.4.4.4.4.4.4.4.:.4.4.4.4.,.6.,.,.,.,.,.,.,.,.,.,.,.,.,.,.,.,.2.4.2.4.-.:.-.6.6.6.6.6.6.6.6.",
"<.<.<.<.<.<.<.<.<.<.<.<.<.<.<.<.<.<.<.<.<.1.<.1.<.1.<.<.<.1.<.<.<.<.4.<.4.<.4.<.4.4.4.4.6.6.4.4.6.2.2.2.2.2.2.2.<.<.<.<.<.<.<.<.5.<.1.p.`.P.P.P.D.J.p.<.*.6.,.&.&.C /.a.I.L.I.P.~.2.Y W 6.1.I ' 5XjXzXzXkXkXnXnXnXkXfXdX6X5X[.[.r.r.1./ I P K Z K K ^ ^ ^ 2.2.6.<.<.<.<.<.<.6.6.<.<.<.<.<.<.<.<.2.2.2.2.2.-.2.-.2.-.2.-.2.-.2.-.2.-.2.-.2.-.2.-.2.2.2.-.2.-.2.2.2.-.2.-.2.2.2.-.2.-.2.2.2.-.2.-.2.2.2.2.2.-.2.-.2.2.2.-.2.-.2.2.<.<.<.<.<.<.<.<.<.<.<.<.<.<.<.<.1.<.<.<.<.-.*.E <.1.p.`. X}.}.7Xg.=X_.G.5.2.-.*.X <./.`.P.I.I.I.z.}.}././.w.<.4.<./ y.tXzXzXfXvXfXfXkXkXdXyX5X4Xu.} I K K <.<.<.6.2.2.-.-.*.E R 2.-.4.,.4.,.4.4.4.<.<.<.<.<.<.<.<.<.<.<.<.<.<.<.4.4.4.4.4.4.4.4.4.4.:.:.4.4.4.4.4.4.4.4.4.4.:.:.4.4.4.4.4.4.4.4.4.4.4.:.4.4.4.4.4.4.4.:.4.4.4.4.4.4.4.4.4.4.4.4.6.6.6.6.6.6.6.6.6.6.6.6.4.4.6.6.4.4.4.4.4.4.6.<.a.D.G.P.].].J.J.J.U.P.G.G.P.J.a.! 2.*.6.G X 6.).~.J.G.J.].7.*.<.<.I r._.jXkXdXzXfXdXuX5XD./ ! E 7.6.4.<.<.<.-.*.2.-.-.-.-.-.*.-.,.4.4.4.4.4.4.4.4.4.:.:.4.4.4.4.6.,.,.,.6.,.6.,.6.,.6.,.,.,.6.6.-.-.-.-.-.-.-.-.-.-.-.-.-.-.-.-.",
"<.<.<.<.<.<.<.<.<.<.<.<.6.6.6.6.<.1.<.1.6.2.6.2.1.1.<.1.<.1.1.1.<.<.<.<.<.<.4.<.<.<.<.<.<.<.<.<.<.<.<.<.<.<.<.<.<.<.<.<.<.<.<.<.4.<.<.i.G.Q.J.J.J.J.F.6.<.:.;.g e 7 ^.a.I.L.I.P.~.-.e R 2.5./ L | =XjXjXdXqXdXfXfXfXkXzXjXlXyXiXiXiX X[._.P.G.G.1./ 1./ ^ ^ / ^ 1.<.<.<.<.<.6.6.<.<.<.<.<.<.<.<.<.<.<.<.<.<.<.<.<.<.<.<.<.<.<.<.<.<.<.<.<.<.<.<.<.<.<.<.<.<.<.<.<.<.<.<.<.<.<.<.<.<.<.<.<.<.<.<.<.<.<.<.<.<.<.<.<.<.<.<.<.<.<.<.<.<.<.<.<.<.<.<.<.<.<.<.<.<.<.1.1.2.2.2.2.2.2.2.^ ^ 7.Q.`.`.l.f.g.'.`.p.6.-.*.G X <./.`.P.I.I.I.I.}.`.Q./.7.<.<.5./ y.[.zXkXfX<XbXkXkXzXzXzXzXlXpX5XP.y.r.1.1./ 1.6.6.6.5.6.5.6.<.<.<.<.<.<.<.<.<.<.<.<.<.<.<.<.<.<.<.<.<.<.<.<.<.<.<.<.<.<.<.<.<.<.<.<.<.<.<.<.<.<.<.<.<.<.<.<.<.<.<.<.<.<.<.<.<.<.<.<.<.<.<.<.<.<.<.<.<.<.<.<.<.<.<.<.<.<.<.<.4.4.4.4.4.4.4.4.<.<.<.<.<.<.<.<.<.<.<.<.<.<.4.5.F.G.P.P.G.G.G.G.G.P.P.G.P.P.G.y.^ 3.*.R q 7 7.).~.U.G.P.~.5.H *.6.^ ~ [.lXdX,XnXwXfXfXdX5XI...} I I P P 1.3.i.p.^ ^ 1.2.2.2.<.<.<.<.<.<.<.<.<.<.<.<.<.<.<.<.<.<.4.6.4.6.4.6.4.6.4.6.4.6.4.6.4.<.<.<.<.<.<.<.<.<.<.<.<.<.<.<.<.<.",
"6.2.6.6.6.6.6.2.<.<.<.1.1.1.2.2.<.<.<.<.2.2.2.<.<.<.<.<.<.<.<.<.<.<.<.<.<.<.<.<.<.<.<.<.<.<.<.<.2.2.2.2.6.6.6.6.<.<.<.<.<.<.<.<.4.4.<.5.W.Q.).|.)./.W.<.*.&.g 0 7 6 W.G.I.L.I.P.~.*.9 R 6.6.1.~ L L.sXzXzXjXkXkXdXjXzXzXlXlXsXsXlXlXsXsXsXsXaXaX#X#X+X].~.G.S.S.5.6.<.<.<.<.<.<.<.<.<.<.<.<.<.<.<.<.1.<.<.<.<.<.1.<.1.<.<.<.<.<.<.<.<.<.<.<.<.<.<.<.<.<.<.<.<.<.<.<.<.<.<.<.<.<.<.<.<.<.<.<.<.<.<.<.1.<.<.<.<.<.1.<.<.<.<.<.<.<.<.<.<.<.<.<.<.<.<.<.<.<.<.<.<.1.^ ^ 2.2.( 2.2.2.E ( 7.F.Q.Q.`.`._._.Q.m.6.-.i q X <./.`.P.I.I.I.I.P.`.`.).5.H 1.1./ { I.dXkXvXfXwXfXdXdXdXjXjXjXlXsXiXiX[.G.y.1.K S K K ^ / 1.1.1.<.<.<.<.<.<.<.<.1.1.1.1.1.1.1.1.1.1.1.1.1.1.<.<.<.<.<.<.<.<.<.<.<.<.<.<.<.<.<.<.<.<.<.<.<.<.<.<.<.<.<.<.<.<.<.1.<.<.<.<.<.<.<.1.<.<.<.<.<.<.<.<.<.<.<.<.<.<.<.<.<.<.<.<.<.<.<.<.<.<.<.<.<.<.<.<.1.<.<.<.<.5.7.`.P.P.P.P.P.P.P.P.U.U.P.P.P.P.y.E v.R e 6 6 7.).Q.P.G.P.~.1.C G 2.E ^ P.sXgXqXfXnXnXbXkXkXjXjXpX'.'.f.a.t.r.I U P P / / / 1.1.1.<.<.<.<.<.<.<.<.<.<.<.<.<.<.<.<.<.<.<.<.<.<.<.<.<.<.<.<.<.1.<.<.<.1.<.1.<.1.1.1.1.1.1.1.1.1.1.1.",
"2.( 2.Q -.Q -.Q -.( 2.( -.Q -.-.*.*.Q Q Q -.*.*.2.2.2.2.2.2.2.2.-.-.2.2.2.2.2.2.6.6.6.6.6.6.6.6.6.6.6.6.6.6.6.6.6.6.6.6.6.6.6.6.:.:.4.4.7.W.W./.W.m.6.O.e g 0 2 , ; W.G.I.L.I.I.Q.<.q e ,.6.6.1.S / P.iXpXyXyXuXtXtXtXtXtX+X+X+X[.[.[.[.[.[.|.`.|.|.~.Q.F.G.S.S.5.6.<.<.<.<.<.<.<.<.<.<.<.<.<.1.1.1.1.1.1.1.1.1.1.1.1.1.1.1.1.1.1.1.1.1.1.1.1.1.1.1.1.1.1.1.1.1.1.1.1.1.1.1.1.1.1.1.1.1.1.1.1.1.1.1.1.1.1.1.1.1.1.1.1.1.1.1.1.1.<.2.2.2.2.2.2.2.*.*.*.E <.<.<.<.^ ^ E Q Q Q Q Q E Q 3.H.).).).|.Q./.B.6.,.>.l 8 = <.Q.`.P.I.I.I.I.P.G.Q.~.1.S ^ 1.P I s.6XzXnXnXnXzXzXzXzXzXjXlXjXsXlXlXlXsXiX+XG.S.3./ / ! / / 1.1.1.1.1.1.1.1.1.1.1.1.1.1.1.1.1.1.1.1.1.1.1.1.1.1.1.1.1.1.1.1.1.1.1.1.1.1.1.1.1.1.1.1.1.1.1.1.1.1.1.1.1.1.1.1.1.1.1.1.1.1.1.1.1.1.1.1.1.1.1.1.1.1.1.1.1.1.1.1.1.1.1.1.1.1.1.1.1.1.1.1.1.1.1.1.1.1.1.1.1.1.7.i.|._.].P.P.U._._.P._._.P.P.P.G.3.*.x.i q 6 6 7.Q.`.P.P.`.~.2.q 9 Y Q ( 3.+XlXgXfXfXfX<XwXwXfXkXzXkXjXjXpX8X'.f.u.a.u.y.r./ / 1.1.1.1.1.1.1.1.1.1.1.1.1.1.1.1.1.1.<.1.<.1.<.1.<.1.1.1.1.1.<.1.1.1.<./ <./ <./ <./ 1.^ 1.^ 1.^ 1.^ ",
"-.-.-.-.-.-.-.-.2.2.2.2.-.-.-.-.-.-.-.-.-.-.-.-.*.*.*.*.*.*.*.*.-.-.-.-.-.-.-.-.*.*.*.*.*.*.*.*.;.;.&.;.&.;.&.;.&.&.&.&.&.&.&.&.g O.O.D G *.*.*.-.G e q 0 0 2 2 , = !.F.I.g.I.I.`.<.q q ;.:.-.-.2.^ ^ ) 3. . .u.u... .} 1./ 3.1.i.r.1.1.1.1.1./ / / ^ ^ ^ ^ ^ E <.<.<.<.<.2.6.6.2.2.2.2.2.2.2.<.<.<.<.<.<.<.<.<.<.<.<.<.<.<.<.<.<.<.<.<.<.<.<.<.<.<.<.<.<.<.<.<.<.<.<.<.<.<.<.<.<.<.<.<.<.<.<.<.<.<.<.<.<.<.<.<.<.<.<.<.<.<.<.<.2.-.2.-.2.-.2.-.-.-.-.-.-.-.-.-.2.2.2.-.-.-.-.-.W Q -.v.b.3.3.7.<.-.*.l l z k q 6 <.Q.`.P.P.P.I.P.P.G.].~./ C E 5./ ~ } d.I.-X-X6XpXyXyXyXpXpXiX5X[.+XiXiXiXiX+X X).G.y.3.1.1.1.1.1.1.1.1.1.1.1.1.1.1.1.1.1.1.1.1.1.1.1.1.1.1.1.<.<.<.<.<.<.<.<.<.<.<.<.<.<.<.<.<.<.<.<.<.<.<.<.<.<.<.<.<.<.<.<.<.<.<.<.<.<.<.<.<.<.<.<.<.<.<.<.<.<.<.<.<.<.<.<.1.1.1.1.<.<.1.<.<.<.<.<.<.<.<.<.<.<.<.1.<.<.5.5.F.S.G.S.G.G.G.G.G.F.F.S.a.S.i.( =.x 4 w 0 6 7.Q.`.P.P.`.~.*.8 8 8 W Y Q J.sXlXgXfXfXfXfXfXfXfXkXjXjXjXzXzXzXlXsX8X X`.p.i.1.1.1.<.<.<.<.<.<.<.<.<.<.<.<.<.<.<.<.1.1.1.1.1.<.<.<.1.1.1.1.1.<.1.5.1.1.1.1.1.1.1.1.1.1.1.1.2.2.1.1.",
"=.=.=.=.=.=.=.=.=.=.=.=.=.=.=.=.&.&.=.=.&.&.&.&.i i i i i i i i i i i i i i i i w w w w w w w w q q w q w q w q w w w w w w w w 2 w w 0 6 8 8 6 q 7 0 2 4 d d d 1 8 !.G.P.d.I.I.|.1.7 q g l x =.Z.6.-.-.<.E ^ ^ ) 1.1.1.<.<.<.<.1.1.1.1.<.<.<.<.6.6.6.2.2.<.*.*.-.:.-.-.-.,.,.,.-.-.-.-.-.-.-.-.<.<.<.<.<.<.<.<.<.<.<.<.<.<.<.<.<.<.<.<.<.<.<.<.<.<.<.<.<.<.<.<.<.<.<.<.<.<.<.<.<.<.<.<.<.<.<.<.<.<.<.<.<.<.<.<.<.<.<.<.<.<.<.<.-.-.-.-.-.=.-.=.-.=.-.=.-.=.-.-.-.*.*.*.=.=.a a x a i i e 7 8 9 q 9 w , 2 4 4 8 6 <.Q._.P.P.I.I.I.I.G.].~.^ C E 7.6.1./ / } } { I { { ~ { } / /  ./ ~ ! ! ~ ! ! ^ ^ ^ ^ ^ ^ ^ ^ <.<.<.<.<.<.<.<.<.<.<.<.<.<.<.<.<.<.<.<.<.<.<.2.<.<.<.<.<.<.<.<.<.<.<.<.<.<.<.<.<.<.<.<.2.2.<.<.<.<.<.<.<.<.<.<.<.<.<.<.<.<.<.<.<.<.<.<.<.<.<.<.<.<.<.<.<.<.<.<.<.<.<.<.<.<.<.<.<.<.<.<.<.<.<.<.<.<.<.<.<.<.<.<.<.<.1.<.1.<.1.2.2.6.1.<.<.2.<.Y x p < w w 6 7.|.`.I.P.]./.-.0 w 1 u s y b.J.[.iXjXzXzXzXzXzXjXjXpXpXpXiX5X[.P.G.|.Q.F.i.5.<.<.<.<.<.<.<.<.<.<.<.<.<.<.<.<.<.<.<.<.<.<.<.<.<.<.<.<.<.<.<.<.<.<.<.2.2.2.2.2.2.2.2.*.*.*.*.-.-.-.-.",
"u u u u u u u u 8 8 8 8 8 8 8 8 8 8 8 8 8 8 8 8 1 1 1 1 1 1 1 1 2 2 2 2 2 2 2 2 2 2 2 2 2 2 2 2 2 2 2 2 2 2 2 2 2 2 2 2 2 2 2 2 , 4 w 2 2 w w 8 w 2 4 d k d d 4 1 8 !.F.P.d.I.I. X5.D 0 q w u x w w i &.=.R W -.E E *.*.:.:.:.:.-.*.:.-.:.-.:.:.:.*.:.-.:.,.,.,.,.,.,.,.,.:.:.:.:.:.:.:.:.:.:.:.,.,.,.,.,.,.,.,.,.,.,.,.,.,.:.:.,.,.,.,.,.,.,.,.,.,.,.,.,.,.,.,.,.,.,.,.,.,.,.,.,.,.,.,.,.,.,.,.,.,.,.,.,.,.,.,.,.,.,.,.,.,.,.,.;.;.;.;.=.=.=.=.i i i i i i i i e w 8 8 8 1 , 1 1 , , 1 1 1 8 w 7 q 2 5 5 2 2 8 6 <.).|.P.P.I.I.I.I.P._.).^ C E *.2.2.2.2.2.<.2.1.1.<.^ ^ ^ 1.1.^ ^ ^ ^ 2.2.^ ^ *.*.2.2.6.6.2.-.2.-.4.6.4.,.4.,.-.-.-.-.-.-.-.-.-.-.-.-.-.,.,.:.,.:.,.:.,.:.,.:.,.:.,.:.,.:.,.,.,.:.,.:.,.:.:.:.,.:.,.,.,.:.,.:.,.:.,.:.,.:.,.:.,.:.,.:.,.:.,.:.,.:.,.:.,.:.,.:.:.:.:.:.:.:.:.:.:.-.:.-.:.-.:.-.:.;.:.:.:.:.;.;.*.*.*.*.*.*.*.R R R R e R W R e p t $ u g 6 7.|.`.I.P.]./.-.q 2 1 4 , 8 W E 1.].G.P.P.I.P.u.u.u.u.r. ./ / / ! K ^ *.*.-.-.,.,.,.,.:.,.:.,.:.,.:.,.:.,.:.,.:.,.,.:.:.,.:.,.:.,.:.:.:.:.:.:.;.:.:.R &.*.&.*.&.*.&.G i G i R i R i ",
"1 1 4 4 4 4 4 1 4 4 4 4 4 4 1 1 4 4 4 4 4 4 4 4 4 4 4 4 3 3 3 3 4 3 3 3 3 3 4 4 4 4 4 4 3 3 3 3 3 3 3 3 3 3 3 3 4 4 3 3 3 3 3 3 4 4 3 4 4 4 1 1 4 4 3 3 d d j 3 , W m.J.K.I.I.'. Xj.+.7 q w 1 1 4 4 4 4 w w q 8 9 q q q w w 0 w 0 q 0 q 0 q 0 w w w w w w w w w w w w 0 0 0 w w g g g g w w g g w w w w w w w w w w w f g g g g g g g g g g g g g g g g g g g g g g g g g g g g k k l k k k k l l l l l l l l l f f f f f f f f w w w w w w w w w w 2 2 2 w w 4 w w w w w 4 4 4 4 4 4 4 4 4 4 w w w 2 2 4 2 1 0 9 7.|.`.P.I.I.I.I.I.`.`.Q.p.H 7 :.:.8.x.,.>.>.,.-.:.:.:.:.-.-.-.-.-.-.-.-.-.-.-.-.:.:.:.:.>.:.,.,.>.,.>.8.8.8.,.>.>.>.>.>.>.>.>.;.=.=.=.=.=.>.>.v v v v ;.v ;.v ;.v v v v v c v ;.v ;.v c v c v c c c c l c c c k k k k k k k k f f f f f f f f f f f f w w w w w w w w w w w w w w w w w w w w w w w w w w w w w 8 w 8 w 8 w 8 w w w w w w w 2 t r u w q O.7.`.`.I.f.G.).6.e w 4 2 1 1 w i R Q E ^ ! ^ ^ ^ Q Q ^ ^ ( ( -.-.-.-.*.=.;.=.l x c c l l c c l l l l k k k l g f f f w w 0 w w w 0 w w w w w w w w w 8 2 w 4 w 4 w 4 8 1 8 1 8 1 8 1 ",
"2 4 2 4 4 4 4 4 2 4 2 4 2 4 4 4 4 3 4 3 2 2 2 4 2 2 4 4 4 3 4 4 3 3 3 3 3 3 3 3 3 3 3 3 3 3 3 4 4 4 4 4 4 4 2 4 4 4 2 4 4 4 4 4 4 4 3 < 4 1 1 1 4 4 3 3 3 < 3 < % E H.J.P.L.I.'.`./.j.:.q , 1 w 4 4 4 4 4 w w 0 q q w w 0 0 f 0 0 4 4 w w w w w 2 2 4 2 4 4 4 4 0 0 0 0 0 0 0 0 0 0 0 0 0 0 0 0 0 2 2 2 2 2 2 2 2 2 2 2 w w w w w w w w w w w w 2 2 2 2 2 2 2 2 w w w w w w w w 2 0 0 0 2 2 2 2 2 2 2 2 2 2 2 2 w w w w 4 4 0 0 4 4 4 4 w w w w w w 4 4 4 w w w w w w 2 2 4 4 4 4 3 3 3 4 4 4 2 w w w w w 2 8 6 <.W.|.`.f.I.I.I.z.z.z.`.Q.5.F X w e l z z k k z f w w w e e e e q q q 9 9 9 9 9 w w w w w w w w w 0 0 0 w w w w 2 2 2 2 2 2 2 2 , , , , , , , 2 2 2 2 2 2 2 2 2 2 2 2 2 2 2 2 2 2 2 2 2 2 2 2 2 5 5 5 5 , , , , , , , , , 5 , , 4 4 4 4 4 4 4 4 4 4 4 4 4 4 4 4 2 2 2 2 2 2 4 2 4 4 4 4 4 4 4 4 4 4 4 4 4 4 4 4 4 4 4 4 4 4 4 4 4 2 4 4 4 4 4 4 < 1 1 1 6 D 7.`.`._.I.P.~.2.6 , f 4 4 w w q 8 8 9 9 7 7 7 7 7 7 7 7 8 8 8 8 8 8 4 2 2 4 2 2 4 < 4 4 4 4 4 4 4 4 2 2 2 2 2 2 2 2 2 2 2 2 2 4 2 2 4 4 4 4 4 4 4 4 2 2 4 4 4 4 4 4 1 1 2 2 2 2 2 2 ",
"w 4 w 4 4 4 4 4 w 4 w 4 4 4 4 4 w 4 d 4 w 4 w 4 w 4 w 4 w 4 w 4 4 4 4 4 4 d d d 4 4 d d 4 4 4 4 4 r 4 r 4 r 4 r 4 4 4 r 4 r 4 r r r r r 4 4 1 1 4 4 4 4 3 2 2 1 = <.~.].P.K.I.'.f.{.|.W.*.7 6 8 w f f w w w w w w w w w g g h f f w f f w w w w w w w w w w w w w w w w w w w w 0 0 0 0 0 0 q q w w w w w w w w w w w w w w w w w w w w w w w w w w w w w w w w w w w w w w w w w w w w w w w w w w w w w w w w w w w w w w w w w w w w w w w w w w w w f f f f w w w w w w w w w w w w w w w w 0 0 , , 1 8 e G W.|.}.l.f.I._.I.z.z.z.}.`.i.F X q q w 4 4 d j 3 4 w w w w w w w w w w w w 8 8 8 8 w w w w w w w f f f f f f f f f f f f f f f f w w f f w f w f f f f f f f f f f f f f f f f f f f f f f f f f f f f f f f f f k k k k f f k k 4 4 4 4 4 4 4 4 d 4 f f w w w 4 4 4 4 4 4 4 4 4 4 4 4 4 4 4 4 4 w 4 4 4 4 4 4 4 4 4 r 4 4 4 4 r 4 4 4 4 4 4 4 w 1 8 w 8 7 G p.|.`.I.I.P.).6.q 6 0 2 2 w w w w 8 8 8 8 8 8 8 8 8 8 8 8 8 8 1 1 1 4 4 4 3 3 3 3 3 4 4 4 4 4 4 4 4 4 4 4 4 4 4 f w 4 4 4 4 4 4 4 4 f d f 4 w 4 4 4 4 4 4 4 4 4 4 4 4 4 4 4 4 3 3 4 ",
"w w w w w 2 w 2 w w w w w w w w w w w 2 w w w w w w w w w w w w w 2 w 2 w 2 w 2 w 2 w 2 w 2 w 2 8 1 8 1 8 1 8 1 8 1 8 1 8 1 8 8 1 1 8 8 8 8 8 8 8 8 8 1 1 , , 6 H i.~._.K.K.P.I.'.`.Q.Q.p.2.A ; 6 0 0 0 6 7 7 6 6 6 7 6 0 0 0 0 0 0 0 0 0 0 0 0 0 0 0 0 0 0 0 0 7 7 7 7 7 6 7 7 6 6 6 6 6 6 6 6 0 0 0 0 0 0 0 0 6 0 0 6 0 0 0 0 0 0 0 0 0 0 0 0 7 7 7 7 0 q q 0 0 0 0 0 0 0 0 0 0 0 7 7 7 7 0 0 0 0 0 0 0 0 0 0 6 6 6 6 6 6 6 6 0 7 7 7 7 7 7 7 7 7 7 7 7 7 7 7 0 0 0 0 0 0 0 0 0 0 0 0 0 0 0 0 q 7 = % 6 R 6.W.).|.}.g.f.'.`.f.'.'.'.}.{.k.1.H D 7 0 , 2 4 3 2 2 , , , 0 , 0 0 0 0 0 0 0 0 7 7 0 0 0 0 0 8 0 w 0 , 0 0 0 0 0 2 , , 0 0 0 0 0 0 0 0 0 0 , 2 , , 0 0 2 2 0 0 0 0 0 0 0 0 0 2 2 2 0 0 0 0 2 0 w w w w w w w w w w 2 2 2 2 0 2 2 2 0 0 0 0 0 0 0 0 w w w w w w w w 2 2 2 2 0 2 0 0 2 2 2 2 2 2 2 2 2 2 2 2 2 2 2 , 2 2 2 2 w w w w 1 1 1 1 2 2 2 8 = ; 6 9 G 6.W.|.P.I.P.P.|.F.<.:.7 0 6 6 0 7 6 6 8 8 8 8 8 8 8 8 8 8 8 8 8 8 8 1 4 4 4 4 4 4 4 4 2 0 w w w w w w w w w w w w w w 2 2 2 2 2 2 2 2 4 4 4 2 2 2 2 2 2 2 2 2 2 2 2 2 1 1 2 1 2 2 2 2 ",
"6 6 6 6 6 6 6 6 6 6 6 6 6 6 6 6 6 6 6 6 6 6 6 6 6 6 6 6 7 6 6 6 6 6 6 6 6 6 6 6 6 6 6 6 6 6 6 6 6 6 6 6 6 6 6 6 6 6 6 6 6 6 6 6 ; ; ; ; 6 6 6 6 6 6 7 q 7 q q 7 j.Q.`.P.K.U.P.I.'.l.a.l.Q.Q.3.E <.*.<.<.<.<.*.*.*.*.*.*.-.*.:.*.*.-.-.-.*.-.*.-.*.*.*.*.*.-.*.-.<.<.<.<.<.<.<.<.<.<.<.<.<.<.<.<.-.-.-.-.<.-.-.-.-.-.-.*.*.*.*.*.-.-.-.-.*.*.*.*.*.*.*.*.-.*.*.*.-.-.-.-.-.-.-.-.-.-.-.-.*.*.*.*.*.*.*.*.-.*.*.*.*.*.*.*.*.*.*.*.-.*.*.*.*.*.*.*.*.*.*.*.*.*.*.*.*.*.*.*.*.*.*.*.*.*.<.*.*.*.*.*.6.<.*.*.-.m./.|.`.'.'.z.'.}.`.f.'.'.`._.}._.Q.j.H A 7 q q q q 8 q q q q 7 q 7 7 7 7 7 7 q 7 7 7 7 6 7 6 7 6 7 7 7 6 7 6 7 6 7 7 7 7 7 7 7 7 7 7 7 7 7 7 7 7 7 7 6 6 6 6 7 6 6 6 6 6 6 6 6 6 6 6 6 6 6 6 6 6 6 6 7 q q q q q q q 6 6 6 6 6 6 6 6 q q q q q q q q q q q q q q q q q q q q q q q q q q 7 7 6 q q q q q q q 7 7 7 q q 7 7 7 q q q q 6 6 6 6 6 7 7 7 - - - G 6.^.|.|.K.I.I.K._.).W.^.6.*.H C 7 7 7 6 6 6 6 6 6 6 6 6 q 8 q q 7 q q 8 7 7 7 7 8 8 q q q q q q q q q q q q q 7 q 6 6 6 6 7 7 0 0 0 7 0 7 7 7 7 7 7 6 7 7 6 6 6 6 6 6 6 6 6 6 6 6 6 6 6 ",
"2.2.2.2.2.2.2.2.2.2.2.2.2.2.2.2.2.2.2.2.2.2.2.2.2.2.2.2.2.2.2.2.2.2.2.2.2.2.2.2.2.2.2.2.2.2.2.2.2.2.2.2.2.2.2.2.2.2.2.2.2.2.2.2.2.2.2.2.2.2.2.2.<.<.<.6.5.7.7.7.{.}.`.P.K.U.U.K.I.'.}.}._.Q.J.J.|.|.|.|.|.|.|.~.~.~.~.).).)././././././././././.|.|.|.|.|.|.|.|.).~.~.~.~.~.~.~.).).).).).~.).~.).).).).).).).).).).).).~.~.~.~.).).).).~.~.~.~.).).).).).).).).|.].).|.~.~.~.|.).).).).~.~.~.~.).).).).).).).).).).~.~.~.~.~.~.).).).).).).).).~.~.~.~.).).).).~.~./.~./.~.).~.).).).).).~.).)././././.).~.Q.J.`.z.z.z.}.}.`.P.I.P.P.P.`.|.|.|.G.S.7.5.7.6.6.6.5.5.5.5.5.5.5.5.5.5.5.6.5.6.5.5.5.1.5.5.5.5.5.5.7.7.7.7.7.7.7.7.7.7.7.7.7.7.7.7.7.7.7.7.7.7.7.7.7.7.7.7.7.7.7.7.7.7.7.7.7.7.7.7.7.7.7.7.7.7.7.7.7.7.7.7.7.7.7.7.7.7.7.7.7.7.7.7.5.5.5.5.5.5.5.5.5.5.5.5.5.5.5.5.5.5.5.5.5.5.5.5.5.5.5.5.5.5.5.5.5.5.5.5.5.5.5.5.7.7.7.7.7.7.7.7.7.7.5.5.5.5.5.5.7.1.2.7./.).).G.K.Y.L.s.P.].Q.).~.J.S.7.5.5.5.5.6.6.6.6.6.5.5.6.6.6.6.6.6.6.6.6.<.<.6.4.6.6.6.6.5.5.5.5.5.5.5.5.7.5.5.5.<.<.<.<.6.2.6.6.6.6.6.6.2.2.2.2.2.2.2.2.2.2.2.2.2.2.2.2.6.6.2.6.6.6.6.6.",
"~.~.).~.).).~.~.~.).~.).~.~.~.~.~.~.~.~.~.J.~.J.~.J.~.J.~.~.~.~.J.J.J.J.J.J.J.J.J.!.!.!.J.J.J.!.).).).).)./././.).)././././.).).~.~.~.).).).)./././.|.|.|.|.|.|.}.}.`.P.K.T.T.K.I.'.7X'.P.P.U.[.P.f.I.I.P.P.P.P.K.D.G.G.G.G.G.G.P.P.P.P.P.P.P.P.I.I.I.I.I.I.I.P.P.G.G.G.G.G.G.G.D.G.G.G.D.D.D.D.K.s.K.f.P.P.P.K.P.P.P.P.s.s.s.s.P.P.P.P.P.P.P.P.P.P.P.P.P.P.P.P.P.P.P.P.P.P.P.P.I.I.I.I.I.I.I.P.P.P.I.I.I.I.I.I.P.P.P.P.K.K.K.K.P.P.P.P.P.P.P.P.P.P.P.P.P.P.P.G.G.G.G.G.G.G.P.P.P.P.P.P.P.G.P.P.`.|.).).).Q.G.a.'.z.z.'.'.'.`.`.P.P.P.P.P.P.P.P.[. X[.|.|.`.|.|.|._.|.|.|.|.|.|.|.|.|.|.|. X|.|. X[. X X X X X|.`.`.`.`.`.`.`.`._._._._._._.`.`._._._._._._._._.`.`.`.`.`.`.`.`.`.`.`.`.`.`.`.`.`.`.`.`.`.`.`.`.`.`.`.`._._.`.`.`.`._._.`.`.`.`.|.|.|.|.|.|.|.|.|.|.|.|.|.|.|.|.|.|.|.|.|.|.|.|.|.|.|.|.|.|.|.|.|.|.|.|.|.|.|.|.|.|.|.|.|. X|.|. X X X X X X X X X X|.).).).F.D.K.Y.L.s.I.`.Q.Q.U.U.J.J.~.].|.|.|.|.|.|. X X X X|.|.|.|.|.|.|.|.|.{.|.|.|.|.|.|.|.|.|.|.|.|.|.|. X X X|.|.|.|.|.).).).).).).).)./.).).).).).).).).~.~.~.).).).).|.|.|.|.|.|.|.|.",
"J.J.J.J.J.J.J.J.P.P.J.J.J.J.J.P.G.G.P.G.P.G.P.G.P.G.P.G.P.G.P.G.G.G.G.G.G.G.G.G.G.G.G.G.G.G.G.G.J.Q.Q.Q.Q.Q.Q.Q.Q.Q.Q.Q.Q.Q.Q.P.P.P.P.P.`.Q.`.`.`.`.`.`.`.`.`.`.f.'._.P.K.K.L.L.I.I.f.f.f.I.P.P.I.I.I.I.I.I.P.L.P.P.P.P.I.P.I.I.I.I.I.I.I.I.I.I.I.I.I.I.I.I.I.I.I.P.P.P.P.P.P.P.P.P.P.P.P.P.P.P.I.L.L.L.L.I.L.L.L.L.L.I.I.L.I.I.I.I.I.I.I.I.I.I.I.I.I.I.I.I.P.P.I.I.I.I.I.I.I.I.I.I.I.I.I.I.I.I.I.L.L.L.L.L.I.L.I.I.I.I.I.I.I.I.I.P.P.P.P.P.P.P.P.P.P.P.P.P.P.P.P.P.P.P.P.P.I.I.I.I.I.I.I.I.I.I.`.`.G.G.G.P._.[.'.'.'.'.g.f.`.[.P.U.U.U.P.P.I.K.s.I.P.I.P.P.P._.P.P.P.P.P.`.`.`.I.P.`.`.`.`.`.`.P.P.I.P.P.P.I.P.I.P.I.P.I.P.I.I.`.I.I.I.I.I.I.I.I.I.I._.I.I.I.I.`.`.`.`.`.`.'.`.`.`.'.'.`.`.`.`.`.`.`.`.`.'.'.'.`.`.`.`.'.'.'.`.`.`.'.'.`.`.`.`.I.I.I.I.I.I.I.I.I.I.I.I.I.I.I.I.I.I.I.I.I.I.I.I.I.I.I.I.I.I.I.I.I.I.I.I.I.I.I.I.P.P.P.P.P.P.P.P.P.P.P.P.P.P.I.I.P.P.`.`.`.Q._.[.K.Y.Y.L.I._.`.`.K.K.D.K.P.P.P.G.`.`.`.'.`.'.'.'.`.`.`.`.`.`.`.`.`.`.I.I.`.`._._.I.I.I.I.I.I.I.I.I.I.`.`.`.`.`.`.P.P.P.P.P.P.`.`.J.J.P.P.P.P.P.P.P.P.P.P.P.P.P.P.P.P.P.P.P.`.`.`.",
"P.P.P.P.P.P.P.P.P.P.P.P.`.P._.U.I.I.I.I.I.I.I.I.I.P.I.P.I.P.I.P.I.I.I.I.I.I.I.I.P.P.P.I.I.I.I.I.P.P.P.P.P.P.P.P.P.P.P.P.P.P.P.P.P.P.P.P.P.P.P.P.P.P.P.P.P.P.P.I.I.I.I.P.P.P.P.P.I.I.I.I.I.I.P.P.I.I.I.I.I.I.I.I.I.I.P.P.I.P.I.I.I.I.I.I.I.I.I.I.I.I.I.I.I.I.I.I.I.I.I.I.I.I.I.I.I.I.I.I.I.I.I.I.P.P.P.P.I.L.L.L.L.g.I.L.I.L.I.I.d.g.I.I.I.P.f.f.I.I.z.'.`.`.`.P.I.I.'.I.I.I.P.[.P.P.P.I.I.I.f.I.P.P.P.P.P.P.P.P.P.P.P.P.P.P.P.P.P.P.P.P.P.P.P.P.P.P.P.P.P.P.P.P.P.P.P.P.P.P.P.P.P.P.P.P.P.P.P.P.P.P.P.P.P.P.P.I.I.I.I.I.I.I.I.P.P.P.P.P.P.P.I.I.I.I.I.I.I.I.I.I.I.I.I.I.I.I.I.P.P.`.P.P.P.P.P.P.P.P.P.P.I.P.I.P.I.P.I.P.P.P._.I.I.I.I.I.I.I.I.I.I.I.I.I.I.I.I.I.I.I.I.I.I.I.I.I.'.I.I.I.I.I.I.I.P.P.`.`.'.'.z.'.g.I.I._.I.I.I.I.I.I.I.I.I.I.I.I.I.I.I.I.I.I.I.I.I.I.I.I.I.I.I.I.I.I.I.I.I.I.I.I.I.I.I.I.I.I.I.I.I.I.I.I.I.I.I.I.I.P.I.P.I.P.I.P.I.P.P.P.P.I.P.I.I.I.I.I._.I.I.I.I.I.I.I.I.I.I.I.P.P.P.P.P.P.P.P.P.P.I.I.I.I.I.I.P.P.P.P.P.P.P.P.P.I.I.I.I.I.I.I.I.I.I.I.I.I.I.I.I.I.I.I.I.I.I.I.I.I.I.I.I.I.I.I.I.I.I.I.I.I.I.I.I.L.L.L.L.I.I.I.d.I.I.s.f.`.}.`.",
"P.P.P.P.P.P.P.P.P.P.P.P.I.I.I.I.f.d.f.d.f.d.I.L.f.d.f.d.f.d.f.d.I.I.I.I.I.I.I.I.I.I.I.I.I.I.I.I.I.K.P.K.P.K.P.K.I.I.I.I.I.I.I.I.I.I.I.I.I.I.P.I.I.I.P.I.I.I.I.I.P.P.P.P.P.P.P.P.I.I.I.I.P.P.U.P.I.I.I.I.I.I.I.I.I.I.P.P.I.I.P.I.P.P.P.P.P.P.P.K.P.K.P.K.P.K.P.L.I.I.I.I.I.I.I.I.I.I.g.I.I.I.I.I.K.K.K.K.L.d.g.g.g.g.g.g.g.g.I.g.g.g.I.I.`.`.P.`.'.'.z.'.`.`.Q.`.I.I.'.I.`.P.P.P.`._._.`._._._._.P.P.P.P.P.P.P.P.P.P.P.P.P.P.P.P._.U._.U._.U._.U._._._._._._._._.P.P.P.P.P.P.P.P._.U._.U._.U._.U._.I._.I._.I._.I._.I._.I.`.P._.I.P.P.P.P.P.P.P.P.P.P.P.P.P.P.P.P.P.P.P.P.P.P.P.P.P.I.I.I.I.I.I.I.I.I.P.P.P.P.I.I._.Y.[.I._.P._._._.I.I.I.I.I.I.I.P.K.P.K.P.s.P.K.P.P.P.P.I.I.I.I.I.I.I.I.I.I.I.I.P.J.P.I.'.z.*Xz.'.I.I.I.I.I.L.I.I.I.I.I.I.I.I.I.f.I.f.f.f.I.f.I.I.I.I.I.I.I.I.I.I.I.I.I.I.I.I.I.I.I.I.I.I.I.I.I.I.I.I.I.I.I.I.I.I.I.I.I.I.P.I.I.I.I.I.I.I.L.I.I.f.d.f.d.f.d.f.f.I.I.I.I.I.I.I.I.I.K.P.K.P.K.P.K.P.I.P.P.P.P.I.I.P.K.P.K.P.K.P.K.P.K.P.K.P.K.P.K.P.K.P.K.P.K.P.K.P.K.P.K.P.K.P.L.I.d.f.d.f.d.f.d.f.d.f.d.f.d.f.d.L.K.K.K.L.L.L.I.I.I._.I.`._.'.f.",
"P.P.P.P.P.P.P.P.P.P.P.P.P.P.P.P._.I._.I._.I._.I._.I._.I._.I._.I._.I._.I._.I._.I._.I._._._.I._.I.`.U.`.U.`.U.`.U.`.U.`.U.`.U.`.U.`.P.`.P.`.P.`.P.`.P.`.P.P.P.`.P.P.P.P.P.P.P.P.P.P.P.P.P.P.P.P.P.P.P.`.P.P.P.`.P.`.P.P.P.P.P.`.P.`.P.`.P.P.P.P.P.P.U.`.U._._._.[._.I._.I._.I._.I._.I._.I._.I._.I.U.U.U.P.Y.I._.'.'.'.'.'._._._._.'.'.I.I.`.`.`.`.`.'.'.'.`.`.`.`.`.I.`.`._.`.`.`.G.G.G.G.`.P.`.`.G.G.G.G.G.G.G.G.G.G.G.G.G.G.G.G.G.G.G.G.J.G.G.G.J.J.G.J.J.J.J.J.].].].].].].].].G.G.G.G.G.G.G.G.P.P.P.P.P.P.P.P.P.P.P.P.a.a.f.f.`.P.`.P.`.P.P.P.`.P.`.P.`.P.`.P.P.P.P.P.P.P.P.P.P.P.P.P.P.P.P.P.P.P.P.P.P.P.P.P.P.P.P.P.P.P.P.P.P.P.P.P.P.P.P.P.`.P.`.P.`.P.`.P._.U._.U.`.U.`.U.P.P.I.I.I.P.I.`.P.J.P.I.z.z.z.z.I.I.I.P.P.I.I.I._._._._.}._._._._._.`._._._._._._.I.'.I._._._._.I.I.I.I.I.I.I.I.I.I.I.I.I.I.I.I.I.I.I.I.I.I.I.I.I.P.I.I.I.I.I.I.[.[.[.[._.I._._._.I._.I._.I._.I._._._.I._.I._.Y.`.U.`.U.`.P.`.U.`.U.`.U.`.U.`.U.`.U.`.P.`.U.`.U.`.U.`.P.`.P.`.U.`.U.`.U.`.U.`.P.`.U.`.P.`.U.`.U.`.I._.I._.I._.I._.I._.I._.I._.I.Y.Y.Y.Y.Y.Y.Y.[.I._._.P.`.`.`.f.",
"P.P.P.P.P.P.P.P.P.P.P.P.P.J.U.P.P.P.P.P.P.P.P.P.P.P.P.P.P.P.P.P.P.P.P.P.P.P.P.P.P.P.P.P.P.P.P.P.P.J.P.J.P.J.P.J.G.G.G.G.G.G.G.G.G.G.G.G.G.G.G.G.G.G.G.G.G.G.G.G.`.`.`.`.`.`.`.].`.Q.`.Q.`.Q.`.J.G.G.G.G.G.G.G.G.G.J.G.G.G.G.G.G.G.G.G.G.G.G.G.G.P.J.P.`.`.Q.`.`.P.P.P.P.P.P.P.P.P.P.P.P.P.P.P.G.F.F.F.G.G.P.P.P.f.f.f.P.G.G.G.G._._.I.`.`.].`.P.`.'.'.'.`.`.`.`.`.`._._.`.Q.).).|.|.|.|.|.|.|.|.].|.|.|.|.|.|.|.|.|.|.|.|.|.|.].|.|.|.|.|.].|.|.].|.|.|.].].].].~.~.~.~.~.~.~.~.|.|.|.|.|.|.|.|.|.|.|.|.|.|.|.|.|.|.|.|.|.|.|.|.`.|.`.|.`.|.`.|.`.`.`.`.`.`.`.`.`.Q.`.Q.`.`.`.Q.`.|.`.|.|.|.|.|.`.|.`.|.`.|.`.|.`.`.`.`.`.`.`.`.J.J.P.J.P.J.P.J.J.J.J.J.P.J.P.J.J.J.J.J.J.G.G.G.`.P.P.P.P.P.P.P.J.J.P.I.z.z.z.'.I.I.P.P.P.P.P.P.P.Q.`.Q.`.Q.`.`.`.Q.`.Q.`.Q.`.P.P.P.P.P.P.P.P.P.`.`.`.`.`.`.`.P.`.P.I.P.`.`.`.P.P.P.P.P.P.P.P.P.P.G.P.G.P.G.P.G.P.P.P.P.P.P.P.P.P.P.P.P.P.P.P.P.P.P.P.P.P.P.P.P.G.J.G.J.G.G.G.J.G.J.G.J.G.J.G.J.G.J.G.G.P.J.G.J.G.J.G.G.G.G.G.J.G.J.G.J.G.J.G.G.G.J.G.G.G.J.G.G.P.P.P.P.P.P.P.P.P.P.P.P.P.P.P.P.G.G.G.G.G.G.P.P.P.P.P.P.P.`.`.P.",
"P.P.P.P.P.P.P.U.U.J.J.J.~.~.~.~.|.|.|.|.|.|.|.|.`.~.`.~.`.Q.`.~.`.|.`.].`.~.`.~.`.].`.].`.~.`.~.Q.~.Q.~.Q.~.Q.~.).).).).).).).).|.].|.~.|.].|.].|.].|.].|.].|.~.).).).).).~.~.).|.].|.].].].].].|.~.|.].|.].|.~.|.~.|.].|.].|.].).).).).).).).).Q.~.~.~.~.).).~.~.~.`.~.`.].`.~.`.].`.].`.~.`.~.~.~.~.~.~.~.~.`.`.`.Q.Q.Q.Q.~.Q.`.`.].|.).).Q.G.`.'.'.'.`.`.`.`.`.|.|.Q.p.y.p.F.F.F.F.F.F.S.p.p.7.7.7.7.7.7.7.7.7.7.7.7.7.7.7.7.m.S.S.S.S.S.S.S.S.S.S.S.S.S.S.S.7.7.7.p.p.7.7.7.F.F.S.S.F.F.F.F.F.F.F.F.F.F.F.F.G.F.G.F.G.F.G.F.G.F.G.F.G.F.G.F.G.F.G.F.G.Q.G.F.G.F.G.F.G.F.G.F.Q.Q.Q.~.Q.).).).Q.Q.Q.Q.Q.~.Q.~.).).).).).).).).).).|.|.|.).|.).).).).).).).).).~.~.~.~.~.~.~.~.).~.Q.Q.Q.Q.`.~.Q.Q.`.`.z.'.'.'.I.P.].].~.J.J.F.Q.Q.Q.).Q.).`.~.Q.Q.Q.~.Q.).Q.Q.Q.].`.].`.~.`.~.`.~.`.|.|.|.].].`.|.|.|.|.|.`.].|.|.|.).|.|.|.|.~.~.).).~.~.~.~.).~.].~.].~.|.|.|.|.|.|.|.|.|.|.`.|.`.].`.~.|.).~.~.~.~.~.~.~.~.Q.~.~.~.~.~.~.~.~.~.Q.~.~.~.~.~.~.~.~.~.~.~.~.~.Q.~.~.~.~.~.~.~.Q.~.Q.~.~.~.~.~.~.~.`.Q.`.Q.`.~.`.Q.`.Q.`.~.`.~.~.~.~.~.Q.~.~.~.`.P.G.P.P.P.P.P.",
"P.P.P.P.P.P.U.J.G.F.F.F.F.H.H.H.Q./././././././.Q.Q.Q.Q.Q.W.Q.Q.Q.Q.Q.W.W.W.W.W.W.W.Q.Q.W.W.W.W.F.F.F.F.F.F.F.F.F.F.F.F.F.F.F.F.W.W.W.W.W.W.W.W.W.W.W.W.W.W.W.W.7.7.7.7.7.7.7.7.m.m.7.7.F.m.F.m.W.W.W.W.W.W.W.W.W.W.W.W.W.W.W.W.F.F.F.F.F.F.F.F.F.F.F.W.W.W.W.W.W.W.W.W.Q.Q.W.W.Q.Q.Q.W.W.W.W.W.W.!.W.W.W.W.Q.Q./././.~./.!.(.~.G.F.Q.~.!.F.Q.Q.`.`.'.'.`.`.`.Q.|.)./.p.1.H E E H H H S A Z Z Z Z Z Z Z Z Z Z Z Z Z Z Z Z Z Z Z A A A A A A A A A A A A A Z A A E E E E E E E E F H H H H H H H F F F F F F F F H H H H H H H H <.<.<.<.<.<.<.<.<.<.1.<.<.<.1.<.<.<.<.<.<.<.<.<.<.<.<.<.1.6.5.6.<.<.1.6.1.6.<.6.5.5.5.5.5.5.5.5.7.7.7.7.7.7.7.7.W.W.W.W.W.W.W.W.W.W.W.W.W.W.W.W.F.F.F.W.Q./.Q.).Q.Q.`.`.'.'.'.'.`.`.~.~.!.F.S.S.W.^.^.^.^.^.W.W.^.^.^./.^.^.^.^././.).)././././.W.W.W.W.Q.Q.Q.Q.W.W.W.W.W.W.W.W././././././././././././././././././.Q.(.Q.W./.Q./././././././././.Q.Q./.Q./././.W.W.Q.W.W.W.W.W.W.W.W.W.W.W.W.W.W.W.W.W.W.W.W.W.W.W.Q.W.W.W.W.W.W.W.W.W.W.W.Q.W.W.W.W.W.W.W.W.W.Q.Q.Q.Q.Q.W.Q.Q.Q.Q.W.Q.Q.Q.Q.W.(.(.(.(./././.~.~.Q.Q.`.`.P.P.P.",
"P.P.P.P.P.P.J.J.3.1.2.2.2.2.2.2.E *.*.*.*.*.*.*.*.*.*.*.+.+.+.*.+.H H H H H H H H H H H H H H E G G G G A G A G A D A D A D A D G G G G G G G G G G G G G G G G *.*.*.*.E *.*.E E E E E E E E E G G G G G G G G G G G G G G G G A G A G A G A G H G H G H E H H E H H H H +.H H +.H H H H H H E *.*.*.*.*.*.E E E E E Q E Q E E ^ 1.7.2.2.3.F.).`.`.`.`.`.`.`.Q./.W.6.*.E E G G R R R R R E G G R R E E E E R R E E E E R R R R R R R R R R R R R R R R R R R R G G G G G G G G R R R R R R R E E E H R H E H E *.*.E E *.*.*.*.A D A D A D A D A G G G G G G G H G H G H G H G A D A G H G H E A G G G G G G G H G H G H G H G H G H G H G H G H R H E H E H E E E E E E E E E <.<.2.6.6.5.7.7.~.Q.`.`.I.I.'.'.|.~.F.m.3.2.2.<.E E E E H H H E E E E E *.*.*.*.*.*.*.*.*.*.*.*.6.6.6.6.6.6.6.6.6.6.6.6.6.6.6.6.7.7.7.7.7.7.7.7.7.7.7.7.7.7.7.7.*.*.*.*.*.*.*.*.*.*.*.*.*.*.*.*.*.*.*.*.*.*.*.*.*.*.*.*.E E *.*.H E E E E E E E *.*.*.E E E *.*.*.*.*.*.E E *.*.E E *.*.*.*.*.*.*.*.E E *.*.*.*.*.*.*.*.+.+.+.*.+.H *.*.*.*.*.*.*.*.*.*.E E *.E 5.3.p.~.|.`.P.P.",
"P.P.P.P.P.P.J.J.S S S A A Y A G R R *.G O.G *.R *.R *.R O.G *.R O.G O.G O.G O.G O.G O.G O.G O.G *.R *.R O.G &.R *.*.*.R *.*.*.*.*.*.*.*.*.*.*.*.*.*.*.*.*.*.*.*.G G G G G G G G *.*.*.*.*.*.*.*.*.*.*.*.*.*.*.*.*.*.*.*.*.*.*.*.*.*.*.*.*.*.*.*.*.*.*.*.*.*.*.*.O.G O.G O.G O.G O.G O.G O.G O.O.*.*.*.*.*.R R R G G G Y Y Y Y G C S R A C Y 7.~.Q.`.`.`.`.`.`.Q.^.6.G G *.-.*.G R R R R *.*.*.*.R R *.R *.R &.R *.R *.R &.R &.R *.*.&.*.*.*.*.*.&.*.*.R *.R *.R *.R *.R *.R *.R *.R &.R *.R *.R *.R *.R *.R *.R *.*.*.R *.*.*.*.*.*.*.*.*.*.*.*.*.R *.R *.R *.R *.*.*.*.*.R *.*.&.R *.*.*.*.*.*.*.*.*.*.*.*.*.*.*.R *.R *.R *.*.&.R *.R *.R *.R *.R *.R *.R *.R R R R R R R G R G G G G G G H H (.~.Q.`.I.I.'.'.|.F.7.E A 9 C G R R *.R O.G G R *.R *.R *.R *.R O.G O.G O.G O.G G G G G G G O.G G G G G G G G G G G G G G G G G G G G G G G G G *.*.*.*.*.R *.E O.G *.R *.R *.R *.E *.R *.E *.*.*.R *.R *.R *.R O.G *.R *.R *.G *.R *.R *.R *.R *.R *.R *.R *.R *.R *.R *.R *.R *.R *.R *.R *.R *.R *.R O.G *.R O.G *.R *.R *.*.R R R R R R R G Z S 1.Q.].].P.P.",
"I.I.P.P.P.].F.F.S E E R Y i Y R &.*.&.*.&.*.&.&.*.*.*.&.&.*.&.*.*.*.&.&.*.*.*.&.&.&.&.&.*.*.&.*.&.&.&.&.&.&.&.&.&.&.&.&.&.&.&.&.&.&.&.&.&.&.&.&.&.&.&.&.&.&.&.&.&.&.*.*.&.&.&.&.&.&.&.&.&.&.&.&.&.&.&.&.&.&.&.&.&.&.&.&.&.&.&.&.&.&.&.&.&.&.&.&.&.&.&.&.&.&.&.&.*.&.&.&.*.*.*.*.*.*.*.&.&.*.*.*.*.&.&.&.&.&.&.R G *.*.Y R *.*.G E E R R W R -.).Q.`.`.`.`._.`.G.*.e *.*.e R G R &.R &.R &.R &.&.&.&.&.&.&.&.&.&.&.&.&.&.&.&.&.&.&.&.&.&.&.&.&.&.&.&.&.&.&.&.&.&.&.&.&.&.&.&.&.&.&.&.&.&.&.&.&.&.&.&.&.&.&.&.&.&.&.&.&.&.&.&.&.&.&.&.&.&.&.&.&.&.&.&.&.&.&.&.&.&.&.&.&.&.&.&.&.&.&.&.&.&.&.&.&.&.&.&.&.&.&.&.&.&.&.&.&.&.&.&.&.&.&.&.&.&.&.&.&.&.&.&.&.&.&.&.&.&.&.R R R &.R *.R *.R G G G *.*.*.E 2.Q.|.I.I.'.P.`.~.2.A R *.R &.&.&.&.&.&.&.&.&.&.&.&.&.&.&.&.&.&.*.&.*.&.&.*.*.*.*.*.&.&.*.&.*.*.&.&.&.*.*.*.*.*.*.&.&.&.*.*.*.*.*.&.*.*.*.&.&.*.*.*.*.&.*.&.*.*.R *.R *.*.&.&.&.&.&.*.*.*.&.&.&.&.&.&.&.&.&.&.&.&.&.&.&.&.&.&.&.&.&.&.&.&.&.&.&.&.&.&.&.&.&.&.&.&.&.&.&.&.&.&.&.&.&.&.&.&.&.&.*.*.&.&.&.*.*.*.*.*.*.&.&.*.*.&.&.&.&.;.:.:.R G G E E F.].G.`.P.",
"I.P.P.P.P.].Q.S.S E R Y Y i a W &.&.&.&.&.&.&.&.&.&.&.&.&.&.&.&.&.&.&.&.&.&.&.&.&.&.&.&.&.&.&.&.&.&.&.&.&.&.&.&.&.&.&.&.&.&.&.&.&.&.&.&.&.&.&.&.&.&.&.&.&.&.&.&.&.&.&.&.&.&.&.&.&.&.&.&.&.&.&.&.&.&.&.&.&.&.&.&.&.&.&.&.&.&.&.&.&.&.&.&.&.&.&.&.&.&.&.&.&.&.&.&.&.&.&.&.&.&.&.&.&.&.&.&.&.&.&.&.&.&.&.&.&.&.&.&.e W *.R R :.-.*.G E R R *.Y -.(.Q.`.`.`.`._.`.F.*.e *.*.e &.&.R &.&.&.&.&.l l l &.&.&.&.&.&.&.&.l &.&.&.&.&.&.&.&.&.&.&.&.&.&.&.&.&.&.&.&.&.&.&.l &.&.&.&.&.&.&.&.&.&.&.&.&.l &.&.&.&.&.&.&.&.&.&.&.&.&.&.&.&.&.&.&.&.&.&.&.&.&.&.&.&.&.&.&.&.&.&.&.&.&.&.&.&.&.&.&.&.&.&.&.&.&.&.&.&.&.&.&.&.&.&.&.&.&.&.&.&.&.&.&.&.&.&.&.&.&.&.&.&.&.&.&.&.&.&.&.R &.&.&.&.&.R &.*.&.R G &.*.E ^ F.|.`.I.'.P.`.~.6.G R &.&.&.&.&.&.&.&.&.&.&.&.&.&.&.&.&.&.&.&.&.&.&.&.&.&.&.&.&.&.&.&.&.&.&.&.&.&.&.&.&.&.&.&.&.&.&.&.&.&.&.*.*.&.&.&.&.&.&.&.&.&.&.&.&.&.&.&.&.&.&.&.&.&.&.&.&.&.&.&.&.&.&.&.&.&.&.&.&.&.&.&.&.&.&.&.&.&.&.&.&.&.&.&.&.&.&.&.&.&.&.&.&.&.&.&.&.&.&.&.&.&.&.&.&.&.&.&.&.&.&.&.&.&.&.&.&.&.&.&.&.&.&.&.&.&.&.O.&.&.&.i i R W Y E E F.|.G.`.P.",
"I.P.P.P.P.].Q.S.S R R R R W a l &.&.&.&.&.&.&.l &.&.&.l &.&.&.&.&.&.&.&.&.&.&.&.&.&.&.l &.&.&.&.&.&.&.&.&.&.&.&.&.&.&.&.&.&.&.&.&.&.&.&.&.&.&.&.&.&.&.&.&.&.&.&.&.&.&.&.&.&.&.&.&.&.&.&.&.&.&.&.&.&.&.&.&.&.&.&.&.&.&.&.&.&.&.&.&.&.&.&.&.&.&.&.&.&.&.&.&.&.&.&.&.&.&.l &.l &.&.&.l &.&.&.l &.&.&.&.&.&.&.&.&.&.&.*.R G G G G D G R Y W *.Y Q !.~.`.`.`.`._.`.G.R i &.&.e R :.&.&.&.&.&.l l l l l &.&.&.&.&.&.&.l l &.&.&.&.&.&.l &.&.&.&.&.&.&.&.&.&.&.&.&.&.&.l l &.&.&.&.&.&.l &.&.&.&.&.&.&.&.&.&.&.&.&.&.&.&.&.&.&.&.&.&.&.&.&.&.&.&.&.&.&.&.&.&.&.&.&.&.&.&.&.&.&.&.&.&.&.&.&.&.&.&.&.&.&.l &.&.&.&.&.&.&.&.&.&.&.&.&.&.&.&.&.&.&.&.&.&.&.&.&.&.&.&.&.&.&.&.&.&.&.&.&.&.&.i &.;.;.*.G &.R R E p.~.`.`._.P.].~.6.G &.;.l ;.&.l &.l &.l &.l &.l &.l &.l &.&.&.&.&.&.&.&.&.l &.&.&.l &.&.&.&.&.&.&.l &.l &.&.&.l &.l &.&.&.&.&.&.&.&.&.&.l &.&.&.&.&.&.&.&.&.&.&.&.&.&.&.&.&.&.&.&.l &.&.&.&.&.&.&.&.&.&.&.&.&.&.&.&.&.&.&.&.&.&.&.&.&.&.&.&.&.&.&.&.&.&.&.&.&.&.&.&.&.&.&.&.&.&.&.&.&.&.&.&.&.&.&.l &.l &.&.&.&.&.&.&.l &.&.g &.&.&.e e i W R E H H.|.G.`.P.",
"I.P.P.P.`.].Q.F.H R R R &.&.&.l &.&.&.&.l l &.l &.&.l l &.&.&.&.&.&.&.&.&.&.&.&.&.&.l l &.&.&.&.&.&.&.&.&.&.&.&.&.&.&.&.&.&.&.&.&.&.&.&.&.&.&.&.&.&.&.&.&.&.&.&.&.&.&.&.&.&.&.&.&.&.&.&.&.&.&.&.&.&.&.&.&.&.&.&.&.&.&.&.&.&.&.&.&.&.&.&.&.&.&.&.&.&.&.&.&.&.&.&.&.&.l l l l &.&.l l &.&.&.&.&.l ;.;.&.;.&.&.&.&.i R R G H H H F -.:.R R *.Y *.W.~.`.`.`.`.`.`.G.R &.i &.e R ,.&.&.&.&.&.l l l l l &.&.&.&.&.&.&.l l &.&.&.&.&.&.l &.&.&.&.&.&.&.&.&.&.&.&.&.&.&.&.l &.&.&.&.&.&.l l &.&.&.&.&.&.&.&.&.&.&.&.&.&.&.&.&.&.&.&.&.&.&.&.&.&.&.&.&.&.&.&.&.&.&.&.&.&.&.&.&.&.&.&.&.&.&.&.&.&.&.&.&.&.&.&.&.&.&.&.&.&.&.&.&.&.&.&.&.&.&.&.&.&.&.&.&.&.&.&.&.&.&.&.&.&.&.&.&.&.&.&.&.&.&.&.*.*.*.*.*.*.R G 5.Q.`._._.P.|.Q.2.G *.;.l ;.l l l l l l l l l l l l l l l l &.&.&.&.&.&.&.&.&.&.l l &.&.&.&.&.&.l l l l &.&.&.l l l &.&.&.&.&.&.&.&.&.&.&.&.&.&.&.&.&.&.&.&.&.&.&.&.&.&.&.&.&.&.&.l &.&.&.&.&.&.&.&.&.&.&.&.&.&.&.&.&.&.&.&.&.&.&.&.&.&.&.&.&.&.&.&.&.&.&.&.&.&.&.&.&.&.&.&.&.&.&.&.&.&.&.&.&.&.l l l l &.&.&.&.&.&.&.&.&.&.O.O.&.*.&.i R W R E S F.|.G.`.P.",
"P.P.P.P.P.].Q.F.H H G R ;.;.;.l &.;.&.&.&.&.;.;.&.&.&.&.&.&.&.&.&.&.&.;.;.;.&.&.&.&.&.;.;.;.&.&.&.&.&.&.;.;.&.&.&.&.;.;.&.&.&.&.;.;.&.&.&.&.;.;.&.&.&.&.&.&.&.&.&.&.&.&.;.&.;.;.&.&.&.&.;.;.;.&.&.&.&.&.;.;.&.&.&.&.;.;.&.&.&.&.;.;.&.&.&.&.;.;.&.&.&.&.&.&.&.&.&.&.&.&.;.;.&.&.&.&.;.;.&.&.&.&.;.;.&.;.&.l &.&.e G *.6.7.W.W.^.B.6.*.Y R G *.W.Q.`.`.`.`.|.P.F.G &.e &.R R N.*.R R R R a a a l &.&.&.&.&.&.&.&.&.&.&.&.&.&.&.&.&.&.&.&.&.&.&.&.&.&.&.&.&.&.&.&.&.&.&.&.&.&.&.&.&.&.&.&.&.&.&.&.&.&.&.&.&.&.&.&.&.&.&.&.&.&.&.&.&.&.&.&.&.&.&.&.&.&.&.&.&.&.&.&.&.&.&.&.&.&.&.&.&.&.&.&.&.&.&.&.&.&.&.&.&.&.&.&.&.&.&.&.&.&.&.&.&.&.&.&.;.;.&.&.&.&.&.&.&.&.&.&.&.&.&.&.&.&.&.&.*.R e G *.;.*.R R G 1.Q.`._._.P.`.F.<.G ;.;.l >.l l l l l l l l l l l l l l l l &.;.&.&.&.&.;.;.&.&.&.&.&.&.&.&.&.&.&.&.;.;.&.&.&.&.;.;.&.&.&.&.;.;.&.&.&.&.;.;.&.&.&.&.&.&.&.&.&.&.&.;.;.;.&.&.&.&.&.;.;.;.&.&.&.&.&.&.;.;.&.&.&.&.;.;.&.&.&.&.;.;.&.&.&.&.;.;.&.&.&.&.&.&.&.&.&.&.&.&.;.;.;.&.&.&.&.&.;.;.;.&.&.&.&.&.&.&.&.;.&.&.&.&.&.&.&.&.*.G *.:.6.,.=.i R E S S.|.G._.P.",
"P.P.P.P.P.].Q.F.H H G *.;.>.;.l ;.;.&.&.&.&.&.;.&.&.&.&.&.&.&.&.&.&.&.&.&.&.;.;.&.&.&.&.&.&.&.;.&.&.&.&.;.;.&.&.&.&.&.;.&.&.&.&.;.;.&.&.&.&.&.;.&.&.&.&.&.&.&.&.&.&.&.&.&.&.;.;.&.&.&.&.&.&.;.;.&.&.&.&.;.;.&.&.&.&.&.;.&.&.&.&.;.;.&.&.&.&.&.;.&.&.&.&.&.&.&.&.&.&.&.&.;.;.&.&.&.&.&.;.&.&.&.&.;.;.&.&.&.&.&.&.G *.6.W./.|.{.|.(.C.:.G R G *.W.Q.`.`.`.`.|.P.F.9 =.9 *.R R Z.*.R R R R a a a a &.&.&.&.&.&.&.&.&.&.&.&.&.&.&.&.&.&.&.&.&.&.&.&.&.&.&.&.&.&.&.&.&.&.&.&.&.&.&.&.&.&.&.&.&.&.&.&.&.&.&.&.&.&.&.&.&.&.&.&.&.&.&.&.&.&.&.&.&.&.&.&.&.&.&.&.&.&.&.&.&.&.&.&.&.&.&.&.&.&.&.&.&.&.&.&.&.&.&.&.&.&.&.&.&.&.&.&.&.&.&.&.&.&.&.&.;.;.&.&.&.&.&.&.&.&.&.&.&.&.&.&.&.&.&.&.*.R G G *.*.*.G R G 6.~.`.I.I.P.`.F.<.G ;.&.h >.&.l l l l l l l l l l l l l l &.&.;.&.&.&.&.&.;.&.&.&.&.&.&.&.&.&.&.&.&.;.;.&.&.&.&.&.;.&.&.&.&.;.;.&.&.&.&.&.;.&.&.&.&.&.&.&.&.&.&.&.&.&.&.&.;.&.&.&.&.&.&.&.;.&.&.&.&.;.;.&.&.&.&.&.;.&.&.&.&.;.;.&.&.&.&.&.;.&.&.&.&.&.&.&.&.&.&.&.&.&.&.;.;.&.&.&.&.&.&.;.;.&.&.&.&.;.;.&.&.;.&.&.&.&.&.&.&.*.G G 6.V.V.-.9 W E C p.|.G._.P.",
"P.P.P.P.`.|.Q.F.H G G *.:.:.>.l &.&.&.&.&.&.&.&.&.&.&.&.&.&.&.&.&.&.&.&.&.&.&.&.&.&.&.&.&.&.&.&.&.&.&.&.&.&.&.&.&.&.&.&.&.&.&.&.&.&.&.&.&.&.&.&.&.&.&.&.&.&.&.&.&.&.&.&.&.&.&.&.&.&.&.&.&.&.&.&.&.&.&.&.&.&.&.&.&.&.&.&.&.&.&.&.&.&.&.&.&.&.&.&.&.&.&.&.&.&.&.&.&.&.&.&.&.&.&.&.&.&.&.&.&.&.&.;.;.;.&.&.&.&.&.*.*.*.7./.|.`.Q.Q.).^.-.R R G *.W.Q.`.`.`.`._.P.F.9 >.9 W R G (.*.R R R R R a a a &.&.&.&.&.&.&.&.&.&.&.&.&.&.&.&.&.&.&.&.&.&.&.&.&.&.&.&.&.&.&.&.&.&.&.&.&.&.&.&.&.&.&.&.&.&.&.&.&.&.&.&.&.&.&.&.&.&.&.&.&.&.&.&.&.&.&.&.&.&.&.&.&.&.&.&.&.&.&.&.&.&.&.&.&.&.&.&.&.&.&.&.&.&.&.&.&.&.&.&.&.&.&.&.&.&.&.&.&.&.&.&.&.&.&.&.&.&.&.&.&.&.&.&.&.&.&.&.&.&.&.&.&.&.&.&.&.:.6.,.:.*.G &.W G 6.).`.P.I.I.|.G.<.G :.;.h 9.&.&.&.&.&.&.&.&.&.&.&.&.&.&.&.&.&.&.&.&.&.&.&.&.&.&.&.&.&.&.&.&.&.&.&.&.&.&.&.&.&.&.&.&.&.&.&.&.&.&.&.&.&.&.&.&.&.&.&.&.&.&.&.&.&.&.&.&.&.&.&.&.&.&.&.&.&.&.&.&.&.&.&.&.&.&.&.&.&.&.&.&.&.&.&.&.&.&.&.&.&.&.&.&.&.&.&.&.&.&.&.&.&.&.&.&.&.&.&.&.&.&.&.&.&.&.&.&.&.&.&.&.&.&.&.&.&.&.&.&.&.&.&.*.*.H H 7.(..Xv.A Y E C p.|.Q._.f.",
"P.P.P.P.`.|.Q.F.H G G *.:.:.;.&.&.&.&.&.&.&.&.&.&.&.&.&.&.&.&.&.&.&.&.&.&.&.&.&.&.&.&.&.&.&.&.&.&.&.&.&.&.&.&.&.&.&.&.&.&.&.&.&.&.&.&.&.&.&.&.&.&.&.&.&.&.&.&.&.&.&.&.&.&.&.&.&.&.&.&.&.&.&.&.&.&.&.&.&.&.&.&.&.&.&.&.&.&.&.&.&.&.&.&.&.&.&.&.&.&.&.&.&.&.&.&.&.&.&.&.&.&.&.&.&.&.&.&.&.&.&.&.&.&.&.&.&.&.&.&.*.G H 5.).|._.`.`./.W.-.R *.R *.W.Q._.`.I.`.`.`.F.C >.9 *.R G (.E E R R a a a a &.&.&.&.&.&.&.&.&.&.&.&.&.&.&.&.&.&.&.&.&.&.&.&.&.&.&.&.&.&.&.&.&.&.&.&.&.&.&.&.&.&.&.&.&.&.&.&.&.&.&.&.&.&.&.&.&.&.&.&.&.&.&.&.&.&.&.&.&.&.&.&.&.&.&.&.&.&.&.&.&.&.&.&.&.&.&.&.&.&.&.&.&.&.&.&.&.&.&.&.&.&.&.&.&.&.&.&.&.&.&.&.&.&.&.&.&.&.&.&.&.&.&.&.&.&.&.&.&.&.&.&.&.&.&.R R *.6.(.(.6.R G *.&.Y 3.).`.f.I.I.|.F.<.R :.&.O.,.&.&.&.&.&.&.&.&.&.&.&.&.&.&.&.&.&.&.&.&.&.&.&.&.&.&.&.&.&.&.&.&.&.&.&.&.&.&.&.&.&.&.&.&.&.&.&.&.&.&.&.&.&.&.&.&.&.&.&.&.&.&.&.&.&.&.&.&.&.&.&.&.&.&.&.&.&.&.&.&.&.&.&.&.&.&.&.&.&.&.&.&.&.&.&.&.&.&.&.&.&.&.&.&.&.&.&.&.&.&.&.&.&.&.&.&.&.&.&.&.&.&.&.&.&.&.&.&.&.&.&.&.&.&.&.&.&.&.&.&.&.&.&.*.*.G E 7.)..Xm.R Q E Z 7.|.G.`.f.",
"I.d.I.I.P._.Q.7.G W *.e 6.N.G *.*.&.&.&.&.&.&.&.&.&.&.&.&.&.&.&.&.&.&.&.&.&.&.&.&.&.&.&.&.&.&.&.&.&.&.&.&.&.&.&.&.&.&.&.&.&.&.&.&.&.&.&.&.&.&.&.&.&.&.&.&.&.&.&.&.&.&.&.&.&.&.&.&.&.&.&.&.&.&.&.&.&.&.&.&.&.&.&.&.&.&.&.&.&.&.&.&.&.&.&.&.&.&.&.&.&.&.&.&.&.&.&.&.&.&.&.&.&.&.&.&.&.&.&.&.&.&.&.&.&.;.;.&.&.&.&.*.A F.).Q.`.P.`.G./.2.e &.&.*.m.Q.`.I.I.`._.`.W.G *.W i R A @X1.F R a a x l &.&.&.&.&.&.&.&.&.&.&.&.&.&.&.&.&.&.&.&.&.&.&.&.&.&.&.&.&.&.&.&.&.&.&.&.&.&.&.&.&.&.&.&.&.&.&.&.&.&.&.&.&.&.&.&.&.&.&.&.&.&.&.&.&.&.&.&.&.&.&.&.&.&.&.&.&.&.&.&.&.&.&.&.&.&.&.&.&.&.&.&.&.&.&.&.&.&.&.&.&.&.&.&.&.&.&.&.&.&.&.&.&.&.&.&.&.&.&.&.&.&.&.&.&.&.&.&.&.&.l l l x l &.R G 6.W./././.<.G *.&.i 6.~.P.I.I.I.`./.E *.R :.*.n.R R R R &.&.&.&.&.&.&.&.&.&.&.&.&.&.&.&.&.&.&.&.&.&.&.&.&.&.&.&.&.&.&.&.&.&.&.&.&.&.&.&.&.&.&.&.&.&.&.&.&.&.&.&.&.&.&.&.&.&.&.&.&.&.&.&.&.&.&.&.&.&.&.&.&.&.&.&.&.&.&.&.&.&.&.&.&.&.&.&.&.&.&.&.&.&.&.&.&.&.&.&.&.&.&.&.&.&.&.&.&.&.&.&.&.&.&.&.&.&.&.&.&.&.&.&.&.&.&.&.&.&.&.&.&.&.&.&.&.&.&.&.R R G m.Q.F.W.H R *.G 6./.|.I.I.",
"I.d.I.'.I._.Q.7.A W W 9 6.m.A *.*.&.&.&.&.&.&.&.&.&.&.&.&.&.&.&.&.&.&.&.&.&.&.&.&.&.&.&.&.&.&.&.&.&.&.&.&.&.&.&.&.&.&.&.&.&.&.&.&.&.&.&.&.&.&.&.&.&.&.&.&.&.&.&.&.&.&.&.&.&.&.&.&.&.&.&.&.&.&.&.&.&.&.&.&.&.&.&.&.&.&.&.&.&.&.&.&.&.&.&.&.&.&.&.&.&.&.&.&.&.&.&.&.&.&.&.&.&.&.&.&.&.&.&.&.&.&.&.&.&.;.&.&.&.&.&.*.D F.~.G.P.P.P.G.~.6.e *.&.*.B.Q.`.I.g.'._.`.^.H *.W a W A #Xi.Z Y a p x l +.#.;.&.&.&.&.&.&.&.&.&.&.&.&.&.&.&.&.&.&.&.&.&.&.&.&.&.&.&.&.&.&.&.&.&.&.&.&.&.&.&.&.&.&.&.&.&.&.&.&.&.&.&.&.&.&.&.&.&.&.&.&.&.&.&.&.&.&.&.&.&.&.&.&.&.&.&.&.&.&.&.&.&.&.&.&.&.&.&.&.&.&.&.&.&.&.&.&.&.&.&.&.&.&.&.&.&.&.&.&.&.&.&.&.&.&.&.&.&.&.&.&.&.&.&.&.&.&.&.l z l l l l R G 7.W.Q.Q.Q.1.H R &.i 6.~.I.g.I.I.`.^.*.*.e -.R n.R W R R &.&.&.&.&.&.&.&.&.&.&.&.&.&.&.&.&.&.&.&.&.&.&.&.&.&.&.&.&.&.&.&.&.&.&.&.&.&.&.&.&.&.&.&.&.&.&.&.&.&.&.&.&.&.&.&.&.&.&.&.&.&.&.&.&.&.&.&.&.&.&.&.&.&.&.&.&.&.&.&.&.&.&.&.&.&.&.&.&.&.&.&.&.&.&.&.&.&.&.&.&.&.&.&.&.&.&.&.&.&.&.&.&.&.&.&.&.&.&.&.&.&.&.&.&.&.&.&.&.&.&.&.&.&.&.&.&.&.&.&.l i G m.Q.F.Q.H R *.&.6./.].I.L.",
"I.d.I.'.I._.Q.7.G W W 9 6.B.S E *.&.&.&.&.&.&.&.&.&.&.&.&.&.&.&.&.&.&.&.&.&.&.&.&.&.&.&.&.&.&.&.&.&.&.&.&.&.&.&.&.&.&.&.&.&.&.&.&.&.&.&.&.&.&.&.&.&.&.&.&.&.&.&.&.&.&.&.&.&.&.&.&.&.&.&.&.&.&.&.&.&.&.&.&.&.&.&.&.&.&.&.&.&.&.&.&.&.&.&.&.&.&.&.&.&.&.&.&.&.&.&.&.&.&.&.&.&.&.&.&.&.&.&.&.&.&.&.&.&.&.&.&.&.&.&.*.D F.).G.P.P.P.G.).2.e &.&.*.B.Q.`.I.g.'._.Q.^.H *.W a W A #Xa.Z Y a a z l #.#.;.&.&.&.&.&.&.&.&.&.&.&.&.&.&.&.&.&.&.&.&.&.&.&.&.&.&.&.&.&.&.&.&.&.&.&.&.&.&.&.&.&.&.&.&.&.&.&.&.&.&.&.&.&.&.&.&.&.&.&.&.&.&.&.&.&.&.&.&.&.&.&.&.&.&.&.&.&.&.&.&.&.&.&.&.&.&.&.&.&.&.&.&.&.&.&.&.&.&.&.&.&.&.&.&.&.&.&.&.&.&.&.&.&.&.&.&.&.&.&.&.&.&.&.&.&.&.&.l z x l l &.R E F.Q.Q.`.).7.H R &.i 6.~.I.g.I.I.`.^.*.;.R -.R m.R R R R &.&.&.&.;.&.&.&.&.&.&.&.&.&.&.&.&.&.&.&.&.&.&.&.&.&.&.&.&.&.&.&.&.&.&.&.&.&.&.&.&.&.&.&.&.&.&.&.&.&.&.&.&.&.&.&.&.&.&.&.&.&.&.&.&.&.&.&.&.&.&.&.&.&.&.&.&.&.&.&.&.&.&.&.&.&.&.&.&.&.&.&.&.&.&.&.&.&.&.&.&.&.&.&.&.&.&.&.&.&.&.&.&.&.&.&.&.&.&.&.&.&.&.&.&.&.&.&.&.&.&.&.&.&.&.&.&.&.&.&.&.R G m.Q.F.Q.H G *.O.6./.].I.I.",
"I.d.I._.I.`.Q.5.A W W 9 n.V.H E *.&.&.&.&.&.&.&.&.&.&.&.&.&.&.&.&.&.&.&.&.&.&.&.&.&.&.&.&.&.&.&.&.&.&.&.&.&.&.&.&.&.&.&.&.&.&.&.&.&.&.&.&.&.&.&.&.&.&.&.&.&.&.&.&.&.&.&.&.&.&.&.&.&.&.&.&.&.&.&.&.&.&.&.&.&.&.&.&.&.&.&.&.&.&.&.&.&.&.&.&.&.&.&.&.&.&.&.&.&.&.&.&.&.&.&.&.&.&.&.&.&.&.&.&.&.&.&.&.&.&.&.&.&.&.&.*.D F.~.G.P.P.P.G.).2.e *.&.*.m.Q.I.I.g.'._.Q.^.+.*.i a R A #XG.Z Y a a z l #.#.;.&.&.&.&.&.&.&.&.&.&.&.&.&.&.&.&.&.&.&.&.&.&.&.&.&.&.&.&.&.&.&.&.&.&.&.&.&.&.&.&.&.&.&.&.&.&.&.&.&.&.&.&.&.&.&.&.&.&.&.&.&.&.&.&.&.&.&.&.&.&.&.&.&.&.&.&.&.&.&.&.&.&.&.&.&.&.&.&.&.&.&.&.&.&.&.&.&.&.&.&.&.&.&.&.&.&.&.&.&.&.&.&.&.&.&.&.&.&.&.&.&.&.&.&.&.&.&.l l l l l R R *.Q.|.Q.Q.|.F.E G &.i 6.~.I.g.I.I.`.W.R ;.G *.R V.R R R R &.&.&.&.;.;.&.&.&.&.&.&.&.&.&.&.&.&.&.&.&.&.&.&.&.&.&.&.&.&.&.&.&.&.&.&.&.&.&.&.&.&.&.&.&.&.&.&.&.&.&.&.&.&.&.&.&.&.&.&.&.&.&.&.&.&.&.&.&.&.&.&.&.&.&.&.&.&.&.&.&.&.&.&.&.&.&.&.&.&.&.&.&.&.&.&.&.&.&.&.&.&.&.&.&.&.&.&.&.&.&.&.&.&.&.&.&.&.&.&.&.&.&.&.&.&.&.&.&.&.&.&.&.&.&.&.&.&.&.&.&.R G F.Q.Q.Q.H G *.O.6./.].I.L.",
"I.L.I._.I.`.Q.5.G W W 9 n.V.H E *.&.&.&.&.&.&.&.&.&.&.&.&.&.&.&.&.&.&.&.&.&.&.&.&.&.&.&.&.&.&.&.&.&.&.&.&.&.&.&.&.&.&.&.&.&.&.&.&.&.&.&.&.&.&.&.&.&.&.&.&.&.&.&.&.&.&.&.&.&.&.&.&.&.&.&.&.&.&.&.&.&.&.&.&.&.&.&.&.&.&.&.&.&.&.&.&.&.&.&.&.&.&.&.&.&.&.&.&.&.&.&.&.&.&.&.&.&.&.&.&.&.&.&.&.&.&.&.&.&.&.&.&.&.&.&.*.D F.).G.U.P.P.P.|.6.e *.&.*.m.Q.P.I.g.'._.`.W.+.R i a R C iX`.Z S a a z l #.#.&.&.&.&.&.&.&.&.&.&.&.&.&.&.&.&.&.&.&.&.&.&.&.&.&.&.&.&.&.&.&.&.&.&.&.&.&.&.&.&.&.&.&.&.&.&.&.&.&.&.&.&.&.&.&.&.&.&.&.&.&.&.&.&.&.&.&.&.&.&.&.&.&.&.&.&.&.&.&.&.&.&.&.&.&.&.&.&.&.&.&.&.&.&.&.&.&.&.&.&.&.&.&.&.&.&.&.&.&.&.&.&.&.&.&.&.&.&.&.&.&.&.&.&.&.&.&.&.&.l l ;.&.R *.6.).|.`.Q.|.W.<.G &.e 2.~.P.I.I.P.Q.W.G ;.e *.E !.Y W R R &.&.&.&.&.&.&.&.&.&.&.&.&.&.&.&.&.&.&.&.&.&.&.&.&.&.&.&.&.&.&.&.&.&.&.&.&.&.&.&.&.&.&.&.&.&.&.&.&.&.&.&.&.&.&.&.&.&.&.&.&.&.&.&.&.&.&.&.&.&.&.&.&.&.&.&.&.&.&.&.&.&.&.&.&.&.&.&.&.&.&.&.&.&.&.&.&.&.&.&.&.&.&.&.&.&.&.&.&.&.&.&.&.&.&.&.&.&.&.&.&.&.&.&.&.&.&.&.&.&.&.&.&.&.&.&.&.&.&.&.&.R G F.Q.Q.Q.H R *.R 6./.].P.I.",
"I.L.I._.I.`.Q.5.G R W 9 m.!.H E *.&.&.&.&.&.&.&.&.&.&.&.&.&.&.&.&.&.&.&.&.&.&.&.&.&.&.&.&.&.&.&.&.&.&.&.&.&.&.&.&.&.&.&.&.&.&.&.&.&.&.&.&.&.&.&.&.&.&.&.&.&.&.&.&.&.&.&.&.&.&.&.&.&.&.&.&.&.&.&.&.&.&.&.&.&.&.&.&.&.&.&.&.&.&.&.&.&.&.&.&.&.&.&.&.&.&.&.&.&.&.&.&.&.&.&.&.&.&.&.&.&.&.&.&.&.&.&.&.&.&.&.&.&.&.&.*.A F.).G.P.P.P.P.|.6.e *.&.R m.Q.P.I.g.I._.`.W.G R i W R C aX|.K S a a z l &.#.&.&.&.&.&.&.&.&.&.&.&.&.&.&.&.&.&.&.&.&.&.&.&.&.&.&.&.&.&.&.&.&.&.&.&.&.&.&.&.&.&.&.&.&.&.&.&.&.&.&.&.&.&.&.&.&.&.&.&.&.&.&.&.&.&.&.&.&.&.&.&.&.&.&.&.&.&.&.&.&.&.&.&.&.&.&.&.&.&.&.&.&.&.&.&.&.&.&.&.&.&.&.&.&.&.&.&.&.&.&.&.&.&.&.&.&.&.&.&.&.&.&.&.&.&.&.&.&.;.l l &.&.G E 7.`. X`.f.|./.<.G &.e 2.~.P.I.I.P.Q.W.G ;.e *.E (.Y W R R &.&.&.&.&.&.&.&.&.&.&.&.&.&.&.&.&.&.&.&.&.&.&.&.&.&.&.&.&.&.&.&.&.&.&.&.&.&.&.&.&.&.&.&.&.&.&.&.&.&.&.&.&.&.&.&.&.&.&.&.&.&.&.&.&.&.&.&.&.&.&.&.&.&.&.&.&.&.&.&.&.&.&.&.&.&.&.&.&.&.&.&.&.&.&.&.&.&.&.&.&.&.&.&.&.&.&.&.&.&.&.&.&.&.&.&.&.&.&.&.&.&.&.&.&.&.&.&.&.&.&.&.&.&.&.&.&.&.&.&.&.R G H.~.Q.Q.H E *.R 6./.].I.I.",
"I.I.I._.I.`.Q.5.G Y Y e B.(.H E *.&.&.&.&.&.&.&.&.&.&.&.&.&.&.&.&.&.&.&.&.&.&.&.&.&.&.&.&.&.&.&.&.&.&.&.&.&.&.&.&.&.&.&.&.&.&.&.&.&.&.&.&.&.&.&.&.&.&.&.&.&.&.&.&.&.&.&.&.&.&.&.&.&.&.&.&.&.&.&.&.&.&.&.&.&.&.&.&.&.&.&.&.&.&.&.&.&.&.&.&.&.&.&.&.&.&.&.&.&.&.&.&.&.&.&.&.&.&.&.&.&.&.&.&.&.&.&.&.&.&.&.&.&.&.&.*.D F.).G.P.P.P.P.|.6.G *.&.R m.Q.P.I.I.I._.`.W.H G i W W C aX XK S a a z l &.#.&.&.&.&.&.&.&.&.&.&.&.&.&.&.&.&.&.&.&.&.&.&.&.&.&.&.&.&.&.&.&.&.&.&.&.&.&.&.&.&.&.&.&.&.&.&.&.&.&.&.&.&.&.&.&.&.&.&.&.&.&.&.&.&.&.&.&.&.&.&.&.&.&.&.&.&.&.&.&.&.&.&.&.&.&.&.&.&.&.&.&.&.&.&.&.&.&.&.&.&.&.&.&.&.&.&.&.&.&.&.&.&.&.&.&.&.&.&.&.&.&.&.&.&.&.&.&.&.;.l l &.*.G *.p.`. X`.f._.Q.1.G &.e 2.~.P.I.I.P.Q.B.G -.e R E .XY R R R &.&.&.&.&.&.&.&.&.&.&.&.&.&.&.&.&.&.&.&.&.&.&.&.&.&.&.&.&.&.&.&.&.&.&.&.&.&.&.&.&.&.&.&.&.&.&.&.&.&.&.&.&.&.&.&.&.&.&.&.&.&.&.&.&.&.&.&.&.&.&.&.&.&.&.&.&.&.&.&.&.&.&.&.&.&.&.&.&.&.&.&.&.&.&.&.&.&.&.&.&.&.&.&.&.&.&.&.&.&.&.&.&.&.&.&.&.&.&.&.&.&.&.&.&.&.&.&.&.&.&.&.&.&.&.&.&.&.&.&.&.R E H.~.Q.Q.E R *.R 6./.].I.I.",
"I.I.I._.P.`.Q.5.G Y Y G B.(.H H *.&.&.&.&.&.&.&.&.&.&.&.&.&.&.&.&.&.&.&.&.&.&.&.&.&.&.&.&.&.&.&.&.&.&.&.&.&.&.&.&.&.&.&.&.&.&.&.&.&.&.&.&.&.&.&.&.&.&.&.&.&.&.&.&.&.&.&.&.&.&.&.&.&.&.&.&.&.&.&.&.&.&.&.&.&.&.&.&.&.&.&.&.&.&.&.&.&.&.&.&.&.&.&.&.&.&.&.&.&.&.&.&.&.&.&.&.&.&.&.&.&.&.&.&.&.&.&.&.&.&.&.&.&.&.&.*.D F.).G.P.P.P.P.|.2.G *.R R m.J.P.I.I.I._.`.W.H G i W W C aXiXJ S W a z l &.:.&.&.&.&.&.&.&.&.&.&.&.&.&.&.&.&.&.&.&.&.&.&.&.&.&.&.&.&.&.&.&.&.&.&.&.&.&.&.&.&.&.&.&.&.&.&.&.&.&.&.&.&.&.&.&.&.&.&.&.&.&.&.&.&.&.&.&.&.&.&.&.&.&.&.&.&.&.&.&.&.&.&.&.&.&.&.&.&.&.&.&.&.&.&.&.&.&.&.&.&.&.&.&.&.&.&.&.&.&.&.&.&.&.&.&.&.&.&.&.&.&.&.&.&.&.&.&.&.;.l l ;.*.G ^ F.`.}.`.f._.Q.1.G *.e 2.~.P.I.I.P.Q.B.G -.e R E .XR W R R &.&.&.&.&.&.&.&.&.&.&.&.&.&.&.&.&.&.&.&.&.&.&.&.&.&.&.&.&.&.&.&.&.&.&.&.&.&.&.&.&.&.&.&.&.&.&.&.&.&.&.&.&.&.&.&.&.&.&.&.&.&.&.&.&.&.&.&.&.&.&.&.&.&.&.&.&.&.&.&.&.&.&.&.&.&.&.&.&.&.&.&.&.&.&.&.&.&.&.&.&.&.&.&.&.&.&.&.&.&.&.&.&.&.&.&.&.&.&.&.&.&.&.&.&.&.&.&.&.&.&.&.&.&.&.&.&.&.&.&.&.R E H.~.Q.Q.E E *.R 6./.].I.L.",
"P.I.I.I.P.|.Q.<.G Y *.7 m.XXH H *.&.&.&.&.&.&.&.&.&.&.&.&.&.&.&.&.&.&.&.&.&.&.&.&.&.&.&.&.&.&.&.&.&.&.&.&.&.&.&.&.&.&.&.&.&.&.&.&.&.&.&.&.&.&.&.&.&.&.&.&.&.&.&.&.&.&.&.&.&.&.&.&.&.&.&.&.&.&.&.&.&.&.&.&.&.&.&.&.&.&.&.&.&.&.&.&.&.&.&.&.&.&.&.&.&.&.&.&.&.&.&.&.&.&.&.&.&.&.&.&.&.&.&.&.&.&.&.&.&.;.;.&.&.&.&.*.E m.~.`.P.I.P.P.].3.G *.i G 7.].P.I.I.I.`.`.^.G *.i W G ^ #XsX/ n W a u >.#.#.&.&.&.&.&.&.&.&.&.&.&.&.&.&.&.&.&.&.&.&.&.&.&.&.&.&.&.&.&.&.&.&.&.&.&.&.&.&.&.&.&.&.&.&.&.&.&.&.&.&.&.&.&.&.&.&.&.&.&.&.&.&.&.&.&.&.&.&.&.&.&.&.&.&.&.&.&.&.&.&.&.&.&.&.&.&.&.&.&.&.&.&.&.&.&.&.&.&.&.&.&.&.&.&.&.&.&.&.&.&.&.&.&.&.&.&.&.&.&.&.&.&.&.&.&.&.&.&.;.l l ;.R G 1.Q.`.`.`.`._.Q.5.G W G 2.~.P.I.I.P.).W.e ;.R G H $X-.9 *.&.i ;.&.;.&.&.&.&.&.&.&.&.&.&.&.&.&.&.&.&.&.&.&.&.&.&.&.&.&.&.&.&.&.&.&.&.&.&.&.&.&.&.&.&.&.&.&.&.&.&.&.&.&.&.&.&.&.&.&.&.&.&.&.&.&.&.&.&.&.&.&.&.&.&.&.&.&.&.&.&.&.&.&.&.&.&.&.&.&.&.&.&.&.&.&.&.&.&.&.&.&.&.&.&.&.&.&.&.&.&.&.&.&.&.&.&.&.&.&.&.&.&.&.&.&.&.&.&.&.&.&.&.&.&.&.&.&.&.&.&.l R E H.).Q.Q.H G R G 2./.].I.I.",
"P.I.I.P.P.|.Q.<.G Y *.7 m.$XH H *.&.&.&.&.&.&.&.&.&.&.&.&.&.&.&.&.&.&.&.&.&.&.&.&.&.&.&.&.&.&.&.&.&.&.&.&.&.&.&.&.&.&.&.&.&.&.&.&.&.&.&.&.&.&.&.&.&.&.&.&.&.&.&.&.&.&.&.&.&.&.&.&.&.&.&.&.&.&.&.&.&.&.&.&.&.&.&.&.&.&.&.&.&.&.&.&.&.&.&.&.&.&.&.&.&.&.&.&.&.&.&.&.&.&.&.&.&.&.&.&.&.&.&.&.&.&.&.&.&.&.&.&.&.&.&.*.E F.].`.P.P.P.P.].3.G *.i G 7.].P.I.I.I.`.`.W.G *.i W G / iXsXr.C W a u >.#.#.;.&.&.&.&.&.&.&.&.&.&.&.&.&.&.&.&.&.&.&.&.&.&.&.&.&.&.&.&.&.&.&.&.&.&.&.&.&.&.&.&.&.&.&.&.&.&.&.&.&.&.&.&.&.&.&.&.&.&.&.&.&.&.&.&.&.&.&.&.&.&.&.&.&.&.&.&.&.&.&.&.&.&.&.&.&.&.&.&.&.&.&.&.&.&.&.&.&.&.&.&.&.&.&.&.&.&.&.&.&.&.&.&.&.&.&.&.&.&.&.&.&.&.&.&.&.&.&.;.l i *.R G 1.Q.P.`.'.`._.Q.5.G R G 2.~.P.I.I.P.).W.e ;.R G E $X-.9 *.&.e ;.&.;.&.&.&.&.&.&.&.&.&.&.&.&.&.&.&.&.&.&.&.&.&.&.&.&.&.&.&.&.&.&.&.&.&.&.&.&.&.&.&.&.&.&.&.&.&.&.&.&.&.&.&.&.&.&.&.&.&.&.&.&.&.&.&.&.&.&.&.&.&.&.&.&.&.&.&.&.&.&.&.&.&.&.&.&.&.&.&.&.&.&.&.&.&.&.&.&.&.&.&.&.&.&.&.&.&.&.&.&.&.&.&.&.&.&.&.&.&.&.&.&.&.&.&.&.&.&.&.&.&.&.&.&.&.&.&.&.l R E H.).Q.Q.H G R G -./.].I.I.",
"P.P.P.P.P.|.Q.1.E Y *.7 V.$XK H O.&.&.l &.&.&.&.&.&.&.&.&.&.&.&.&.&.&.&.&.&.&.&.&.&.&.&.&.&.&.&.&.&.&.&.&.&.&.&.&.&.&.&.&.&.&.&.&.&.&.&.&.&.&.&.&.&.&.&.&.&.&.&.&.&.&.&.&.&.&.&.&.&.&.&.&.&.&.&.&.&.&.&.&.&.&.&.&.&.&.&.&.&.&.&.&.&.&.&.&.&.&.&.&.&.&.&.&.&.&.&.&.&.&.&.&.&.&.&.&.&.&.&.&.&.&.&.&.&.&.&.&.&.&.&.R E F.].`.P.P.P.P.].2.G *.i G 7.].P.I.I.I.`.`.W.G &.i W G / iXpXt.Z W a u v O.#.;.&.&.&.&.&.&.&.&.&.&.&.&.&.&.&.&.&.&.&.&.&.&.&.&.&.&.&.&.&.&.&.&.&.&.&.&.&.&.&.&.&.&.&.&.&.&.&.&.&.&.&.&.&.&.&.&.&.&.&.&.&.&.&.&.&.&.&.&.&.&.&.&.&.&.&.&.&.&.&.&.&.&.&.&.&.&.&.&.&.&.&.&.&.&.&.&.&.&.&.&.&.&.&.&.&.&.&.&.&.&.&.&.&.&.&.&.&.&.&.&.&.&.&.&.&.&.&.l l l &.R G 1.`.P.`.'.`.|.~.2.A R G 2.~.P.I.I.P./.C.e *.R G H $X-.9 &.&.i ;.&.;.&.&.&.&.&.&.&.&.&.&.&.&.&.&.&.&.&.&.&.&.&.&.&.&.&.&.&.&.&.&.&.&.&.&.&.&.&.&.&.&.&.&.&.&.&.&.&.&.&.&.&.&.&.&.&.&.&.&.&.&.&.&.&.&.&.&.&.&.&.&.&.&.&.&.&.&.&.&.&.&.&.&.&.&.&.&.&.&.&.&.&.&.&.&.&.&.&.&.&.&.&.&.&.&.&.&.&.&.&.&.&.&.&.&.&.&.&.&.&.&.&.&.&.&.&.&.&.&.&.&.&.&.&.&.&.&.&.R R H.).Q.Q.H H *.G 2./.].P.I.",
"P.P.P.P.P.|.Q.1.E R *.9 V.$XP H O.&.l l &.&.&.&.&.&.&.&.&.&.&.&.&.&.&.&.&.&.&.&.&.&.&.&.&.&.&.&.&.&.&.&.&.&.&.&.&.&.&.&.&.&.&.&.&.&.&.&.&.&.&.&.&.&.&.&.&.&.&.&.&.&.&.&.&.&.&.&.&.&.&.&.&.&.&.&.&.&.&.&.&.&.&.&.&.&.&.&.&.&.&.&.&.&.&.&.&.&.&.&.&.&.&.&.&.&.&.&.&.&.&.&.&.&.&.&.&.&.&.&.&.&.&.&.&.&.&.&.&.&.&.&.O.E F.].`.P.P.P.P.].2.G W i G 7.U.P.I.L.I.`.`.W.G &.i W G / iXsXa.S W a u v O.@.;.&.&.&.&.&.&.&.&.&.&.&.&.&.&.&.&.&.&.&.&.&.&.&.&.&.&.&.&.&.&.&.&.&.&.&.&.&.&.&.&.&.&.&.&.&.&.&.&.&.&.&.&.&.&.&.&.&.&.&.&.&.&.&.&.&.&.&.&.&.&.&.&.&.&.&.&.&.&.&.&.&.&.&.&.&.&.&.&.&.&.&.&.&.&.&.&.&.&.&.&.&.&.&.&.&.&.&.&.&.&.&.&.&.&.&.&.&.&.&.&.&.&.&.&.&.&.&.l l l &.Y E 1.`.P.`.'.`.|.~.2.A R G 2.~.P.I.P.P./.V.e *.R G H $X2.9 &.W i ;.&.;.&.&.&.&.&.&.&.&.&.&.&.&.&.&.&.&.&.&.&.&.&.&.&.&.&.&.&.&.&.&.&.&.&.&.&.&.&.&.&.&.&.&.&.&.&.&.&.&.&.&.&.&.&.&.&.&.&.&.&.&.&.&.&.&.&.&.&.&.&.&.&.&.&.&.&.&.&.&.&.&.&.&.&.&.&.&.&.&.&.&.&.&.&.&.&.&.&.&.&.&.&.&.&.&.&.&.&.&.&.&.&.&.&.&.&.&.&.&.&.&.&.&.&.&.&.&.&.&.&.&.&.&.&.&.&.&.&.R E H.~.Q.Q.H G *.G -./.].P.I.",
"P.P.P.P.P.|.Q.1.E R *.9 !.#X/ H O.&.&.&.&.&.&.&.&.&.&.&.&.&.&.&.&.&.&.&.&.&.&.&.&.&.&.&.&.&.&.&.&.&.&.&.&.&.&.&.&.&.&.&.&.&.&.&.&.&.&.&.&.&.&.&.&.&.&.&.&.&.&.&.&.&.&.&.&.&.&.&.&.&.&.&.&.&.&.&.&.&.&.&.&.&.&.&.&.&.&.&.&.&.&.&.&.&.&.&.&.&.&.&.&.&.&.&.&.&.&.&.&.&.&.&.&.&.&.&.&.&.&.&.&.&.&.&.&.&.&.&.&.&.&.&.O.E m.~.`.P.P.P.P.].2.G W R G 7.J.P.I.I.I.P.`.W.G &.i W G / iXsXf.Z R a u l O.;.&.&.&.&.&.&.&.&.&.&.&.&.&.&.&.&.&.&.&.&.&.&.&.&.&.&.&.&.&.&.&.&.&.&.&.&.&.&.&.&.&.&.&.&.&.&.&.&.&.&.&.&.&.&.&.&.&.&.&.&.&.&.&.&.&.&.&.&.&.&.&.&.&.&.&.&.&.&.&.&.&.&.&.&.&.&.&.&.&.&.&.&.&.&.&.&.&.&.&.&.&.&.&.&.&.&.&.&.&.&.&.&.&.&.&.&.&.&.&.&.&.&.&.&.&.&.&.&.l l l W G E 3.`.`.I.I.I.|.~.3.A *.G 6.~.P.I.P.J./.V.e *.R G E %Xv.9 W W e ;.l &.;.&.&.&.&.&.&.&.&.&.&.&.&.&.&.&.&.&.&.&.&.&.&.&.&.&.&.&.&.&.&.&.&.&.&.&.&.&.&.&.&.&.&.&.&.&.&.&.&.&.&.&.&.&.&.&.&.&.&.&.&.&.&.&.&.&.&.&.&.&.&.&.&.&.&.&.&.&.&.&.&.&.&.&.&.&.&.&.&.&.&.&.&.&.&.&.&.&.&.&.&.&.&.&.&.&.&.&.&.&.&.&.&.&.&.&.&.&.&.&.&.&.&.&.&.&.&.&.&.&.&.&.&.&.&.&.&.R E H.~.Q.Q.H G *.G -./.`.P.I.",
"P.P.U.P.P.|.Q.1.E R *.9 !.%X/ H *.&.&.&.&.&.&.&.&.&.&.&.&.&.&.&.&.&.&.&.&.&.&.&.&.&.&.&.&.&.&.&.&.&.&.&.&.&.&.&.&.&.&.&.&.&.&.&.&.&.&.&.&.&.&.&.&.&.&.&.&.&.&.&.&.&.&.&.&.&.&.&.&.&.&.&.&.&.&.&.&.&.&.&.&.&.&.&.&.&.&.&.&.&.&.&.&.&.&.&.&.&.&.&.&.&.&.&.&.&.&.&.&.&.&.&.&.&.&.&.&.&.&.&.&.&.&.&.&.&.&.&.&.&.&.&.*.E m.~.`.P.P.P.P.].2.A W Y G 7.J.P.I.I.I.P.`.W.G &.i W G 1.pXlX'.K R a z l O.:.&.&.&.&.&.&.&.&.&.&.&.&.&.&.&.&.&.&.&.&.&.&.&.&.&.&.&.&.&.&.&.&.&.&.&.&.&.&.&.&.&.&.&.&.&.&.&.&.&.&.&.&.&.&.&.&.&.&.&.&.&.&.&.&.&.&.&.&.&.&.&.&.&.&.&.&.&.&.&.&.&.&.&.&.&.&.&.&.&.&.&.&.&.&.&.&.&.&.&.&.&.&.&.&.&.&.&.&.&.&.&.&.&.&.&.&.&.&.&.&.&.&.&.&.&.&.&.&.x x l a e E 7.`.P.I.I.I.|.~.3.A R G 5.~.P.I.P.J./.V.9 *.R G H %Xv.y W R e ;.l &.&.&.&.&.&.&.&.&.&.&.&.&.&.&.&.&.&.&.&.&.&.&.&.&.&.&.&.&.&.&.&.&.&.&.&.&.&.&.&.&.&.&.&.&.&.&.&.&.&.&.&.&.&.&.&.&.&.&.&.&.&.&.&.&.&.&.&.&.&.&.&.&.&.&.&.&.&.&.&.&.&.&.&.&.&.&.&.&.&.&.&.&.&.&.&.&.&.&.&.&.&.&.&.&.&.&.&.&.&.&.&.&.&.&.&.&.&.&.&.&.&.&.&.&.&.&.&.&.&.&.&.&.&.&.&.&.l R R H.~.Q.Q.H G *.G -./.].P.I.",
"P.P.U.P.P.|.Q.1.E R *.9 (.%X/ H *.&.&.&.&.&.&.&.&.&.&.&.&.&.&.&.&.&.&.&.&.&.&.&.&.&.&.&.&.&.&.&.&.&.&.&.&.&.&.&.&.&.&.&.&.&.&.&.&.&.&.&.&.&.&.&.&.&.&.&.&.&.&.&.&.&.&.&.&.&.&.&.&.&.&.&.&.&.&.&.&.&.&.&.&.&.&.&.&.&.&.&.&.&.&.&.&.&.&.&.&.&.&.&.&.&.&.&.&.&.&.&.&.&.&.&.&.&.&.&.&.&.&.&.&.&.&.&.&.&.;.;.&.&.&.&.*.E m.).`.P.P.P.P.].3.A W i G 7.J.P.I.I.I.P.`.W.G W i W G 1.pXlX}.K R a x l g :.&.&.&.&.&.&.&.&.&.&.&.&.&.&.&.&.&.&.&.&.&.&.&.&.&.&.&.&.&.&.&.&.&.&.&.&.&.&.&.&.&.&.&.&.&.&.&.&.&.&.&.&.&.&.&.&.&.&.&.&.&.&.&.&.&.&.&.&.&.&.&.&.&.&.&.&.&.&.&.&.&.&.&.&.&.&.&.&.&.&.&.&.&.&.&.&.&.&.&.&.&.&.&.&.&.&.&.&.&.&.&.&.&.&.&.&.&.&.&.&.&.&.&.&.&.&.&.&.x x x i e Q p.`.P.I.I.P.].!.3.Y R G 5.~.P.I.P.J./.V.e &.R G E %Xn.y W i e ;.l &.&.&.&.&.&.&.&.&.&.&.&.&.&.&.&.&.&.&.&.&.&.&.&.&.&.&.&.&.&.&.&.&.&.&.&.&.&.&.&.&.&.&.&.&.&.&.&.&.&.&.&.&.&.&.&.&.&.&.&.&.&.&.&.&.&.&.&.&.&.&.&.&.&.&.&.&.&.&.&.&.&.&.&.&.&.&.&.&.&.&.&.&.&.&.&.&.&.&.&.&.&.&.&.&.&.&.&.&.&.&.&.&.&.&.&.&.&.&.&.&.&.&.&.&.&.&.&.&.&.&.&.&.&.&.&.&.l R E H.).Q.Q.H G &.G -./.].I.I.",
"P.P.U.P.`.|.Q.<.W R *.C /.aX^ H *.&.&.&.&.&.&.&.&.&.&.&.&.&.&.&.&.&.&.&.&.&.&.&.&.&.&.&.&.&.&.&.&.&.&.&.&.&.&.&.&.&.&.&.&.&.&.&.&.&.&.&.&.&.&.&.&.&.&.&.&.&.&.&.&.&.&.&.&.&.&.&.&.&.&.&.&.&.&.&.&.&.&.&.&.&.&.&.&.&.&.&.&.&.&.&.&.&.&.&.&.&.&.&.&.&.&.&.&.&.&.&.&.&.&.&.&.&.&.&.&.&.&.&.&.&.&.&.&.&.;.;.&.&.&.&.&.E m.|.`.I.I.I.P.].2.A *.R G 7.~.P.I.I.I.P.Q.W.G &.i W R 1.pXjX XU R l a l g :.&.&.&.&.&.&.&.&.&.&.&.&.&.&.&.&.&.&.&.&.&.&.&.&.&.&.&.&.&.&.&.&.&.&.&.&.&.&.&.&.&.&.&.&.&.&.&.&.&.&.&.&.&.&.&.&.&.&.&.&.&.&.&.&.&.&.&.&.&.&.&.&.&.&.&.&.&.&.&.&.&.&.&.&.&.&.&.&.&.&.&.&.&.&.&.&.&.&.&.&.&.&.&.&.&.&.&.&.&.&.&.&.&.&.&.&.&.&.&.&.&.&.&.&.&.&.&.&.z x x i 9 Q S.|.P.I.`.P.].~.2.Y W G 6.~.P.I.P.P./.V.e &.G G E %Xm.A R Y e =.l l &.&.&.&.&.&.&.&.&.&.&.&.&.&.&.&.&.&.&.&.&.&.&.&.&.&.&.&.&.&.&.&.&.&.&.&.&.&.&.&.&.&.&.&.&.&.&.&.&.&.&.&.&.&.&.&.&.&.&.&.&.&.&.&.&.&.&.&.&.&.&.&.&.&.&.&.&.&.&.&.&.&.&.&.&.&.&.&.&.&.&.&.&.&.&.&.&.&.&.&.&.&.&.&.&.&.&.&.&.&.&.&.&.&.&.&.&.&.&.&.&.&.&.&.&.&.&.&.&.&.&.&.&.&.&.&.i R R H.).Q.Q.H G &.G -./.|.I.I.",
"P.P.P.P.`.}./.*.i u Y S `.aXS.A R &.&.&.&.&.&.&.&.&.&.&.&.&.&.&.&.&.&.&.&.&.&.&.&.&.&.&.l l &.&.&.&.*.&.&.&.&.&.&.&.&.&.&.&.&.;.&.&.&.&.&.&.;.;.&.&.&.&.&.&.&.&.&.&.&.&.&.&.&.&.&.l &.l l l l l l l &.l &.l &.l &.l &.l &.l &.&.&.&.&.&.&.&.&.&.&.&.&.&.&.&.&.&.&.&.&.&.;.;.&.&.;.;.;.;.&.&.&.&.&.&.&.l &.&.&.*.*.A W.|.`._.I.I.P.].5.C &.&.G 2.).P.I.I.I.`.Q.W.*.R i W G 5.sXpX9Xr.Z W a a *.O.&.;.;.#.#.#.&.&.&.&.&.&.&.&.&.&.&.&.&.&.&.&.&.l l l l l l l l l l l l &.&.&.&.;.l l l &.&.&.&.&.&.&.&.&.;.;.&.&.&.&.;.;.&.&.&.&.&.&.&.&.&.&.&.&.&.&.&.&.&.&.&.&.&.&.&.&.&.&.&.&.&.&.&.&.&.&.&.&.&.&.&.&.&.&.&.&.&.&.&.&.&.&.&.&.&.&.&.&.&.&.&.&.&.&.&.&.&.&.&.&.l l l &.9 E S.].P.I.I.P.|.~.3.Y W Y 2.~.P.L.P.G./.7.R R *.A 2.%XW.F G *.a l l >.;.;.&.&.&.&.&.&.&.&.&.&.&.&.&.&.&.&.&.&.&.&.&.&.&.&.&.&.&.&.&.&.&.&.&.&.&.&.&.&.&.&.&.&.&.&.&.&.&.&.&.&.&.&.&.&.&.&.&.&.&.&.&.&.&.&.&.&.l i l R *.&.&.&.&.&.&.&.&.&.&.&.&.&.&.&.&.&.&.&.&.&.&.&.&.&.&.&.&.&.&.&.&.&.;.c c c l l &.&.&.&.&.&.&.&.;.l &.&.l l l l &.&.&.&.&.&.&.&.R R E F.~.Q.Q.E R R ;.R /.F.P.I.",
"P.P.P.`.z.}.Q.*.u p Y S P.sXb.y R &.&.&.&.&.&.&.&.&.&.&.&.&.&.&.&.&.&.&.&.&.&.&.&.&.&.&.l l &.&.&.*.*.*.&.&.&.&.&.&.&.&.&.&.;.;.&.&.&.&.;.&.;.;.&.&.&.&.&.&.&.&.&.&.&.&.&.&.&.&.l l l l l l l l l l l l l l l l l l l l l l l l &.&.&.&.&.&.&.&.&.&.&.&.&.&.&.&.&.&.&.&.;.;.&.&.&.;.;.;.&.&.&.&.&.&.&.l &.&.&.*.+.F Q.|.`._.g.'.P.[.1.C *.&.R 2.).`.I.I.I.`.Q.W.*.R i W e 6.sXpXpXr.Z Y a a *.*.&.;.;.;.#.#.&.&.&.&.*.*.&.&.&.&.&.l l l &.&.&.&.l l l l &.&.&.&.l &.&.&.;.&.;.;.l l l &.&.&.&.&.&.&.&.&.;.;.;.&.&.;.;.;.&.&.&.&.&.&.&.&.&.&.&.&.&.&.&.&.&.&.&.&.&.&.&.&.&.&.&.&.&.&.&.&.&.&.&.&.&.&.&.&.&.&.&.&.&.&.&.&.&.&.&.&.&.&.&.&.&.&.&.&.&.&.&.&.&.&.&.&.c l l &.9 E F.U.P.I.I.P.|.~.6.G W y 3.~.P.I.P.G.).7.R R *.A 2.%XQ.Z H W a l l >.c ;.&.&.&.&.&.&.&.&.&.&.&.&.&.&.&.&.&.&.&.&.&.&.&.&.&.&.&.&.&.&.&.&.&.&.&.&.&.&.&.&.&.&.&.&.&.&.&.&.&.&.&.&.&.&.&.&.&.&.&.&.&.&.g g i i i i i i R R R R &.&.&.&.&.&.&.&.&.&.&.&.&.&.&.&.&.&.&.&.&.&.&.&.&.&.&.&.&.&.;.;.c c l l &.&.&.&.&.&.&.&.l l l l &.l l &.&.&.&.&.&.&.&.&.R Y E F.].J.Q.E R R ;.R /.F.P.I.",
"P.P.P.`.z.}.Q.*.u p Y S `.sXb.y R &.&.&.&.&.&.&.&.&.&.&.&.&.&.&.&.&.&.&.&.&.&.&.&.&.&.&.&.&.&.&.&.&.&.&.&.&.&.&.&.&.&.&.c c c c &.&.;.;.;.;.;.;.;.&.&.&.;.&.;.;.&.&.&.&.&.l l l &.&.l l l l l l &.&.&.&.&.&.&.l &.&.&.&.&.&.l l l l &.&.&.&.&.&.&.&.&.&.&.&.&.&.&.&.;.;.;.;.&.&.&.&.;.;.&.&.&.&.&.&.l l l &.&.&.*.A W.|.`._.g.'.P.[.1.C *.*.R 6.).`.I.I.I.`.Q.W.*.R i W 9 6.sXpXpXr.F Y a a *.&.&.;.;.&.#.&.&.&.&.&.*.*.&.&.&.&.e e l &.&.&.&.&.&.&.&.&.&.&.&.&.&.&.&.&.&.&.&.&.&.&.&.&.&.&.&.&.&.&.;.&.;.;.&.&.&.&.;.;.;.;.&.&.&.&.&.&.&.&.&.&.&.&.&.&.&.&.&.&.&.&.&.&.&.&.&.&.&.&.&.&.&.&.&.&.&.&.&.&.&.&.&.&.&.&.&.&.&.&.&.&.&.&.&.&.&.&.&.&.&.&.&.&.&.&.&.&.c l ;.&.A E F.U.P.I.I.P.).~.6.G W y 3.~.P.I.P.G.).7.R R *.A 2.%X).Z H R a x i l c ;.&.&.&.&.&.&.&.&.&.&.&.&.&.&.&.&.&.&.&.&.&.&.&.&.&.&.&.&.&.&.&.&.&.&.&.&.&.&.&.&.&.&.&.&.&.&.&.&.&.&.&.&.&.&.&.&.&.&.*.*.&.&.G R R &.R R *.*.R R R R &.&.*.;.&.&.&.&.&.&.&.&.&.&.&.&.&.&.&.&.&.&.&.&.&.&.&.&.&.&.;.;.&.&.&.&.&.&.&.&.*.*.*.&.e i l l &.&.&.&.&.&.&.&.&.&.&.&.R Y E F.].J.~.E E G ;.R /.F.`.I.",
"P.P.P.`.z.}.Q.*.u p Y S _.sXS.Y R &.&.&.&.&.&.&.&.&.&.&.&.&.&.&.&.&.&.&.&.&.&.&.&.&.&.&.&.&.&.&.&.&.&.&.&.&.&.&.&.&.&.&.c c c c &.;.;.;.;.;.;.;.;.&.&.&.;.;.;.&.&.&.&.&.&.l l l &.&.&.l &.l &.&.&.&.&.&.&.&.&.l &.&.&.&.&.&.l l l l &.&.&.&.&.&.&.&.&.&.&.&.&.&.&.&.;.;.;.;.&.&.&.&.;.;.;.&.&.&.&.&.l l l l &.&.*.A W.|.`._.I._.P.[.1.C *.*.G 6.|.`.I.I.I.`.Q.W.*.&.i =.9 7.sXpXpXr.S Y a a ;.&.&.;.;.&.&.&.&.&.&.&.&.&.&.&.&.&.l l l &.&.&.&.&.&.&.&.&.&.&.&.&.&.&.&.&.&.&.&.&.&.&.&.&.&.&.&.&.&.&.;.;.;.;.&.&.&.&.;.;.;.;.&.&.&.&.&.&.&.&.&.&.&.&.&.&.&.&.&.&.&.&.&.&.&.&.&.&.&.&.&.&.&.&.&.&.&.&.&.&.&.&.&.&.&.&.&.&.&.&.&.&.&.&.&.&.&.&.&.&.&.&.&.&.&.&.&.&.;.l ;.W A ^ F.U.P.I.I.`.).!.6.G W y 2.J.P.L.P.G.).6.R R *.A 2.%X).S H R a x l l c ;.&.&.&.&.&.&.&.&.&.&.&.&.&.&.&.&.&.&.&.&.&.&.&.&.&.&.&.&.&.&.&.&.&.&.&.&.&.&.&.&.&.&.&.&.&.&.&.&.&.&.&.&.&.&.;.&.&.&.*.*.&.&.*.*.;.:.:.-.-.-.*.*.R R G O.*.*.&.&.&.&.&.&.&.&.&.&.&.&.&.&.&.&.&.&.&.&.&.&.&.&.&.&.;.;.&.&.&.&.&.l l &.&.&.&.*.O.O.&.&.&.&.l l &.&.&.&.&.&.&.&.W Y E F.].J.~.E R G ;.G /.F.P.I.",
"P.P.P.`.z.}.Q.*.p p Y S _.lXS.A R &.&.&.&.&.&.&.&.&.&.&.&.&.&.&.l &.&.&.&.&.&.&.&.&.&.&.&.&.&.&.&.&.&.&.&.&.&.&.&.&.l l c l l l &.&.&.&.&.&.&.&.&.&.&.&.&.&.&.&.&.&.&.&.&.&.&.&.&.&.&.&.&.&.&.&.&.&.&.&.&.&.&.&.&.&.&.&.&.&.&.&.l &.&.&.&.l l &.&.&.&.&.&.&.&.&.&.&.&.&.&.&.&.&.&.&.&.&.&.&.&.&.&.l l l l l l &.*.A W.|.`._.I.I.P.[.5.C *.*.G <.).`.I.I.I.`.Q.W.*.&.i =.Y 7.sXpXjXt.S Y a a *.*.&.&.&.&.&.&.&.&.&.&.&.&.&.&.&.&.&.&.&.&.R R R R &.&.&.&.&.&.&.&.&.&.&.&.&.R R R &.&.&.&.&.&.&.&.&.&.&.&.&.&.&.&.&.&.&.&.&.&.&.&.&.&.&.&.&.&.&.&.&.&.&.&.&.&.&.&.&.&.&.&.&.&.&.&.&.&.&.&.&.&.&.&.&.&.&.&.&.&.&.&.&.&.&.&.&.&.&.&.&.&.&.&.&.&.&.&.&.&.&.&.&.&.&.&.&.l ;.R A 2.Q.P.P.I.I.`.|.W.2.A W Y 2.~.P.I.P.G./.6.G R *.A 1.%X|.H H R &.=.l l c ;.&.&.&.&.&.&.&.&.&.&.&.&.&.&.&.&.&.&.&.&.&.&.&.&.&.&.&.&.&.&.&.&.&.&.&.&.&.&.&.&.&.&.&.&.&.&.&.&.&.&.&.&.&.&.;.;.&.&.&.&.*.*.:.:.-.-.,.,.6.6.-.:.*.*.R R O.O.&.&.&.&.&.&.&.&.&.&.&.&.&.&.&.&.&.&.&.&.&.&.&.&.&.&.&.&.&.&.&.&.O.&.R R *.*.*.*.*.*.*.*.*.R R G &.&.&.&.&.l &.W W Y Q F.].J.~.^ E G ;.G /.F.P.I.",
"P.P.P.I.z.}.Q.*.a p Y S [.lXF.Y R &.&.&.&.&.&.&.&.&.&.&.&.&.&.&.&.&.&.&.&.&.*.&.*.&.&.&.&.&.&.&.&.&.&.&.&.&.&.&.&.&.l l l l l l l &.&.&.&.&.&.&.&.&.&.&.&.&.&.&.&.&.&.&.&.&.&.&.&.&.&.&.&.&.&.&.&.&.&.&.&.&.&.&.&.&.&.&.&.&.&.&.&.&.&.&.&.&.l l &.&.&.&.&.&.&.&.&.&.&.&.&.&.&.&.&.&.&.&.&.&.&.&.&.l l l l l l &.*.A W.).Q._.I.I.P.[.5.C *.*.G <.).`.I.I.I.`.Q.^.*.&.i =.Y 7.sXjXjXu.S W a l &.&.&.&.&.&.&.&.&.&.&.&.&.&.&.&.&.&.&.&.*.&.*.&.R R *.*.*.*.*.;.*.*.*.*.*.*.&.&.*.&.*.*.*.&.*.&.R R &.&.&.&.&.&.&.&.&.&.&.&.&.&.&.&.&.&.&.&.&.&.&.&.&.&.&.&.&.&.&.&.&.&.&.&.&.&.&.&.&.&.&.&.&.&.&.&.&.&.&.&.&.&.&.&.&.&.&.&.&.&.&.&.&.&.&.&.&.&.&.&.&.&.&.&.&.&.&.&.&.l ;.i G 3.~.P.P.I.I.`.|.W.2.9 W Y 2.~.P.P.P.G./.6.G R *.A 1.aX@XK H R &.=.i l c ;.&.&.&.&.&.&.&.&.&.&.&.&.&.&.&.&.&.&.&.&.&.&.&.&.&.&.&.&.&.&.&.&.&.&.&.&.&.&.&.&.&.&.&.&.&.&.&.&.&.&.&.&.&.&.;.;.&.l &.;.;.:.:.-.-.-.-.2.6.6.2.-.-.:.*.R G G *.&.&.&.&.&.&.&.&.&.&.&.&.&.&.&.&.&.&.&.&.&.&.&.&.&.&.&.&.&.&.&.&.&.*.*.*.:.:.:.-.-.-.:.*.*.&.R &.&.&.&.l l l a W Y E F.].J.~.^ E G ;.G /.F.P.I.",
"U.K.P.P.z.}.Q.*.x p Y S [.lXH.Y R l l l l l l l l l l l l l l &.&.&.*.&.*.*.*.*.*.*.*.&.*.&.*.*.R R R R &.&.&.&.&.&.l l l l l l l l l l l l l l l l l l l l l &.&.&.&.&.&.&.&.&.&.&.&.&.&.&.*.&.*.&.*.&.&.&.&.&.*.&.*.&.&.&.*.&.&.&.&.&.&.&.&.&.&.&.l l l l l &.&.&.&.&.&.&.&.&.&.&.&.&.&.&.&.&.&.&.l l l l &.&.*.A W.).Q._.P.P.P.[.5.C &.&.G <.).`.I.I.I.`.Q.^.*.&.l =.Y 7.sXjXzXa.S R W l &.&.&.l &.&.&.&.&.&.l l &.&.R R R R G O.*.*.*.*.*.:.:.:.:.:.:.:.:.:.-.:.:.:.:.;.:.;.*.*.*.*.*.O.*.O.&.&.&.&.&.&.&.&.&.&.&.&.&.&.&.&.&.&.&.&.&.&.&.&.&.&.&.&.&.&.&.&.&.&.&.&.&.&.&.&.&.&.&.&.&.&.&.&.&.&.&.&.&.&.&.&.&.&.&.&.&.&.&.&.&.&.&.&.&.&.&.&.&.&.&.&.&.&.&.&.&.&.;.e G 7.|.G.`.I.I.`.`.Q.6.A W A 2.].U.P.P.G./.6.G R *.A 3.aX#XK H R &.=.l l l &.&.&.&.&.&.&.&.&.&.&.&.&.&.&.&.&.&.&.&.&.&.&.&.&.&.&.&.&.&.&.&.&.&.&.&.&.&.&.&.&.&.&.&.&.&.&.&.&.&.&.&.&.&.&.&.l l l &.;.:.:.-.-.-.<.<.<.<.<.2.-.2.-.-.*.R R *.*.&.&.&.&.&.&.&.&.&.&.&.&.&.&.&.&.&.&.&.&.&.&.&.&.&.&.&.&.&.&.&.*.:.:.:.-.-.2.4.4.4.:.-.-.:.:.&.&.&.&.l l l a W W E F.].J.~.E R O.;.O./.F.P.I.",
"U.K.P.P.z.}.Q.*.x a Y K 5XzXG.Y R l l l l l l l l l l l l l l &.&.*.*.*.*.*.*.*.*.*.O.*.O.*.*.*.R R R R &.&.&.&.&.&.&.l l l l l l l l l l l l l l l l l l l l &.&.&.&.&.&.&.&.&.&.&.*.&.&.&.*.*.*.&.*.*.*.&.*.*.*.&.*.*.*.*.*.&.&.&.&.&.&.&.&.&.&.&.&.l l l l l &.&.&.&.&.&.&.&.&.&.&.&.&.&.&.&.&.&.&.l l l &.R *.G W.).J._.P.P.P.[.5.C &.&.G <.).`.I.I.I.`.Q.^.*.&.l =.Y 7.lXjXzXs.S R W l &.&.&.l l l &.&.&.&.l l &.&.R R R R G G O.*.*.:.-.,.6.,.,.,.6.,.6.,.6.,.6.,.:.,.-.:.*.*.*.*.*.*.O.O.*.&.&.&.&.&.&.&.&.&.&.&.&.&.&.&.&.&.&.&.&.&.&.&.&.&.&.&.&.&.&.&.&.&.&.&.&.&.&.&.&.&.&.&.&.&.&.&.&.&.&.&.&.&.&.&.&.&.&.&.&.&.&.&.&.&.&.&.&.&.&.&.&.&.&.&.&.&.&.&.l l ;.e A 7.|.P.`.I.I.`.`.Q.6.A R A 1.].P.P.P.G./.6.R R *.Z 3.aX#X^ H R &.=.l l l &.&.&.&.&.&.&.&.&.&.&.&.&.&.&.&.&.&.&.&.&.&.&.&.&.&.&.&.&.&.&.&.&.&.&.&.&.&.&.&.&.&.&.&.&.&.&.&.&.&.&.&.&.&.&.l l l &.&.;.:.,.,.6.<.<.<.<.<.<.-.-.2.6.6.-.*.R *.*.&.&.&.&.&.&.&.&.&.&.&.&.&.&.&.&.&.&.&.&.&.&.&.&.&.&.&.&.&.&.:.:.:.,.6.6.6.6.4.4.4.4.4.:.,.,.*.&.&.&.&.l l a R W E W.].J.~.E R O.;.O./.F.P.I.",
"U.P.P.P.f.}.W.E a u R K 7XpXOXS W &.&.&.&.&.&.&.i l l l l &.&.&.G G H *.*.-.-.-.2.-.2.-.2.-.2.-.R R R R R i e e ;.;.;.&.&.l l l ;.;.;.l &.l l l ;.;.;.;.&.l l &.e R &.&.*.*.&.R G G *.*.:.:.-.,.-.-.-.-.-.-.-.-.-.:.*.*.*.*.*.R G R G R &.&.&.&.&.&.&.l l i i i &.&.&.&.&.&.&.&.&.&.&.&.&.&.&.&.&.R &.&.&.&.&.R R R 7.~.].P.U.P.P.J.1.G *.*.G *.Q.P.I.I.I.`.Q./.*.l >.l 9 y.pXjXkX8XK A =.i &.&.l l l l l l l i &.&.R R R G G G G *.-.2.6.6.6.6.2.-.2.-.2.-.2.-.-.-.2.-.2.-.-.-.-.-.-.-.*.*.H O.&.&.&.&.&.&.&.&.&.&.&.&.&.&.l &.&.&.&.&.&.&.&.&.&.&.&.&.&.&.&.&.&.&.&.&.&.&.&.&.&.&.&.&.&.&.&.&.&.&.&.&.&.&.&.&.&.&.&.&.&.&.&.&.&.&.&.&.&.&.&.&.&.&.&.&.&.&.&.&.;.l &.R G 6.Q.P._.I.f.I.|.F.E G R E 7.].P.P.P.G./.6.G R E Z 1.aX#X1.Z R &.l x l l &.&.#.&.&.&.&.&.&.&.&.&.&.&.&.&.&.&.&.&.&.&.&.&.&.&.&.&.&.&.&.&.&.&.&.&.&.&.&.&.&.&.&.&.&.&.&.&.&.&.&.&.l &.&.l &.*.-.:.,.-.-.-.2.<.<.<.<.1.<.<.2.<.2.2.-.-.-.*.*.&.R i &.&.;.&.&.&.&.&.&.&.&.&.&.&.&.&.&.&.&.&.&.&.&.&.&.&.*.,.,.-.2.2.4.4.<.<.<.<.<.<.2.-.-.,.,.-.*.&.W i i R A E ~.~.J.].H E &.;.G (.F.P.I.",
"P.P.P.`.f.}.W.E a u E K 7XjXOXm R &.&.&.&.&.&.&.&.&.l l i i i R *.*.*.*.-.-.-.2.2.2.<.2.2.2.2.2.*.*.*.*.*.*.&.&.&.&.&.&.&.l &.l ;.&.&.;.l l &.&.&.&.&.&.l l l l R &.&.&.*.&.R R *.*.*.*.-.:.:.,.-.-.-.-.-.-.-.-.-.-.-.-.-.*.*.*.*.*.*.*.&.&.O.&.R l i l &.l l &.&.&.&.&.&.&.&.&.&.&.&.&.&.&.&.R &.R &.R &.i i R R R 7.).].P.U.P.P.U.5.G *.*.*.*.Q.P.I.I.I.`.Q.(.*.l >.&.C y.jXjXkX5XK A =.l ;.&.;.l l l &.&.i R &.&.R R R *.*.*.*.*.-.2.6.6.6.2.2.2.2.2.2.2.2.2.2.-.2.2.2.2.2.-.-.-.-.-.-.*.*.*.*.&.O.*.*.&.&.&.&.&.&.&.&.l l l &.&.&.&.&.&.&.&.&.&.&.&.&.&.&.&.&.&.&.&.&.&.&.&.&.&.&.&.&.&.&.&.&.&.&.&.&.&.&.&.&.&.&.&.&.&.&.&.&.&.&.&.&.&.&.&.&.&.&.&.&.&.&.&.;.l &.R G 6.~.P.I.I.f.I.|.F.E G R E 7.U.P.P.P.G./.6.G R E Z 1.aX#X1.Z R &.l x l l &.&.#.&.&.&.&.&.&.&.&.&.&.&.&.&.&.&.&.&.&.&.&.&.&.&.&.&.&.&.&.&.&.&.&.&.&.&.&.&.&.&.&.&.&.&.&.&.&.&.&.l l &.&.&.*.;.-.,.,.-.-.2.<.<.<.<.<.1.<.<.<.<.<.<.2.-.-.*.*.&.&.i &.&.&.&.&.&.&.&.&.&.&.&.&.&.&.&.&.&.&.&.&.&.&.&.&.:.:.,.4.2.<.<.<.4.<.<.<.<.<.<.<.2.-.,.,.-.:.*.&.i i Y Y E ~.~.J.).H E G ;.G (.F.P.I.",
"P.G.U.`.f.}.W.E a u E K 7XjX+XS R &.&.&.&.&.&.&.&.&.&.&.&.&.&.&.-.*.<.<.<.<.2.2.<.<.<.<.<.<.<.2.-.-.-.:.:.:.*.*.O.&.&.&.&.&.&.l &.&.&.&.&.&.&.&.&.&.&.&.&.&.&.&.&.&.&.&.&.*.*.*.-.-.:.:.4.4.4.6.-.-.-.-.-.-.-.-.2.2.2.2.-.-.-.-.:.-.-.:.*.*.*.&.G G &.&.&.&.&.&.&.&.&.&.&.&.&.&.&.&.&.&.&.&.&.R *.R R R R R G G E E m.~.U.P.I.P.U.U.5.G R *.*.<.Q.`.I.I.I.`.Q.(.:.h >.&.C S.jXkXkX8X! A =.l ;.;.;.;.&.&.&.&.&.R R R R *.*.*.-.-.*.<.<.2.6.6.<.<.<.<.<.<.<.<.<.<.<.<.<.<.<.<.<.<.<.<.<.<.<.<.*.*.*.O.O.O.O.*.;.;.&.&.&.&.l l l l &.&.&.&.&.&.&.&.&.&.&.&.&.&.&.&.&.&.&.&.&.&.&.&.&.&.&.&.&.&.&.&.&.&.&.&.&.&.&.&.&.&.&.&.&.&.&.&.&.&.&.&.&.&.&.&.&.&.&.&.&.l l g &.g &.R G 7.~.P.I.I.g.I.|.S.E E R H 3.U.P.P.P.G.!.6.G R E F 3.aX#X1.Z R &.l x l l &.;.;.&.&.&.&.&.&.&.&.&.&.&.&.&.&.&.&.&.&.&.&.&.&.&.&.&.&.&.&.&.&.&.&.&.&.&.&.&.&.&.&.&.&.&.&.&.&.&.&.l &.&.&.*.*.:.-.-.6.,.6.2.<.<.<.1.1.1.1.<.<.<.2.2.2.-.-.*.*.*.R R &.&.&.&.&.&.&.&.&.&.&.&.&.&.&.&.&.&.&.&.l l &.&.;.:.,.-.-.<.<.<.<.<.<.<.<.<.<.<.<.2.-.-.-.-.-.*.*.R R W A E ~.~.J.).H R G &.G (.F.P.I.",
"P.G.P.`.f.'.W.E a p E K 9XjX+XT Y R &.&.R R &.&.R R &.*.*.:.-.-.2.<.<.<.<.<.<.<.<.<.<.<.<.<.<.<.2.2.2.-.-.-.-.-.*.*.*.*.*.*.&.&.O.O.&.&.&.&.&.&.*.&.&.&.&.*.&.&.&.&.&.&.*.*.:.:.,.,.4.:.4.4.4.<.<.-.<.-.<.<.<.<.6.6.2.2.<.2.<.<.6.4.4.:.-.:.:.:.*.&.&.&.&.&.&.&.&.&.&.&.&.&.&.&.&.&.&.&.&.&.&.&.R R R R *.*.R R *.E 7.].U.P.I.P.U.U.1.A G &.*.*.Q.`.I.I.I.`.Q.(.;.h =.&.A S.lXkXkXpX/ Y =.l ;.;.&.&.&.l &.&.R &.*.*.*.*.-.-.2.6.<.<.<.2.<.<.<.<.<.<.<.<.<.<.<.<.<.<.<.<.<.<.<.<.<.<.<.<.<.<.<.<.-.*.&.O.O.O.&.;.&.&.&.l l l l l &.&.&.&.&.&.&.&.&.&.&.&.&.&.&.&.&.&.&.&.&.&.&.&.&.&.&.&.&.&.&.&.&.&.&.&.&.&.&.&.&.&.&.&.&.&.&.&.&.&.&.&.&.&.&.&.&.&.&.&.l l g g &.g &.*.G 7.).P.I.I.g.I.|.S.E E E H 3.P.P.I.P.G.!.6.G R E F 3.aXaX5.A R W l l l l &.&.;.&.&.&.&.&.&.&.&.&.&.&.&.&.&.&.&.&.&.&.&.&.&.&.&.&.&.&.&.&.&.&.&.&.&.&.&.&.&.&.&.&.&.&.&.&.&.&.&.&.&.&.&.*.:.-.-.-.6.6.6.<.<.<.<.1.1.1.1.<.<.<.<.<.2.2.-.:.*.*.R &.&.&.&.&.&.&.&.&.&.&.&.&.&.&.&.&.&.&.&.&.&.l &.*.:.,.6.2.<.<.<.<.<.<.<.<.<.<.<.<.<.2.2.-.-.2.-.-.*.R R W Y E ~.~.J.).H R G &.G (.F.P.I.",
"P.G.P.`.f.'.k.H a p E K 9XjX+XT G G R R R R R R *.*.*.:.-.-.,.6.2.<.<.<.<.<.<.<.<.<.<.<.<.<.<.<.<.2.2.2.2.2.2.-.-.-.-.:.:.*.*.*.G G G G G O.O.O.*.*.*.*.*.*.*.*.&.R R R *.:.-.,.,.6.<.<.<.<.<.<.<.<.<.<.<.<.<.<.<.<.<.<.<.<.<.<.<.<.<.<.<.<.<.-.*.*.*.*.*.R R R &.&.&.&.&.&.&.&.&.&.&.&.&.&.&.&.G E *.*.*.:.-.-.<.^ p.].P.P.I.P.P.U.1.C G &.&.*.Q.`.I.I.I.`.Q.(.:.h l W A G.jXkXkXpX/ R &.l ;.&.&.&.&.&.&.&.R R :.-.-.-.<.<.<.<.<.<.<.<.<.<.<.<.<.<.<.<.<.<.<.<.<.<.<.<.<.<.<.<.<.<.<.<.6.<.<.4.6.:.:.*.*.R &.*.&.&.&.l l l l l &.&.&.&.&.&.&.&.&.&.&.&.&.&.&.&.&.&.&.&.&.&.&.&.&.&.&.&.&.&.&.&.&.&.&.&.&.&.&.&.&.&.&.&.&.&.&.&.&.&.&.&.&.&.&.&.&.&.&.&.&.l l l &.l ;.*.E 7.|.`.I.I.g.I._.p.E E E H 3.P.I.I.P.G.W.6.e G *.F y.aXaX3.H R W l l l c ;.;.;.&.&.&.&.&.&.&.&.&.&.&.&.&.&.&.&.&.&.&.&.&.&.&.&.&.&.&.&.&.&.&.&.&.&.&.&.&.&.&.&.&.&.&.&.&.&.&.&.&.&.&.&.:.-.-.2.2.<.<.<.<.<.<.<.<.<.<.1.1.1.<.<.<.2.2.-.-.-.*.*.R a W &.&.&.&.&.&.&.&.&.&.&.&.&.&.&.&.&.&.&.&.*.*.:.-.6.2.<.<.<.<.<.1.<.<.<.<.<.<.2.2.2.-.2.2.2.-.-.*.R W Y Q ~.~.J.).H *.&.;.G (.F.P.I.",
"P.G.P.`.f.'.k.H a p E U 9XjX#XT G G R R R R *.*.-.-.-.-.-.-.-.-.<.<.<.<.<.<.<.<.<.<.<.<.<.<.<.<.<.<.<.<.<.<.<.2.6.6.4.:.-.:.*.&.*.*.*.*.*.O.O.O.R R R R *.*.O.O.R R R *.:.-.,.6.-.-.<.<.<.<.<.<.4.4.4.<.<.<.<.<.<.<.<.<.<.<.<.<.<.<.<.<.<.<.<.<.-.-.-.*.*.*.R R &.&.&.&.&.&.&.&.R R &.&.&.&.&.*.*.*.*.-.2.6.6.6.<.<.S.|.P.I.I.I.P.J.1.G *.*.&.*.Q.`.I.I.I.`.Q.(.:.h l W A F.jXkXkXjXy.R &.l ;.&.l l l &.*.*.*.*.,.6.2.<.<.<.<.<.<.<.<.<.<.<.<.<.<.<.<.<.<.<.<.<.<.<.<.<.<.<.<.<.<.<.<.<.6.<.<.<.6.6.-.:.*.*.*.*.&.&.l l l l l l &.&.&.&.&.&.&.&.&.&.&.&.&.&.&.&.&.&.&.&.&.&.&.&.&.&.&.&.&.&.&.&.&.&.&.&.&.&.&.&.&.&.&.&.&.&.&.&.&.&.&.&.&.&.&.&.&.&.&.&.&.&.&.&.>.&.:.:.E 7.|.P.I.I.g.I._.p.<.*.<.E i.P.I.I.P.F.W.6.e G *.F r.sXaX7.H R i i l l c ;.;.;.&.&.&.&.&.&.&.&.&.&.&.&.&.&.&.&.&.&.&.&.&.&.&.&.&.&.&.&.&.&.&.&.&.&.&.&.&.&.&.&.&.&.&.&.&.&.&.&.&.&.&.&.:.<.<.<.<.<.2.2.<.<.<.<.<.<.<.<.1.1.<.<.<.2.<.-.2.-.:.&.R a i i &.&.&.&.&.&.&.&.&.&.&.&.&.&.&.&.&.&.*.;.:.,.,.6.<.<.<.<.<.<.1.1.<.<.<.<.2.2.-.2.-.2.2.2.<.-.*.*.W Y E ~.~.J.).H *.*.;.G (.F.P.I.",
"P.G.].`.z.}.k.H x p E I 9XzXiX! E *.*.*.*.*.*.-.6.6.6.6.-.-.-.-.<.<.<.<.<.<.<.<.<.<.<.<.<.<.<.<.<.<.<.<.<.<.<.4.<.<.4.:.-.-.-.-.-.-.:.*.*.*.*.*.*.*.*.*.*.*.*.*.*.*.-.-.-.,.,.,.-.2.<.<.<.<.<.4.<.<.<.<.<.<.<.<.<.<.<.<.<.<.<.<.<.<.<.<.<.<.<.<.<.-.-.:.:.*.*.*.&.&.&.&.&.&.&.&.R R i &.&.&.&.*.<.<.<.<.6.6.6.6.6.1.a.].P.P.I.I.P.U.7.E :.;.*.*.Q.`.I.I.I.`.Q.(.:.h l W S J.zXkXkXjXr.E &.l >.&.&.R *.*.:.:.-.-.2.2.2.<.<.<.<.<.<.<.<.<.<.<.<.6.<.<.<.<.<.<.<.<.<.<.<.<.<.<.<.<.<.<.<.<.<.<.<.<.4.6.,.:.:.:.:.:.&.&.&.l l l l l &.&.&.&.&.&.&.&.&.&.&.&.&.&.&.&.&.&.&.&.&.&.&.&.&.&.&.&.&.&.&.&.&.&.&.&.&.&.&.&.&.&.&.&.&.&.&.&.&.&.&.&.&.&.&.&.&.&.&.&.&.&.>.>.>.>.:.-.*.m.|.`.f.I.g.I.`.p.<.<.2.^ p.U.I.I.P.S.W.-.e G *.F i.sXaXp.H R i i l k l ;.&.&.&.&.&.&.&.&.&.&.&.&.&.&.&.&.&.&.&.&.&.&.&.&.&.&.&.&.&.&.&.&.&.&.&.&.&.&.&.&.&.&.&.&.&.&.&.&.&.&.&.;.>.&.6.<.4.<.<.<.<.<.<.<.2.2.2.2.2.<.1.1.1.1.<.2.2.-.6.-.:.&.R i a i &.&.&.&.&.&.&.&.&.&.&.&.&.&.&.&.&.&.;.-.,.,.2.-.<.<.<.<.<.1.1.1.<.2.2.2.-.-.2.2.<.<.<.<.<.<.<.-.W Y E ~.`.J.~.S *.*.;.G (.F.P.I.",
"P.G.`.`.l.{.W.H &.i E I 9XzXiXK ^ *.-.-.-.2.2.2.-.-.-.2.2.6.6.6.<.<.<.<.<.6.6.6.<.<.<.<.<.<.<.<.<.<.<.<.<.<.4.4.*.*.-.<.4.2.4.6.6.6.6.-.-.*.*.*.*.-.-.*.-.-.-.-.-.-.-.,.,.,.-.-.-.<.<.4.4.4.4.4.<.<.<.<.<.<.<.<.<.<.<.<.<.<.<.<.5.5.<.<.<.<.*.*.<.<.-.-.-.-.:.:.R R *.R *.R *.R R R R R &.R *.*.2.<.4.6.<.-.-.<.6.1.S.].P.P.I.I.P.].p.E -.-.*.<.Q.`.I.I.I.P.`./.:.g l W A J.jXkXbXzXr.Y W l >.O.&.*.*.*.-.-.6.6.<.<.<.<.<.6.1.6.<.<.<.<.<.<.6.6.<.<.<.<.<.<.<.<.<.<.<.<.<.<.<.<.<.<.<.<.<.<.<.<.<.-.:.2.,.,.,.-.*.R &.R &.W &.&.&.&.&.&.&.&.&.&.&.&.&.&.&.&.&.&.&.&.&.&.&.&.&.&.&.&.&.&.&.&.&.&.&.&.&.&.&.&.&.&.&.&.&.&.&.&.&.&.&.&.&.&.&.&.&.&.&.&.&.&.;.;.:.:.:.:.,.-.*.S.].I.g.'.g.I.`.p.^ 2.3.1.a._.I.I.P.G.W.2.G G E Z r.sXsXp.H R R i l k l &.;.&.&.&.&.&.&.&.&.&.&.&.&.&.&.&.&.&.&.&.&.&.&.&.&.&.&.&.&.&.&.&.&.&.&.&.&.&.&.&.&.&.&.&.&.&.&.&.&.&.&.&.>.:.6.4.4.<.<.<.<.<.<.<.2.2.2.2.2.<.1.1.1.1.<.2.2.-.6.-.:.*.R i i i &.&.&.&.&.&.&.&.&.&.&.&.&.&.&.&.R R :.-.,.6.-.<.<.<.<.<.<.<.1.<.<.2.-.-.<.-.<.<.2.2.<.<.<.<.<.2.W Y ^ ~.~.J.~.S *.*.&.G /.F.P.P.",
"P.P.P.P._.`.p.<.6.2.E / sXjXjX| <.<.<.2.2.2.6.<.<.<.<.<.<.<.<.<.<.<.<.<.<.<.<.<.<.<.<.<.<.<.<.<.<.<.<.<.<.<.<.<.<.<.<.<.<.<.<.<.<.<.<.<.<.<.<.<.<.<.<.<.<.<.<.<.<.2.2.<.<.<.<.<.<.<.<.<.<.<.<.<.<.<.<.<.<.<.<.<.<.<.<.<.<.<.<.<.<.<.<.<.<.<.<.<.<.<.<.<.<.<.<.2.*.*.*.E *.R R R *.*.*.*.*.*.*.*.<.2.<.<.<.<.<.<.<./ p.|.`.P.I.I.P._.y.^ 2.6.<.1.Q.`.`._.P.P.P.Q.<.G W i Y J.lXkXkX6XtXS G R ;.*.-.-.<.<.<.2.2.2.<.<.<.<.<.<.<.<.<.<.<.<.<.<.<.<.<.<.<.<.<.<.<.<.<.<.<.<.<.<.<.<.<.<.<.<.<.<.<.<.<.<.<.<.<.<.<.2.-.-.-.*.*.R G R &.&.&.&.&.&.&.&.&.l &.&.&.l ;.l l l l l l l &.l &.l &.l &.l &.l &.l &.l &.l &.l &.l &.l &.l l l l i l l l l ;.;.e R ;.:.,.,.,.,.2.*.*.2.^ S.|.I.I.g.'.'.f.i.1.<.<.<.S.`.I.I.P.G.Q.6.*.*.^ K u.iXsX|.Z H -.l l c l c ;.;.;.&.&.;.&.&.&.&.&.&.&.&.&.&.&.&.l l &.&.&.&.&.&.l l &.&.&.&.&.&.&.&.&.&.l l l l l l &.&.G O.&.&.*.:.:.:.<.<.<.<.<.<.<.<.<.<.<.<.<.<.<.<.<.<.<.<.<.<.<.2.-.,.-.-.W i R &.&.l &.l &.&.&.&.&.&.&.&.&.&.&.&.-.-.-.<.<.2.2.<.<.<.<.<.<.<.<.<.<.<.<.<.<.<.<.<.<.<.<.<.<.<.<.<.2.E 2.F.J.J.F.^ G *.+.*.F.~.P.P.",
"P.P.P.P._.`.p.<.6.1.^ ) sXjXkXX./ <.<.<.<.<.4.<.<.<.<.<.<.<.<.<.<.<.<.<.<.<.<.<.<.<.<.<.<.<.<.<.<.<.<.<.<.<.<.<.<.<.<.<.<.<.<.<.<.<.<.<.<.<.<.<.<.<.<.<.<.<.<.<.<.<.<.<.<.<.<.<.<.<.<.<.<.<.<.<.<.<.<.<.<.<.<.<.<.<.<.<.<.<.<.<.<.<.<.<.<.<.<.<.<.<.<.<.<.<.<.<.<.<.<.<.<.*.*.*.<.<.<.<.<.<.<.<.2.2.<.<.<.<.<.<.<./ p.|.`.P.I.P.P._.y.^ 2.2.^ 1.`.`.`._.P.P.P.J.<.G Y y Y H.lXjXkX6XiXS A R *.*.<.<.<.<.<.<.<.<.<.<.<.<.<.<.<.<.<.<.<.<.<.<.<.<.<.<.<.<.<.<.<.<.<.<.<.<.<.<.<.<.<.<.<.<.<.<.<.<.<.<.<.<.<.<.<.<.<.<.<.<.*.*.*.*.*.&.&.&.&.&.O.l &.;.&.;.&.l l l l l l l l l l l l l l l l l l l l l l l l l l l l l l l l l l l l x l l l l &.&.R &.:.-.,.,.6.6.6.E ( ^ ^ S._.I.I.g.'.}.f.1.^ ^ <.<.S.`.I.I.P.G./.6.*.<.^ K u.pXpX[.K F -.i l c l c @.;.#.&.&.&.;.;.&.&.&.&.l l &.&.&.&.l l &.&.&.&.&.&.l l &.&.&.&.&.l &.&.&.&.l l l l &.&.&.*.O.O.*.*.:.:.:.4.<.<.<.<.<.<.<.<.<.<.<.<.<.<.<.<.<.<.<.<.<.<.<.2.-.2.-.-.W R R &.&.l l l l l &.&.&.&.l l &.&.&.*.<.<.<.<.<.<.<.<.<.<.<.<.<.<.<.<.<.<.<.<.<.<.<.<.<.<.<.<.<.<.<.<.<.E 1.G.J.J.S.^ H -.+.*.F.].P.P.",
"P.P.P.P._.`.j.<.6.1.^ ) sXjXkXX./ <.<.<.<.<.<.<.<.<.<.<.<.<.<.<.<.<.<.<.<.<.<.<.<.<.<.<.<.<.<.<.<.<.<.<.<.<.<.<.<.<.<.<.<.<.<.<.<.<.<.<.<.<.<.<.<.<.<.<.<.<.<.<.<.<.<.<.<.<.<.<.<.<.<.<.<.<.<.<.<.<.<.<.<.<.<.<.<.<.<.<.<.<.<.<.<.<.<.<.<.<.<.<.<.<.<.<.<.<.<.<.6.6.6.2.<.<.<.<.6.6.6.6.6.6.6.6.2.2.<.<.<.<.<.<.<./ p.|.`.P.I.P.P._.y.^ 2.2.^ 1.`.`.`._.P.P.P.J.<.G W y Y J.lXjXkXqXiXK E *.-.-.<.<.<.<.<.<.<.<.<.<.<.<.<.<.<.<.<.<.<.<.<.<.<.<.<.<.<.<.<.<.<.<.<.<.<.<.<.<.<.<.<.<.<.<.<.<.<.<.<.<.<.<.<.<.<.<.<.<.<.<.<.<.<.<.*.*.&.*.*.R O.R &.&.&.&.&.&.&.;.l l l l &.&.&.&.&.&.&.&.l l l l &.&.&.&.&.&.&.l &.&.&.&.&.&.l l l l a a a i R R *.*.:.-.6.6.6.2.6.E ( ^ ^ S._.I.'.g.'.'.a.1.1.<.<.1.S.P.I.I.U.G.).7.-.2.^ P u.sXpX[.K H -.i ;.;.;.;.;.&.#.&.&.&.&.&.&.&.&.&.&.&.&.&.&.&.&.&.&.&.&.&.&.&.&.&.&.&.&.&.&.&.&.&.&.&.;.l ;.&.&.&.*.*.&.&.*.*.:.4.4.4.<.<.<.<.<.<.<.<.<.<.<.<.<.<.<.<.<.<.<.<.<.<.<.2.-.2.-.-.*.R R &.R l l l &.&.&.&.&.&.&.&.&.&.;.*.<.<.<.<.<.<.<.<.<.<.<.<.<.<.<.<.<.<.<.<.<.<.<.<.<.<.<.<.<.<.<.<.<.E 3.G.J.J.S.^ H <.*.<.F.].P.P.",
"P.P.P.P._.`.j.<.6.1.^ y.sXjXkXX./ <.<.<.<.<.<.<.<.<.<.<.<.<.<.<.<.<.<.<.<.<.<.<.<.<.<.<.<.<.<.<.<.<.<.<.<.<.<.<.<.<.<.<.<.<.<.<.<.<.<.<.<.<.<.<.<.<.<.<.<.<.<.<.<.<.<.<.<.<.<.<.<.<.<.<.<.<.<.<.<.<.<.<.<.<.<.<.<.<.<.<.<.<.<.<.<.<.<.<.<.<.<.<.<.<.<.<.<.<.<.<.2.<.<.<.<.<.<.<.2.2.<.<.2.2.2.2.2.2.<.<.<.<.<.<.<./ p.|.`.P.I.P.`._.p.^ 2.2.^ 1.`.`.`._.P.P.P.J.<.H W R Y J.jXfXkXqXpX~ E *.6.2.<.<.<.<.<.<.<.<.<.<.<.<.<.<.<.<.<.<.<.<.<.<.<.<.<.<.<.<.<.<.<.<.<.<.<.<.<.<.<.<.<.<.<.<.<.<.<.<.<.<.<.<.<.<.<.<.<.<.<.<.<.<.<.2.-.:.:.*.*.R *.R G G G R &.*.*.&.l l l l l &.&.&.&.&.&.&.l l l l &.&.&.&.&.&.&.l &.&.&.&.&.&.l l a W W a R &.*.R -.-.-.2.6.6.<.<.2.<.2.^ ^ y.].P.'.g.'.`.a.1.<.<.<.1.S.`.I.I.I.G.).7.-.6.1.~ P.sXlXiX/ ^ 2.*.:.>.>.;.;.&.*.*.*.&.G l l &.&.&.;.;.&.&.&.&.&.&.&.&.&.&.&.&.&.&.&.&.&.&.&.&.&.&.&.&.;.;.;.&.&.&.&.O.:.:.:.:.4.4.4.4.<.<.<.<.<.<.<.<.<.<.<.<.<.<.<.<.<.<.<.<.<.<.<.2.2.-.-.:.*.*.W R &.l &.&.&.&.&.&.&.l G &.&.&.;.:.<.<.<.<.<.<.<.<.<.<.<.<.<.<.<.<.<.<.<.<.<.<.<.<.<.<.<.<.<.<.<.<.<.^ 7.J.J.J.F.^ *.6.*.<.W.].P.P.",
"P.P.P.P._.`.j.<.1.1.^ y.sXjXkXh./ <.<.<.<.<.<.<.<.<.<.<.<.<.<.<.<.<.<.<.<.<.<.<.<.<.<.<.<.<.<.<.<.<.<.<.<.<.<.<.<.<.<.<.<.<.<.<.<.<.<.<.<.<.<.<.<.<.<.<.<.<.<.<.<.<.<.<.<.<.<.<.<.<.<.<.<.<.<.<.<.<.<.<.<.<.<.<.<.<.<.<.<.<.<.<.<.<.<.<.<.<.<.<.<.<.<.<.<.<.<.<.<.<.<.<.<.<.-.<.<.<.<.<.<.<.<.<.2.2.<.<.<.<.<.<.<./ p.|.`.P.I.P.`._.p.^ 2.2.1.1.`.`.`._.P.P.P.J.1.+.*.Q T J.jXfXbXeXjX/ ^ *.6.6.<.<.<.<.<.<.<.<.<.<.<.<.<.<.<.<.<.<.<.<.<.<.<.<.<.<.<.<.<.<.<.<.<.<.<.<.<.<.<.<.<.<.<.<.<.<.<.<.<.<.<.<.<.<.<.<.<.<.<.<.<.<.<.2.<.-.-.-.-.*.*.*.R R R R R R R R R R i i i i i i &.&.&.&.&.&.&.&.&.&.&.&.&.&.&.&.&.&.&.&.&.&.&.&.i i R &.*.*.*.*.-.2.6.6.6.<.<.<.<.<.2.^ E 3.P.P.'.'.z.`.a.1.<.<.<.1.S.`.L.I.I.G.).7.*.2.^ ! P.lXlXyX} / 3.*.,.,.:.:.:.:.*.*.*.*.&.&.&.&.&.&.&.&.&.&.&.&.&.&.&.&.&.&.&.&.&.&.&.&.&.&.&.&.&.&.&.&.&.&.&.*.*.*.*.*.-.<.4.4.4.4.4.4.<.<.<.<.<.<.<.<.<.<.<.<.<.<.<.<.<.<.<.<.<.<.<.2.2.-.-.-.:.*.W R &.&.&.&.&.&.&.&.R R G O.*.&.:.-.<.<.<.<.<.<.<.<.<.<.<.<.<.<.<.<.<.<.<.<.<.<.<.<.<.<.<.<.<.<.<.<.<.^ 7.J.J.J.S.1.<.6.4.<.W.|.P.P.",
"P.P.P.P._.`.j.<.1.1.1.y.sXjXkXh./ <.<.<.<.<.<.<.<.<.<.<.<.<.<.<.<.<.<.<.<.<.<.<.<.<.<.<.<.<.<.<.<.<.<.<.<.<.<.<.<.<.<.<.<.<.<.<.<.<.<.<.<.<.<.<.<.<.<.<.<.<.<.<.<.<.<.<.<.<.<.<.<.<.<.<.<.<.<.<.<.<.<.<.<.<.<.<.<.<.<.<.<.<.<.<.<.<.<.<.<.<.<.<.<.<.<.<.<.<.<.<.2.2.2.2.2.<.<.<.2.2.2.2.2.2.2.2.2.2.<.<.<.<.<.<.1./ p.`.`.P.I.P.`._.p.^ 2.2.1.1.Q.`.`._.P.P.P.J.7.<.-.Q T U.zXfXbXrXjX} 1.<.6.<.<.<.<.<.<.<.<.<.<.<.<.<.<.<.<.<.<.<.<.<.<.<.<.<.<.<.<.<.<.<.<.<.<.<.<.<.<.<.<.<.<.<.<.<.<.<.<.<.<.<.<.<.<.<.<.<.<.<.<.<.<.<.<.<.6.6.<.2.<.*.-.*.2.-.*.Q R Y G G R &.R R &.i R i &.&.&.&.&.&.R &.&.&.&.&.&.&.&.&.&.&.&.&.&.&.&.&.R R R *.*.:.-.-.2.<.<.<.<.<.<.<.<.<.2.<.E 3.Q.P.'.I.`.`.a.1.<.<.<.1.S.`.L.I.I.G.~.7.*.2.^ ~ P.lXgXyX| ! 2.Q ,.:.,.,.4.4.<.-.-.-.-.-.:.;.&.R G e *.&.&.&.&.&.*.&.*.&.&.&.&.&.*.&.&.&.&.&.&.&.*.*.e G *.*.*.-.4.4.4.4.4.4.4.4.4.4.<.<.<.<.<.<.<.<.<.<.<.<.<.<.<.<.<.<.<.<.<.<.<.<.2.-.-.-.-.*.*.R &.&.&.&.&.&.&.&.*.*.*.*.;.:.:.-.6.<.<.<.<.<.<.<.<.<.<.<.<.<.<.<.<.<.<.<.<.<.<.<.<.<.<.<.<.<.<.<.<.^ p.J.J.J.S.1.<.6.4.<.W._.P.P.",
"P.P.P.P._.`.j.<.<.<.^ y.sXjXkXh./ <.<.<.<.<.<.<.<.<.<.<.<.<.<.<.<.<.<.<.<.<.<.<.<.<.<.<.<.<.<.<.<.<.<.<.<.<.<.<.<.<.<.<.<.<.<.<.<.<.<.<.<.<.<.<.<.<.<.<.<.<.<.<.<.<.<.<.<.<.<.<.<.<.<.<.<.<.<.<.<.<.<.<.<.<.<.<.<.<.<.<.<.<.<.<.<.<.<.<.<.<.<.<.<.<.<.<.<.<.<.<.<.<.<.<.<.<.<.<.<.<.<.<.<.<.<.<.2.2.<.<.<.<.<.<.1./ p.|.`.P.I.P.`._.p.^ 1.2.<.1.Q.`.`._.P.P.P.J.i.<.2.Q ! U.zXrXbXrXzX} ^ <.<.<.<.<.<.<.<.<.<.<.<.<.<.<.<.<.<.<.<.<.<.<.<.<.<.<.<.<.<.<.<.<.<.<.<.<.<.<.<.<.<.<.<.<.<.<.<.<.<.<.<.<.<.<.<.<.<.<.<.<.<.<.<.<.<.<.<.1.<.<.6.2.2.2.6.2.2.*.*.Q E R *.*.*.&.*.&.*.&.*.&.&.&.&.&.*.R *.&.*.&.&.&.&.&.*.&.*.&.*.&.*.*.*.*.*.*.*.-.-.2.<.<.<.<.<.<.<.<.<.<.6.1.E 1.Q.G.`.`.l.`.p.1.<.-.<.<.S.P.L.I.I.G.).7.*.2.1.~ P.lXjXuX} ~ ( E ,.-.,.6.4.4.4.<.2.2.,.,.,.:.:.;.*.*.*.*.*.&.&.&.*.*.*.*.*.&.&.&.*.*.&.&.*.&.*.*.*.*.O.*.*.*.-.:.4.4.4.4.4.5.4.5.5.<.<.<.<.<.<.<.<.<.<.<.<.<.<.<.<.<.<.<.<.<.<.<.<.<.2.-.-.-.-.-.*.R &.&.&.&.&.&.*.*.*.*.:.:.:.:.:.-.6.<.<.<.<.<.<.<.<.<.<.<.<.<.<.<.<.<.<.<.<.<.<.<.<.<.<.<.<.<.<.<.<.^ p.~.J.J.S.1.<.6.4.<.W.].P.I.",
"P.P.P.P._.`.j.<.<.1.1.y.sXjXkXd./ <.<.<.<.<.<.<.<.<.<.<.<.<.<.<.<.<.<.<.<.<.<.<.<.<.<.<.<.<.<.<.<.<.<.<.<.<.<.<.<.<.<.<.<.<.<.<.<.<.<.<.<.<.<.<.<.<.<.<.<.<.<.<.<.<.<.<.<.<.<.<.<.<.<.<.<.<.<.<.<.<.<.<.<.<.<.<.<.<.<.<.<.<.<.<.<.<.<.<.<.<.<.<.<.<.<.<.<.<.<.<.<.<.<.<.<.<.<.<.<.<.<.<.<.<.<.<.2.2.<.<.<.<.<.<.1./ p.`.`.P.I.P.`._.p.^ 1.2.<.1.Q.`.`._.P.P.P.P.i.<.2.( ! P.zXwXbXrXzX .1.^ <.<.<.<.<.<.<.<.<.<.<.<.<.<.<.<.<.<.<.<.<.<.<.<.<.<.<.<.<.<.<.<.<.<.<.<.<.<.<.<.<.<.<.<.<.<.<.<.<.<.<.<.<.<.<.<.<.<.6.6.6.<.<.<.<.<.<.1.<.<.<.2.2.2.<.<.2.2.2.2.2.2.:.:.:.;.&.*.*.*.*.*.*.&.*.&.*.*.*.&.*.*.*.&.*.*.*.&.*.*.*.*.*.R *.*.*.-.-.<.<.<.<.<.<.<.<.<.<.<.<.<.6.<.E 1.F.J.`.`.`.`.p.1.<.<.<.<.S.P.L.I.I.G.).7.*.6.1./ P.lXjXgX..~ 1.^ 6.6.4.4.4.4.6.<.6.6.-.-.,.,.6.,.6.,.*.*.*.*.O.*.O.*.*.*.*.*.O.*.O.*.O.*.O.*.*.*.*.*.4.4.4.4.4.4.<.<.4.4.5.5.4.5.5.<.<.<.<.<.<.<.<.<.<.<.<.<.<.<.<.<.<.<.<.<.<.<.<.<.<.-.-.2.2.-.*.R R &.&.&.&.*.*.*.*.*.-.,.6.,.:.-.2.<.<.<.<.<.<.<.<.<.<.<.<.<.<.<.<.<.<.<.<.<.<.<.<.<.<.<.<.<.<.<.<.^ p.~.P.J.S.1.<.6.4.<.W.].P.K.",
"P.P.I.P._.`.p.1.<.^ ^ u.sXjXnXg.1.<.<.<.<.<.<.<.<.<.<.<.<.<.<.<.<.<.<.<.<.<.<.<.<.<.<.<.<.<.<.<.<.<.<.<.<.<.<.<.<.<.<.<.<.<.<.<.<.<.<.<.<.<.<.<.<.<.<.<.<.<.<.<.<.<.<.<.<.<.<.<.<.<.<.<.<.<.<.<.<.<.<.<.<.<.<.<.<.<.<.<.<.<.<.<.<.<.<.<.<.<.<.<.<.<.<.<.<.<.<.<.<.<.<.<.<.<.<.<.<.<.<.<.<.<.<.<.2.2.<.<.<.<.<.<.<.<.p.`.P.P.I.P.P.`.p.^ 2.2.1.1.G.`.`.`.P.P.P.J.i.1.3.( ! Y.zXwXxXbXkX_./ ^ 5.<.<.<.<.<.<.<.<.<.<.<.<.<.<.<.<.<.<.<.<.<.<.<.<.<.<.<.<.<.<.<.<.<.<.<.<.<.<.<.<.<.<.<.<.<.<.<.<.<.<.<.<.<.<.<.<.<.<.<.<.<.<.<.<.<.<.1.1.<.1.1.1.<.<.<.<.2.2.2.2.2.-.-.-.-.-.-.,.,.*.*.*.*.*.*.*.*.R R G R E R E R *.*.*.*.-.:.-.-.2.<.<.<.<.<.<.<.<.<.<.<.<.<.<.<.<.<.<.2.^ 2.S.|.G.`.`.a.3.<.<.6.*.5.G.P.I.I.P.P.).7.*.6.^ ~ I.lXjXyXs.~ ^ <.*.6.4.4.<.<.<.<.<.2.2.-.2.-.2.-.6.,.-.-.-.-.-.-.<.-.*.*.*.*.*.*.*.*.*.*.*.-.-.-.-.-.<.<.<.<.<.<.<.<.<.<.<.<.<.<.<.<.<.<.<.<.<.<.<.<.<.<.<.<.<.<.<.<.<.<.<.<.<.<.<.<.<.<.<.2.2.2.2.-.:.*.*.R R *.*.-.-.2.2.6.<.2.<.<.<.<.<.<.<.<.<.<.<.<.<.<.<.<.<.<.<.<.<.<.<.<.<.<.<.<.<.<.<.<.<.<.1./ y.J.U.].F.1.<.4.<.<.Q.].P.I.",
"P.P.P.P._.`.p.1.<.^ ^ u.sXjXnXg.1.<.<.<.<.<.<.<.<.<.<.<.<.<.<.<.<.<.<.<.<.<.<.<.<.<.<.<.<.<.<.<.<.<.<.<.<.<.<.<.<.<.<.<.<.<.<.<.<.<.<.<.<.<.<.<.<.<.<.<.<.<.<.<.<.<.<.<.<.<.<.<.<.<.<.<.<.<.<.<.<.<.<.<.<.<.<.<.<.<.<.<.<.<.<.<.<.<.<.<.<.<.<.<.<.<.<.<.<.<.<.<.<.<.<.<.<.<.<.<.<.<.<.<.<.<.<.<.2.2.<.<.<.<.<.<.<.<.p.`.P.P.I.P.P.].p.^ 2.2.^ 1.G.`.`.`.P.P.P.P.i.1.6.( ! Y.nXwXxXbXzX[./ ^ 5.<.<.<.<.<.<.<.<.<.<.<.<.<.<.<.<.<.<.<.<.<.<.<.<.<.<.<.<.<.<.<.<.<.<.<.<.<.<.<.<.<.<.<.<.<.<.<.<.<.<.<.<.<.<.<.<.<.<.<.<.<.<.<.<.<.1.1.1.1.<.1.1.1.<.<.<.<.2.2.2.2.2.-.-.-.-.-.,.,.-.-.-.-.-.-.-.-.-.-.-.-.2.2.2.2.-.-.-.-.-.-.-.2.<.<.<.<.<.<.<.<.<.<.<.<.<.<.<.<.<.<.<.6.1.2.p.~.`.`.`.a.7.<.-.2.*.5.G.P.I.I.P.P.).7.*.6.^ ~ I.lXjXdXs.~ / <.*.6.4.4.<.<.<.<.1.<.<.2.2.2.2.2.6.6.-.-.-.-.-.-.<.<.2.2.2.2.2.2.2.2.*.-.-.-.-.-.2.<.<.<.<.<.<.<.<.<.<.<.<.<.<.<.<.<.<.<.<.<.<.<.<.<.<.<.<.<.<.<.<.<.<.<.<.<.<.<.<.<.<.<.<.<.<.2.<.2.6.-.-.-.-.-.<.6.2.<.<.4.<.<.<.<.<.<.<.<.<.<.<.<.<.<.<.<.<.<.<.<.<.<.<.<.<.<.<.<.<.<.<.<.<.<.<.<.<./ y.J.U.U.G.1.<.4.<.<.Q.`.P.I.",
"P.P.I.P.`.Q.p.<.<.^ ^ y.sXjXnX=X1.<.<.<.<.<.<.<.<.<.<.<.<.<.<.<.<.<.<.<.<.<.<.<.<.<.<.<.<.<.<.<.<.<.<.<.<.<.<.<.<.<.<.<.<.<.<.<.<.<.<.<.<.<.<.<.<.<.<.<.<.<.<.<.<.<.<.<.<.<.<.<.<.<.<.<.<.<.<.<.<.<.<.<.<.<.<.<.<.<.<.<.<.<.<.<.<.<.<.<.<.<.<.<.<.<.<.<.<.<.<.<.<.<.<.<.<.<.<.<.<.<.<.<.<.<.<.<.2.2.<.<.<.<.<.<.<.<.p.`.P.P.I.P.P.`.p.^ 2.2.^ 1.G.`.`.`.P.P.P.G.i.1.2.( ! Y.nXwXxXbXjX[./ ^ 5.<.<.<.<.<.<.<.<.<.<.<.<.<.<.<.<.<.<.<.<.<.<.<.<.<.<.<.<.<.<.<.<.<.<.<.<.<.<.<.<.<.<.<.<.<.<.<.<.<.<.<.<.<.<.<.<.<.<.<.<.<.<.<.<.<.1.1.1.1.<.<.1.1.<.<.<.<.2.2.2.2.2.2.2.2.2.2.2.2.2.2.-.2.2.2.2.2.-.-.-.-.2.2.2.2.2.2.2.2.2.6.6.6.<.<.<.<.<.<.<.<.<.<.<.<.<.<.<.<.<.<.<.6.2.2.7.Q.|.|.Q.p.1.<.-.2.*.5.G.P.P.I.P.P./.7.*.6.^ ~ P.lXjXdXL.~ / 2.*.2.4.4.4.<.<.<.1.1.<.<.<.<.<.<.<.<.<.<.<.<.<.<.<.<.6.6.6.6.6.6.6.6.<.<.<.<.<.<.2.2.<.<.<.<.<.<.<.<.<.<.<.<.<.<.<.<.<.<.<.<.<.<.<.<.<.<.<.<.<.<.<.<.<.<.<.<.<.<.<.<.<.<.<.<.<.<.<.<.6.6.2.2.-.2.6.6.<.<.<.<.<.<.<.<.<.<.<.<.<.<.<.<.<.<.<.<.<.<.<.<.<.<.<.<.<.<.<.<.<.<.<.<.<.<.<.<.<./ i.J.U.U.G./ <.4.<.<.Q.`.P.I.",
"P.P.I.P.`.Q.p.1.<.^ ^ y.sXpXnX=X1.<.<.<.<.<.<.<.<.<.<.<.<.<.<.<.<.<.<.<.<.<.<.<.<.<.<.<.<.<.<.<.<.<.<.<.<.<.<.<.<.<.<.<.<.<.<.<.<.<.<.<.<.<.<.<.<.<.<.<.<.<.<.<.<.<.<.<.<.<.<.<.<.<.<.<.<.<.<.<.<.<.<.<.<.<.<.<.<.<.<.<.<.<.<.<.<.<.<.<.<.<.<.<.<.<.<.<.<.<.<.<.<.<.<.<.<.<.<.<.<.<.<.<.<.<.<.<.<.2.<.<.<.<.<.<.1.<.p.`.P.P.I.P.P.`.p.^ 2.2.^ 1.G.`.`.`.P.P.P.G.i.1.3.( ! Y.zXwXxXbXkX[./ ^ 5.<.<.<.<.<.<.<.<.<.<.<.<.<.<.<.<.<.<.<.<.<.<.<.<.<.<.<.<.<.<.<.<.<.<.<.<.<.<.<.<.<.<.<.<.<.<.<.<.<.<.<.<.<.<.<.<.<.<.<.<.<.<.<.<.<.<.1.<.1.<.<.<.<.<.<.<.2.2.2.2.2.<.2.<.2.<.2.<.2.2.2.2.2.2.2.2.2.*.*.*.*.<.-.<.-.2.2.2.6.6.6.6.6.<.<.<.<.<.<.<.<.<.<.<.<.<.<.<.<.5.<.<.2.6.2.7.F.Q.Q.G.i.<.<.-.2.-.5.G.P.P.I.P.P.~.6.*.6.1.~ P.lXjXjXI.~ ^ 2.*.6.4.4.4.4.<.<.<.<.<.<.<.<.<.<.<.<.<.<.<.<.<.<.<.<.<.2.<.2.<.2.<.6.<.<.<.<.<.<.<.<.<.<.<.<.<.<.<.<.<.<.<.<.<.<.<.<.<.<.<.<.<.<.<.<.<.<.<.<.<.<.<.<.<.<.<.<.<.<.<.<.<.<.<.<.<.<.<.<.2.2.-.-.<.<.<.<.<.<.<.<.<.<.<.<.<.<.<.<.<.<.<.<.<.<.<.<.<.<.<.<.<.<.<.<.<.<.<.<.<.<.<.<.<.<.<.<.<.^ i.J.P.J.G./ <.4.<.<.W.`.I.I.",
"P.P.P.P.`.Q.p.1.1.^ ^ S.sXyXnX4X1.<.<.<.<.<.<.<.<.<.<.<.<.<.<.<.<.<.<.<.<.<.<.<.<.<.<.<.<.<.<.<.<.<.<.<.<.<.<.<.<.<.<.<.<.<.<.<.<.<.<.<.<.<.<.<.<.<.<.<.<.<.<.<.<.<.<.<.<.<.<.<.<.<.<.<.<.<.<.<.<.<.<.<.<.<.<.<.<.<.<.<.<.<.<.<.<.<.<.<.<.<.<.<.<.<.<.<.<.<.<.<.<.<.<.<.<.<.<.<.<.<.<.<.<.<.<.<.<.2.<.<.<.<.<.<.1.<.p.`.P.P.I.P.P.`.y.^ 2.2.1.1.Q.`.`.`.P.P.P.J.i.<.2.( ! Y.nXwXxXbXjX[.3.^ 5.<.<.<.<.<.<.<.<.<.<.<.<.<.<.<.<.<.<.<.<.<.<.<.<.<.<.<.<.<.<.<.<.<.<.<.<.<.<.<.<.<.<.<.<.<.<.<.<.<.<.<.<.<.<.<.<.<.<.<.<.<.<.<.<.<.<.<.<.<.<.<.<.<.<.2.<.2.<.2.2.<.<.<.<.<.<.<.<.<.<.<.<.<.<.<.<.<.<.2.<.2.<.2.<.2.<.2.<.2.<.<.<.<.<.<.<.<.<.<.<.<.<.<.2.2.2.2.<.<.5.<.<.2.2.2.2.7.S.p.i.1.<.<.-.,.-.7.F.P.P.I.P.P.Q.2.*.6.1./ P.lXjXjXY.~ ^ 6.-.-.4.4.4.4.<.<.<.<.<.<.<.<.<.<.<.<.<.<.<.<.<.<.<.<.<.<.<.<.<.<.<.<.6.6.6.<.<.<.<.<.<.<.<.<.<.<.<.<.<.<.<.<.<.<.<.<.<.<.<.<.<.<.<.<.<.<.<.<.<.<.<.<.<.<.<.<.<.<.<.<.<.<.<.<.<.<.<.<.<.<.<.<.<.<.<.<.<.<.<.<.<.<.<.<.<.<.<.<.<.<.<.<.<.<.<.<.<.<.<.<.<.<.<.<.<.<.<.<.<.<.<.<.<.<.<.<.<./ i.J.P.J.a./ <.4.<.<.Q.].I.I.",
"P.P.I.P.`.Q.p.1.1.^ ^ G.sXyXnX6X1.<.<.<.<.<.<.<.<.<.<.<.<.<.<.<.<.<.<.<.<.<.<.<.<.<.<.<.<.<.<.<.<.<.<.<.<.<.<.<.<.<.<.<.<.<.<.<.<.<.<.<.<.<.<.<.<.<.<.<.<.<.<.<.<.<.<.<.<.<.<.<.<.<.<.<.<.<.<.<.<.<.<.<.<.<.<.<.<.<.<.<.<.<.<.<.<.<.<.<.<.<.<.<.<.<.<.<.<.<.<.<.<.<.<.<.<.<.<.<.<.<.<.<.<.<.<.<.<.2.<.<.<.<.<.<.1.<.a.`.P.P.I.P.I.`.y.^ 2.2.1.1.G.`.`.`.P.P.P.G.i.1.2.Q ! U.zXwXxXfXjX+X3.^ 1.<.<.<.<.<.<.<.<.<.<.<.<.<.<.<.<.<.<.<.<.<.<.<.<.<.<.<.<.<.<.<.<.<.<.<.<.<.<.<.<.<.<.<.<.<.<.<.<.<.<.<.<.<.<.<.<.<.<.<.<.<.<.<.<.<.<.<.<.<.<.<.<.<.<.<.<.<.2.2.2.2.<.<.<.<.<.<.<.<.<.<.<.<.<.<.<.<.<.<.<.<.<.<.<.<.<.<.<.<.<.<.<.<.<.<.<.<.<.<.<.<.<.2.2.2.2.2.2.<.5.<.<.6.2.-.( 5.5.1.1.1.<.<.-.6.-.5.F.P.P.L.I.P.F.2.*.6.1./ P.lXjXjX[./ ^ 6.2.,.,.4.4.4.4.<.<.2.<.<.<.<.<.<.<.<.<.<.<.<.<.<.<.<.<.<.<.<.<.<.<.<.6.6.6.<.<.<.<.<.<.<.<.<.<.<.<.<.<.<.<.<.<.<.<.<.<.<.<.<.<.<.<.<.<.<.<.<.<.<.<.<.<.<.<.<.<.<.<.<.<.<.<.<.<.<.<.<.<.<.<.<.<.<.<.<.<.<.<.<.<.<.<.<.<.<.<.<.<.<.<.<.<.<.<.<.<.<.<.<.<.<.<.<.<.<.<.<.<.<.<.<.<.<.<.<.<./ i.J.P.P.a.P <.4.<.<.Q.`.I.I.",
"P.P.I.P.`.Q.p.1.1.^ ^ G.sXyXnX6X1.<.<.<.<.<.<.<.<.<.<.<.<.<.<.<.<.<.<.<.<.<.<.<.<.<.<.<.<.<.<.<.<.<.<.<.<.<.<.<.<.<.<.<.<.<.<.<.<.<.<.<.<.<.<.<.<.<.<.<.<.<.<.<.<.<.<.<.<.<.<.<.<.<.<.<.<.<.<.<.<.<.<.<.<.<.<.<.<.<.<.<.<.<.<.<.<.<.<.<.<.<.<.<.<.<.<.<.<.<.<.<.<.<.<.<.<.<.<.<.<.<.<.<.<.<.<.<.<.2.<.<.<.<.<.<.1.<.a.`.P.P.I.P.I.`.y.^ 2.2.1.1.G.`.`.I.P.P.P.G.r.1.3._ ! U.zXwXxXfXjXtXy.^ 1.6.<.<.<.<.<.<.<.<.<.<.<.<.<.<.<.<.<.<.<.<.<.<.<.<.<.<.<.<.<.<.<.<.<.<.<.<.<.<.<.<.<.<.<.<.<.<.<.<.<.<.<.<.<.<.<.<.<.<.<.<.<.<.<.<.<.<.<.<.<.<.<.<.<.<.-.-.2.2.-.2.<.<.<.<.<.<.<.<.<.<.<.<.<.<.<.<.<.<.<.<.<.<.<.<.<.<.<.<.<.<.<.<.<.2.<.<.<.<.2.2.2.2.2.2.2.2.2.<.5.<.<.6.2.-.^ <.1.1.1.1.<.2.,.,.-.5.F.P.I.L.I.P.F.2.*.6.1./ P.lXjXlX5X} 1.6.,.,.,.4.4.4.4.<.<.<.<.<.<.<.<.<.<.<.<.<.<.<.<.<.<.<.<.<.<.<.<.<.<.<.6.<.<.<.<.<.<.<.<.<.<.<.<.<.<.<.<.<.<.<.<.<.<.<.<.<.<.<.<.<.<.<.<.<.<.<.<.<.<.<.<.<.<.<.<.<.<.<.<.<.<.<.<.<.<.<.<.<.<.<.<.<.<.<.<.<.<.<.<.<.<.<.<.<.<.<.<.<.<.<.<.<.<.<.<.<.<.<.<.<.<.<.<.<.<.<.<.<.<.<.<.<.<.<.<./ i.J.P.J.a.P <.5.<.1.W.`.I.I.",
"I.P.I.P.`.Q.p.<.6.^ ^ G.lX9XzX6X1.<.<.<.<.<.<.<.<.<.<.2.<.<.<.<.<.<.<.<.<.<.<.<.<.<.<.<.<.<.<.<.<.<.<.<.<.<.<.<.<.<.<.<.<.<.<.<.<.<.<.<.<.<.<.<.<.<.<.<.<.<.<.<.<.<.<.<.<.<.<.<.<.<.<.<.<.<.<.<.<.<.<.<.<.<.<.<.<.<.<.<.<.<.<.<.<.<.<.<.<.<.<.<.<.<.<.<.4.<.<.<.<.<.<.<.<.<.<.<.<.<.<.<.<.<.<.<.<.<.<.<.<.<.<.<.1.<.a.`.P.I.I.P.P.].y.^ 2.2.^ 1.G.Q.`.I.P.P.P.G.1.1.2._ ! Y.zXfXbXfXjXtX .^ 1.6.<.<.<.<.<.<.<.<.<.<.<.<.<.<.<.<.<.<.<.<.<.<.<.<.<.<.<.<.<.<.<.<.<.<.<.<.<.<.<.<.<.<.<.<.<.<.<.<.<.<.<.<.<.<.<.<.<.<.<.<.<.<.<.<.<.<.<.<.<.<.<.<.<.<.-.-.2.2.2.2.<.<.<.<.<.<.<.<.<.<.<.<.<.<.<.<.4.<.4.4.4.<.4.<.6.6.6.<.4.<.<.<.<.<.<.<.<.<.<.<.<.<.2.2.2.2.2.<.6.<.<.6.6.<.^ ^ 1.1.1.<.6.6.,.,.<.7.G.P.I.I.I.P.F.<.*.6.1./ P.lXjXzX5X} / 6.6.:.4.4.4.4.4.<.2.<.<.<.<.<.<.<.<.<.4.4.4.4.4.4.4.<.<.<.<.<.<.<.<.<.<.6.<.<.<.<.<.<.<.<.<.<.<.<.<.<.<.<.<.<.<.2.<.<.<.<.<.<.<.<.<.<.<.<.<.<.<.<.<.<.<.<.<.<.<.<.<.<.<.<.<.<.<.<.<.<.<.<.<.<.<.<.<.<.<.<.<.<.<.<.<.<.<.<.<.<.<.<.<.<.<.<.<.<.<.<.<.<.<.<.<.<.<.<.<.<.<.<.<.<.<.<.<.<.1./ y.J.P.G.a.P <.5.<.1.W.`.K.I.",
"I.L.I.u.`./.<.6.<.5./ `.lXgXfXjX1.6.2.<.<.6.6.-.-.-.2.2.2.2.^ <.<.<.<.<.<.<.<.<.<.<.<.<.<.<.<.<.<.<.<.<.<.<.<.<.<.<.<.<.<.<.<.<.<.<.<.<.<.<.<.<.1.1.1.<.<.<.<.<.<.<.4.<.4.<.4.<.4.<.5.<.4.<.4.4.4.<.4.<.4.<.5.<.4.<.4.4.4.<.4.<.4.<.5.<.4.<.4.4.4.<.4.<.4.<.5.<.4.<.4.<.4.<.4.<.4.<.4.<.4.<.4.<.<.<.4.<.<.<.<.<./ / y.P.`.I.I.I.P.F.S.( ( Q ^ ^ F.|.`.P.P.P.D.J.i.<.1./ ~ [.zXdXkXfXdXtXD.K Y v.<.4.4.4.4.4.6.6.<.<.<.<.<.<.6.6.<.<.4.<.4.<.4.<.4.<.4.<.4.<.4.<.4.<.4.<.4.<.4.<.4.<.4.<.4.<.4.<.4.<.4.<.4.<.4.<.4.<.4.<.4.<.4.4.4.4.4.4.4.4.4.4.4.4.4.4.4.4.4.4.4.<.4.<.4.<.4.<.4.<.4.<.4.<.4.<.4.<.4.<.4.<.4.<.4.<.4.<.4.<.4.<.<.<.<.<.<.<.4.<.<.<.<.<.<.<.<.<.-.E E <.^ / 1.a.G.G.p.1.<.-.,.,.4.<.`.`.f.I.P.J.~.E *.<.1.K I.jXjXjX5Xu./ 1.1.<.<.:.:.-.6.,.,.6.4.1.5.5.5.5.5.5.5.5.5.5.5.5.5.5.<.<.<.<.<.2.6.2.2.2.2.2.2.-.*.<.<.1.1.1.1.1.1.1.1.1.<.<.<.<.1.1.<.<.<.<.<.<.<.<.<.<.<.<.<.<.<.<.<.<.4.<.4.<.4.<.4.<.4.<.4.<.5.1.5.<.5.<.5.<.4.<.4.<.4.<.4.<.5.1.5.<.4.4.4.<.4.<.4.<.4.<.4.<.4.<.4.<.4.<.4.<.4.<.4.<.4.<.4.<.4.<.2.^ b.J.J.J.S.! 1.6.5.H Q.G.P.L.",
"L.d.I.u.|./.<.6.<.5./ `.lXgXfXgXy.5.<.<.6.6.6.4.4.<.2.2.<.<.^ 1.<.<.<.<.<.<.<.4.<.<.<.<.<.<.<.<.<.<.<.<.<.<.<.<.<.<.<.<.<.<.<.<.<.<.<.<.<.<.<.<.1.1.1.1.<.<.<.<.<.4.4.4.4.4.4.4.4.4.5.5.4.4.4.4.4.4.4.4.4.4.5.5.4.4.4.4.4.4.4.4.4.4.5.5.4.4.4.4.4.4.4.4.4.4.5.5.4.4.4.4.4.4.4.4.4.4.4.4.4.4.4.4.4.<.<.<.<.<.<.1./ / y.P.`.I.I.P.].J.S.( ^ Q ^ ^ S.|.`.P.`.P.D.J.7.<.1./ ~ [.zXdXfXfXfXgXY./ T 3.*.<.<.<.<.<.<.<.7.7.6.6.6.<.<.<.<.4.4.4.4.4.4.4.4.4.4.4.4.4.4.4.4.4.4.4.4.4.4.4.4.4.4.4.4.4.4.4.4.4.4.4.4.4.4.4.4.4.4.4.4.4.4.4.4.4.4.4.4.4.4.4.4.4.4.4.4.4.4.4.4.4.4.4.4.4.4.4.4.4.4.4.4.4.4.4.4.4.4.4.4.4.4.4.4.4.4.4.4.4.4.4.4.4.4.4.4.4.4.4.4.4.4.4.4.4.4.<.2.*.<.1.1.1.p.`.`.Q.F.5.<.-.,.,.4.<.`.`.f.I.P.J.H.R *.^ 3.K I.jXjXjX6Xu.L I 1.1.<.<.-.-.-.-.-.*.5.7.7.5.5.5.5.5.5.5.5.4.4.4.4.4.<.<.<.<.<.E *.E 2.2.2.2.2.2.2.2.<.<.<.<.<.<.<.<.1.1.<.<.<.<.1.<.<.<.<.<.<.<.<.<.<.<.<.<.<.<.<.<.4.4.4.4.4.4.4.4.4.4.4.4.4.4.5.5.4.4.5.5.5.5.4.4.4.4.4.4.4.4.5.5.4.4.4.4.4.4.4.4.4.4.4.4.4.4.4.4.4.4.4.4.4.4.4.4.4.4.4.4.4.4.4.<.2.^ 3.J.J.J.S.! 1.<.5.P Q.G.P.L.",
"I.L.P.G.)./.<.<.<.5./ _.jXdXfXjXu.1.<.5.7.4.<.4.4.4.<.<.<.1.1.<.<.2.<.<.<.<.<.<.<.<.<.<.<.<.<.<.<.<.<.<.<.<.<.<.<.<.<.<.<.<.<.<.<.<.<.<.1.1.1.1.<.<.<.<.<.<.<.<.<.<.<.<.<.<.<.<.<.<.<.<.<.<.<.<.<.<.<.<.<.<.<.<.<.<.<.<.<.<.<.<.<.<.<.<.<.<.<.<.<.<.<.<.<.<.<.<.<.<.<.<.<.<.<.<.<.<.<.<.<.<.<.<.<.<.<.<.<.<.1.1.^ / y.G.`.P.P.P.].J.y.^ ^ 2.6.<.F.|.`.P.`.P.G.J.7.<.<./ ~ [.lXdXfXfXkXzXtXu.! ^ 5.1.1.<.<.<.<.<.<.2.2.2.2.2.<.<.<.<.<.<.<.<.<.<.<.<.<.<.<.<.<.<.<.<.<.<.<.<.<.<.<.<.<.<.<.<.<.<.<.<.<.<.<.<.<.<.<.<.<.<.<.<.<.<.<.<.<.<.<.<.<.<.<.<.<.<.<.<.<.<.<.<.<.<.<.<.<.<.<.<.<.<.<.<.<.<.<.<.<.<.<.<.<.<.<.<.<.<.<.<.<.<.<.<.<.<.<.<.<.<.<.<.<.<.<.<.<.<.6.*.<.1.1.i.a.`.`.`.W.5.<.<.,.-.<.<.`.`.f.I.P.J.F.A E E 3.K I.jXdXjXgXL.} L / / 5.5.6.6.2.2.2.6.*.*.*.-.-.-.-.-.-.-.-.-.-.-.-.<.6.7.6.6.6.6.6.2.2.2.2.2.2.2.2.2.<.<.<.<.<.<.<.<.<.<.<.<.<.<.<.<.<.<.<.<.<.<.<.<.<.<.<.<.<.<.<.<.<.<.<.<.<.<.<.<.<.<.<.<.<.<.<.<.4.<.<.<.<.<.<.<.<.<.<.<.<.<.<.<.<.<.<.<.<.<.<.<.<.<.<.<.<.<.<.<.<.<.<.<.<.<.<.<.<.<.<.<.<.<.<.<.2.! 3.J.J.J.S.! <.<.5.P ).J.U.L.",
"I.I.P.G.)./.*.<.<.5.~ I.jXdXfXfXf.1.I 5.p.<.$.5.5.4.4.4.4.<.1.<.<.2.2.2.2.2.2.2.2.2.2.2.<.2.<.<.<.<.<.<.<.<.<.<.<.<.<.<.<.<.<.<.<.<.<.<.1.1.1.1.<.<.<.<.<.<.<.2.<.2.2.2.2.2.2.2.2.2.<.<.<.<.<.2.2.2.2.2.2.2.<.<.<.<.<.2.2.2.2.2.2.2.<.<.<.<.<.2.2.2.2.2.2.2.<.<.<.<.<.<.<.<.<.<.<.<.<.<.<.<.<.<.<.<.<.2.2.2.2.^ ^ ^ 3.F.U.P.P.P.`.`.y.^ ^ 2.6.1.a.|.`.P.`.P.G.~.7.*.<./ / [.lXdXfXfXbXkXyXI.{ L / 1.1.1.1.2.2.2.^ <.2.2.2.2.*.<.<.<.<.<.<.<.<.<.<.<.<.<.<.<.<.<.<.<.<.<.<.<.<.<.<.<.<.<.<.<.<.<.<.<.<.<.<.<.<.<.<.<.<.<.<.<.<.<.<.<.<.<.<.<.<.<.<.<.<.<.<.<.<.<.<.<.<.<.<.<.<.<.<.<.<.<.<.<.<.<.<.<.<.<.<.<.<.<.<.<.<.<.<.<.<.<.<.<.<.<.<.<.<.<.<.<.<.<.<.<.<.<.<.E ^ ^ 1.y.a.`._.`.W.3.<.<.,.-.<.^ `.`.I.I.P.G.H.C G E 3.L [.jXdXkXzXtXI.u.} L / / / / / / / ^ 2.-.-.-.2.2.v.v.-.-.-.-.-.-.-.-.<.<.<.<.<.<.<.*.6.6.6.2.2.-.*.*.<.<.<.<.<.<.<.<.<.<.<.<.<.<.<.<.2.-.-.-.2.2.2.2.2.2.2.2.2.2.2.2.2.2.2.2.<.<.<.<.2.2.2.2.2.2.<.<.6.6.2.2.<.-.-.-.2.2.2.2.2.2.<.<.<.<.<.<.<.<.<.<.<.<.<.<.<.<.<.<.<.<.<.<.<.<.<.<.<.<.<.<.<.<.<.<.2.^ y.J.U.U.S.! <.4.6.$.).`.U.P.",
"I.P.P.G.).(.*.*.<.3.I I.zXfXfXfXI.1.P 1.5.<.5.7.4.4.4.4.4.4.4.<.2.-.2.2.2.-.-.-.-.-.-.-.2.-.2.2.<.<.<.<.<.<.<.<.<.<.<.<.<.<.<.<.<.<.<.<.1.<.<.<.<.<.<.<.<.<.<.<.2.2.-.-.-.-.-.-.-.-.-.-.2.-.-.-.-.-.-.-.-.-.-.-.2.2.-.-.-.-.-.-.-.-.-.-.2.-.-.-.-.-.-.-.-.2.-.-.2.2.2.2.2.2.2.2.2.2.2.2.2.2.2.2.2.2.2.2.2.2.-.( 2.^ 1.F.J.U.P.P.`.`.p.^ ^ 7.6.^ p.`.`.P.`.`.G.~.7.*.<.1./ U.lXgXkXbXbXbXfX5XK...L K ! ! ! ^ / ^ 2.2.2.2.2.-.*.*.<.<.<.<.<.<.<.<.<.<.<.<.<.<.<.<.<.<.<.<.<.<.<.<.<.<.<.<.<.<.<.<.<.<.<.<.<.<.<.<.<.<.<.<.<.<.<.<.<.<.<.<.<.<.<.<.<.<.<.<.<.<.<.<.<.<.<.<.<.<.<.<.<.<.<.<.<.<.<.<.<.<.<.<.<.<.<.<.<.<.<.<.<.<.<.<.<.<.<.<.<.<.<.<.<.<.<.<.<.<.<.<.<.<.^ / 1.a.`.`._.|.W.7.<.<.6.-.*.E Q.P.P.I.P.J.H.: Z *.7.L I.jXdXfXkXgXuX5XI.u.} } } { ~ ~ L ~ ^ Q Q Q Q Q Q Q Q Q Q Q Q Q Q Q <.<.<.<.<.<.6.6.<.<.<.<.<.<.<.<.6.6.6.6.6.6.4.4.4.4.4.4.4.4.4.<.-.-.-.-.-.-.-.-.-.-.-.-.-.-.-.-.-.-.-.-.2.2.-.-.-.-.-.-.-.-.-.-.-.-.-.-.-.2.2.-.-.-.-.-.-.-.-.-.2.2.2.2.2.2.-.2.2.2.2.2.2.2.2.<.<.<.<.<.<.<.<.<.<.<.<.<.<.<.<.<.1.^ y.J.U.P.D./ <.<.4.H Q.`.[.I.",
"P.P.].F./.(.E E <.3.L I.kXfXvXfX4Xa.I 1.1.<.<.6.4.4.4.4.4.4.4.4.2.2.2.2.2.2.2.2.2.2.2.2.2.2.2.2.<.<.<.<.<.<.<.<.<.<.<.<.<.<.<.<.<.<.<.<.1.1.<.<.<.<.<.<.<.<.<.<.2.-.-.-.-.-.-.-.-.-.-.-.2.-.-.-.-.-.-.-.-.-.-.-.-.-.-.-.-.-.-.-.-.-.-.-.2.-.-.-.-.-.-.-.-.-.-.-.2.2.<.2.<.2.<.2.<.2.<.2.<.2.<.2.2.2.2.2.2.2.Q ( 2.^ 1.S.J.J.P.P.`.`.p.^ ^ 7.6.F p.`._.P.`.P.G.~.7.*.<.6./ G.sXjXkXfXcXbXkXfXyX5XK.D.u. .) / ! ! ^ ! ^ E ^ <.2.2.<.<.<.<.<.<.<.<.<.<.<.<.<.<.<.<.<.<.<.<.<.<.<.<.<.<.<.<.<.<.<.<.<.<.<.<.<.<.<.<.<.<.<.<.<.<.<.<.<.<.<.<.<.<.<.<.<.<.<.<.<.<.<.<.<.<.<.<.<.<.<.<.<.<.<.<.<.<.<.<.<.<.<.<.<.<.<.<.<.<.<.<.<.<.<.<.<.<.<.<.<.<.<.<.<.<.<.<.<.<.<.<.1.1.1.1.i.G.`._._.|.W.7.<.<.6.-.*.E Q.P.P.I.P.F.H.- C E 7.P _.jXkXdXdXdXgXjXjXyX5X4X[.Y.I.I.L.K.y.3.) ) _ ! ! ! ! ! ! ! ! ! ! ! 1.1.1.1.1.1.1.1.<.<.<.<.<.6.6.6.4.4.4.4.4.4.4.4.<.<.<.<.<.<.<.<.2.2.-.-.2.2.2.2.2.2.2.2.-.-.2.-.-.-.-.-.2.-.-.-.-.-.-.-.-.-.-.-.-.-.-.-.-.-.-.-.-.-.-.-.-.-.-.-.2.2.<.2.<.2.<.-.<.2.<.2.<.2.<.<.<.<.<.<.<.<.<.<.<.<.<.<.<.<.<.<.1.^ y.U.U.P.S.^ 6.<.<.D ^.Q.|.P.",
"P.K.U.F./.!.H E <.3.L I.kXfXvXfXuX[.y.! ^ 6.6.2.-.,.,.,.,.-.-.-.<.<.<.<.<.<.<.<.2.2.2.2.2.2.2.2.<.<.<.<.<.<.<.<.<.<.<.<.<.<.<.<.<.<.<.<.<.<.<.<.<.<.<.<.<.<.<.<.2.-.2.-.2.-.2.-.2.-.2.-.2.-.2.-.2.-.2.-.2.-.2.-.2.-.2.-.2.-.2.-.2.-.2.-.2.-.2.-.2.-.2.-.2.-.2.2.2.2.<.2.<.2.<.2.<.2.<.2.<.2.<.2.<.2.<.2.2.2.( ( 2.^ ( S.~.].P.P.`.`.a./ ^ 7.<.C a.`._.P.`.P.G.~.2.O.-.6.H y.iXjXkXfXcXbXbXkXkXjXlXsXiX+XU.G.D.u.) ^ ^ ^ ^ ^ 6.6.<.<.<.<.<.<.<.<.<.<.<.<.<.<.<.<.<.<.<.<.<.<.<.<.<.<.<.<.<.<.<.<.<.<.<.<.<.<.<.<.<.<.<.<.<.<.<.<.<.<.<.<.<.<.<.<.<.<.<.<.<.<.<.<.<.<.<.<.<.<.<.<.<.<.<.<.<.<.<.<.<.<.<.<.<.<.<.<.<.<.<.<.<.<.<.<.<.<.<.<.<.<.<.<.<.<.<.<.<.<.<.<.1.2.1./ i.Q._.`.`.`.W.3.<.<.6.-.*.E Q.].P.Y.P.F.W.- 9 *.7.U `.lXkXdXdXdXgXzXzXzXlXlXjXlXjXjXjXpXuXyXpXiXtX5X5X5XL.d.s.s.s.u...u.} 1./ / I P P P 1.1.1.1.1.1.1.1.1.<.<.<.<.1.<.1.1.1.<.<.<.<.<.<.<.2.2.2.2.2.2.2.2.2.2.2.2.2.2.2.2.-.2.-.2.-.2.-.2.-.2.-.2.-.2.-.2.-.2.-.2.-.2.-.2.-.2.-.2.-.<.2.2.2.<.2.<.2.<.2.<.2.<.2.<.2.<.<.<.<.<.<.<.<.<.<.<.<.<.<.<.<.<.1./ ^ y.U.U.J.S.^ 6.-.+.D ^.W.|.P.",
"P.P.].F.).!.G H <.3.I I.kXfXvXfXlXtXD.~ ! 1.2.E 2.-.-.-.-.-.-.2.<.<.<.<.<.<.<.<.<.<.<.<.<.<.<.<.<.<.<.<.<.<.<.<.<.<.<.<.<.<.<.<.<.<.<.<.<.<.<.<.<.<.<.<.<.<.<.<.<.2.2.2.2.2.2.2.2.2.2.2.2.2.2.2.2.2.2.2.2.2.2.2.2.2.2.2.2.2.2.2.2.2.2.2.2.2.2.2.2.2.2.2.2.2.<.2.<.<.<.<.<.<.<.<.<.<.<.<.<.<.<.<.<.1.1.<.<.2.^ ^ 5.^ 1.S.~.].`.P.Q.`.p.^ <.7.<.n p.`.`.f.`.P.G.~.*.G -.2.H 1.#XsXjXkXkXrXfXkXjXjXjXlXsXsXsXsXsXaX+X].F.y.1.^ <.<.<.<.<.<.<.<.<.<.<.<.<.<.<.<.<.<.<.<.<.<.<.<.<.<.<.<.<.<.<.<.<.<.<.2.2.2.2.2.2.2.2.2.2.2.2.2.2.2.2.2.<.2.<.2.<.2.<.2.<.2.<.2.<.<.<.<.<.<.<.<.<.<.<.<.<.<.<.<.<.<.<.<.<.<.<.<.<.<.<.<.<.<.<.<.<.<.<.<.<.<.<.<.<.<.<.<.<.<.<.<.<.<.<.<.1.^ 1.G.`.G.`.Q.W.5.<.<.6.-.*.E F.].P.Y.P.F.W.7 7 *.7.K `.sXdXdXgXzXgXdXdXgXdXdXgXgXjXjXjXjXjXjXkXkXkXkXzXzXzXzXkXkXjXjXjXyXiXiX#X X X[._._.a.a.y.y.r./ ~ ! / / 1.1.1.1.1.1.1.1.1.1.1.1.1.1.1.1.1.1.1.1.<.<.1.1.<.<.<.1.1.<.<.2.2.2.2.2.2.2.2.2.2.2.2.2.2.2.2.2.2.2.2.2.2.2.2.2.2.2.2.2.<.2.<.<.<.<.<.<.<.<.<.<.<.<.<.<.<.<.<.2.<.2.<.2.<.2.<.2.<.2.<.2.<.1.1.! y.J.J.J.S.^ 6.:.#.7 j.W.|.`.",
"P.G.U.F.).(.G D 7.^ / [.jXfXfXvXyXuXyXY...~ K ~ K ^ ^ ^ 1.1.1.1.1.1.1.1.1.1.1.1.1.1.1.1.1.1.<.<.<.<.<.<.<.<.<.<.<.<.<.<.<.<.<.<.<.<.<.<.<.<.<.<.<.<.<.<.<.<.<.<.<.<.<.<.<.<.<.<.<.<.<.<.<.<.<.<.<.<.<.<.<.<.<.<.<.<.<.<.<.<.<.<.<.<.<.<.<.<.<.<.<.<.<.<.<.<.<.<.<.<.<.<.<.<.<.<.<.<.<.<.<.<.<.1.<.<.1.1.1.2.1.2.2.1.^ 3.a.Q.`.|.|.Q.p.6.6.6.H C p.`.`.f.P.P.P.].*.q 7 -.-.H i.iXpXjXkXkXkXkXzXjXjXlXlXlXsXsXsXsXsXaXaX#X|.Q.p.5.<.<.<.<.<.<.<.<.<.<.<.<.<.<.<.<.<.<.<.<.<.<.<.<.<.<.<.<.<.<.<.<.2.2.2.2.2.2.2.2.-.-.-.-.-.-.-.-.2.2.<.2.2.2.<.2.<.2.<.2.<.2.<.<.<.<.<.<.<.<.<.<.<.<.<.<.<.<.<.<.<.<.<.<.<.<.<.<.<.<.<.<.<.<.<.<.<.<.<.<.<.<.<.<.<.<.<.<.<.<.<.2.2.6.<.E 1.F.).).@XQ.7.<.2.6.,.-.7 3.F.J.[.I.P.J.W.7 9 -.2.1.r. XsXgXgXlXgXgXdXuXuXuXyXyXuXuXpXjXjXkXkXkXkXkXkXkXkXkXkXkXkXkXkXjXlXsXsXsXsXsXsXsXsXsXaXaXiXiX+X+X X|.|.`.J.G.a.a.1.1./ / / I P P <.<./ / / / ^ ^ 1.1.1.1.1.1.1.1.<.<.<.<.<.<.<.<.<.<.<.<.<.<.<.<.<.<.<.<.<.<.<.<.<.<.<.<.<.<.<.<.<.<.<.<.<.<.<.<.<.<.<.<.<.<.<.<.2.2.2.2.<.2.<.2.<.2.<.2.<.2.2.2.^ / y.J.].J.7.<.6.O.q q ^.Q.`.P.",
"I.P.U.F.).(.G D 6.E / [.lXzXfXfXdXdXdXyX=XL.I.I.a.u.t.} ~ L J J I %.%.5.r.i.i.5.$.$.<.1.1.1.1.1.<.<.<.<.<.<.<.<.<.<.<.<.<.<.<.<.<.<.<.<.<.<.<.<.<.<.<.<.<.<.<.<.<.<.<.<.<.<.1.<.<.<.<.<.<.<.<.<.<.<.<.<.<.<.1.1.<.<.<.<.<.<.<.<.<.<.<.<.<.<.<.<.<.<.<.<.<.<.<.<.<.<.1.<.1.<.1.<.<.<.1.<.<.<.<.<.<.1.1.<.<.<.<.<.<.^ / 1.p.W.Q.Q.Q.W.7.<.-.-.G o p.`._.P.`.U.P.].2.q   9 *.-.5.a.8X8X6X9X9XpXpXpXpXtX5X[.I.P.P.a.y.a.i.i.3.1.<.E <.-.-.-.-.-.-.-.*.*.*.*.*.*.*.*.-.-.-.-.-.-.-.-.-.-.-.-.-.-.-.-.-.:.:.:.:.:.:.:.:.:.*.*.-.-.:.:.-.-.-.-.-.-.-.-.-.-.-.-.-.-.-.-.-.-.-.-.-.-.-.-.<.<.-.<.-.-.-.-.-.-.-.-.-.-.-.-.-.-.-.-.-.-.-.-.<.<.<.<.-.-.-.-.-.-.-.-.-.-.-.-.*.-.*.E 1.S././.W.m.6.2.-.:.:.*.= 6.F.G.P.P.P.|.(.7 q *.-.1.! y.K.L.Y.5XtXyXuXuXtXtXpXpXpXpXpXpXyXjXjXjXjXyXjXjXjXjXeXeXjXyXjXyXpXiXiXiXiXiXiXiXaXaXaXaXaXiXiXiXsXsXsXaXaXaXaXaXiXiX#X#X#X#X+X#XF.F.p.p.p.7.7.5.1.1.1.1.1.1.1.1.<.<.<.<.<.<.<.<.<.<.<.<.<.<.<.<.<.<.<.1.<.<.<.<.<.<.<.<.<.<.<.<.<.<.1.<.<.<.<.<.<.<.<.<.<.<.<.<.<.-.-.-.-.-.-.-.2.-.-.-.-.-.-.-.^ 1.3.F.~.H.7.*.,.O.e q /.Q.`.I.",
"I.P._.F.).!.G e ,.*.1.G.iXlXzXdXbXbXnXnXkXkXzXzXzXjXjXpX6X4X=XI.t.t.r.r.%.I I U 1.1.1.1.1.1.1.5.<.<.<.<.<.<.<.<.<.<.<.<.<.<.<.<.<.2.<.2.<.2.<.-.<.2.<.2.<.2.<.<.<.<.<.<.<.<.<.<.<.<.<.<.<.<.<.<.<.<.<.<.<.<.<.<.<.<.<.<.<.<.<.<.<.<.<.<.<.<.<.<.<.<.<.<.<.<.<.<.<.<.<.<.<.<.<.<.<.<.<.<.<.<.<.<.<.<.<.<.<.2.2.2.<.<.<.1.5.i.p.p.7.7.2.-.-.*.D o 7.Q.`.P.[.Y.P.].2.e   % e *.*.H 1.t.t.t.t.t.y.y.} { { { ~ I I I P / / <.1.1.<.<.6.,.,.,.,.,.,.,.,.,.,.,.,.,.,.,.,.,.,.,.,.,.,.,.,.,.,.,.,.,.,.,.,.,.,.,.,.,.,.,.-.-.-.-.-.-.-.-.,.,.,.,.,.,.,.,.,.,.,.,.,.,.,.,.,.,.,.,.,.,.,.,.,.,.,.,.,.,.,.,.-.-.-.-.-.-.-.-.,.,.,.,.,.-.,.,.,.,.,.,.,.,.,.,.,.,.,.,.,.,.,.,.-.-.-.-.2.m.V.m.6.3.6.-.:.&.g w = 2.F.G.I.I.P. X^.7 0 e *.6.^ ^ K L ~ {  . .........| |  .r.r.r.r.} } }  . .}  .} } r.}  . . . .| | | | | | | | {  . . . . . . ./ / / / ) ) y.y.y.y.y.) ) ) / 1.7.7.7.5.5.1.1.<.<.1.<.1.<.1.<.<.<.<.<.<.<.<.<.<.<.<.<.<.<.<.<.<.<.<.<.<.<.<.<.<.<.<.<.<.<.<.<.<.<.<.<.<.<.<.<.<.4.4.4.4.5.4.5.4.6.,.,.,.,.,.,.,.,.,.,.,.-.-.-.-.2.6.7.S.H.m.3.*.:.e q q /.Q.|.I.",
"I.I._.F./.W.e q :.,.<.1.G.iXlXjXwXwXwXwXrXrXeXeXjXjXjXjXkXkXkXjXpXaXiXiX X|.`.Q.3.3.1./ ^ H H F <.-.<.-.<.-.<.-.<.-.<.-.<.-.<.-.2.2.2.2.-.-.-.-.2.-.2.-.-.-.-.2.<.<.4.<.4.<.4.<.4.<.4.<.4.<.4.<.4.<.4.<.4.<.4.<.4.6.4.<.4.<.4.6.4.<.4.<.4.<.4.<.4.<.4.<.4.<.4.<.6.6.6.6.6.6.6.6.4.6.4.6.4.6.4.6.6.2.2.2.2.-.,.,.6.2.-.-.<.<.<.<.<.*.:.*.=.R 9 X 5.Q.`.P.[.Y.P.J.<.O.7 6 8 8 e R <.<.1.1.1.1.1.1.P ! ! / 1.1.5.3.<.<.<.2.2.2.6.6.,.,.,.,.,.,.,.,.,.,.,.,.,.,.,.,.,.,.,.,.,.,.,.,.,.,.,.,.,.,.,.,.,.>.,.,.,.,.,.,.,.>.,.,.,.,.,.>.,.,.,.,.,.,.,.,.,.,.,.,.,.,.,.,.,.,.,.,.,.,.,.,.,.,.,.,.,.,.,.,.,.,.:.:.,.,.,.,.,.,.,.,.,.-.,.,.,.,.,.,.,.,.,.,.,.,.,.,.,.,.,.,.,.,.,.-.-.-.-.-.*.-.-.&.e q 2 6 7 7.~.P.I.I.I.|.W.q 0 q &.n.2.^ 1.1.1.1./ / ~ ~ ~ ~ ~ ! / / / / / ! ! ! ! ! ! ! ^ ^ ^ ^ ^ ^ ^ ^ ! ~ ~ ~ ~ ~ ~ ! K ! ! ! ^ ^ ^ ! ^ / ^ ^ ^ ^ ^ ^ / / / ) ) ) ) 1.<.<.<.<.<.<.<.<.<.<.<.<.<.<.<.<.<.<.4.<.4.<.4.4.4.6.4.6.4.6.4.6.4.6.4.6.4.6.4.6.4.<.4.<.4.<.4.<.4.6.4.6.4.6.4.6.6.6.6.6.4.6.4.6.,.,.,.,.,.,.,.,.,.,.,.-.:.-.=.:.:.-.2.2.3.2.*.*.&.q q q /.Q.`.I.",
"I.I.`.F./.C.e q l ,.,.*.<.Q.iXpXzXnXkXzXzXzXzXjXjXjXjXzXzXzXzXzXsXaXaXaXaXaXaXaX#X#X@X@X).(.W.W.-.-.-.-.-.-.-.-.2.-.2.-.2.-.2.-.6.,.,.,.,.,.6.,.6.,.,.,.,.,.6.,.6.,.6.,.6.,.6.,.6.,.6.6.6.,.6.,.6.,.6.,.6.,.6.,.6.,.6.,.6.,.6.,.6.,.:.,.:.,.,.,.,.,.:.,.,.,.,.,.,.,.,.,.,.,.,.,.:.:.:.:.:.:.:.:.*.*.*.*.&.&.&.&.;.;.&.&.G G G G G e i i i w 6 = 6.Q.`.P._.P.K.J.7.e 6 8 8 , 0 l G G G G G G G G G H H G G G G G R R R G G e e e e i i i i i i i i i i i i i i i l i l i l i l i l i l i i i i i l i l i l i l i &.&.&.&.&.&.&.&.&.&.&.&.&.&.&.&.&.&.&.&.&.&.&.&.&.l l l l l l l l l l l l l l l l l l l ;.&.;.&.l l l l l l l l l l l l l l l l l l l l l l l l ;.;.l &.&.i i i i i l w w 2 2 0 = 5.~.P.'.I.P.`.B.e q 8 w ,.2.2.-.2.2.6.6.2.1.1.1.1.1.2.2.6.6.2.2.-.-.-.-.-.-.-.-.-.2.2.2.2.-.2.2.2.1.2.2.2.2.2.2.2.3.3.3.2.3.2.2.2.2.-.*.E E E E E E E *.*.*.*.-.,.,.,.,.,.6.6.,.,.,.,.,.,.,.,.6.6.6.6.6.6.6.6.6.,.6.,.6.,.6.,.6.,.6.,.6.,.6.,.6.,.:.,.,.,.,.,.:.:.:.:.,.:.:.:.;.;.:.:.*.:.:.;.;.;.;.;.;.;.;.;.;.&.&.&.&.i l g e e e e e e 9 8 w 0 q e (.Q.P.I.",
"=XI.P.G./.C.e w 0 l :.:.*.5.a.a.s.s.u.s.a.a.a.a.G.G.G.a.a.a.s.a.G.W.G.G.F.F.F.W.W.W.m.m.m.3.3.2.-.-.-.-.2.-.2.-.-.-.-.-.-.-.-.-.-.-.-.-.-.-.-.-.-.-.-.-.-.-.-.:.;.;.:.;.>.;.>.;.>.>.>.>.:.;.>.;.>.;.>.;.>.;.>.;.&.&.&.&.&.&.&.&.&.&.O.&.O.&.&.&.g e g e g e g e g e g e g e g e e e e e e w e w w 8 8 8 8 8 8 4 w w w w q w q q 7 6 8 8 1 1 6 9 7.Q.`.P._.I.K.J.(.G   8 u 1 , w , 6 6 6 0 2 , , 6 6 6 6 6 6 6 , 8 8 8 8 8 8 8 8 8 8 w 8 2 1 w 8 w 8 w 1 w 8 w 8 w 8 w 8 w w w 8 w w w w w w w w w w w w w w w w w w w w w w w 8 w w q w q w q 8 q w q w q w q 8 w w w w w w w w w w w w w w w w w w w w w w w w w w w w w w w w w w w w w w w 8 w w w w w w w w w w w w w 8 8 w 8 w w 2 2 4 d w = 1.G.P.I.'.P.Q.W.e w , , i Y *.;.>.;.:.:.*.*.E <.-.*.-.-.-.:.-.=.=.-.-.-.-.-.=.-.=.*.=.=.=.=.=.*.*.*.*.*.*.*.*.-.-.-.-.-.*.*.*.,.x.,.,.,.x.,.,.,.-.,.,.,.,.,.,.:.>.>.=.;.;.;.;.;.;.;.;.;.;.;.;.;.;.&.;.&.;.;.;.O.g O.g O.g O.g g e g e g g g g g e g e g e g e e e e e e e e e w w w w w w w w w w w w w w w w e w w q w q q q 0 0 q 7 6 8 8 8 w , q e /.Q.P.I.",
"L.g._.G./.^.e 0 2 w h &.*.H H F H E E E E *.*.*.*.*.-.-.2.2.( 2.1.^ ^ ^ ^ H S S E Q E Q E Y Y Y R R R R R R R R G R G R G R G R G G G e G e G G G G G e G e G i w w w w w w f w w w w w w w w w w w w w w w w w w w 0 w 0 w 0 w w w 0 w 0 w w w 0 , 0 , 0 , 0 , 2 2 2 2 2 2 2 2 2 1 2 1 2 1 2 2 1 1 1 1 1 < < < < < 4 4 2 2 4 w 8 , , 1 1 , 8 R B./.`.P._.I.P.P.).6.e 8 w 4 1 , w w f f f d 4 4 2 2 4 w w u u u 1 1 4 1 4 1 1 1 2 2 2 2 2 2 2 2 4 2 4 2 4 2 4 2 4 4 w w 4 4 4 4 w w w w w w w w w w w w w w w w 0 2 w 2 w 2 0 0 2 , 0 , 0 , 0 , 0 , 0 , 0 , 0 , 2 1 2 1 2 1 2 1 2 1 2 1 2 1 2 1 2 1 2 1 2 1 2 1 2 1 2 1 2 1 2 1 2 1 2 1 2 1 2 1 2 1 2 1 2 1 2 2 2 , 2 w w 1 1 w 2 1 , 2 3 d d w G p.G.P.I.'.P.Q.(.q w 2 , w 8 i >.>.>.>.;.*.*.W *.*.:.;.=.=.>.=.>.:.:.-.:.;.:.=.&.*.*.*.*.*.*.*.&.;.;.;.;.l l l l l l l l l z x w w w u w u l i w w w w w w w w w w w w w w w w w w w w w w w w w w w w w w w w 0 w 0 w 0 w 0 w 0 0 0 0 0 0 0 0 0 , 0 , 0 , 0 , 2 1 2 1 2 1 2 1 2 2 2 2 2 2 2 2 w w 0 w 0 w w w w w 0 w 0 w 0 2 f w w q 8 8 8 w w , q G ).J.P.L.",
"I.L.P.G./.W.e w w 0 0 w e e q q 6 8 9 9 8 8 w w 8 8 8 8 8 6 = ; 7 7 7 7 9 9 9 9 8 7 8 8 ; 8 8 8 6 6 6 6 6 6 7 6 6 6 6 6 6 6 6 6 7 7 7 7 7 7 7 7 7 7 7 7 7 7 7 7 w w w w w 8 w 8 0 w w w w w 0 0 w w w w w w w w w w w 0 0 w w q w w w w w w w w w w w w w w w w w w w w w w w w w w w w w w w w 8 8 8 1 1 1 1 1 1 4 w w 1 1 8 8 8 6 6 8 8 8 e 2.W.|.|.P._.P.I.].Q./.B.R 6 6 q 8 q q q q 0 2 2 2 1 1 , 1 , , , , 1 1 8 w 8 8 8 1 8 0 0 0 0 0 0 0 w 8 w 0 w 8 w 8 w w w w w w w 8 w w w w w w w w 8 8 8 8 8 8 8 8 w w w w e w w w w w w w w w w q w q q w w w w w w w w w w w w w w w w w w w w w w 8 w 8 w w w w w w w w w w w w w w w w w w w w w w w w w w w w w w w w w , 1 8 w w , 2 w 4 2 , 7.|._.I.'.'.P.G.(.9 6 q q e ; e w w w w q 8 9 9 7 8 8 8 8 w w w 7 7 q q 7 7 7 7 q q q q q q q q 0 , , , , , , , , , 2 2 2 2 2 2 w w w w w w w w w w w w w w w 0 , 1 1 1 1 8 w w 8 8 8 8 1 1 1 1 w w w w w w w w w w w w f f f w w q w q w w w q w w w w w w w w w w w w w w w w w w w w w w w w w w w w w w w w q q q q q q q w 0 w q 8 8 8 8 8 q 0 e R |.`.P.I.",
"P.P.G.F.).).-.. w w w w w w w 4 4 4 2 2 4 4 4 4 4 4 4 4 2 2 2 2 q 8 8 8 8 8 8 8 w q w w w w w 8 w w w w q w q q , 8 0 8 w w q q q q q q q q q q q q q q q q q q 7 7 8 8 8 8 8 8 8 8 8 8 q q q q q q q q q q q q q q q q q q q q 6 6 6 6 6 6 6 6 7 7 6 6 7 7 7 7 = = 7 6 7 7 7 7 7 7 7 7 7 q 7 9 7 7 7 7 9 9 C C 7 7 7 9 7 C C C A A S S E 2.S.F.J.Q.`.P.P.P.P.P.|.|./.F.7.1.P H H H H H H H H H G G G G G G G G C C C C C C C C 7 7 7 7 7 7 7 7 7 7 7 7 7 7 7 7 9 9 9 9 9 9 9 9 7 7 7 7 7 7 q 7 7 ; ; ; 7 7 7 7 - - 6 6 7 7 7 7 6 6 6 6 6 6 7 7 6 = ; ; 6 6 6 6 6 7 7 7 7 7 7 7 7 7 7 7 7 7 7 6 6 6 6 6 6 6 6 6 6 6 6 6 6 6 6 6 6 6 6 8 6 6 6 6 8 8 8 8 6 8 8 6 6 6 6 6 6 6 7 7 6 7 9 6   6 e -.`.`.`.`.`.`.`.`.W.5.H 7 - - - ; 6 8 8 6 6 6 8 ; ; ; 6 6 8 8 8 8 8 8 8 8 0 8 8 8 8 8 8 8 0 8 0 8 8 8 8 8 w w w w 8 8 8 w w w w 7 6 6 6 7 q 9 9 9 7 6 7 6 6 6 6 6 6 6 6 6 6 6 6 6 7 7 7 7 7 7 0 0 0 6 6 6 6 6 q q 0 q q q q 0 0 0 q 7 q 7 7 7 7 7 6 6 6 6 6 6 7 7 6 6 6 6 6 6 6 6 6 6 6 6 6 6 6 6 6 = = 6 6 6 = = = ; ; 6 6 = = 6 ; ; ; = = = = - - H 5.W.Q.`.`._.",
"P.P.J.G.~.).6.7 q 7 q w w 2 4 4 2 2 2 2 2 4 4 4 4 4 4 4 4 4 4 4 w 8 8 8 8 8 w w , , , , , , , , 6 6 6 6 0 0 0 0 , , , , 0 0 0 7 6 7 7 7 6 6 6 6 6 6 6 6 6 6 6 6 6 6 6 7 7 : 7 : : 7 7 q q q q q D D D D D D D D G G G G G G G G *.*.*.*.*.*.*.*.-.-.-.-.-.-.-.<.6.2.6.5.5.5.7.7.5.5.7.7.7.7.7.7.p.p.F.F.F.F.W.F.Q.Q.Q.~./.~./.~.F.F.S.F.G.J.].[.P.P.P.P.P.P.P.`.P.Q.Q.Q.`.`.`.`.`.`.`.`.`.`.`.).~.~./.~./.~./.~./.~./.~./.~././.W.W./.Q./.Q./.Q./.Q./.Q./.Q./.W.W.F.W.F.B.m.B.m.m.m.m.m.m.m.B.m.m.b.b.b.m.m.m.m.3.3.3.3.3.3.3.3.2.2.6.2.6.6.6.6.<.<.2.-.-.-.*.-.2.2.6.2.2.2.2.2.*.E *.*.*.*.*.*.G R G R G R H E A A G A G A A A A A A 9 A A A A A A A A G A G G C C C C D C D C 7 C G G G *.6.^.`.'.'.'.`.`.`.`.|.Q.3.^ ^ E S A A 9 9 9 9 9 9 9 9 9 9 9 9 9 9 9 G G e e e G G G G e e e G G G G G G G G G G G G G G G e G G G G G C G G G G G G G G H H H G G R R R R R R R E E *.*.*.*.*.*.*.R *.*.-.-.<.<.<.<.4.4.:.:.,.:.:.:.:.<.4.<.<.<.<.<.6.6.4.6.4.2.4.6.6.6.6.6.6.6.6.6.6.6.6.6.6.6.6.6.3.3.3.3.6.6.6.6.3.3.3.6.6.6.3.2.3.2.3.3.6.6.6.5.3.p.`.|._._.}. X",
"I.P.P.P.P.~.a.^ 7 7 7 7 7 7 q q 7 7 7 0 0 7 7 7 q q q q q q q q 9 9 9 9 9 9 9 e G G G G G G G G *.*.*.*.*.*.*.*.*.*.*.*.*.:.-.-.-.-.-.-.-.-.-.-.6.n.m.n.n.n.6.6.7.m.m.m.m.m.m.m.m.m.V.B.B.B.W.W.^.^.^.^.^.^.^.^.(.(.(.(.^.^.(.^.)./././././././.^.^.^.^.^.^.^.^.~.Q.Q.~././.)././.~././.).)././.).).).|.|.|.|.].Q.Q.Q.Q.).~.).~.~.~.].].].U.U.P.P.P.P.P.P.I.I.`.`.Q.`.`._.|.|.|.`.`.`.`.`.`.`.`.Q.Q.Q.Q.Q.Q.Q.Q.Q.Q.~.~.).~.).).Q.Q.).~.Q.Q.Q.Q.Q.Q.Q.Q.Q.Q.Q.Q.|.|./.)./.)./.)./.).|.)./.)./.).~.~.~.~.~.~.~.~.~.~././././././.(.(.(.(././.Q.Q.Q.Q.Q.!.!.!.!.!.!.~./.~./.~./.~././././././././.).~././.~.~.~.~.~.~./.~./.~./.~.W.!.W.!.W.!.W.!.(.!.!.!.!.!.(.(.W.W.^.W.^.W.^.W.F.F.W.F.W.W./.|.`.'.'.'.`.`.`.`._.Q.G.G.F.Q.F.S.!.!.!.!.!.!.!.!.!.!.!.!.!.!.!.W.Q./././././.Q.Q././././././.Q.Q.^.!.^.!.^.(.^.W.^.W.^.!.^.(.^.(.W.W.^.W.^.^.(.(.).).).).).).).).(.(.(.(.(././././././././.).(.(.W.H.W.F.W.Q.Q./././.^.W.!.!.!.!.^.W.^.W.^.W.^.!./././././././././././././././././././././././././.~./.~.)././.).).).~.).).~.~.~.~.).~.~.).~.).|.`._.[._.`.l.'.'.",
"I.I.I.I.P.`.Q.a.i.7.7.7.7.B.B.B.m.m.m.m.m.m.m.m.V.V.V.V.V.V.V.B.W.W.W.W.W.W.W.W.W.W.W.W.^.^.^.^././././././././././././././././.).)./.)./././././.(././././.(./././.~./.~.).~.~.].].|.|.|.|.|.|./././.).).).).).).).).).).).).).).).).).Q.Q.).).Q.Q.).).).).).Q.Q.Q.Q.Q.Q.~.~.~.Q.Q.~.~.Q.Q.Q.Q.G.G.G.G.J.J.J.J.J.J.J.J.J.J.J.J.G.G.J.J.P.P.P.G.P.P.P.I.I.I.I.I.`.`.`.`.`.P.P.G.`.`.`.`.`.`.`.`.P.J.J.J.J.J.J.J.J.J.J.J.J.J.J.J.Q.Q.Q.Q.Q.Q.Q.Q.Q.Q.Q.`.`.Q.Q.Q.G.G.G.G.G.G.G.G.G.G.G.G.G.G.G.G.Q.Q.F.J.J.J.Q.Q.~.~.~.~.).~.Q.).~.~.~.Q.Q.`.`.`.`.`.`.`.Q.J.~.Q.~.J.~.J.~.J.~.J.Q.J.Q.J.Q.J.Q.Q.|.|.|.).].].].].|.].].].|.|.|.|.|.~.].~.].).|.).].).].~.].~.|.|.|.|.|.|.|.|.|.|.#X|.|.|.|.Q.Q.Q.`.'.'.'.`.`.`.`.`.G.Q.`.|. X].|.).).).).~.~.~.~.|.).].~.).).).|._.}.}.}.}.}.}.}.}.}.}.}.}.}.}._.Q.).).).Q.).).).).Q.).).).).Q.).Q.~.~.~.).).).).).).).).).).).).Q.Q.Q.Q.Q.Q.Q.Q.Q.Q.Q.Q.Q.Q./.Q.J.J.~.~.~.].].|.`.~.~.)./.(.(./.~.~.~.~.~.~.~.~.].~.~.~.).~.|.].Q.Q.`.Q.`.~.`.J.`.Q.`.Q.`.Q.`.`.J.J.J.J.P.J.J.P.P.P.P.P.P.P.P.P.Q.Q.Q.`.`.`.`.`.`._.'.'.f.f.z.'.",
"g.'.I.g.f.'._._.`.`.`.|.|.|.|.].|.].].].].].[.[.].].].]. X X X X|.|.|.|.|.|.|.|.`.`.`.`.`.`.`.`.`.`.`.`.`.`.`.`.`.`.`.`.`._._.`.`.~.~.~.~.~.~.~.J.J.J.J.J.J.J.J.G.G.G.G.G.G.P.G.P.P.`.`.Q.Q.Q.Q.`.Q.Q.Q.Q.Q.Q.Q.J.J.G.Q.Q.J.Q.G.Q.Q.Q.Q.J.J.J.J.Q.Q.Q.Q.Q.Q.Q.Q.P.P.P.P.`.`.`.`.P.P.`.`.`.`.P.J.P.P.P.P.P.P.P.P.`.`.P.P.P.P.P.P.P.P.P.P.P.P.P.P.P.P.I.I.I.I.I.I.I.P.`.`.`.`.`.P.`.`.`.`.`.`.`.`.`.P.P.P._._._.P.P.P.P.P.P.P.P.P.`.`.`.`.`.`.`.`.`.`.`.`.`.`.`.`.`.`.`.`.`.`.I.`.`.`.'.`.'.`.I.I.`.`.`.`.`.`.`.`.`.`.`.`.`.`.`.`.`.P.`.`.`.`.`.`.f.I.I.P.P.P.P.P.P.K.K.K.K.K.P.K.K.K.K.K.K.K.K.K.P.P.P.P.P.P.P.P.P.P.P.P.P.P.P.P.P.P.P.P.P.P.P.P.P.P.P.P.P.P.P.P.`.`.`.`.`.`.`.`.`.`.P.`.`.`.`.f.`.I.'.I.'.I.`.P.[.`.`.P.`.P.P.P.P.P.P.P.P.P.P.P.P.P.P.P.P.P.P.P.`.`.`.`.I.I.I.I.`.`.`.`.`.`.I.P.P.G.P.G.P.G.P.G.P.G.P.G.P.G.P.G.G.G.G.G.G.G.Q.Q.G.G.G.G.G.G.G.G.G.P.P.P.P.P.f.f.f.P.P.`.Q.G.G.G.G.D.G.P.P.P.P.P.P.P.P.J.J.F.J.J.G.P.P.G.P.P.P.G.P.G.P.G.P.D.P.K.P.P.P.P.P.P.P.P.P.P.P.P.P.P.P.P.P.I.I.I.I.I.I.I.I.I.P.P.P.I.I.I.I.P.P.I.I.I.I.I.I.'.'.'.'.'.'.'.",
"g.I.g.g.g.I.'.}.f.a.f.a.G.G.G.G.P.K.D.D.D.D.K.K.D.D.D.D.K.K.K.K.f.f.f.f.f.f.f.f.I.I.I.I.I.I.I.I.I.I.I.I.f.f.f.f.I.I.I.I.I.I.I.I.P.P.P.P.P.P.P.P.P.P.P.U.P.P.P.P.`.`.`.P.I.I.I.I.I.I._.`._._._._.`.`.`.`.`.`.`.`.`.`.`.`.`._._._.[.[._._.[.[.[.[.P.P.P.P.P.P.P.P.P.P.P.P.P.P.P.P.P.P.P.P.P.P.P.P.P.P.P.P.P.P.P.P.P.P.P.P.P.P.f.P.U.P.P.P.P.P.P.P.I.I.I.I.I.I.I.I.I.P.`.`.P.P.P.I.P.P.P.P.P.P.P.P.P.P.P.P.P.P.P.P.P.P.P.P.P.P.P.P.P.I.P.P.P.P.P.P.P.P.P.P.P.P.P.I._.'.'.'.'.'.I.I.'.'.'.'.'.'.I.I.'.'.'.'.'.'.'._._._._.`.`.`.`.`.P.P.I.I.I.I.I.I.I.I.I.I.I.I.I.I.I.P.L.I.L.L.I.I.Y.Y.Y.Y.Y.Y.Y.Y._._._._.'._.'._._._._._._._._._.'.'.'.'.'.'.'.'.'._.'._.'._.'._._._._._._._.'._.I.I.I.I.'.`.`.I.I.I.I.I.I.I.I.I._.`.P.I.P.I.P.P._.'.'.'.'.'.'.'.'.'.'.'.'.'.'._._._._._.`.`.`.`._._._._.[.[.`.`._._._._._._._._._._._._._._._._._._.`.`.`.`._._.}._._.[.[.[.[.}.[._._.'.'.'.'.'.'._.'._.[.[.`.U.K.K.K.K.P.P.P.P.I.P.P.P.P.G.G.G.P.P.P.P.P.P.K.P.P.P.P.P.P.P.P.P.P.P.P.P.P.P.P.P.P.P.P.P.P.P.P.I.I.I.I.I.I.I.I.I.I.I.I.I.I.I.I.I.I.I.I.I.'.'.'.'.I.'.'.'.'.'.'.'.",
"'.g.g.I.I.I.I.I.I.I.I.I.P.P.P.P.P.I.I.I.I.I.I.I.I.I.I.I.I.I.I.I.I.'.=XI.I.I.'.'.I.I.I.I.I.I.I.I.I.I.I.I.I.I.I.I.I.I.I.I.I.I.I.I.I.I.I.I.I.I.I.I.I.I.I.I.L.L.L.L.I.I.I.I.L.L.L.L.L.L.I.I.I.P.`.`.I.I.I.I.I.I.I.I.I.f.f.f.I.I.I.I.d.f.f.f.f.f.f.f.I.I.I.I.I.I.I.I.I.P.I.I.P.P.P.P.P.P.P.P.P.I.I.I.I.P.P.I.I.I.P.P.I.I.I.I.I.I.I.I.P.P.P.P.P.f.f.f.I.I.I.I.I.I.I.I.I.I.I.I.I.I.s.s.I.I.I.I.I.I.I.I.I.I.I.I.I.I.I.I.I.I.I.Y.I.Y.I.I.I.I.I.I.I.I.I.I.I.I.I.I.I.I.I.I.I.I.I.I.I.I.I.I.g.g.g.g.g.g.g.I.g.z.g.g.g.I.I.I.I.I.I.P.P.I.I.I.I.I.I.I.I.g.g.g.I.I.I.I.I.I.I.I.I.I.I.I.I.I.I.I.L.L.L.L.L.L.L.L.I.I.I.I.I.I.g.I.f.I.f.I.f.I.f.f.I.I.g.I.g.I.g.I.g.f.g.f.g.f.g.f.f.f.I.f.f.f.f.f.'.'.'._.'.I.I.I.I.I.I.I.I.I.I.I.f.I.I.I.I.I._.[.I.I.I.I.g.I.I.I.I.I.I.I.I.I.I.I.P.P.P.P.P.P.P.P.P.P.P.P.P.P.P.P.I.g.I.I.I.I.g.g.g.I.I.I.I.I.I.I.I.I.I.I.I.I.I.I.f.f.I.I.I.I.I.I.I.I.I.f.g.g.g.g.f.f.g.I.I.I.f.K.P.P.P.P.P.P.P.P.P.P.P.P.P.P.P.P.P.P.P.P.P.P.P.P.P.U.P.P.P.P.P.P.P.P.P.P.P.P.P.P.P.P.P.P.P.P.P.P.I.I.I.I.I.I.I.I.I.I.I.I.I.I.I.I.I.I.I.I.g.g.I.I.'.'.I.g.'.I.I.I.",
"'.I.I.I.I.I.I.I.I.P.I.I.P.P.P.P.I.I.I.I.L.I.I.I.I.I.I.I.I.I.I.I.I.I.g.L.d.L.g.I.I.I.I.I.g.I.I.I.I.I.I.I.L.I.L.I.I.I.g.I.L.L.L.d.I.I.I.I.I.I.I.I.I.I.I.I.I.I.I.I.P.P.I.I.L.L.L.L.I.I.I.I.P.`.`.`.I.I.I.I.I.I.I.I.I.I.I.I.I.I.I.I.I.I.I.I.I.I.I.I.I.I.I.I.I.I.I.I.I.P.I.I.I.I.I.P._.P.I.P.I.I.I.I.I.I.I.I.I.I.I.I.I.I.I.I.L.L.s.f.P.P.`.`.`.`.`.`.`.P.`.I.'.I.'.I.I.P.P.P._.I._.I.P.P.P.P.I.I.I.P.I.P.P.P.P.P.P.P.P.P.P.P.P.P.P.I.I.I.I.I.I.I.I.I.I.I.I.I.I.I.I.I.I.I.I.I.I.I.I.I.I.I.I.I.I.I.I.I.'.'.'._._._._._.'.I.I.P.P.P.P.P.I.L.I.I.I.I.I.I.g.I.I.I.I.I.I.I.I.I.I.I.I.I.I.P.I.I.I.I.I.I.I.I.I.I.I.I.I.I.I.I.I.I.I.I.I.I.I.I.I.I.I.I.I.I.I.I.I.I.I.I.I.I.I.I._.I._._._._._._.f.I.I.I.I.I.I._.I.P.I.P.P.P.P.P.P.P._.I.I.I.f.I.I.I.I.I.I.I.I.I.I.I.I.I.I.I.I.I.I.P.P.P.P.P.P.P.P.P.P.P.P.P.P.P.I.I.I.I.L.I.I.I.I.I.I.I.I.I.I.I.I.I.I.I.I.I.'.I.I.I.I.I.I.I.I.I.I.I.I.I.I.L.L.L.I.I.I.I.I.I.I.P.P.P.P.P.P.P.P.P.J.J.J.J.P.J.J.J.J.P.P.P.P.P.P.P.P.P.P.P.P.P.P.P.P.P.P.P.P.P.P.P.P.P.P.P.P.P.P.P.I.I.I.I.`.I.`.I.`.P.P.P.`.I.`.I.`.`.`.`.`.`.`.`.}.`.`.I.`.`.|._.",
"`.`.`.`.`.P.`.P.P.G.P.P.P.P.K.P.P.P.P.P.I.P.P.P.P.P.P.P.`.`.P.P.P.P.I.I.I.P.P.P.P.P.P.P.I.P.P.I.I.I.I.P.I.P.I.P.I.I.I.I.I.I.I.I.I.I.I.I.I.I.I.I.L.I.I.I.d.d.I.Y.Y.P.P.L.L.L.L.K.I.I.L.P.U._.].P.I.I.I.I.I.I.I.I.I.I.I.I.I.I.I.I.I.I.I.I.I.I.I.I.I.I.I.I.I.I.I.I.P.P.I.P.I.P.I.P.`.P.`.P.I.P.`.P.P.P.P.P.P.P.P.P.P.P.I.I.I.P.I.P.P.P.`.P.`.P.`.P.`.I.`.`.`.`.`.`.`.P.`.P.`.P.`.P.P.P.P.P.P.P.P.P.P.P.P.P.P.P.P.P.P.P.P.P.P.P.P.P.P.P.`.P.`.P.`.P.`.P.`.P.`.P.`.P.`.P.`.P.`.P.P.P.P.P.P.P.`.P.`.`.`.`._.`.`.`.`.P.P.`.P.`.P.P.P.P.s.P.Y.Y.P.K.P.P.P.P.P.P.P.I.`.`.`.`.`.`.`.`.`.`.`.P.`.P.`.P.`.P.P.P.P.P.P.P.P.P.P.P.P.P.`.P.`.P.P.P.P.P.P.P.P.P.I.P.I.P.I.P.I.P.P.P.P.P.P.P.P.P.P.P.P.P.P.P.P.P.P.P.`.P.`.P.`.P.P.P.I.I.I.I.I.I.I.P.I.P.I.P.I.P.P.P.P.P.P.P.P.P.I.I.I.I.I.I.I.I.I.I.I.I.I.I.I.L.I.I.P.P.P.P.I.P.P.P.P.P.I.P.P.P.I.I.I.I.I.I.I.I.I.I.I.I.I.I.I.I.K.K.K.K.P.I.I.L.I.I.I.I.P.P.P.P.U.].|.~.F.S.p.p.p.p.F.F.W.W.Q./.~.~.~.~.~.~.~.~.Q.Q.Q.~.).).).).|.|.|.|.|.|.|.|.).~.Q.~.Q.~.Q.Q.Q.`.`.`.`._.{._._._._._.`.`.`._.`.`.`.`.`.`.`.`.Q.Q.Q.Q.Q.Q.Q.Q.",
").).).).~.~.).~.].].].].].].].].Q.`.Q.`.`.`.`.G.G.G.Q.G.Q.Q.Q.G.J.G.P.P.P.P.P.P.P.P.P.P.P.P.P.P.P.P.P.P.G.G.P.P.D.G.D.D.P.P.P.K.I.L.L.L.L.K.I.I.I.I.I.I.P.P.I.K.P.G.P.P.P.L.L.L.I.P.P.P.U.J.F.S.G.P.P.I.I.P.P.P.I.P.P.P.I.I.I.I.P.P.P.P.P.P.P.P.I.I.P.P.P.P.I.P.`.Q.`.`.`.`.`.`.P.G.G.G.G.G.a.G.G.G.G.G.G.G.G.G._._._._._._._._.|.|.|.|.|.|.|.|.`.`.`.`.`.Q.Q.Q.`.Q.Q.Q.Q.J.G.J.`.`.`.`.`.`.`.`._._._._._._._._._._._._._._._._.`.`.`.`._._._.`.|.|.|.|.|._.|.|.|.|.|.|.|.].].].].].].].|.|.|.).Q.Q.Q.Q.).).|.|.|.`.P.P.P.U.P.P.P.P.P.P.P.P.U._.P.`.P.J.Q.Q.Q.Q.Q.Q.Q.Q.Q.Q.Q.Q././././.Q.Q.Q.Q.|.|.|.|.).|.).).~.~.~.~.).).).).|.|.|.|.|.|.|.|.|.|.|.|.|.|.|.|.].].].].].].].].].].].].].].].].F.J.J.Q.Q.Q.Q.Q.Q.Q.Q.Q.`.`.`.`._.|.].].].].|.|.|.|.|.|.|.|.|._.P.f.P.I.I.I.I.I.I.I.I.I.P.P.I.P.P.G.G.G.G.G.G.G.G.G.G.G.P.P.U.P.P.f.P.P.P.P.P.P.P.f.P.P.P.P.P.P.D.D.G.G.P.K.P.Y.P.P.P.P.P.P.P.P.|.~.F.5.1.E E H H H +.*.*.<.<.<.<.<.<.<.<.<.<.<.<.<.<.<.6.6.6.6.5.5.5.5.5.5.5.5.W.W.W.W.W.W.W.W.^.^.Q.Q.Q././././././././././././.).).).|.|.).).).)././././.).).",
"7.7.7.7.7.7.7.7.H.H.H.F.F.F.F.F././././././././.).).).).).).).).F.G.J.J.J.J.J.J.J.J.J.J.J.J.J.J.~.~.~.J.J.J.J.J.J.J.~.~.~.].].].U.P.P.P.P.P.P.P._.P.P.P.U._.P.G.D.G.G.P.P.P.P.K.K.P.P.U.~.~.).).~.`.`._._.`.`.`.`.`.`.`.`.`.`.`.P.`.P.`.P.P.`.`.P.P.P.P.J.J.J.Q.Q.Q.Q.Q.Q.Q.Q.Q.|.|.|.|.|.|.|.|.|.|.|.|.|.|.|.|.Q.F.F.F.F.Q.Q.Q.Q.Q.Q./././././.Q.Q.Q.Q.).).).).Q./.Q./.Q./.Q.Q.W.W.W.W.W.W.W.G.F.S.S.S.S.S.F.S.a.a.S.S.S.a.a.a.p.p.p.p.p.p.p.p.p.p.p.p.a.a.a.p.7.7.7.7.7.7.7.7.7.7.7.7.7.7.7.7.7.6.6.6.7.7.S.S.|.~.J.J.J.].U.P.P.P.P.G.P.J.J.~.y.7.7.7.7.5.5.5.7.7.7.7.7.7.7.7.7.7.7.7.7.7.7.5.7.m.m.m.m.m.m.m.7.7.7.7.7.7.7.7.S.S.S.S.S.S.S.S.F.F.F.F.F.F.F.F.F.S.H.H.H.H.S.F.H.H.H.H.H.H.H.H.~.Q.Q.Q././././.Q.Q.Q.Q.Q.Q.Q.Q.Q.Q.W.W.W.W.W.W.Q.Q.W.Q.W.W.Q.Q.|.].].].].].].].F.F.J.J.J.J.F.F.F.J.J.J.J.J.J.J.~.~.~.~.J.J.J.J.`.`.`.`.`.|.|.|.`.`.`.`.`.`.|.|.J.R.OXU.J.G.P.P.P.P.P.P.P.P.P.`.|.W.6.E G G G e G D G G G O.O.O.G G G G G G G G G G G G G G *.*.O.O.G G O.O.O.O.G G G G G G G G H H H H +.+.+.+.<.<.<.<.*.*.<.<.6.6.6.6.6.6.6.6.7.7.7.7.6.3.6.v.",
"E E E E E E E E E E E E E Q E E *.-.<.<.<.<.<.<.6.6.6.6.6.6.6.6.7.b.b.b.b.b.b.b.b.b.m.m.m.m.b.m.H.H.H.H.H.H.H.H.H.H.!.!.!.!.)./.~.~.J.J.J.Q.~.~.].Q.J.J.~.].].~.J.J.J.P.P.P.P.P.D.P.U.J.J.H.!.!.W.F.W.F.F.F.W.F.F.F.F.F.F.F.p.F.p.p.p.p.p.p.p.p.p.p.p.p.p.p.p.7.7.7.7.7.7.7.7.7.5.5.5.5.5.1.1.5.5.5.6.6.6.6.6.6.6.6.6.6.6.6.6.6.1.<.<.<.<.<.<.<.<.<.<.<.<.<.<.<.<.<.<.<.<.<.<.<.<.<.<.<.<.<.<.<.<.^ ^ ^ ^ ^ ^ ^ H H H E E E H H H H H H H H H H E E E E E E E E E E E E E E E E E E E E E E E R R R G G G E E ^ ~.~.~.~.Q.P.P.P.P.P.G.G.~.~.F.b.E E E R R G G G G O.G O.G G G G O.O.O.O.O.O.O.G E E E E E E R R E E E E E E E E E E E E E E E E E E E E E E E E E E E E Q Q Q E E E E E Q Q Q Q *.*.*.*.<.*.<.<.<.<.<.<.<.<.<.<.6.2.6.2.2.2.2.2.<.2.<.2.<.2.<.2.2.2.2.2.2.2.2.2.3.3.6.3.3.3.2.3.m.m.7.m.7.b.7.b.m.m.m.m.m.m.m.m.p.p.p.p.F.F.F.W.W.W.W.W.W.Q./.Q.!.H.H.H.J.J.J.P.P.P.P.P.P.P.I.`.(.6.*.G G *.&.&.;.;.;.&.;.;.;.;.&.*.&.&.&.&.&.*.&.&.&.&.&.&.*.*.O.O.O.O.O.O.O.O.&.&.O.O.O.O.O.O.G G G G O.O.O.O.O.O.O.O.O.O.O.O.G G G G G A G A G Y G Y G Y G Y ",
"R Y R R R R R R R R R R Y Y Y R G G G G G G G G G G G G G G G G R R R R R W W W R R R R R R R R E Q Q Q Q Q Q Q Q *.*.*.-.-.-.2.7.5.6.6.6.6.5.5.7.7.7.7.5.7.W.~.~.].].P.P.P.P.U.P._.].F.5.E E E *.*.*.E +.H *.*.*.E *.E +.E *.H *.*.*.*.*.E *.*.*.E *.E *.E *.*.*.*.*.*.*.*.*.*.G G G G G G G G G G G G G G G G R R R R R R R R G G G G G G G G G G G G G G G G D D D D D D D D G G G G G G G G R R R R R R R R G G G G G G G G G G G G G R R G R R E E R R R R R R R R R R R R R R R R R R R R &.&.R G G R E E 5.F.).].`.G.P.`.`.P.P.`.).F.3.Q G G G R G &.&.&.O.O.O.O.O.O.O.O.&.&.&.&.&.&.&.&.R R R R R R R R R R R R R R R R G G G G G G G G R R R R G R G R Y R R R R R R R Y Y Y Y R R R G D D D D D D D D D G G G D G D D G R G R G R G R G G G G G G G R i i i i u i i u i i i i a a a i *.R *.R E R R R *.*.*.*.*.*.*.*.G G G H H E E E H H E E *.*.*.*.Q T Y ! 7.Q.].`.`.P.I.I.`.`.`.`.4.*.G e &.;.;.l ;.;.;.;.;.;.;.&.;.;.;.;.;.;.;.;.&.&.&.&.&.&.&.&.&.&.&.&.&.&.&.&.>.>.>.:.:.:.>.;.*.*.*.*.*.*.;.;.;.;.;.;.*.*.*.*.R R R R R R R R *.R R R R W R W ",
"W W W R *.*.R *.&.&.&.&.&.&.&.&.;.=.;.;.;.;.:.=.*.&.&.&.*.&.*.&.i i i i i R R R i i i e e e e e G G G G G G G e e e G G G R R R R G G G G G G E E *.*.E G E -.6.Q.~.].P.P.P.`.[.P._.|.F.1.H A G G O.G e D G O.O.O.&.O.&.O.O.O.O.O.O.O.O.O.O.O.O.O.O.O.O.O.O.O.O.O.O.O.O.O.O.O.O.&.&.&.&.&.&.&.*.*.&.*.&.*.&.*.&.&.&.&.&.&.R R R &.&.R R R R R &.:.:.;.:.:.:.:.:.:.:.:.:.:.:.:.:.&.&.&.&.&.&.&.&.&.&.&.&.&.&.&.&.&.&.&.&.&.&.&.&.&.&.;.&.&.&.&.&.;.;.;.;.;.;.&.&.&.&.&.&.&.&.&.&.&.&.&.&.&.&.&.&.=.;.;.&.*.R *.*.E 3.Q.|.`.`.`.`.`.`.`.`.).F.*.C G R &.&.;.;.;.;.&.*.&.*.&.*.&.*.&.&.*.*.&.*.&.&.;.;.;.;.;.;.;.;.&.;.&.&.&.&.&.&.&.&.&.&.&.&.&.&.&.&.;.&.&.&.&.&.*.R *.*.*.*.&.&.&.R &.R &.R &.&.:.>.:.:.:.:.:.:.>.:.:.>.>.>.>.;.&.&.&.&.&.&.&.&.*.&.*.&.*.&.*.&.l z z z x x x x l k l l x x x l l &.O.&.O.&.O.&.O.O.O.O.O.&.O.G e e G e G G G R G e G G G G G R Y A : S 1.F.Q.Q.`.`.'.'.'.'.'.`.*.*.O.O.&.;.l l l l l l &.&.&.&.&.&.l &.l &.&.&.&.&.&.&.&.&.&.&.&.&.&.&.&.&.&.&.l l l &.l l g g i i i i i i i i R R R R R i R R *.*.;.*.*.*.*.*.;.*.;.*.*.*.*.*.",
"R R R &.&.&.&.&.&.&.&.&.&.&.&.&.&.i R i i i i i i i i i i i R i ;.;.;.;.;.;.;.;.;.;.&.&.;.;.;.;.;.;.&.&.;.;.;.;.&.&.&.&.&.&.;.;.*.&.G G G G &.*.G G G G G G &.R 7.F.`.`.`.P.`.`.a.`.|.Q.5.*.E *.;.;.&.&.&.;.>.>.>.>.>.>.>.>.>.>.&.;.&.;.&.;.&.;.;.;.;.;.;.;.;.;.;.;.;.;.;.;.;.;.l l l l l l l l l l l l l l l l l l l l l l l l ;.&.&.&.&.&.;.;.l l l l l l l l l l l l l l l h ;.;.;.;.;.;.;.;.l l l l l l l l l l l l l l l l l l l l l l l l l l ;.l l l l l &.&.&.&.&.&.&.&.&.&.&.&.&.&.&.&.l l l &.&.*.*.*.H / i.a.`._.`.`.`.`._.{./.7.*.D &.&.l l l l l l &.R &.R &.R &.R &.R &.R &.R &.&.&.&.&.&.&.&.&.&.&.&.&.&.&.&.&.&.;.;.;.;.;.;.;.;.;.;.;.;.;.;.;.;.&.&.&.&.&.&.&.l &.&.&.&.&.&.&.&.O.O.O.&.l l h h h h k k k k k g ;.&.&.&.&.&.&.&.&.;.&.;.&.;.&.&.g g l l l l l l ;.;.>.>.>.>.;.;.;.;.&.;.&.;.&.;.&.&.&.&.&.&.&.&.;.&.;.&.;.;.;.;.&.&.;.&.;.&.;.&.*.E R Y E 5.p.`.`.`.'.'.z.z.z.`.+.*.*.*.*.&.l l l l l l &.&.&.&.&.&.&.&.&.&.&.&.;.;.&.&.&.&.;.;.&.&.&.&.&.&.&.&.;.;.;.;.;.;.;.;.&.&.&.&.&.&.W W =.=.=.=.=.=.=.=.i i l i l i l i &.&.&.&.&.R &.R ",
"&.&.&.&.&.&.&.&.&.&.&.&.&.&.&.&.;.;.&.&.&.&.&.&.&.&.l l &.&.&.&.l l l l l l l ;.l l l l l l l &.l &.l l l &.l l &.&.&.&.&.&.&.&.&.;.&.&.&.&.;.;.;.&.&.;.;.;.l e <.i.Q.|.`.I.I.`.a.`.|./.<.H G &.;.l l l l l l ;.l l l l h h l h l l l l l l l l c c c c c c c c c c l l c c c c c c c c c c l l l l l l l l l l l l l l l l l l l l l l l l l l &.l l l l l l l c c ;.c ;.c ;.l l l l l c l l l l l l l l l l l l l l l l l l l l l l l l l l l c c c c c c c c &.&.&.&.;.&.&.&.&.&.&.&.&.*.*.*.e i l &.*.*.*.*.E H P i.`. X}.I.'.'._._.Q.7.*.G *.;.;.c l l l l &.R R R R R R R i i R R R R R &.&.&.&.&.&.&.&.&.&.&.&.&.&.&.&.&.&.l l l l l l l ;.c ;.c ;.c ;.;.l &.l &.&.l l g &.&.&.&.&.&.&.&.;.;.;.;.;.;.;.c c l l l l l l l ;.;.;.;.;.;.;.;.&.&.&.&.&.&.&.&.#.#.&.&.&.&.&.&.O.O.O.&.&.&.&.&.;.;.;.;.;.;.;.;.h l l l l l &.&.l l l l l l l l l &.l l l l l R Y R R G G <.F. X`.`.'.'.z.'.'.`.F G R R &.G &.&.l x l l &.&.&.;.&.&.&.&.&.&.&.&.l l l l l l l l &.&.&.&.&.&.&.&.&.&.&.&.&.&.&.&.i i i i i i i i i i i i i i i i &.&.;.;.;.;.&.&.&.&.&.&.&.&.*.*.",
"&.&.&.&.&.&.&.&.&.&.&.&.&.&.&.&.&.&.&.&.&.&.&.&.&.&.&.&.&.&.&.&.&.&.&.&.l l l &.&.&.l l l &.&.&.&.&.&.&.&.&.&.&.&.&.&.&.&.&.&.&.&.&.&.l l l &.i &.:.:.G e l x a G 5.Q.].P.P.P.I.P.G.).W.*.G &.l l i e :.e >.;.l &.&.&.&.&.&.&.&.l l l &.&.&.l l l &.&.&.&.&.&.l &.l l l &.&.&.&.l l &.&.&.&.&.l &.&.&.&.&.&.&.&.&.&.&.&.&.&.&.&.&.&.&.&.&.&.&.&.&.&.&.&.&.&.&.&.&.&.&.&.&.&.&.&.;.&.&.&.&.&.&.&.&.&.&.&.&.&.&.&.&.&.&.&.&.&.&.&.&.&.&.&.&.&.&.&.&.&.&.&.&.&.&.&.&.&.&.&.&.&.&.&.l l ;.l 9 G <.^ S.7.2.E G R &.*.*.G H p._._.I.I.I.I.I.P.|.7.E R *.e ;.l ;.,.g ;.&.&.&.&.&.&.&.&.&.&.&.&.&.&.&.&.&.&.&.&.&.&.&.&.&.&.&.&.&.&.&.&.&.&.&.&.&.&.&.&.&.&.&.&.&.&.&.&.&.&.&.&.&.&.&.&.&.&.&.&.&.&.&.&.&.&.&.&.&.&.&.&.;.&.&.&.&.&.&.&.&.&.&.&.&.&.&.&.&.&.&.&.&.&.&.&.&.&.&.&.&.&.&.&.&.&.&.&.&.&.&.&.&.&.&.&.&.&.&.&.&.&.&.&.&.&.&.&.&.&.&.&.&.&.&.&.l g &.;.&.G R :.G *.R R R G <.).Q.`.'.l.`._.P.G.<.*.=.e G 4.+.O.l z z l &.&.&.l &.&.&.&.&.&.&.&.&.&.&.&.&.&.&.&.&.&.&.&.&.&.&.&.&.&.&.&.&.&.&.&.&.R R R R R R R R R R R R R R R &.&.&.&.&.&.&.&.&.&.&.&.&.&.&.&.",
"&.&.&.&.&.&.&.&.&.&.&.&.&.&.&.&.&.&.&.&.&.&.&.&.&.&.&.&.&.&.&.&.&.&.&.&.l l &.&.&.&.l &.l &.&.&.&.&.&.&.&.&.&.&.&.&.&.&.&.&.&.&.&.;.;.l l l l e G *.*.G i l x a G 6./.~.P.P.P.I.P.Q.|.W.*.O.;.l l i i ,.e =.&.i &.&.&.&.&.&.&.&.&.&.l &.&.&.&.&.l l &.&.&.&.l l &.&.&.l &.&.&.&.l l &.&.&.&.l l &.&.&.&.&.&.&.&.R R &.&.&.&.&.&.&.&.&.&.&.&.&.&.&.&.&.&.&.&.&.&.&.&.&.&.&.&.&.&.&.&.&.&.&.&.&.&.&.&.&.&.&.&.&.&.&.&.R &.R R &.&.&.&.&.&.&.&.&.&.&.&.&.&.&.&.&.&.&.&.&.&.&.&.&.l l l l &.G 2.F.a.J.G.S.( R i i i &.G E p.`.I.I.I.L.I.I.P.|.7.E R *.e ;.l ;.:.G &.&.&.&.&.&.&.&.&.&.&.&.&.&.&.&.&.&.&.&.&.&.&.&.&.&.&.&.&.&.&.&.&.&.&.&.&.&.&.&.&.&.&.&.&.&.&.&.&.&.&.&.&.&.&.&.&.&.&.&.R &.&.&.&.&.&.&.&.&.&.&.&.&.&.&.&.&.&.&.&.&.&.&.&.&.&.&.&.&.&.&.&.&.&.&.&.&.&.l l &.&.&.&.l l &.l &.&.&.&.&.&.&.&.&.&.&.&.&.&.&.&.&.&.&.&.&.R &.&.&.&.&.&.&.;.;.;.*.*.*.*.G &.R i *.Y <./.Q.`.`.I.I.`.P.S.E R x i G 4.5.+.l z z l #.#.&.l &.&.&.&.&.&.&.&.&.&.&.&.&.&.&.&.&.&.&.&.&.&.R R &.&.&.&.&.&.&.&.&.&.&.&.&.&.&.&.&.&.&.&.&.&.&.&.&.&.&.&.&.&.&.&.&.&.&.&.&.&.&.&.",
"&.&.&.&.&.&.&.&.&.&.&.&.&.&.&.&.&.&.&.&.&.&.&.&.&.&.&.&.&.&.&.&.l &.&.&.&.&.&.&.&.&.&.&.&.&.&.&.l &.l &.&.l l l l l &.&.l &.&.&.&.&.&.l l l i G G G G G l x x a G 6.Q.~.P.P.P.I.`.Q.).W.*.O.;.l l i i ,.e =.&.l &.&.&.&.&.&.&.&.&.&.&.&.&.&.&.&.&.&.&.&.&.&.&.&.&.&.&.&.&.&.&.&.l &.&.&.&.&.l l &.&.&.&.&.&.&.&.&.&.&.&.&.&.&.&.&.&.&.&.&.&.&.&.&.&.&.&.&.&.&.&.&.&.&.&.&.&.&.&.&.&.&.&.&.&.&.&.&.&.&.&.&.&.&.&.&.&.&.&.&.&.&.&.&.&.&.&.&.&.&.&.&.&.&.&.&.&.&.&.&.&.&.&.&.&.;.c l l l &.R 7.).~.].U.~.m.Q Y i W &.e E 7.|.P.I.I.L.I.I.P.|.7.E R &.e ;.l ;.,.G *.&.&.&.&.&.&.R R R R &.&.&.&.&.&.&.&.&.&.&.&.&.&.&.&.&.&.&.&.&.&.&.&.&.&.&.&.&.&.&.&.&.&.&.&.&.&.&.&.&.&.&.&.&.&.&.&.R &.R R &.&.&.&.&.&.&.&.&.&.&.&.&.&.&.&.&.&.&.&.&.&.&.&.&.&.&.&.&.&.&.&.&.&.&.&.&.&.&.&.&.&.&.&.&.&.&.&.&.&.&.&.&.&.&.&.&.&.&.&.&.&.&.&.&.&.&.R &.&.&.&.&.&.g ;.;.&.*.*.*.G &.&.&.l *.Y <./.Q.`.`.I.P._.P.S.H R a a G 5.j.+.l z z l #.#.&.l &.&.&.&.&.&.&.&.&.&.&.&.&.&.&.&.&.&.&.&.&.&.&.R R &.&.&.&.&.&.&.&.&.&.&.&.&.&.&.&.&.&.&.&.&.&.&.&.&.&.&.&.&.R R R R &.&.&.&.&.&.",
"&.&.&.&.&.&.&.&.&.&.&.&.&.&.&.&.&.&.&.&.&.&.&.&.&.&.&.&.&.&.&.&.l &.&.&.&.&.&.&.&.&.&.&.&.&.&.&.l l l &.&.&.l l l l &.&.&.&.&.&.;.&.&.;.;.l R *.<.<.*.G R ;.x a G 6.Q.~.P.P.P.I.`.Q.Q.W.*.O.;.l &.i i x.e *.&.&.&.&.&.&.&.&.&.&.&.&.&.&.&.&.&.&.&.&.&.&.&.&.&.&.&.&.&.&.&.&.&.&.&.&.&.&.&.&.&.&.&.&.&.&.&.&.&.&.&.&.&.&.&.&.&.&.&.&.&.&.&.&.&.&.&.&.&.&.&.&.&.&.&.&.&.&.&.&.&.&.&.&.&.&.&.&.&.&.&.&.&.&.&.&.&.&.&.&.&.&.&.&.&.&.&.&.&.&.&.&.&.&.&.&.&.&.&.&.&.&.&.&.&.&.&.;.;.c ;.l l W G 6./.Q.P.P.].F.3.W R =.&.G E 7.|.P.I.I.I.I.I.P.|.7.E R &.e ;.l ;.6.*.&.&.&.&.&.&.&.R &.R R &.&.&.&.&.&.&.&.&.&.&.&.&.&.&.&.&.&.&.&.&.&.&.&.&.&.&.&.&.&.&.&.&.&.&.&.&.&.&.&.&.&.&.&.&.&.&.R &.&.&.&.&.&.&.&.&.&.&.&.&.&.&.&.&.&.&.&.&.&.&.&.&.&.&.&.&.&.&.&.&.&.&.&.&.&.&.&.&.&.&.&.&.&.&.&.&.&.&.&.&.l &.&.&.&.&.&.&.&.&.&.&.&.&.&.&.&.&.R &.&.&.&.&.&.g >.&.e R 2.2.G &.;.&.l *.R <./.Q.`.`.I.P._.P.F.G R a &.G 5./.+.l x z l #.#.&.l &.&.&.&.&.&.&.&.&.&.&.&.&.&.&.&.&.&.&.&.&.&.&.&.R &.&.&.&.&.&.&.&.&.&.&.&.&.&.&.&.&.&.&.&.&.&.&.&.&.&.&.&.&.R &.R R &.&.&.&.&.&.",
"&.&.&.&.&.&.&.&.&.&.&.&.&.&.&.&.&.&.&.&.&.&.&.&.&.&.&.&.&.&.&.&.l l &.&.&.&.&.&.l l &.&.&.l l l &.&.&.&.&.&.&.&.l &.&.&.&.l &.&.;.O.&.;.&.&.*.2.B.7.<.H G &.l l G 6.Q.~.`.P.P.I.`.Q.`.W.*.O.;.&.&.R R n.e *.R *.&.&.&.&.&.&.&.&.&.&.&.&.&.&.&.l &.&.&.&.&.&.&.&.&.&.&.&.&.&.l l &.&.&.&.&.&.&.&.&.&.&.&.&.&.&.&.&.&.&.&.&.&.&.&.&.&.&.&.&.&.&.&.&.&.&.&.&.&.&.&.&.&.&.&.&.&.&.&.&.&.&.&.&.&.&.&.&.&.&.&.&.&.&.&.&.&.&.&.&.&.&.&.&.&.&.&.&.&.&.&.&.&.&.&.&.&.&.&.&.&.&.&.&.&.;.c >.l l i G 6.Q.Q.P.P.].~.m.*.R =.&.G E m.~.P.I.I.I.I.I.P.|.7.E R &.e ;.i ;.N.*.*.&.&.&.&.&.&.&.&.&.&.&.&.&.&.&.&.&.&.&.&.&.&.&.&.&.&.&.&.&.&.&.&.&.&.&.&.&.&.&.&.&.&.&.&.&.&.&.&.&.&.&.&.&.&.&.&.&.&.&.&.&.&.&.&.&.&.&.&.&.&.&.&.&.&.&.&.&.&.&.&.&.&.&.&.&.&.&.&.&.&.&.&.&.&.&.&.&.&.&.&.&.&.&.&.&.&.&.&.&.&.l l &.&.&.&.&.&.&.&.&.&.&.&.&.&.&.&.&.&.&.&.&.&.&.&.&.:.;.G -.C.W.6.*.;.R R *.G *./.Q.`.`.I.P._.P.F.E &.a =.G 5.|.+.&.x x &.#.#.&.l &.&.&.&.&.&.&.&.&.&.&.&.&.&.&.&.&.&.&.&.&.&.&.&.&.&.&.&.&.&.&.&.&.&.&.&.&.&.&.&.&.&.&.&.&.&.&.&.&.&.&.&.&.&.&.&.&.&.&.&.&.&.&.&.",
"&.&.&.&.&.&.&.&.&.&.&.&.&.&.&.&.&.&.&.&.&.&.&.&.&.&.&.&.&.&.&.&.l l &.&.&.&.&.&.l l l &.&.l &.l &.&.&.&.&.&.&.&.&.&.&.&.l l &.&.;.O.O.;.*.R -.B././.j.<.G &.l &.G 6.Q.~.`.P.P.I.`.Q.`.W.*.O.;.;.&.R R N.R &.G *.&.&.&.&.&.&.&.&.l l &.&.&.&.&.l l &.&.&.&.&.&.l &.&.&.&.&.&.l l &.&.&.&.&.&.&.&.&.&.&.&.&.&.&.&.&.&.&.&.&.&.&.&.&.&.&.&.&.&.&.&.&.&.&.&.&.&.&.&.&.&.&.&.&.&.&.&.&.&.&.&.&.&.&.&.&.&.&.&.&.&.&.&.&.&.&.&.&.&.&.&.&.&.&.&.&.&.&.&.&.&.&.&.&.&.&.&.&.&.&.&.&.&.;.c l x l W G 7.).].I.I.`.|.F.*.G W &.e E m.~.U.I.I.I.I.I.P.|.7.R R &.i ;.e ;.N.:.G &.&.&.&.&.&.&.&.&.&.&.&.&.&.&.&.&.&.&.&.&.&.&.&.&.&.&.&.&.&.&.&.&.&.&.&.&.&.&.&.&.&.&.&.&.&.&.&.&.&.&.&.&.&.&.&.&.&.&.&.&.&.&.&.&.&.&.&.&.&.&.&.&.&.&.&.&.&.&.&.&.&.&.&.&.&.&.&.&.&.&.&.&.&.&.&.l l &.&.&.&.&.l &.&.&.&.&.&.l l &.&.&.&.&.&.&.&.&.&.&.&.&.&.&.&.&.&.&.&.&.&.&.&.&.&.G G 6.(.).W.O.;.R R *.G *./.Q.`.`.I.P._.U.F.E *.i =.D 5.#X<.&.x l &.#.#.l l &.&.&.&.&.&.&.&.&.&.&.&.&.&.&.&.&.&.&.&.&.&.&.&.&.&.&.&.&.&.&.&.&.&.&.&.&.&.&.&.&.&.&.&.&.&.&.&.&.&.&.&.&.&.&.&.&.&.&.&.&.&.&.&.",
"&.&.&.&.&.&.&.&.&.&.&.&.&.&.&.&.&.&.&.&.&.&.&.&.&.&.&.&.&.&.&.&.&.&.&.&.l l &.&.&.&.&.&.&.&.&.&.&.&.&.l &.l &.&.&.&.&.&.l &.&.&.>.O.O.;.*.R 6.(.Q.|./.5.*.G l &.G 6./.).`.P.P.I.`.`.`.W.*.e ;.&.*.R R B.R R e *.&.&.&.&.&.&.&.&.l l &.&.&.&.l l l l &.&.&.&.l l &.l l &.&.&.&.l &.&.&.&.l l &.&.&.&.&.&.&.&.&.&.&.&.&.&.&.&.&.&.&.&.&.&.&.&.&.&.&.&.&.&.&.&.&.&.&.&.&.&.&.&.&.&.&.&.&.&.&.&.&.&.&.&.&.&.&.&.&.&.&.&.&.&.&.&.&.&.&.&.&.&.&.&.&.&.&.&.&.&.&.&.&.&.&.&.&.&.&.&.;.c l l l W R 7./.`._.I.`.|.F.*.G R &.e E m.~.U.P.I.I.I.P.P.).7.R R *.i ;.e *.B.-.G &.&.&.&.&.&.&.&.&.&.&.&.&.&.&.&.&.&.&.&.&.&.&.&.&.&.&.&.&.&.&.&.&.&.&.&.&.&.&.&.&.&.&.&.&.&.&.&.&.&.&.&.&.&.&.&.&.&.&.&.&.&.&.&.&.&.&.&.&.&.&.&.&.&.&.&.&.&.&.&.&.&.&.&.&.&.&.&.&.&.&.&.&.&.&.&.l l &.&.&.&.l l &.l l l &.&.&.&.&.&.&.&.&.&.&.&.&.&.&.&.&.&.&.&.&.&.&.&.&.&.&.&.&.e D *.B././.W.*.;.&.R R G *.(.Q.`.`.I.P._.U.F.E *.u =.C 5.sX<.&.l l &.*.#.&.l &.&.&.&.&.&.&.&.&.&.&.&.&.&.&.&.&.&.&.&.&.&.&.&.&.&.&.&.&.&.&.&.&.&.&.&.&.&.&.&.&.&.&.&.&.&.&.&.&.&.&.&.&.&.&.&.&.&.&.&.&.&.&.&.",
"&.&.&.&.&.&.&.&.&.&.&.&.&.&.&.&.&.&.&.&.&.&.&.&.&.&.&.&.&.&.&.&.&.&.&.&.l l &.&.&.&.&.&.&.&.&.&.&.&.&.l l l &.&.&.&.&.&.l &.&.&.:.O.O.&.*.*.7.|.W.|.|.p.*.G l &.G 6./.).`.P.P.I.`.`.Q.W.*.e ;.;.&.R R B.R R e ;.*.&.&.&.&.&.&.&.&.&.&.&.&.&.l &.l l &.&.&.&.l l &.&.l l &.&.&.&.l &.&.&.&.l l l &.&.&.&.&.&.&.&.&.&.&.&.&.&.&.&.&.&.&.&.&.&.&.&.&.&.&.&.&.&.&.&.&.&.&.&.&.&.&.&.&.&.&.&.&.&.&.&.&.&.&.&.&.&.&.&.&.&.&.&.&.&.&.&.&.&.&.&.&.&.&.&.&.&.&.&.&.&.&.&.&.&.&.&.&.&.;.c l l l W G 2.W.G._.f.P.|.Q.2.R R &.e E m.~.J.P.P.I._.P.`.).7.R R W i ;.e *.B.-.G &.&.&.&.&.&.&.&.&.&.&.&.&.&.&.&.&.&.&.&.&.&.&.&.&.&.&.&.&.&.&.&.&.&.&.&.&.&.&.&.&.&.&.&.&.&.&.&.&.&.&.&.&.&.&.&.&.&.&.&.&.&.&.&.&.&.&.&.&.&.&.&.&.&.&.&.&.&.&.&.&.&.&.&.&.&.&.&.&.&.&.&.&.&.&.&.l &.&.&.&.&.l l &.&.l l &.&.&.&.&.&.&.&.&.&.&.&.&.&.&.&.&.&.&.&.&.&.&.&.l &.&.&.&.e G 5./.|.).W.E ;.&.&.R G *.(.Q.`.`.I.P._.U.F.E &.8 =.C 5.lX7.R a a &.+.*.&.l &.&.&.&.&.&.&.&.&.&.&.&.&.&.&.&.&.&.&.&.&.&.&.&.&.&.&.&.&.&.&.&.&.&.&.&.&.&.&.&.&.&.&.&.&.&.&.&.&.&.&.&.&.&.&.&.&.&.&.&.&.&.&.&.",
"&.&.&.&.&.&.&.&.&.&.&.&.&.&.&.&.&.&.&.&.&.&.&.&.&.&.&.&.&.&.&.&.&.&.&.&.&.&.&.&.&.&.l l l &.&.&.&.&.&.&.&.&.&.&.&.l l l &.&.&.&.;.;.&.*.G E 5.).`.`.|.W.<.G ;.&.G 7.Q.~.P.P.P.P.I.Q.Q.7.G O.>.&.*.e *.Z.G *.&.G *.*.&.&.l l &.&.&.&.l l l &.&.&.&.&.&.&.l &.&.&.l l &.&.&.&.l l l l &.&.&.&.l l &.&.&.&.&.&.&.&.&.&.&.&.&.&.&.&.&.&.&.&.&.&.&.&.&.&.&.&.&.&.&.&.&.&.&.&.&.&.&.&.&.&.&.&.&.&.&.&.&.&.&.&.&.&.&.&.&.&.&.&.&.&.&.&.&.&.&.&.&.&.&.&.&.&.&.&.&.&.&.&.&.&.&.&.;.;.;.c l l l i G 2./.`.I.I.I.`.).6.G R &.e R 7.~.J.P.P.I.I.P.Q.).7.R R *.e R R R .XE *.&.&.&.&.&.&.&.&.&.&.&.&.&.&.&.&.&.&.&.&.&.&.&.&.&.&.&.&.&.&.&.&.&.&.&.&.&.&.&.&.&.&.&.&.&.&.&.&.&.&.&.&.&.&.&.&.&.&.&.&.&.&.&.&.&.&.&.&.&.&.&.&.&.&.&.&.&.&.&.&.&.&.&.&.&.&.&.&.&.&.&.&.&.&.&.&.&.l l l &.&.&.&.&.&.&.&.l l &.&.&.&.&.&.&.&.&.&.&.&.&.&.&.&.&.&.&.&.&.&.&.l l &.&.e G 7./.Q.Q.Q.6.g *.&.R R *./.Q.a.`.`.P.`.U.7.G &.i W A p.iX|.G i a &.*.*.;.l &.&.&.&.&.&.&.&.&.&.&.&.&.&.&.&.&.&.&.&.&.&.&.&.&.&.&.&.&.&.&.&.&.&.&.&.&.&.&.&.&.&.&.&.&.&.&.&.&.&.&.&.&.&.&.&.&.&.&.&.&.&.&.&.",
"&.&.&.&.&.&.&.&.&.&.&.&.&.&.&.&.&.&.&.&.&.&.&.&.&.&.&.&.&.&.&.&.&.&.&.l &.&.&.&.&.&.l l &.&.&.&.&.l &.&.&.&.&.l &.l l &.&.&.&.c &.;.&.*.R E 5.~.`.`.|.W.<.G ;.&.G 7.Q.).P.P.P.P.I.Q.Q.7.G O.>.&.*.D *.(.G *.*.G *.&.&.&.&.&.&.&.&.&.l l &.&.&.&.&.&.&.&.l &.&.&.l l &.&.&.&.l l l l &.&.&.&.l l &.&.&.&.&.&.&.&.&.&.&.&.&.&.&.&.&.&.&.&.&.&.&.&.&.&.&.&.&.&.&.&.&.&.&.&.&.&.&.&.&.&.&.&.&.&.&.&.&.&.&.&.&.&.&.&.&.&.&.&.&.&.&.&.&.&.&.&.&.&.&.&.&.&.&.&.&.&.&.&.&.&.&.&.&.;.;.c l l l i G 2./.`.I.I.f.`.).6.G R *.e R 7.~.J.P.P.I._.P.Q.).7.R R *.e &.R R XX*.E *.&.&.&.&.&.&.&.&.&.&.&.&.&.&.&.&.&.&.&.&.&.&.&.&.&.&.&.&.&.&.&.&.&.&.&.&.&.&.&.&.&.&.&.&.&.&.&.&.&.&.&.&.&.&.&.&.&.&.&.&.&.&.&.&.&.&.&.&.&.&.&.&.&.&.&.&.&.&.&.&.&.&.&.&.&.&.&.&.&.&.&.&.&.&.&.&.&.l l &.&.&.&.&.&.&.&.l l l &.&.&.&.&.&.&.&.&.&.&.&.&.&.&.&.&.&.&.&.&.&.l l &.&.G H 7.).`.P.Q.6.O.*.&.R R *./.Q.a.`.`.P.`.U.7.G &.i W F p.sX|.A i a &.*.*.&.l &.&.&.&.&.&.&.&.&.&.&.&.&.&.&.&.&.&.&.&.&.&.&.&.&.&.&.&.&.&.&.&.&.&.&.&.&.&.&.&.&.&.&.&.&.&.&.&.&.&.&.&.&.&.&.&.&.&.&.&.&.&.&.&.",
"&.&.&.&.&.&.&.&.&.&.&.&.&.&.&.&.&.&.&.&.&.&.&.&.&.&.&.&.&.&.&.&.&.&.l l &.&.&.&.&.&.&.&.&.&.&.&.l l &.&.&.&.&.l &.&.&.&.&.&.l l ;.;.&.&.R E 1.~.`.P.|.W.<.G &.&.G 7.~.~.P.P.P.P.I.Q.Q.7.G O.>.&.*.D -.(.R *.*.G *.*.&.&.&.&.&.&.&.&.&.&.&.&.&.&.&.&.&.&.l l &.&.l &.&.&.&.&.&.l &.&.&.&.&.&.l &.&.&.&.&.&.&.&.&.&.&.&.&.&.&.&.&.&.&.&.&.&.&.&.&.&.&.&.&.&.&.&.&.&.&.&.&.&.&.&.&.&.&.&.&.&.&.&.&.&.&.&.&.&.&.&.&.&.&.&.&.&.&.&.&.&.&.&.&.&.&.&.&.&.&.&.&.&.&.&.&.&.&.&.&.&.&.;.c l l l i G 2./.`.I.I.f.`.).6.G R *.e E 7.~.P.P.P.I.`.`.Q./.7.R R *.e *.R R XXE E *.&.&.&.&.&.&.&.&.&.&.&.&.&.&.&.&.&.&.&.&.&.&.&.&.&.&.&.&.&.&.&.&.&.&.&.&.&.&.&.&.&.&.&.&.&.&.&.&.&.&.&.&.&.&.&.&.&.&.&.&.&.&.&.&.&.&.&.&.&.&.&.&.&.&.&.&.&.&.&.&.&.&.&.&.&.&.&.&.&.&.&.&.&.&.&.&.&.&.&.&.&.&.&.&.l &.&.l &.&.&.&.&.&.&.&.&.&.&.&.&.&.&.&.&.&.&.&.&.&.&.&.l l &.*.G E p.|.`.P.`.6.&.*.&.R R *./.`.f.`.'.P.`.P.7.R &.a &.H a.sX|.Y i R *.+.*.l z &.&.&.&.&.&.&.&.&.&.&.&.&.&.&.&.&.&.&.&.&.&.&.&.&.&.&.&.&.&.&.&.&.&.&.&.&.&.&.&.&.&.&.&.&.&.&.&.&.&.&.&.&.&.&.&.&.&.&.&.&.&.&.&.",
"&.&.&.&.&.&.&.&.&.&.&.&.&.&.&.&.&.&.&.&.&.&.&.&.&.&.&.&.&.&.&.&.&.&.l l &.&.&.&.&.&.&.&.&.&.&.&.l l l &.&.&.l l &.&.&.&.&.&.&.&.;.;.;.&.R E 1.J.P.P._.W.<.G &.&.G 7./.~.`.P.P.P.`.`.Q.7.G O.>.&.*.G -.(.*.*.O.G *.*.&.&.&.&.&.&.&.&.&.&.&.&.&.&.&.&.&.&.l l &.&.&.&.&.&.&.&.&.&.&.&.&.&.&.&.&.&.&.&.&.&.&.&.&.&.&.&.&.&.&.&.&.&.&.&.&.&.&.&.&.&.&.&.&.&.&.&.&.&.&.&.&.&.&.&.&.&.&.&.&.&.&.&.&.&.&.&.&.&.&.&.&.&.&.&.&.&.&.&.&.&.&.&.&.&.&.&.&.&.&.&.&.&.&.&.&.&.&.&.&.&.&.&.;.c l l l i G 2./.`.I.I.I.`.).6.G R R e E 7.~.P.P.I.I.`.`.Q./.7.G R *.e *.G R $X<.E *.&.&.&.&.&.&.&.&.&.&.&.&.&.&.&.&.&.&.&.&.&.&.&.&.&.&.&.&.&.&.&.&.&.&.&.&.&.&.&.&.&.&.&.&.&.&.&.&.&.&.&.&.&.&.&.&.&.&.&.&.&.&.&.&.&.&.&.&.&.&.&.&.&.&.&.&.&.&.&.&.&.&.&.&.&.&.&.&.&.&.&.&.&.&.&.&.&.&.&.&.&.&.&.l l &.&.&.&.&.&.&.&.&.&.&.&.&.&.&.&.&.&.&.&.&.&.&.&.&.&.&.l l &.&.G E F.`.`.I.`.w.&.*.R R W *./.`.f.`.'.P.`.P.7.E &.a &.H G.lX#XY R W &.+.+.l c &.&.&.&.&.&.&.&.&.&.&.&.&.&.&.&.&.&.&.&.&.&.&.&.&.&.&.&.&.&.&.&.&.&.&.&.&.&.&.&.&.&.&.&.&.&.&.&.&.&.&.&.&.&.&.&.&.&.&.&.&.&.&.&.",
"&.&.&.&.&.&.&.&.&.&.&.&.&.&.&.&.&.&.&.&.&.&.&.&.&.&.&.&.&.&.&.&.&.&.&.l &.l l l l l l &.&.l l l &.&.&.&.&.&.&.&.&.&.&.&.&.&.l ;.c c c &.R E 3.J.P.P._.G.<.G ;.&.G 5./.~.`.P.P.P.`.`.`.7.G O.>.&.*.G 6..X*.*.O.*.*.*.&.&.&.&.&.&.l l &.&.&.&.l l l l &.&.&.&.&.&.&.&.&.&.&.&.&.&.&.&.&.&.&.&.&.&.;.;.;.&.&.&.&.&.&.&.&.&.&.&.&.&.&.&.&.&.&.&.&.&.&.&.&.&.&.&.&.&.&.&.&.&.&.&.&.&.&.&.&.&.&.&.&.&.&.&.&.&.;.;.;.;.&.&.;.;.&.&.&.&.&.&.&.&.&.&.&.&.&.&.&.&.&.&.&.&.&.&.&.&.&.&.&.c l l l i G 2.Q.`.I.I.P.`.).6.G R R G E 7.Q.P.I.I.I.`.Q.Q./.7.G R R i W G *.$X2.G &.;.;.;.&.&.&.;.&.&.&.&.;.;.;.;.&.&.&.&.&.&.&.&.&.&.&.&.&.&.&.&.&.&.&.&.&.&.&.&.&.&.&.&.&.&.&.&.&.&.&.&.;.;.;.;.&.&.;.;.&.&.&.&.&.&.&.&.&.&.&.&.&.&.&.&.&.&.&.&.&.&.&.&.&.&.&.&.&.&.&.&.&.&.&.&.l &.&.&.&.&.&.l l &.&.&.&.&.&.&.&.&.&.&.&.&.&.&.&.&.&.&.&.&.&.&.*.&.&.&.&.l l &.&.G <.F.|.`.g.`.B.&.&.l R *.*./.`.P.`._.P.P.P.3.*.&.a W H G.lX#XY Y R R +.+.c c &.&.&.&.&.&.&.&.&.&.&.&.&.&.&.&.;.;.;.&.&.&.&.&.&.&.&.&.;.;.;.;.&.&.&.&.;.;.;.;.&.&.;.;.&.&.&.&.;.;.;.&.&.&.&.&.&.&.&.&.;.;.;.;.",
"&.&.&.&.&.&.&.&.&.&.&.&.&.&.&.&.&.&.&.&.&.&.&.&.&.&.&.&.&.&.&.&.&.&.l l &.&.l l &.l l &.l l &.&.&.&.&.&.&.&.&.&.&.&.&.&.&.&.&.l c c c &.R E 3.J.P.P._.G.<.G ;.&.G 5./.~.`.P.P.P.`.`.Q.7.G O.>.&.+.H 6.XX*.*.G *.*.*.&.&.&.&.&.&.l l &.&.&.&.l l l l &.&.&.&.&.&.&.&.&.&.&.&.&.&.&.&.&.&.&.&.&.&.;.;.;.&.&.&.&.&.&.&.;.&.&.&.&.&.&.&.&.&.&.&.&.&.&.&.&.&.&.&.&.&.&.&.&.&.&.&.&.&.&.&.&.&.&.&.&.&.&.&.&.&.;.;.;.;.&.&.&.;.&.&.&.&.&.&.&.&.&.&.&.&.&.&.&.&.&.&.&.&.&.&.&.&.&.&.&.c l l l a G 2.Q.`.I.I.P.`./.3.G R R G E 7.Q.P.I.I.I.`.Q././.7.G R R i *.G *.$X6.G &.;.;.;.&.&.&.;.&.&.&.&.;.;.;.;.&.&.&.&.&.&.&.&.&.&.&.&.&.&.&.&.&.&.&.&.&.&.&.&.&.&.&.&.&.&.&.&.&.&.&.&.;.;.;.;.&.&.&.;.&.&.&.&.&.&.&.&.&.&.&.&.&.&.&.&.&.&.&.&.&.&.&.&.&.&.&.&.&.&.&.&.&.&.&.&.l l &.&.&.&.&.l &.&.&.&.&.&.&.&.&.&.&.&.&.&.&.&.&.&.&.&.&.&.&.&.*.&.&.&.&.l l &.&.G <.G.|.I.g.`.W.&.*.i R *.*.(.`.P.`._.P.P.P.3.*.&.a W H G.lXiXE R R R +.#.c c &.&.&.&.&.&.&.&.&.&.&.&.&.&.&.&.;.;.;.;.&.&.&.;.&.&.&.&.;.;.;.;.&.&.&.&.;.;.;.;.&.&.&.;.&.&.&.&.;.;.;.&.&.&.&.&.&.&.&.&.&.&.;.;.",
"&.&.&.&.&.&.&.&.&.&.&.&.&.&.&.&.&.&.&.&.&.&.&.&.&.&.&.&.&.&.&.&.&.&.l l &.&.&.&.&.&.&.&.&.&.&.&.&.&.l l &.&.&.&.l l &.&.&.&.&.c c c c l R R 3.J.P.P._.G.<.G ;.&.G 5./.).`.P.P.P.I.Q.Q.7.R G >.&.+.H 7.XX*.*.O.*.*.*.&.&.&.&.&.&.&.&.&.&.&.&.&.&.&.&.&.&.&.&.&.&.l l &.&.&.&.l l &.&.&.&.&.l &.l ;.;.;.&.&.&.;.;.;.;.;.;.&.&.&.&.&.&.&.&.&.&.&.&.&.&.&.&.&.&.&.&.&.&.&.&.&.&.&.&.&.&.&.&.&.&.&.&.;.;.&.;.;.;.&.&.&.&.;.;.;.;.&.&.&.&.&.&.&.&.&.&.&.&.&.&.&.&.&.&.&.&.&.&.&.&.&.l l l l i G 2.Q.`.I.I.P.`./.3.G R *.G E 7.`.I.f.I.l.`.Q././.7.G R R i *.G *.%X6.G &.;.&.&.&.&.;.;.;.;.&.;.&.&.&.&.&.&.&.&.&.&.&.&.&.&.&.&.&.&.&.&.&.&.&.&.&.&.&.&.&.&.&.&.&.&.&.&.;.;.&.;.;.;.&.&.&.&.;.;.;.;.&.&.&.&.&.&.&.&.&.&.&.&.&.&.&.&.&.&.&.&.&.&.&.&.&.&.&.&.&.&.&.&.&.&.l l &.&.&.&.l l &.&.&.&.l &.&.&.&.&.&.&.&.&.&.&.&.&.&.&.&.&.&.&.*.&.&.&.&.l l &.R R 1.F.`.I.d.I.W.*.&.i R *.*./.`.P.`._.P.P.P.3.R &.a W H G.lXiXT Y R R H #.l z ;.&.&.&.&.&.&.&.&.&.&.&.&.&.&.&.;.;.&.&.&.&.;.;.;.;.&.;.;.;.&.&.;.;.&.;.;.;.&.&.&.&.;.;.;.;.&.&.;.;.;.&.&.&.;.;.;.;.;.;.&.&.&.&.",
"&.&.&.&.&.&.&.&.&.&.&.&.&.&.&.&.&.&.&.&.&.&.&.&.&.&.&.&.&.&.&.&.&.&.&.&.&.&.&.&.&.&.&.&.&.&.&.&.&.&.&.&.&.&.;.&.&.l l l ;.&.;.l c c l &.Y R 3.J.P.P._.G.<.G ;.&.G 5.Q.|.`.P.I.I.I.G.).7.R R >.&.G H 7.XX*.*.O.*.*.&.&.&.&.&.&.&.&.&.;.&.&.&.;.&.;.&.;.&.;.&.;.&.l &.&.&.&.&.&.l l l &.&.&.l l l ;.;.;.&.&.&.;.;.;.&.;.&.&.&.&.&.&.&.&.&.&.&.&.&.&.&.&.&.&.&.&.&.&.&.&.&.&.&.&.&.&.&.&.&.&.&.&.&.;.;.;.;.;.&.&.&.&.&.;.;.;.;.;.;.&.&.&.&.&.&.&.&.&.&.&.&.&.&.&.&.&.&.&.&.&.&.&.l l l l i G 2.Q.`.I.I.P.`.).3.G R *.G H 7.`.`.f.I.l.`.`.Q./.7.G R R R *.G *.%X7.G &.;.&.&.&.&.;.;.;.;.;.;.&.&.&.&.&.&.&.&.&.&.&.&.&.&.&.&.&.&.&.&.&.&.&.&.&.&.&.&.&.&.&.&.&.&.&.&.;.;.;.;.;.&.&.&.&.&.;.;.;.;.;.;.&.&.&.&.&.&.&.&.&.&.&.&.&.&.&.&.&.&.&.&.&.&.&.&.&.&.&.&.&.&.&.&.&.&.&.&.&.&.l &.&.&.&.&.l l &.&.&.&.&.&.&.&.&.&.&.&.&.&.&.&.&.&.&.&.&.&.l l l &.R R 1.F._.I.d.P.W.&.&.i R *.*./.`.P.`._.P.P.P.1.R &.i R S P.zXiXE Y Y R +.#.l z ;.&.&.&.&.&.&.&.&.&.&.&.&.&.&.&.;.;.;.&.&.&.;.;.;.;.;.;.;.&.&.&.;.;.;.;.;.&.&.&.&.&.;.;.;.;.;.;.;.;.;.&.&.&.;.;.;.;.;.;.&.&.&.&.",
"&.&.&.&.&.&.&.&.&.&.&.&.&.&.&.&.&.&.&.&.&.&.&.&.&.&.&.&.&.&.&.&.&.&.&.&.&.&.&.&.&.&.&.&.&.&.&.&.&.&.;.;.;.;.;.;.;.;.;.;.c c ;.&.l ;.l *.9 S F.G.J.P.|.F.E R &.i G F.Q.G.P.P.I.I.I.D.|.7.G *.l &.R H V.$X*.R *.&.&.&.&.&.&.&.&.&.&.&.;.;.;.;.;.;.;.&.;.;.;.;.;.&.&.&.&.&.&.&.&.&.&.&.&.&.&.&.;.;.;.;.&.&.&.&.&.&.&.&.&.&.&.&.&.&.l &.&.&.*.;.&.&.O.*.&.&.&.&.&.&.&.&.&.&.&.&.&.&.&.&.&.&.&.&.;.;.&.&.&.&.&.&.&.&.&.&.&.&.&.&.&.&.&.&.&.&.&.&.&.&.&.&.&.&.&.&.&.&.&.&.&.&.&.&.&.&.;.l l R G 5.).`.I.I.P.J.).m.R R R R A p.`.P._.g.I.`.`.Q./.7.G &.R R R R E $XF.C *.&.&.&.&.&.&.&.&.&.&.&.&.&.&.&.&.&.&.&.&.&.&.&.&.&.&.&.&.&.&.&.&.&.;.;.&.&.;.l &.l c c c c l l &.&.&.&.&.&.&.&.&.&.&.&.&.&.&.&.&.&.&.&.&.&.&.&.&.&.&.&.&.&.&.&.&.&.;.;.;.;.&.&.&.;.;.;.;.;.&.&.&.&.&.&.&.&.&.&.&.&.&.&.&.&.&.&.&.&.&.&.&.&.&.&.&.&.&.&.;.;.@.&.&.&.&.&.l l &.&.&.G 6.~.P.I.I.P.B.&.&.i R Q ^ ~._.`._.'.f._.|.6.O.&.=.Y N 5XjXlX^ Y R :.+.#.;.k ;.;.l c ;.;.;.;.;.;.;.c c c &.&.&.&.;.;.;.&.&.&.;.;.;.c c c &.&.;.;.;.;.;.;.;.;.;.;.;.;.;.;.;.;.&.&.&.&.&.&.&.&.&.&.&.&.&.&.&.&.",
"&.&.&.&.&.&.&.&.&.&.&.&.&.&.&.&.&.&.&.&.&.&.&.&.&.&.&.&.&.&.&.&.&.&.&.&.&.&.&.&.&.&.&.&.&.&.&.&.&.;.;.;.;.;.;.;.;.;.;.;.c c ;.&.l ;.l &.9 S F.F.J.J.|.F.E Y =.i G S.Q.G.P.P.I.I.I.D.|.7.G &.l &.R S m.$X*.R *.&.&.&.&.&.&.&.&.&.&.;.;.;.;.;.;.;.;.;.;.;.;.;.;.&.&.&.&.&.&.&.&.&.&.&.&.&.&.&.;.;.;.;.&.&.&.&.&.&.&.&.&.&.&.&.&.&.i W R &.&.*.O.O.O.O.&.&.&.&.&.&.&.&.&.&.&.&.&.&.&.&.&.&.&.&.;.;.&.&.&.&.&.&.&.&.&.&.&.&.&.&.&.&.&.&.&.&.&.&.&.&.&.&.&.&.&.&.&.&.&.&.&.&.&.&.&.&.;.l &.R G 5.).P.I.I.P.J.).m.R R R R A p.|.P.}.I.I.I.`.Q./.7.G &.R R R R E %XF.C *.&.&.&.&.&.&.&.&.&.&.&.&.&.&.&.&.l &.&.&.&.&.&.&.&.&.&.&.&.&.*.&.&.&.&.&.&.&.l l l c c c c l l &.&.&.&.&.&.&.&.&.&.&.&.&.&.&.&.&.&.&.&.&.&.&.&.&.&.&.&.&.&.&.&.&.&.;.;.;.;.&.&.&.&.;.;.&.;.&.&.&.&.&.&.&.&.&.&.&.&.&.&.&.&.&.&.&.&.&.&.&.&.&.&.&.&.;.;.;.;.@.#.&.R &.&.l l ;.&.&.G 6.~.`.P.L.P.m.i l i R Q ^ ~._.`._.`.P.|.`.6.O.&.&.Y V 6XjXlX/ R R :.+.#.;.l l &.l l ;.;.;.;.&.&.;.;.c c &.&.&.&.;.;.;.&.&.&.&.&.;.;.c c &.&.;.;.;.;.;.;.;.;.;.;.;.;.;.;.;.;.&.&.&.&.&.&.&.&.&.&.&.&.&.&.&.&.",
"&.&.&.&.&.&.&.&.&.&.&.&.&.&.&.&.&.&.&.&.&.&.&.&.&.&.&.&.&.&.&.&.&.&.&.l &.&.&.&.&.l &.&.&.&.&.&.&.&.&.;.&.&.&.&.&.&.&.&.c l l l l ;.l &.9 A F.F.J.J.|.F.E Y &.i G S.Q.G.P.P.I.I.I.D.|.7.G ;.l &.R S m.$XE R *.&.&.&.&.&.&.&.&.&.&.&.&.&.&.&.;.&.&.&.&.&.;.&.&.&.&.&.&.&.&.&.&.&.&.&.&.&.&.&.&.;.;.&.&.&.&.&.&.&.&.&.&.&.&.&.&.&.i i R R &.&.G G O.O.O.&.&.&.&.&.&.&.&.&.&.&.&.&.&.&.&.&.&.&.&.;.&.&.&.&.&.&.&.&.&.&.&.&.&.&.&.&.&.&.&.&.&.&.&.&.&.&.&.&.&.&.&.&.&.&.&.&.;.;.;.;.l l &.R G 5.).P.I.I.P.J.~.m.G G R R A F.|.P._.I.I.I.`.Q./.7.G &.R R R R E %XF.S *.&.&.&.&.&.&.&.&.&.&.&.&.&.&.&.&.l l l l l &.&.&.&.&.&.&.&.&.&.&.&.&.&.&.&.&.&.l l l l l l l l &.&.&.&.&.&.&.&.&.&.&.&.&.&.&.&.&.&.&.&.&.&.&.&.&.&.&.&.&.&.&.&.&.&.;.;.&.&.&.&.&.&.&.&.&.;.&.&.l &.&.&.&.&.&.&.l l &.&.&.&.&.&.&.&.&.&.&.&.&.&.&.&.;.;.;.;.;.&.&.R &.&.l l &.&.&.G 6.).`.P.P.P.m.i &.i R E E ~._.`._.`.P.|.Q.<.O.l =.Y V 6XjXjX) R R ;.#.#.;.l l &.&.&.&.&.;.;.&.&.&.&.c &.&.&.&.c c ;.l l &.&.&.&.&.&.c &.&.&.;.&.&.&.&.&.l l ;.;.&.&.;.;.;.;.&.&.&.&.&.&.&.&.&.&.&.&.&.&.&.&.",
"&.&.&.&.&.&.&.&.&.&.&.&.&.&.&.&.&.&.&.&.&.&.&.&.&.&.&.&.&.&.&.&.&.&.&.l &.&.&.&.&.&.&.&.&.&.&.&.&.&.&.&.&.&.&.&.&.&.&.&.l l l l l ;.l *.e Y !.F.J.J.|.F.E Y &.i G S.Q.G.P.P.I.I.I.G.|.7.G ;.l &.G S W.$X*.R *.&.&.&.&.&.&.&.&.&.&.&.&.&.&.&.&.&.&.&.&.&.&.&.&.&.&.&.&.&.&.&.&.&.&.&.&.&.&.&.;.;.&.&.&.&.&.&.&.&.&.&.&.&.&.&.&.&.i i R *.*.*.*.*.O.O.O.O.O.&.&.&.&.&.&.&.&.&.&.&.&.&.&.&.&.&.;.;.&.&.&.&.&.&.&.&.&.&.&.&.&.&.&.&.&.&.&.&.&.&.&.&.&.&.&.&.&.&.&.&.&.&.&.&.@.;.;.;.l l &.R G 5.).P.I.I.P.J.~.m.R R R R A F.|.P._.I.I.I.`.Q./.7.G &.&.R R R E %XJ.S *.&.&.&.&.&.&.&.&.&.&.&.&.&.&.&.&.l l l &.l &.&.&.&.&.&.&.&.&.&.*.&.&.&.&.&.&.&.&.l l l l c l l &.&.&.&.&.&.&.&.&.&.&.&.&.&.&.&.&.&.&.&.&.&.&.&.&.&.&.&.&.&.&.&.&.&.;.;.&.&.&.&.;.;.&.&.&.;.&.&.l l &.&.&.&.&.&.&.&.&.&.&.&.&.&.&.&.&.&.&.&.&.&.&.&.;.;.;.;.;.;.&.R &.&.c l &.&.&.G 6./.Q.P.P.P.6.i &.R R E E ~.`.I._.`.`.|.Q.<.O.l &.Y V yXjXlX1.Y R ;.#.#.;.l l &.&.&.l ;.;.;.&.&.&.&.c ;.&.&.;.c c c l l l l &.&.&.&.c ;.&.&.;.&.&.&.&.&.&.l &.&.&.&.&.&.&.&.&.&.&.&.&.&.&.&.&.&.&.&.&.&.&.&.",
"&.&.&.&.&.&.&.&.&.&.&.&.&.&.&.&.&.&.&.&.&.&.&.&.&.&.&.&.&.&.&.&.&.&.&.&.&.&.&.&.&.&.&.&.&.&.&.&.&.&.&.&.&.&.&.&.&.&.l l l l l l &.;.e *.Y E !.J.`.`.|.F.E Y =.a G S.Q.G.P.P.I.P.P.D.).7.G *.l &.A S W.$X*.R *.&.&.&.&.&.&.&.&.&.&.&.&.&.&.&.&.&.&.&.&.&.l l &.&.&.&.&.&.&.&.&.&.&.&.&.&.;.;.;.;.;.;.&.&.&.&.&.&.&.&.&.&.&.&.&.&.i R *.*.:.-.:.,.*.*.O.O.O.l l &.&.&.&.&.&.&.&.&.&.&.&.&.;.;.;.;.&.&.&.&.&.&.&.&.&.&.&.&.&.&.&.&.&.&.&.&.&.&.&.&.&.&.&.&.&.&.&.&.&.&.&.&.@.;.&.&.;.l &.R G 5.).`.I.I.P.J.~.m.R R R R F F.|.P.}.I.I.I.P.Q./.7.R &.&.R R R ^ aX~.S *.&.&.&.&.&.&.&.&.&.&.&.&.&.&.&.&.l l l l l &.&.l l &.&.&.&.&.&.&.&.&.&.*.&.&.&.&.&.&.&.&.l l l &.&.&.&.&.&.&.&.&.&.&.&.&.&.&.&.&.&.&.&.&.&.&.&.&.&.&.&.&.&.&.&.&.&.&.&.&.&.&.&.&.&.&.&.&.&.&.&.&.&.&.&.&.&.&.&.&.&.&.&.&.&.&.&.&.&.&.&.&.&.&.&.;.;.;.;.;.;.;.;.&.R &.&.;.;.;.&.&.G 6./.~.J.P.J.6.e &.R R R E ~.`.P.'._.`.|.Q.<.O.l a Y B yXjXjX7.Y R ;.#.&.;.l &.&.&.&.&.&.&.&.&.&.&.&.&.&.&.&.&.&.&.&.&.&.&.&.&.&.&.&.&.&.&.&.&.&.&.&.&.&.&.&.&.&.&.&.&.&.&.&.&.&.&.&.&.&.&.l &.&.&.&.l l l l ",
"&.&.&.&.&.&.&.&.&.&.&.&.&.&.&.&.&.l &.&.&.&.&.&.&.&.&.&.&.&.&.&.&.&.&.&.&.&.l &.&.&.&.&.&.l &.&.&.&.&.&.&.&.&.&.&.&.l l l l l l ;.;.e *.Y E ~.J.`.`.|.S.H Y =.i G S.Q.G.P.P.I.P.P.G.).7.G *.l &.A S !.%X*.R *.*.&.&.&.&.&.&.&.&.&.&.&.&.&.&.&.&.&.&.&.&.l l l &.&.&.&.&.&.&.&.&.&.&.&.&.;.;.;.&.;.;.;.&.&.&.&.&.&.&.&.&.&.&.&.&.R &.*.-.-.,.6.6.:.*.&.O.O.O.O.&.&.&.&.&.&.&.&.&.&.&.&.&.;.;.;.&.&.&.&.&.&.&.&.&.&.&.&.&.&.&.&.&.&.&.&.&.&.&.&.&.&.&.&.&.&.&.&.&.&.&.&.&.@.;.&.&.;.x &.R G 5.).P.I.I.P.J.~.m.E R *.R F F.|.P.}.I.I.I.`.Q./.7.R &.&.R R E <.aX].S *.&.&.&.&.&.&.&.&.&.&.&.&.&.&.&.&.l l l l l &.&.l l &.&.&.&.;.;.R R R R &.&.&.&.&.&.&.&.&.&.&.&.&.&.&.&.&.&.&.&.&.&.&.&.&.&.&.&.&.&.&.&.&.&.&.&.&.&.&.&.&.&.&.&.&.l &.&.&.&.&.&.&.&.&.&.&.&.&.&.&.&.&.&.&.&.l l &.&.&.&.&.&.&.&.&.&.&.&.&.&.&.&.;.&.;.;.;.c ;.;.&.&.&.&.&.;.;.&.;.G 6./.~.F.U.~.2.e &.R R R E ~.`.P.'.'.`.|.Q.<.g l a Y B gXjXlXb.Y i ;.#.;.;.l &.&.&.&.&.&.&.&.&.&.&.&.&.&.&.&.&.&.&.&.&.&.&.&.&.&.&.&.&.&.&.&.&.&.&.&.&.&.&.&.l l l l l l l l &.&.&.&.&.&.l l &.&.&.&.l l l &.",
"&.&.&.&.&.&.&.&.&.&.&.&.&.&.&.&.l l l l l l l l l l &.&.&.&.l l &.&.&.&.&.&.&.&.&.&.&.&.&.&.&.&.&.&.&.&.&.&.&.&.&.&.l l l l l l ;.&.e *.R E ~.J.`.`.|.S.H Y =.W G S.Q.G.P.P.I.I.P.G.|.7.G *.l &.C S !.%X*.G *.*.&.&.&.&.&.&.&.&.&.&.&.&.&.&.&.&.&.&.&.&.&.&.&.&.&.&.&.&.&.&.&.&.&.&.&.&.;.;.&.&.;.;.&.&.&.&.&.&.&.&.&.&.&.&.&.&.*.*.-.-.,.2.6.6.4.-.*.*.O.O.&.&.&.&.&.&.&.&.&.&.&.&.&.&.;.;.&.&.&.&.&.&.&.&.&.&.&.&.&.&.&.&.&.&.&.&.&.&.&.&.&.&.&.&.&.&.&.&.&.&.&.&.&.&.&.#.&.&.;.l &.R G 5.|.`.I.I.P.J.~.m.E R R R H F.|.P.}.I.I.I.`.Q./.6.R &.&.i G E 2.sX|.K *.&.&.&.&.&.&.&.&.&.&.&.&.&.&.&.&.l l l &.&.&.&.&.l &.*.&.&.;.;.*.*.R R *.*.*.*.&.&.&.&.&.&.&.&.&.&.&.&.&.&.&.&.&.&.&.&.&.&.&.&.&.&.&.&.&.&.&.&.&.&.&.&.&.&.&.&.l l l l l l l l l l &.&.&.&.&.&.&.&.&.&.&.&.&.&.&.&.&.&.&.&.&.&.&.&.&.&.&.l l l l l l l c c c l &.&.l &.&.&.&.&.;.G 6.(.~.F.~.~.-.e &.W Y R E ).P.f.'.'.`.|.Q.<.i a a Y B jXdXsXS.Y i ;.&.&.;.l &.&.&.&.&.&.&.&.&.&.&.&.&.&.&.&.&.&.&.&.&.&.&.&.&.&.&.&.&.&.&.&.&.&.&.&.&.&.&.&.&.&.&.&.&.&.&.&.&.&.&.&.&.&.&.&.&.&.&.&.&.&.&.&.",
"&.&.&.&.&.&.&.&.&.&.&.&.&.&.&.&.l l l l l l l l l l &.&.&.&.l &.&.&.&.&.&.&.&.&.&.&.&.&.&.&.&.&.&.&.&.&.&.&.&.&.&.&.&.l l l l l ;.&.e *.R E /.J.`.`.`.p.H G =.W G S.~.J.P.P.I.I.P.D.).7.G *.l &.C S !.%XQ G *.*.&.&.&.&.*.*.&.&.&.&.&.&.&.&.&.&.&.&.&.&.&.&.&.&.&.&.&.&.&.&.&.&.&.&.&.&.;.;.&.&.;.;.&.&.&.&.&.&.&.&.&.&.&.&.&.R -.-.-.-.-.-.-.-.6.4.*.*.O.O.O.&.&.&.&.&.&.&.&.&.&.&.&.&.;.;.&.&.&.&.&.&.&.&.&.&.&.&.&.&.&.&.&.&.&.&.&.&.&.&.&.&.&.&.&.&.&.&.&.&.&.&.&.&.&.#.&.&.;.l &.R G 5.).`.I.I.P.J.~.m.E R *.*.H F.|.P.}.I.I.I.`.Q./.6.R &.&.i Y E 1.sX|.K *.&.&.&.&.&.&.&.&.&.&.&.&.&.&.&.&.l &.&.&.&.&.&.&.&.&.&.&.&.&.*.:.:.*.*.:.:.:.:.&.&.&.&.&.&.&.&.&.&.&.&.&.&.&.&.&.&.&.&.&.&.&.&.&.&.&.&.&.&.&.&.&.&.&.&.&.&.&.&.l l l l l l l l l l &.&.&.&.&.&.&.&.&.&.&.&.&.&.&.&.&.&.&.&.&.&.&.l &.&.&.l &.l l l l l l l c l &.&.l l &.&.&.&.;.G 6.(.(.W.~.(.-.e &.W Y R E ).P.f.'.'.P.|.Q.<.i i a Y L jXkXsXS.Y i &.*.&.>.l &.&.&.&.&.&.&.&.&.&.&.&.&.&.&.&.&.&.&.&.&.&.&.&.&.&.&.&.&.&.&.&.&.&.&.&.&.&.&.&.&.&.&.&.&.&.&.&.&.&.&.&.&.&.&.&.&.&.&.&.&.&.&.&.",
"&.&.&.&.&.R l R &.&.&.&.&.&.&.&.&.l l l l l l l &.&.&.&.&.&.&.&.*.R R R R R R R -.-.-.-.-.-.-.-.;.;.*.*.&.&.&.i &.l l l &.&.&.&.;.l &.R G 2.~.F.`.`.`.i.S R =.i H F.Q.G.P.P.L.I.P.P.|.1.G =.l &.A M $X%X2.G G *.*.&.*.*.*.*.*.*.&.&.&.&.&.&.&.&.*.*.*.*.*.*.*.*.&.&.&.&.&.&.&.&.&.&.&.&.&.&.&.&.;.&.&.&.&.&.&.&.g &.;.;.&.&.&.=.-.-.-.-.-.2.<.<.6.6.-.:.*.*.&.&.R &.&.&.&.&.l e &.&.&.&.&.&.&.&.&.&.&.&.&.&.&.&.&.&.&.&.&.&.&.&.&.&.&.&.&.&.&.&.&.&.&.&.&.&.&.&.&.&.&.&.&.&.&.&.l l &.R G 5.Q.`.I.I.P.`.~.m.E R *.G *.F.`.`.`.'.g.I.`.`./.2.G &.i &.R A 7.aXiXK *.&.&.&.&.&.&.&.&.l l l l &.&.&.&.&.&.&.&.&.R e &.&.*.;.:.:.:.,.-.-.2.-.,.,.,.,.,.:.&.&.O.&.&.&.&.&.&.&.&.&.&.&.&.&.&.&.&.&.&.&.&.&.&.&.&.&.&.&.&.&.&.&.&.&.&.&.l l l l l l l l ;.&.&.l l &.&.&.e G R R R *.*.:.*.*.*.*.R R R R R i i l i i l l l l l l l l l l &.&.l l &.&.&.&.e G *.B.).).F.2.*.i l &.R A 2.~.P.`.f._.`.`.Q.H e i W :  .gXdXuXJ.R &.&.O.:.l l ;.&.&.&.&.&.&.&.&.*.*.*.*.&.&.&.&.&.&.&.&.&.&.&.&.&.*.*.&.&.&.&.&.R G R G G G G &.&.&.*.;.:.:.:.:.*.*.*.-.:.:.-.*.*.*.*.*.*.*.*.",
"R R R &.&.&.&.&.i i i i i i i i l l l l i i i i &.&.&.&.&.&.O.G G Y R R *.*.-.-.-.-.-.-.-.-.-.-.:.:.:.:.*.*.*.*.R i i &.&.&.&.&.;.l *.R G 2.~.J.`.`.`.i.H R =.i H F.).G.P.P.L.I.P.J.|.1.G ;.l &.A M $X%X2.G G *.*.*.*.&.*.R *.*.&.&.&.&.&.R &.&.G G G &.*.*.*.*.&.&.&.&.&.&.&.&.&.&.&.&.&.&.&.&.;.;.&.&.&.&.&.&.l &.;.&.l &.;.-.-.-.-.-.-.-.<.<.6.<.4.-.*.*.*.&.R R &.&.&.&.&.l &.&.&.&.&.&.&.&.&.&.&.&.&.&.&.&.&.&.&.&.&.&.&.&.&.&.&.&.&.&.&.&.&.&.&.&.&.&.&.&.&.&.&.&.&.&.&.&.l l &.R G 5.Q.`.I.I.P.J.~.m.E R *.G *.F.`.`.`.'.g.I.`.`./.6.G &.i &.R A 7.aXiXK *.&.&.&.&.&.&.&.&.&.&.l l &.&.&.&.&.&.&.*.*.*.*.*.&.:.:.:.:.:.,.2.2.<.2.6.-.4.,.,.:.:.&.*.O.#.&.&.&.&.&.&.&.&.&.&.&.&.&.&.&.&.&.&.&.&.&.&.&.&.&.&.&.&.&.&.&.&.&.l l l l l l l &.&.&.&.&.&.&.&.;.*.*.*.*.:.-.-.-.-.-.-.-.:.*.*.*.R &.R R &.l &.l &.l l l l l l l &.&.&.&.&.&.&.&.&.R *.-.n.6.<.R *.i l &.R A 2.~.P.`.f._.`.`.Q.H &.l =.: | gXfXuXJ.Y W i G :.l l &.&.&.&.&.&.&.&.&.&.&.&.*.&.&.&.&.&.&.&.&.&.&.&.&.&.&.*.&.&.&.&.&.&.*.*.*.*.:.;.:.:.:.:.,.,.,.,.-.-.-.-.-.-.-.-.,.-.:.*.*.R G G ",
"i i R R &.&.&.&.i i i i i i i i a a l l i i l l &.&.&.&.&.G G G G R R Q -.-.6.2.-.-.-.-.-.-.-.-.-.-.-.:.:.*.*.*.R R R R R &.R *.;.&.&.R G 6.~.].`.`.`.i.S R =.i H F.).G.P.P.I.I.I.J.).<.G =.i &.A S $X%X2.A G R *.*.*.R R R *.*.*.*.*.*.*.*.*.*.R R R R R R R R R R &.&.&.&.&.&.&.&.&.&.;.&.;.;.&.&.&.&.&.&.&.&.&.&.&.&.l &.;.-.-.-.-.-.2.2.<.<.<.<.<.-.-.*.*.*.R i R R &.&.&.&.&.&.&.&.;.&.;.;.&.&.&.&.&.&.&.&.&.&.&.&.&.&.&.&.&.&.&.&.&.&.&.&.&.&.&.&.&.&.&.&.&.&.&.&.#.#.;.;.l l &.R G 5.Q.P.I.I.P.`.~.m.R R *.G *.F.`.`.I.I.g.'.`.`./.6.e &.l &.R S p.sXiXP O.&.&.&.&.&.&.&.&.&.&.&.&.&.&.&.*.*.&.G *.:.:.,.-.:.,.,.4.4.4.4.<.<.<.<.<.2.<.2.4.:.-.:.*.&.O.O.&.&.&.&.&.&.&.&.&.&.&.&.&.&.&.&.&.&.&.&.&.&.&.&.&.&.&.&.&.&.&.&.l l l l l l l &.&.&.&.*.&.;.:.:.-.-.-.-.-.-.2.-.6.-.6.-.-.-.-.-.*.*.R R O.&.&.&.&.&.&.l l l l l &.&.&.&.&.&.&.&.*.&.R R R R G G *.i l &.R A 6.~.`.`.f._.`.`.Q.H *.l W m | gXfXgXJ.Y W R G *.i l g &.&.&.&.;.*.&.&.&.&.&.&.&.&.&.&.&.&.&.&.&.&.&.&.&.&.*.&.&.&.&.*.R *.*.-.-.2.,.-.-.,.,.6.6.6.,.2.-.-.-.-.-.-.-.6.-.-.*.*.R R Y ",
"&.&.&.&.&.&.&.&.&.&.&.&.&.&.&.&.a l l l l &.&.&.R &.*.*.*.*.*.*.-.*.*.*.-.2.2.2.2.2.2.2.-.-.-.-.2.2.2.-.-.-.-.:.*.*.*.R *.R R &.&.G &.R G 2.~.].`.`.`.i.F R =.i E F.).G.P.P.I.I.I.J.).<.G =.i &.S M #X%X2.G R R &.&.R R R *.*.*.-.-.2.-.-.-.-.-.6.-.-.*.E G G G R R R &.&.&.&.&.&.&.&.&.;.;.;.;.&.&.&.&.&.&.&.&.;.&.&.l l &.=.-.-.-.-.-.2.2.<.<.<.<.<.6.4.-.*.*.R R R R &.&.&.&.&.&.&.&.;.;.;.;.&.&.&.&.&.&.&.&.&.&.&.&.&.&.&.&.&.&.&.&.&.&.&.&.&.&.&.&.&.&.&.&.&.&.&.&.#.#.;.;.l l &.R G 5.Q.`.I.I.P.Q.~.m.R R *.G *.F.`.`.I.I.g.I.`.`./.6.e &.l &.R S p.sXpXI O.&.&.&.&.&.&.&.&.&.&.&.&.&.&.&.R G *.*.*.-.4.6.4.4.4.4.4.4.4.<.<.<.<.<.<.<.<.<.4.4.4.:.:.*.*.O.&.&.&.&.&.&.&.&.&.&.&.&.&.&.&.&.&.&.&.&.&.&.&.&.&.&.&.&.&.&.&.&.l l l l l l &.&.&.&.*.&.:.:.,.6.2.2.2.2.-.-.-.-.2.-.-.-.-.*.*.*.2.-.*.R O.O.*.&.&.&.&.&.&.l l l &.&.&.&.&.&.&.&.&.&.R R G R R *.*.i l &.R A 6.~.`.`.f._.`.Q.Q.H *.i W m | dXkXdXJ.Y W *.+.*.l &.&.&.&.;.;.;.&.&.&.&.&.&.&.&.&.&.&.&.&.&.&.&.&.&.&.&.&.*.&.&.*.&.*.*.-.-.2.2.6.6.-.-.-.-.-.-.-.-.2.2.2.2.2.2.2.2.-.-.*.*.*.*.*.*.",
"*.*.&.&.&.W R R R R R R R R W W i i i i R R *.*.R R *.*.*.-.-.<.6.6.6.2.2.2.2.2.2.2.2.2.2.2.2.2.<.<.<.-.-.-.*.*.-.-.*.*.*.R R R &.e &.G G 2.~.J.`.`.`.i.F R =.Y E F.).J.P.P.I.I.I.J.).<.G ;.i &.H S #X%X2.G R R R R R R *.:.-.2.2.2.2.2.2.2.2.2.6.6.2.-.*.*.H G &.&.&.&.&.&.&.&.&.&.&.&.&.&.;.;.&.;.&.&.&.&.&.&.;.&.l l &.*.-.,.-.-.2.2.<.<.<.<.<.<.<.4.4.-.*.*.&.&.&.R &.&.&.;.&.&.&.&.&.&.;.;.&.&.&.&.&.&.&.&.&.&.&.&.&.&.&.&.&.&.&.&.&.&.&.&.&.&.&.&.&.&.&.&.&.&.&.&.&.&.;.;.l l &.R G 5.Q.`.I.I.P.`.~.m.R R *.G *.F.|.`.I.I.g.'.`.`./.6.e &.i &.R H a.sXpXI O.&.&.&.&.&.&.&.&.&.&.&.&.&.&.&.G E *.-.<.<.4.4.<.<.<.4.<.<.<.<.<.<.<.<.<.<.<.<.<.6.4.6.:.*.*.O.&.&.&.&.&.&.&.&.&.&.&.&.&.&.&.&.&.&.&.&.&.&.&.&.&.&.&.&.&.&.&.&.&.&.&.&.&.&.&.&.R *.*.*.-.:.4.6.2.2.2.2.2.<.<.<.<.<.<.<.<.*.*.*.6.2.-.*.*.*.*.*.*.&.&.l l l &.&.&.&.&.&.&.&.&.&.G &.*.&.&.R &.*.&.i l &.R A 2.~.`._.f._.`.Q.Q.H G e R m | dXkXjX].T *.*.*.4.&.=.;.:.:.:.*.*.&.R *.&.&.&.&.&.R R *.*.&.&.&.&.R *.R &.*.*.*.*.*.*.-.*.<.<.<.<.<.2.<.<.<.<.<.<.-.<.2.2.2.2.2.2.2.2.*.<.<.<.2.2.2.2.",
"-.=.=.*.&.&.W R R R R R i i i i i i i R R R R *.R *.*.*.<.6.6.6.<.<.1.6.<.2.6.6.<.<.<.<.<.<.1.<.<.<.<.<.<.<.<.-.2.2.2.-.*.*.E R &.&.*.R G 2.F.J.`.`.`.i.F R *.Y E F.|.J.P.P.I.I.P.J.).1.G ;.i &.E S %X%X2.A R *.G R *.*.:.-.-.2.<.<.<.<.<.<.<.<.<.<.<.<.<.<.<.-.R &.&.&.&.&.&.&.&.&.&.&.&.&.;.;.;.;.&.;.&.&.&.&.;.&.l &.&.=.-.-.-.2.2.2.<.<.<.<.<.<.<.4.4.<.-.:.;.&.&.&.&.&.&.&.&.&.&.&.&.&.;.;.&.&.&.&.&.&.&.&.&.&.&.&.&.&.&.&.&.&.&.&.&.&.&.&.&.&.&.&.&.&.&.&.&.&.&.&.&.&.;.;.l l &.R G 5.Q.`.I.I.P.Q.~.m.R Y *.G *.F.|.`.I.I.g.'.`.`./.6.e &.i W R S a.lXjX} +.&.&.&.&.&.&.&.&.&.&.&.&.&.;.;.+.*.*.<.6.4.<.<.<.<.<.<.<.<.<.<.<.<.<.<.<.<.<.<.<.6.4.4.4.-.*.*.&.&.&.&.&.&.&.&.&.&.&.&.&.&.&.&.&.&.&.&.&.&.&.&.&.&.&.&.&.&.&.&.&.&.&.&.&.&.&.*.*.*.*.-.4.4.4.4.<.2.<.6.<.2.<.6.<.2.6.6.6.<.1.<.<.<.<.<.-.*.*.*.*.*.&.&.&.l &.&.&.&.&.&.&.&.&.&.R &.&.&.&.R i i &.i l &.R A 2.~.`._.f._.`.Q.Q.H G e W m | fXbXkX[.Q -.-.<.6.;.:.,.,.-.:.:.;.*.&.&.&.*.*.&.&.R &.*.*.&.&.&.&.*.*.*.*.*.:.;.:.:.*.<.<.<.<.<.<.<.<.<.<.<.<.<.<.<.<.<.2.<.<.<.<.<.<.<.2.6.<.1.<.<.<.",
"-.=.=.=.=.*.*.&.R R R R i R R R R R W &.*.*.*.:.*.-.-.<.<.<.4.<.<.<.1.<.1.1.2.2.1.1.1.<.1.<.1.1.<.<.<.<.<.<.<.2.2.2.2.*.*.*.*.*.:.&.;.*.G 2.Q.J.P.`.`.i.F G *.i E F.|.J.P.P.I.I.P.P.|.1.G ;.i &.E S %X%X2.R E *.R *.:.-.-.-.-.-.<.<.<.<.<.<.<.<.<.<.<.<.1.6.6.6.R &.&.&.&.&.&.&.&.&.&.&.&.&.&.;.;.;.;.;.&.&.&.&.&.&.l &.;.-.-.-.-.2.2.2.<.1.1.1.<.<.<.<.<.<.2.-.-.;.&.&.l l &.&.&.&.&.&.&.&.&.;.&.&.&.&.&.&.&.&.&.&.&.&.&.&.&.&.&.&.&.&.&.&.&.&.&.&.&.&.&.&.&.&.&.&.&.&.&.&.;.;.l l &.R G 5.Q.`.I.I.P.J.~.m.R G *.G *.F.|.`.I.I.g.I.`.`./.6.e l i &.R H p.lXlX} +.&.&.&.&.&.&.&.&.&.&.&.&.;.>.:.<.<.<.<.<.<.<.<.<.<.<.<.1.1.1.<.<.<.<.<.<.<.<.<.<.<.4.4.4.4.<.:.&.&.&.&.&.&.&.&.&.&.&.&.&.&.&.&.&.&.&.&.&.&.&.&.&.&.&.&.&.&.&.&.&.&.&.&.&.*.*.*.-.-.:.4.4.4.4.<.<.1.1.1.1.1.1.1.1.1.1.1.2.1.1.<.<.<.4.6.<.-.*.*.*.*.&.&.&.&.&.&.&.&.&.&.&.&.&.&.l i &.&.&.&.l i &.i i &.R A 6.~.`.`.f._.`.`.Q.H *.R *.T ..kXbXdX+X( 2.2.<.6.:.,.,.,.,.,.:.:.:.*.&.*.*.*.&.&.&.&.*.*.*.&.&.&.&.*.*.*.;.:.:.-.-.-.<.<.<.<.1.<.<.<.1.<.<.<.1.<.<.<.<.1.1.1.1.1.1.1.5.2.5.2.1.<.^ ^ ",
"=.=.-.=.-.=.=.=.*.*.*.*.&.&.&.&.=.=.=.-.-.,.,.,.2.2.<.<.<.<.<.<.<.1.1.1.1.1.1.1.1.1.1.1.1.1.1.1.<.<.<.<.6.6.6.6.<.2.2.2.2.2.2.2.,.:.:.*.E 7.~.J.P.`.`.i.F G *.i E F.|.J.P.P.I.I.P.P.|.1.G ;.i &.E S %XaX3.Y E *.*.:.,.,.,.-.-.*.<.1.<.<.<.<.1.<.<.<.<.<.<.<.<.<.R &.&.&.&.&.&.&.&.&.&.&.&.&.&.;.;.;.;.;.&.&.&.&.&.&.l &.=.:.-.*.-.2.2.2.1.1.1.1.<.<.<.<.<.<.6.6.:.=.&.&.l l &.&.&.&.&.&.&.&.&.;.&.&.&.&.&.&.&.&.&.&.&.&.&.&.&.&.&.&.&.&.&.&.&.&.&.&.&.&.&.&.&.&.&.&.&.&.&.&.;.;.l l &.R G 5.Q.`.I.I.P.P.~.m.R G *.G *.F.|.`.I.I.g.I.`.`./.6.e l i &.R H G.lXlXr.+.&.&.&.&.&.&.&.g l l &.&.>.>.:.6.4.<.<.<.<.<.4.<.<.<.5.5.5.5.<.<.<.<.<.<.<.<.<.<.<.4.4.4.4.4.,.&.&.&.&.&.&.&.&.&.&.&.&.&.&.&.&.&.&.&.&.&.&.&.&.&.&.&.&.&.&.&.&.&.&.&.&.*.*.*.*.4.4.4.4.6.4.4.<.<.1.1.1.1.1.1.1.1.1.1.1.1.1.1.1.<.<.6.6.6.<.*.*.*.*.&.&.&.&.&.&.&.l &.&.&.&.&.&.l i i R ;.;.;.l &.i i &.R A 2.~.`._.f._.`.`.Q.H :.:.v.T s.zXbXdX+X^ 2.2.5.7.,.,.,.,.,.,.,.,.:.-.*.*.*.*.&.&.&.&.*.*.*.*.&.&.&.*.&.;.:.:.,.,.:.-.<.1.<.<.<.<.<.<.<.<.<.1.<.1.<.<.1.1.2.2.1.1.1.1.1.1.1.1.1.1.1.1."
};
