/* XPM */
static char *_4251e6607ae453dee5701962857dcferoEeZafUWnfT4cdF[] = {
/* columns rows colors chars-per-pixel */
"512 512 247 2 ",
"   c #5EBACB",
".  c #5FB9D1",
"X  c #64BCCD",
"o  c #6BBCCC",
"O  c #68B9C6",
"+  c #74BDCC",
"@  c #7ABDCC",
"#  c #75BBC6",
"$  c #64BED3",
"%  c #6ABED2",
"&  c #65BED8",
"*  c #74BED1",
"=  c #7ABFD1",
"-  c #5CC1CE",
";  c #5DC2D4",
":  c #5FC2D9",
">  c #63C1CD",
",  c #6DC3CD",
"<  c #6DC9CE",
"1  c #74C3CE",
"2  c #7AC2CD",
"3  c #73C8CF",
"4  c #7CCACE",
"5  c #79C0C6",
"6  c #64C3D5",
"7  c #6DC5D4",
"8  c #65CAD5",
"9  c #6DCAD5",
"0  c #64C3DA",
"q  c #6DC6D9",
"w  c #66CCDB",
"e  c #6DCBDB",
"r  c #74C5D4",
"t  c #7AC5D4",
"y  c #73CAD5",
"u  c #7BCAD5",
"i  c #73C6D9",
"p  c #7AC6DA",
"a  c #73CBDB",
"s  c #7CCCDB",
"d  c #6CD2DD",
"f  c #66D2DA",
"g  c #7CD1D6",
"h  c #75D2DC",
"j  c #7DD2DD",
"k  c #7CD9DD",
"l  c #74D7DA",
"z  c #6DCDE1",
"x  c #74CDE1",
"c  c #7CCEE2",
"v  c #7ECFE9",
"b  c #7AC7E0",
"n  c #6CD1E1",
"m  c #74D2E2",
"M  c #7ED3E3",
"N  c #7DD9E3",
"B  c #7ED4E8",
"V  c #7ED9EA",
"C  c #76DAE4",
"Z  c #81BEC6",
"A  c #83C4CD",
"S  c #8AC6CE",
"D  c #85CBCD",
"F  c #8ACDCE",
"G  c #81C1C7",
"H  c #94CACE",
"J  c #95C6CD",
"K  c #82C5D4",
"L  c #8BC7D3",
"P  c #83CBD5",
"I  c #8BCCD5",
"U  c #83C5D9",
"Y  c #83CEDC",
"T  c #8ACDDC",
"R  c #8AC7DA",
"E  c #93CDD5",
"W  c #9BCDD5",
"Q  c #93CEDB",
"!  c #9BCEDB",
"~  c #94C6D6",
"^  c #84D1D6",
"/  c #8CD2D5",
"(  c #83D2DE",
")  c #8BD2DD",
"_  c #83D9DE",
"`  c #8DD9DE",
"'  c #8ED8D7",
"]  c #94D2D5",
"[  c #9BD2D6",
"{  c #93D3DD",
"}  c #9AD3DD",
"|  c #93D9DE",
" . c #9CD9DE",
".. c #96D9D6",
"X. c #8CD1CE",
"o. c #A3CEDC",
"O. c #A4CED6",
"+. c #A2D3D6",
"@. c #A3D4DC",
"#. c #ABD5DD",
"$. c #A4D9DE",
"%. c #AADADE",
"&. c #A9D4D7",
"*. c #B4D9DD",
"=. c #83CEE2",
"-. c #8ACEE2",
";. c #86CFE9",
":. c #89CDE8",
">. c #92CEE1",
",. c #99CFE2",
"<. c #82D2E4",
"1. c #8CD5E3",
"2. c #84D9E4",
"3. c #8DD9E5",
"4. c #82D3E8",
"5. c #8CD6E9",
"6. c #84DAEA",
"7. c #8DDAEA",
"8. c #93D6E6",
"9. c #9AD5E3",
"0. c #92D9E5",
"q. c #9BDAE5",
"w. c #93D6E9",
"e. c #9AD5E9",
"r. c #93DAE9",
"t. c #9BDCEA",
"y. c #8CDDF1",
"u. c #84D8F0",
"i. c #93DDF1",
"p. c #9CDEF1",
"a. c #95D6F1",
"s. c #A2D5E2",
"d. c #AAD5E2",
"f. c #A2DBE5",
"g. c #ABDCE4",
"h. c #A3DDEA",
"j. c #ABDDEB",
"k. c #A2D7E9",
"l. c #B4DDE5",
"z. c #BADEE6",
"x. c #B4DFEB",
"c. c #BADEEC",
"v. c #B0D6E4",
"b. c #A4DEF1",
"n. c #ABDEF2",
"m. c #B4DEF1",
"M. c #BBDEF2",
"N. c #8DE1EC",
"B. c #83E2E6",
"V. c #94E1E6",
"C. c #9CE2E6",
"Z. c #95E1EC",
"A. c #9CE2EC",
"S. c #9FEAEE",
"D. c #8BE2F1",
"F. c #95E3F2",
"G. c #9CE3F2",
"H. c #9CE9F5",
"J. c #9BE6F9",
"K. c #9DEBFA",
"L. c #96E8F8",
"P. c #9EF0FC",
"I. c #A5E2E6",
"U. c #ACE2E5",
"Y. c #ADEBE6",
"T. c #A4E2ED",
"R. c #ADE4ED",
"E. c #A5E9EE",
"W. c #ADE9ED",
"Q. c #B3E2E6",
"!. c #B9E3E7",
"~. c #B4E4EC",
"^. c #B9E3EC",
"/. c #B3E9ED",
"(. c #BBE9ED",
"). c #B3E9E7",
"_. c #A7F1EE",
"`. c #A4E5F3",
"'. c #ACE5F2",
"]. c #A5EAF4",
"[. c #ADE9F4",
"{. c #A4E5FA",
"}. c #ACE6F9",
"|. c #A5EBFA",
" X c #ACEBF9",
".X c #B4E4F2",
"XX c #BAE4F2",
"oX c #B2EAF4",
"OX c #BAEAF3",
"+X c #B4E6F9",
"@X c #BBE5F9",
"#X c #B3EBFA",
"$X c #BBEBFA",
"%X c #A4F1FE",
"&X c #ACF2FE",
"*X c #A9F3F6",
"=X c #BCF1F5",
"-X c #B4F2FC",
";X c #BCF3FD",
":X c #B4FBFF",
">X c #BCFDFF",
",X c #B0F1F7",
"<X c #B8F4EF",
"1X c #A8E0DF",
"2X c #C2DEEC",
"3X c #C0DFE2",
"4X c #C2DEF1",
"5X c #C2E4ED",
"6X c #C3EBEE",
"7X c #CCECEE",
"8X c #C6E4E8",
"9X c #D3EDED",
"0X c #DAEDEE",
"qX c #D4F2EE",
"wX c #DAF1EE",
"eX c #D6F0E7",
"rX c #C1E5F2",
"tX c #C3ECF4",
"yX c #CBEDF4",
"uX c #C3EDFB",
"iX c #CBEEFB",
"pX c #C6E5F7",
"aX c #D3EEF3",
"sX c #DAEEF5",
"dX c #D3EEFA",
"fX c #DCEEFB",
"gX c #C4F2F5",
"hX c #CBF3F5",
"jX c #C4F4FD",
"kX c #CCF4FC",
"lX c #C4FCFF",
"zX c #CCFBFE",
"xX c #C7F8F6",
"cX c #D4F3F5",
"vX c #DBF3F5",
"bX c #D3F9F6",
"nX c #DBF9F6",
"mX c #D4F4FC",
"MX c #DBF5FC",
"NX c #D4FBFE",
"BX c #DAFBFE",
"VX c #CAF2EE",
"CX c #E2EEF6",
"ZX c #E1F4F5",
"AX c #E2F4FC",
"SX c #E2FAFD",
"DX c #E6FAFA",
/* pixels */
"8.8.8.8.8.8.8.8.8.8.8.8.8.8.8.8.8.8.8.8.8.8.8.8.8.8.8.8.8.8.8.8.8.8.8.8.8.8.8.8.8.8.8.8.8.8.8.8.8.8.8.8.8.8.8.8.8.8.8.8.8.8.8.8.w.r.8.9.q.T.~.~.~.OX'.q.{ 8.8.1.q.'..X~.XX^.^..X~.'.oXr.Y 1.j j P f.zXzXh.L ^ 1.9.9.8.0.5.5.9.9.8.8.8.8.8.8.8.8.8.8.8.8.8.8.8.0.3.2.( ( <.1.4.4.<.<.<.<.<.<.<.<.<.<.<.<.B B N N M M s 1.3.r.r.8.8.8.8.8.8.8.8.8.8.8.8.8.8.8.8.8.8.8.3.1.1.( Y Y 1.<.<.<.N N M N B M M M M M M M <.<.<.<.<.<.<.<.4.4.4.4.4.4.B B B <.N N N N N j j ( 1.1.( s Y Y 1.T 8.8.{ h.#XOX^.^.~.R.[.T.9.{ ) T E h.R.~.x.^.^./.~.'.].0.^ j ^ ^ ) S OXzXNXg.P j 2.( j ( ) ( Y ( 1.3.8.8.8.8.8.8.8.8.8.8.8.8.8.8.8.8.8.8.8.8.8.8.8.8.8.8.8.8.8.8.8.8.8.8.8.8.2.1.( ( Y <.<.4.M <.<.<.4.<.<.B <.<.<.<.<.<.<.<.M M <.<.N N N <.Y Y ( 1.3.0.0.r.8.8.8.8.9.9.9.8.8.8.8.8.8.8.8.8.8.8.8.8.8.8.8.8.8.8.8.8.8.8.0.8.1.1.1.) T T T T <.N N M ( ( ( ( u P 8.T.[.#Xh.Q T ) 1.1.) ) t.W.~.x.XXXX.X.Xx.9.r.3.9.W !.NXcXbXuX+.9.8.8.r.3.r.8.8.8.8.8.8.8.8.1.1.1.1.T T T T T T T T 1.1.1.1.8.8.8.8.8.8.8.8.8.8.8.8.8.8.8.8.8.8.8.8.8.8.8.8.8.8.8.8.8.8.8.8.8.8.8.8.8.8.8.8.",
"8.8.8.8.8.8.8.8.8.8.8.8.8.8.8.8.8.8.8.8.8.8.8.8.8.8.8.8.8.8.8.8.8.8.8.8.8.8.8.8.8.8.8.8.8.8.8.8.8.8.8.8.8.8.8.8.8.8.8.8.8.8.8.8.w.r.8.9.q.T.~.~.~.OX'.q.{ 8.8.1.q.'..X~.XX^.^..X~.'.[.0.Y 2.j <.P f.zXzXI.P ( 3.9.9.8.0.5.5.9.9.8.8.8.8.8.8.8.8.8.8.8.8.8.8.8.8.3.2.1.( 1.1.<.<.<.<.<.<.<.<.<.<.<.<.<.<.B B N N M M Y 1.3.r.r.8.8.8.8.8.8.8.8.8.8.8.8.8.8.8.8.8.8.8.3.1.1.1.( ( ( ( <.M M N M M B M M M M M M M <.<.<.<.<.<.<.<.4.4.4.4.4.4.B B <.<.N N N N N ( ( ( ( ( ( ( 1.1.1.1.8.9.Q f..X~.^.^.~.R.[.T.9.{ 8.T { h..X.X^.^.^.~.~.'.].r.( ( ) ( / S OXzXNXg.K j <.( j ( ) ( ( 1.1.3.8.8.8.8.8.8.8.8.8.8.8.8.8.8.8.8.8.8.8.8.8.8.8.8.8.8.8.8.8.8.8.8.8.8.8.8.2.2.1.( <.1.<.<.M <.<.<.4.<.<.<.<.<.<.<.<.<.<.<.M M <.<.<.N <.( ( ( 1.1.3.0.0.0.8.8.8.8.9.9.9.9.8.8.8.8.8.8.8.8.8.8.8.8.8.8.8.8.8.8.8.8.8.8.8.8.1.1.1.1.1.) T ( j M j j j ( ( ( Y 1.t.`.[.#XR.9.Q 1.1.3.) { t.W.~.x.XXXX.X.Xx.9.r.3.9.W !.NXcXbXgX+.9.8.8.r.3.r.8.8.8.8.8.8.8.8.8.8.8.8.8.8.1.1.1.1.8.8.8.8.8.8.8.8.8.8.8.8.8.8.8.8.8.8.8.8.8.8.8.8.8.8.8.8.8.8.8.8.8.8.8.8.8.8.8.8.8.8.8.8.8.8.",
"8.8.8.8.8.8.8.8.8.8.8.8.8.8.8.8.8.8.8.8.8.8.8.8.8.8.8.8.8.8.8.8.8.8.8.8.8.8.8.8.8.8.8.8.8.8.8.8.8.8.8.8.8.8.8.8.8.8.8.8.8.8.8.8.w.r.8.9.q.T..X~.~.OX'.q.9.8.0.1.q.'..X~..X^.^..X~.R.[.8.Y 1.M 1.D f.kXzXT.T ) 3.9.9.8.0.1.5.9.9.8.8.8.8.8.8.8.8.8.8.8.8.8.8.8.8.3.5.1.1.4.4.1.<.<.<.<.<.<.<.<.<.<.<.<.<.N M N N <.j ( 1.0.r.w.8.8.8.8.8.8.8.8.8.8.8.8.8.8.8.8.8.8.8.0.3.3.1.1.1.Y ( <.M M M M N M M M B M M <.<.<.<.<.<.<.<.<.<.<.<.<.<.<.<.B B <.<.<.<.N N N ( 1.( s s ( 1.5.3.3.8.8.9.Q k..XR.^.^.~.R.[.T.9.{ r.{ 9.R.#X.X^.^.^.~.R.'.}.V.( 1.( ^ / S OXzXNXg.K ( <.( ( 1.1.( 1.1.3.8.8.8.8.8.8.8.8.8.8.8.8.8.8.8.8.8.8.8.8.8.8.8.8.8.8.8.8.8.8.8.8.8.8.8.8.8.3.3.2.1.1.<.( Y <.<.<.<.<.<.<.<.<.<.<.<.<.<.<.<.<.<.<.<.<.M <.( 1.1.1.3.0.0.0.0.8.8.8.8.9.9.9.8.8.8.8.8.8.8.8.8.8.8.8.8.8.8.8.8.8.8.8.8.8.8.8.8.8.8.8.8.1.1.1.1.<.M <.<.( ( ( ( ( r.T.'.#X#X'.h.8.1.8.0.3.| f.[.~.~.XXXX.X.XR.9.r.3.9.W ^.BXcXbXkX+.9.8.8.r.3.r.8.8.8.8.8.8.8.8.r.r.r.8.8.8.8.8.8.8.8.8.8.w.r.w.8.8.8.8.8.8.8.8.8.8.8.8.8.8.8.8.8.8.8.8.8.8.8.8.8.8.8.8.8.8.8.8.8.8.8.8.8.8.8.8.",
"8.8.8.8.8.8.8.8.8.8.8.8.8.8.8.8.8.8.8.8.8.8.8.8.8.8.8.8.8.8.8.8.8.8.8.8.8.8.8.8.8.8.8.8.8.8.8.8.8.8.8.8.8.8.8.8.8.8.8.8.8.8.8.8.w.r.8.9.q.T..X~.~.OX'.q.9.8.8.8.q.'..X~..X^.^..X~.'.[.{ U 1.j 1.I f.kXzXR./ 1.0.9.9.8.0.3.5.8.9.8.8.8.8.8.8.8.8.8.8.8.8.8.8.8.8.0.3.3.2.2.4.1.( <.<.<.<.<.<.<.<.<.<.<.<.N N N <.<.( 1.1.8.r.w.8.8.8.8.8.8.8.8.8.8.8.8.8.8.8.8.8.0.0.0.0.3.3.1.1.Y ( <.<.<.M M N M M M B M M <.<.<.<.<.<.<.<.<.<.<.<.<.<.<.<.B B <.<.<.<.<.N <.( ) ^ s s 1.5.7.7.r.8.r.9.Q k.'.R.^.^.~.R.[.T.9.{ e.9.9.R.#X.X^.^.^.^.~.'.}.Z.1.1.( P / S OXzXNXg.L ( 1.1.1.1.5.1.3.8.0.8.8.8.8.8.8.8.8.8.8.8.8.8.8.8.8.8.8.8.8.8.8.8.8.8.8.8.8.8.8.8.8.8.8.8.8.8.r.3.3.5.4.1.Y s <.<.<.<.<.<.<.<.<.<.<.<.<.<.<.<.<.<.<.<.<.<.<.1.2.2.3.3.0.0.8.8.8.8.8.8.9.9.9.8.8.8.8.8.8.8.8.8.8.8.8.8.8.8.8.8.8.8.8.8.8.8.8.8.0.0.8.8.8.8.8.3.2.2.2.2.2.1.1.1.) t.`.[.'..X.X'.9.8.8.0.3.| T.[.~.^.XXXX.X.XR.9.0.3.9.[ ^.BXcXcXkX@.9.8.8.r.3.r.8.8.8.8.8.8.8.8.8.8.8.8.8.8.8.8.8.8.8.8.8.8.8.8.8.8.8.8.8.8.8.8.8.8.8.8.8.8.8.8.8.8.8.8.8.8.8.8.8.8.8.8.8.8.8.8.8.8.8.8.8.8.8.8.",
"8.8.8.8.8.8.8.8.8.8.8.8.8.8.8.8.8.8.8.8.8.8.8.8.8.8.8.8.8.8.8.8.8.8.8.8.8.8.8.8.8.8.8.8.8.8.8.8.8.8.8.8.8.8.8.8.8.8.8.8.8.8.8.8.w.r.8.9.q.T..X~.~.oXR.q.8.8.r.8.q.'..X~..X^.^..X.X'.[.{ K ( s ( I g.kXzXT./ 1.0.9.9.8.0.3.1.8.9.8.8.8.8.8.8.8.8.8.8.8.8.8.8.8.8.8.8.3.8.3.2.1.( <.<.<.<.<.N M M M M N N N M <.<.<.1.1.3.w.w.w.8.8.8.8.8.8.8.8.8.8.8.8.8.8.8.8.8.0.0.8.0.0.3.3.2.( ( <.<.<.<.<.<.N N N M <.<.<.<.<.<.<.<.<.<.<.<.<.<.<.<.<.<.<.<.<.<.<.<.<.<.<.( ( Y Y ( 5.7.7.3.8.8.8.9.{ f..X~.^.^.~.R.[.T.| { e.9.9.R.#X.X~.^.^.^.x.'.[.A.3.3.1.) { E OXzXNXQ.T 1.5.1.1.3.r.3.8.8.8.8.8.8.8.8.8.8.8.8.8.8.8.8.8.8.8.8.8.8.8.8.8.8.8.8.8.8.8.8.8.8.8.8.8.8.8.8.r.7.7.3.2.1.<.Y 1.<.<.<.<.<.<.<.<.N <.<.<.<.<.<.<.<.<.=.=.1.1.1.7.3.r.0.0.0.8.8.8.8.8.8.9.9.8.8.8.8.8.8.8.8.8.8.8.8.8.8.8.8.8.8.8.8.8.8.8.8.8.8.r.r.0.0.0.8.8.0.7.7.3.3.5.3.3.3.) t.[.[.'..X.X.Xq.8.0.0.0.| T.[.~.^.XXXX.X.XR.8.0.3.9.[ (.BXcXbXkX@.9.8.8.r.1.r.8.8.8.8.8.8.8.8.8.8.8.8.8.8.8.8.8.8.8.8.8.8.8.8.8.8.8.8.8.8.8.8.8.8.8.8.8.8.8.8.8.8.8.8.8.8.8.8.8.8.8.8.8.8.8.8.8.8.8.8.8.8.8.8.",
"8.8.8.8.8.8.8.8.8.8.8.8.8.8.8.8.8.8.8.8.8.8.8.8.8.8.8.8.8.8.8.8.8.8.8.8.8.8.8.8.8.8.8.8.8.8.8.8.8.8.8.8.8.8.8.8.8.8.8.8.8.8.8.8.w.r.8.9.q.T..X~.~.~.R.q.8.8.r.8.q.'..X~..X^.^..X.X.X#X8.P 1.j 1./ g.kXNX'.{ 3.0.9.9.8.0.3.3.8.9.8.8.8.8.8.8.8.8.8.8.8.8.8.8.8.8.8.8.8.8.0.3.3.1.1.<.<.M <.N M M M M N N M <.<.<.<.1.1.8.w.w.8.8.8.8.8.8.8.8.8.8.8.8.8.8.8.8.8.8.8.0.8.8.0.0.3.3.1.1.4.1.<.<.<.<.<.N <.<.<.<.<.<.<.<.<.<.<.<.1.<.<.B <.<.<.<.<.<.<.<.<.<.<.<.<.( ( ^ 1.5.7.7.3.3.3.8.8.9.8.h.#X~.^.^.~.R.[.T.| { r.9.9.R..X.X~.^.^.^.^.'.[.A.8.r.0.) 9.] $XNXBX^.{ 3.r.3.3.r.r.r.8.8.8.8.8.8.8.8.8.8.8.8.8.8.8.8.8.8.8.8.8.8.8.8.8.8.8.8.8.8.8.8.8.8.8.8.8.8.8.8.8.8.3.3.3.1.1.1.1.1.<.<.=.<.<.<.N N M M <.<.<.<.<.1.=.=.1.1.3.3.7.r.0.r.0.0.8.8.8.8.8.8.9.9.9.8.8.8.8.8.8.8.8.8.8.8.8.8.8.8.8.8.8.8.8.8.8.8.8.8.0.0.0.0.8.0.0.0.3.7.3.3.3.3.3.0.) t.'.'..X.X.X.Xf.r.8.8.0.0.T.W.~.^.XXXX.X.XR.9.3.3.9.[ (.BXcXcXmXd.e.8.8.r.1.r.8.8.8.8.8.8.8.8.8.8.8.8.8.8.8.8.8.8.8.8.8.8.8.8.8.8.8.8.8.8.8.8.8.8.8.8.8.8.8.8.8.8.8.8.8.8.8.8.8.8.8.8.8.8.8.8.8.8.8.8.8.8.8.8.",
"8.8.8.8.8.8.8.8.8.8.8.8.8.8.8.8.8.8.8.8.8.8.8.8.8.8.8.8.8.8.8.8.8.8.8.8.8.8.8.8.8.8.8.8.8.8.8.8.8.8.8.8.8.8.8.8.8.8.8.8.8.8.8.8.w.r.8.9.q.T..X~.~.~.R.q.9.8.r.8.q.'..X~..X^.^.XX^..X#Xe.) 3.4.3.{ g.NXNX.X{ 1.0.9.9.8.0.3.3.8.8.8.8.8.8.8.8.8.8.8.8.8.8.8.8.8.8.8.8.8.8.w.r.3.2.1.<.<.<.<.N N N N N N N <.<.<.<.T 1.8.8.8.8.8.8.8.8.8.8.8.8.8.8.8.8.8.8.8.8.8.8.1.8.8.8.8.8.3.3.3.3.2.1.1.<.1.<.<.<.<.<.<.<.<.<.<.<.<.<.<.<.<.<.<.B <.<.<.<.<.<.<.<.<.<.( ( ( ( ( ) 2.3.3.5.3.3.0.8.r.9.8.h.#X~.^.^.~.R.[.T.| { r.8.9.R.XX.X^.^.^.^.^..X[.T.8.r.0.8.9.} jXNXBX^.{ 0.r.0.3.0.r.8.8.8.8.8.8.8.8.8.8.8.8.8.8.8.8.8.8.8.8.8.8.8.8.8.8.8.8.8.8.8.8.8.8.8.8.8.8.8.8.8.3.3.3.3.3.3.2.2.1.1.<.Y =.=.<.4.N N N N <.<.<.<.1.1.=.=.1.1.w.r.3.0.0.0.0.0.8.8.8.8.8.8.8.8.8.8.8.8.8.8.8.8.8.8.8.8.8.8.8.8.8.8.8.8.8.8.8.8.8.8.8.8.8.8.8.8.8.8.3.3.3.3.3.3.8.8.{ t.'..X.X.X^..Xh.r.8.8.8.| f.W.~.^.XXXX.X.XR.9.3.3.9.} (.BXcXcXmXd.e.8.8.r.1.r.8.8.8.8.8.8.8.8.8.8.8.8.8.8.8.8.8.8.8.8.8.8.8.8.8.8.8.8.8.8.8.8.8.8.8.8.8.8.8.8.8.8.8.8.8.8.8.8.8.8.8.8.8.8.8.8.8.8.8.8.8.8.8.8.",
"8.8.8.8.8.8.8.8.8.8.8.8.8.8.8.8.8.8.8.8.8.8.8.8.8.8.8.8.8.8.8.8.8.8.8.8.8.8.8.8.8.8.8.8.8.8.8.8.8.8.8.8.8.8.8.8.8.8.8.8.8.8.8.8.w.r.8.9.q.T..X~.~.~.R.q.9.r.r.8.q.'..X~..X^.^.XX~..X#Xt.8.r.5.r.] U.NXNX.X| ) 0.e.e.8.3.3.3.8.8.8.8.8.8.8.8.8.8.8.8.8.8.8.8.8.8.8.8.8.8.w.r.0.3.1.1.<.<.<.M N N N N N <.<.<.<.1.T 1.8.w.8.8.8.8.8.8.8.8.8.8.8.8.8.8.8.8.8.8.8.8.1.1.8.8.8.8.3.3.r.0.3.1.1.1.1.=.<.<.<.<.<.<.<.<.<.<.<.<.<.<.<.<.B B <.<.<.<.<.<.<.<.<.<.( ( ( ( ) 1.0.3.2.1.3.0.r.8.r.9.8.f..XW.^.^.~.R.[.T.| { r.8.9.R.#XXX.XXXXXrX^..X#XT.8.r.0.{ 9.[ uXmXMX^.{ 0.r.8.8.8.8.8.8.8.8.8.8.8.8.8.8.8.8.8.8.8.8.8.8.8.8.8.8.8.8.8.8.8.8.8.8.8.8.8.8.8.8.8.8.8.8.8.8.3.3.3.3.3.3.7.1.1.1.Y =.<.<.1.<.N N <.<.<.<.1.1.=.=.-.1.8.r.r.8.3.0.0.0.0.8.8.8.8.8.8.8.8.8.8.8.8.8.8.8.8.8.8.8.8.8.8.8.8.8.8.8.8.8.8.8.8.8.8.8.8.8.8.8.8.8.8.8.0.0.0.3.0.8.9.{ f..X.X.XXXXX.Xh.q.8.{ 8.| t.T.~.x.XXXX.X.XR.9.3.8.9.} (.BXcXcXmXd.e.9.8.w.1.r.8.8.8.8.8.8.8.8.8.8.8.8.8.8.8.8.8.8.8.8.8.8.8.8.8.8.8.8.8.8.8.8.8.8.8.8.8.8.8.8.8.8.8.8.8.8.8.8.8.8.8.8.8.8.8.8.8.8.8.8.8.8.8.8.",
"8.8.8.8.8.8.8.8.8.8.8.8.8.8.8.8.8.8.8.8.8.8.8.8.8.8.8.8.8.8.8.8.8.8.8.8.8.8.8.8.8.8.8.8.8.8.8.8.8.8.8.8.8.8.8.8.8.8.8.8.8.8.8.8.w.8.8.| q.R..X~.~.OXR.9.{ 8.r.1.q..X.X~..X^.x.XX^..XR.q.8.3.7.3.E OXBXkX;XT 0.0.e.e.e.w.5.5.8.8.8.8.8.8.8.8.8.8.8.8.8.8.8.8.8.8.8.8.8.8.8.8.8.3.3.5.5.4.<.N j j N N <.<.<.1.1.1.0.8.8.8.8.8.8.8.8.8.8.8.8.8.8.8.8.8.8.8.8.8.8.8.8.8.0.0.0.0.8.0.1.3.0.0.3.3.1.1.( ( <.<.<.<.<.<.1.1.M <.<.<.<.<.M M M <.<.<.<.<.1.<.( ( ( 1.1.1.3.0.3.3.3.3.3.3.8.8.8.9.{ k..XR.^.(.~.W.oXT.0.{ r.8.9.T.XX.X^.^.^.c.XX.XR.q.8.8.1.8.9.[ kXmXMXiX9.8.8.8.8.r.8.8.8.8.8.8.8.8.8.8.8.8.8.8.8.8.8.8.8.8.8.8.8.8.8.8.8.8.8.8.8.8.8.8.8.8.8.8.8.8.8.8.8.0.8.0.0.0.0.3.3.2.2.2.1.1.1.<.<.( ( ( ( ( ( ( 1.1.1.8.8.r.w.r.8.8.8.8.8.8.8.8.8.8.8.8.8.8.8.8.8.8.8.8.8.8.8.8.8.8.8.8.8.8.8.8.8.8.8.8.8.8.8.8.8.8.8.8.8.8.8.8.8.8.8.8.8.8.8.9.9.R..X.X@XXXx..X'.8.8.r.8.| h.W.~.^.^.^.XX.Xh.9.r.1.| [ hXcXMXcXhXx.! 8.w.w.3.8.8.8.8.8.8.8.8.8.8.8.8.8.8.8.8.8.8.8.8.8.8.8.8.8.8.8.8.8.8.8.8.8.8.8.8.8.8.8.8.8.8.8.8.8.8.8.8.8.8.8.8.8.8.8.8.8.8.8.8.8.8.8.8.8.",
"8.8.8.8.8.8.8.8.8.8.8.8.8.8.8.8.8.8.8.8.8.8.8.8.8.8.8.8.8.8.8.8.8.8.8.8.8.8.8.8.8.8.8.8.8.8.8.8.8.8.8.8.8.8.8.8.8.8.8.8.8.8.8.8.w.8.8.9.q.R..X~.~.OXR.9.8.8.r.1.q.'..X~..X^.x.^.^..XR.q.8.0.7.0.E OXBXkXjXE 0.0.e.e.e.w.5.5.8.8.8.8.8.8.8.8.8.8.8.8.8.8.8.8.8.8.8.8.8.8.8.8.8.3.7.7.5.5.4.4.<.<.M M M M <.1.T T 8.8.8.8.8.8.8.8.8.8.8.8.8.8.8.8.8.8.8.8.8.8.8.8.8.8.0.0.0.0.8.8.8.3.8.0.8.3.1.1.1.1.1.1.<.<.<.<.1.( j j <.<.<.<.<.<.<.<.<.<.<.<.<.<.( ( ( 1.1.1.0.0.3.3.3.3.3.3.8.1.8.9.{ k..X~.^.(.~.W.oXT.0.{ r.8.9.R.#X.X^.^.^.c.XX.XR.q.8.8.r.8.e.} kXNXBXkX9.8.8.8.8.8.8.8.8.8.8.8.8.8.8.8.8.8.8.8.8.8.8.8.8.8.8.8.8.8.8.8.8.8.8.8.8.8.8.8.8.8.8.8.8.8.8.8.8.0.8.8.8.0.0.0.0.3.5.2.2.2.2.1.( ( ( ( ( ( ( ( 1.1.3.8.w.w.w.w.8.8.8.8.8.8.8.8.8.8.8.8.8.8.8.8.8.8.8.8.8.8.8.8.8.8.8.8.8.8.8.8.8.8.8.8.8.8.8.8.8.8.8.8.8.8.8.8.8.8.8.8.8.8.9.9.9.R..X^.XXXXx..X'.8.8.r.8.9.I.W.~.~.^.^.XX#XT.9.r.8.} [ hXcXMXcXkXx.! 8.w.w.8.8.8.8.8.8.8.8.8.8.8.8.8.8.8.8.8.8.8.8.8.8.8.8.8.8.8.8.8.8.8.8.8.8.8.8.8.8.8.8.8.8.8.8.8.8.8.8.8.8.8.8.8.8.8.8.8.8.8.8.8.8.8.8.8.8.",
"8.8.8.8.8.8.8.8.8.8.8.8.8.8.8.8.8.8.8.8.8.8.8.8.8.8.8.8.8.8.8.8.8.8.8.8.8.8.8.8.8.8.8.8.8.8.8.8.8.8.8.8.8.8.8.8.8.8.8.8.8.8.8.8.w.8.8.8.q.R..X~.~.OXR.9.8.w.r.1.q.'..X~..X^.x.^..X.XR.q.8.8.r.0.] OXBXkXjX{ r.r.9.e.e.w.5.5.w.8.8.8.8.8.8.8.8.8.8.8.8.8.8.8.8.8.8.9.8.8.9.8.8.8.r.r.7.3.5.5.5.2.<.<.<.<.( ) T T 8.8.8.8.8.8.8.8.8.8.8.8.8.8.8.8.8.8.8.8.8.8.8.8.8.8.8.8.8.8.8.8.8.8.8.8.8.8.1.1.<.<.1.1.1.1.1.1.<.( j M <.<.<.<.<.N <.<.<.<.<.<.( ( ( 1.1.1.3.3.0.0.8.0.r.r.0.0.8.8.w.9.{ k.'.W.^.^.~.W.oXT.0.{ r.| 9.T.#X.X^.^.^.c.XX.XR.q.8.0.0.8.} [ kXmXmXyX9.8.8.8.8.8.8.8.8.8.8.8.8.8.8.8.8.8.8.8.8.8.8.8.8.8.8.8.8.8.8.8.8.8.8.8.8.8.8.8.8.8.8.8.8.8.8.8.8.8.8.0.0.0.8.0.r.r.0.3.5.5.3.5.5.5.5.5.5.2.2.3.1.1.8.8.8.8.8.8.8.8.8.8.8.8.8.8.8.8.8.8.8.8.8.8.8.8.8.8.8.8.8.8.8.8.8.8.8.8.8.8.8.8.8.8.8.8.8.8.8.8.8.8.8.8.8.8.8.8.8.8.8.8.8.9.9.T..X^.XXXXx..X'.8.8.r.8.9.T.W.~.^.^.^.XX#XT.9.r.8.} +.hXcXMXcXkX^.,.8.w.w.8.8.8.8.8.8.8.8.8.8.8.8.8.8.8.8.8.8.8.8.8.8.8.8.8.8.8.8.8.8.8.8.8.8.8.8.8.8.8.8.8.8.8.8.8.8.8.8.8.8.8.8.8.8.8.8.8.8.8.8.8.8.8.8.8.8.",
"8.8.8.8.8.8.8.8.8.8.8.8.8.8.8.8.8.8.8.8.8.8.8.8.8.8.8.8.8.8.8.8.8.8.8.8.8.8.8.8.8.8.8.8.8.8.8.8.8.8.8.8.8.8.8.8.8.8.8.8.8.8.8.8.w.8.8.8.q.R..X~.~.OXR.9.{ 8.r.1.q.'..X~..X^.x.^.^..XR.q.8.8.r.0.] OXBXmXjX] r.r.9.e.e.w.6.5.w.w.8.8.8.8.8.8.8.8.8.8.8.8.8.8.8.8.8.8.8.8.9.8.8.8.8.0.3.3.7.7.7.7.2.2.2.3.3.8.8.8.8.8.8.8.8.0.0.0.8.8.8.8.8.8.8.8.8.8.8.8.8.8.8.8.8.8.8.8.8.8.8.8.8.8.8.8.8.8.8.1.3.2.2.2.1.1.1.1.1.<.<.<.1.4.<.<.M M <.<.<.<.<.<.( ( 1.1.1.3.3.0.8.8.8.8.w.r.r.8.8.8.8.9.{ f..XW.^.^.~.~.oXT.0.{ 0.| 9.T.#X.X^.^.^.^..X.XR.q.8.0.0.) { [ kXkXmXkXe.8.8.r.r.8.r.q.8.8.8.8.8.8.8.8.8.8.8.8.8.8.8.8.8.8.8.8.8.8.8.8.8.8.8.8.8.8.8.8.8.8.8.8.8.8.8.8.8.8.8.8.8.0.8.8.8.0.0.0.w.r.r.r.3.3.7.7.7.r.r.r.3.3.8.8.8.8.8.8.8.8.8.8.8.8.8.8.8.8.8.8.8.8.8.8.8.8.8.8.8.8.8.8.8.8.8.8.8.8.8.8.8.8.8.8.8.8.8.8.8.8.8.8.8.8.8.8.8.8.8.0.8.8.8.9.9.'..X~.XXXXx.XX'.9.8.r.8.9.T.W.~.~..X^.XX#XT.9.r.8.9.+.kXcXMXcXmX^.,.8.e.w.8.w.8.8.8.8.8.8.8.8.8.8.8.8.8.8.8.8.8.8.8.8.8.8.8.8.8.8.8.8.8.8.8.8.8.8.8.8.8.8.8.8.8.8.8.8.8.8.8.8.8.8.8.8.8.8.8.8.8.8.8.8.8.8.8.8.",
"8.8.8.8.8.8.8.8.8.8.8.8.8.8.8.8.8.8.8.8.8.8.8.8.8.8.8.8.8.8.8.8.8.8.8.8.8.8.8.8.8.8.8.8.8.8.8.8.8.8.8.8.8.8.8.8.8.8.8.8.8.8.8.8.w.8.8.{ k.R..X~.~.oXR.9.9.r.r.1.q.'..X~..X^.^.^..X.Xj.q.8.8.r.8.[ (.BXmXjX{ q.r.9.e.w.w.5.5.w.w.8.8.8.8.8.8.8.8.8.8.8.8.8.8.8.8.8.9.9.9.8.8.8.8.8.3.3.3.3.r.r.7.7.0.0.0.w.w.8.9.8.8.9.8.0.0.0.0.8.8.8.8.8.8.8.8.8.8.8.8.8.8.8.8.8.{ | | 0.0.8.8.8.8.8.8.8.8.8.8.3.3.3.1.1.1.1.1.<.( ( <.<.<.( j N N N <.<.<.( ( ( ( 1.1.3.3.0.0.8.8.8.8.8.8.8.8.8.8.8.9.{ f.[.W.^.^.~.W.oXT.9.{ r.9.9.'.#X.Xx.^.^.^..X.XT.e.8.3.r.8.9.} zXkXBXNXf.8.8.r.8.8.8.r.8.8.8.8.8.8.8.8.8.8.8.8.8.8.8.8.8.8.8.8.8.8.8.8.8.8.8.8.8.8.8.8.8.8.8.8.8.8.8.8.8.9.8.8.8.8.8.8.8.8.8.0.0.0.r.r.3.3.3.3.3.3.3.3.0.0.0.0.0.8.8.8.8.8.8.8.8.8.8.8.8.8.8.8.8.8.8.8.8.8.8.8.8.8.8.8.8.8.8.8.8.8.8.8.8.8.8.8.8.8.8.8.8.8.8.8.8.8.8.8.8.0.0.0.0.8.9.9.9.'..X~.XX^.x.XX.X9.8.e.8.9.I.W.~.~.^.~.XX#XT.9.r.8.9.@.bXbXMXcXmX^.9.8.w.w.8.r.8.8.8.8.8.8.8.8.8.8.8.8.8.8.8.8.8.8.8.8.8.8.8.8.8.8.8.8.8.8.8.8.8.8.8.8.8.8.8.8.8.8.8.8.8.8.8.8.8.8.8.8.8.8.8.8.8.8.8.8.8.8.8.8.",
"8.8.8.8.8.8.8.8.8.8.8.8.8.8.8.8.8.8.8.8.8.8.8.8.8.8.8.8.8.8.8.8.8.8.8.8.8.8.8.8.8.8.8.8.8.8.8.8.8.8.8.8.8.8.8.8.8.8.8.8.8.8.8.8.w.8.8.{ k.R..X~.~.oXR.9.8.r.r.1.e.'..X~..X^.^.^..X.Xj.k.8.8.r.8.[ 6XBXmXjX} t.r.9.e.e.w.5.5.w.w.8.8.8.8.8.8.8.8.8.8.8.8.8.8.8.8.8.9.8.8.8.8.8.8.8.8.8.3.8.0.r.r.0.0.8.8.w.w.8.8.8.8.9.0.0.0.3.3.8.8.8.8.8.8.8.8.8.8.8.8.8.8.8.8.8.{ | | 8.8.8.8.8.8.8.8.8.8.8.8.3.3.3.3.2.2.2.2.( ( j ( ( ( j s j M M N <.<.1.<.1.1.1.1.3.0.0.8.8.8.8.8.8.8.8.8.8.8.8.9.{ f.[.W.^.^.~.W.oXT.9.{ r.8.9.'.XX.Xx.^.^.^..X.XT.e.0.3.0.) 9.} jXuXcXkXh.r.8.8.8.T R 1.8.8.8.8.8.8.8.8.8.8.8.8.8.8.8.8.8.8.8.8.8.8.8.8.8.8.8.8.8.8.8.8.8.8.8.8.8.8.8.8.8.9.8.8.8.8.8.8.8.8.8.8.0.0.3.3.0.3.8.3.8.3.0.0.0.0.0.0.0.0.8.8.8.8.8.8.8.8.8.8.8.8.8.8.8.8.8.8.8.8.8.8.8.8.8.8.8.8.8.8.8.8.8.8.8.8.8.8.8.8.8.8.8.8.8.8.8.8.8.8.8.0.0.0.0.0.{ 9.e.'.oX~.~.^.^.XX.Xe.9.e.{ | I.W.~.~..X.XXX[.T.9.8.8.9.@.NXMXMXcXmX^.9.8.w.w.8.r.8.8.8.8.8.8.8.8.8.8.8.8.8.8.8.8.8.8.8.8.8.8.8.8.8.8.8.8.8.8.8.8.8.8.8.8.8.8.8.8.8.8.8.8.8.8.8.8.8.8.8.8.8.8.8.8.8.8.8.8.8.8.8.8.",
"8.8.8.8.8.8.8.8.8.8.8.8.8.8.8.8.8.8.8.8.8.8.8.8.8.8.8.8.8.8.8.8.8.8.8.8.8.8.8.8.8.8.8.8.8.8.8.8.8.8.8.8.8.8.8.8.8.8.8.8.8.8.8.8.w.8.8.9.k.R..X~.~.oXR.9.9.r.r.1.e.'..X~..X^.^.^..X.Xj.k.8.8.w.8.[ 6XBXmXkX9.t.8.9.e.e.w.5.5.w.w.8.8.8.8.8.8.8.8.8.8.8.8.8.8.8.8.8.9.9.8.8.8.8.8.8.8.8.8.8.8.r.r.8.8.8.8.8.8.8.8.9.9.9.0.0.3.3.3.8.8.8.8.8.8.8.8.8.8.8.8.8.8.8.8.8.{ | | 8.8.9.9.8.8.8.9.8.8.8.8.8.8.3.3.3.3.5.5.1.1.1.1.1.( j u j j j j <.<.1.1.1.1.1.3.0.0.0.8.8.8.8.8.8.8.8.8.8.8.8.9.{ f.[.W.~.^.~.W.oXT.9.{ r.8.9.'.XX.X^.^.^.^..X.XT.e.0.3.3.) 9.} OXz.5XuXh.r.8.8.8.T T 1.8.0.0.0.0.0.0.8.8.8.8.8.8.8.8.8.8.8.8.8.8.8.8.8.8.8.8.8.8.8.8.8.8.8.8.8.8.8.8.8.8.9.9.9.8.8.8.8.8.8.8.8.8.8.3.3.r.r.r.r.r.r.r.r.0.0.0.r.r.0.0.0.8.8.8.8.8.8.8.8.8.8.8.8.8.8.8.8.8.8.8.8.8.8.8.8.8.8.8.8.8.8.8.8.8.8.8.8.8.8.8.8.8.8.8.8.8.8.8.8.0.0.3.3.0.0.8.9.t.[.[.R..X^.^..X.Xe.9.e.{ | I.W.~.^..X^..X[.T.9.8.8.9.$.BXMXMXaXBX^.9.8.e.w.8.r.8.8.8.8.8.8.8.8.8.8.8.8.8.8.8.8.8.8.8.8.8.8.8.8.8.8.8.8.8.8.8.8.8.8.8.8.8.8.8.8.8.8.8.8.8.8.8.8.8.8.8.8.8.8.8.8.8.8.8.8.8.8.8.8.",
"8.8.8.8.8.8.8.8.8.8.8.8.8.8.8.8.8.8.8.8.8.8.8.8.8.8.8.8.8.8.8.8.8.8.8.8.8.8.8.8.8.8.8.8.8.8.8.8.8.8.8.8.8.8.8.8.8.8.8.8.8.8.8.8.8.8.8.9.k.R.~.~.~.oXR.9.8.r.r.1.q.'..X~..X^.x.^..X.Xj.k.9.8.r.9.[ 6XBXmXkX} t.9.9.9.w.7.5.5.8.8.8.8.8.8.8.8.8.8.8.8.8.8.8.8.8.8.8.9.8.8.8.8.8.8.8.8.8.8.w.8.w.w.w.w.w.w.w.w.8.8.9.8.8.0.0.3.3.3.8.8.8.8.8.8.8.8.8.8.8.8.8.8.8.8.8.8.0.0.8.8.9.8.8.8.8.8.8.8.8.8.8.8.8.3.3.3.7.7.7.7.3.3.5.1.( j j j j j <.1.1.1.1.3.3.3.0.0.0.8.8.8.8.8.8.8.8.8.8.8.8.9.{ f.[.W.~.^.~.W.oXT.0.{ 0.8.9.'.#X.Xx.^.^.^.~..XT.q.0.3.r.0.t.9..Xv.5XuXh.8.8.r.r.1.8.t.8.0.8.0.8.0.8.8.8.8.8.8.8.8.8.8.8.8.8.8.8.8.8.8.8.8.8.8.8.8.8.8.8.8.8.8.8.8.8.8.8.9.9.9.8.8.8.8.r.r.r.r.r.8.8.8.8.8.8.8.8.8.8.8.8.0.0.r.r.r.r.0.8.8.8.8.8.8.8.8.8.8.8.8.8.8.8.8.8.8.8.8.8.8.8.8.8.8.8.8.8.8.8.8.8.8.8.8.8.8.8.8.8.8.8.8.8.8.8.8.8.0.0.3.0.0.0.0.t.[.oX~..X~.~..XXXe.9.e.{ | I.W.~.^..X~.XX[.T.9.3.1.q.s.BXMXMXaXBX^.@.} 9.8.8.r.8.8.8.8.8.8.8.8.8.8.8.8.8.8.8.8.8.8.8.8.8.8.8.8.8.8.8.8.8.8.8.8.8.8.8.8.8.8.8.8.8.8.8.8.8.8.8.8.8.8.8.8.8.8.8.8.8.8.8.8.8.8.8.8.",
"8.8.8.8.8.8.8.8.8.8.8.8.8.8.8.8.8.8.8.8.8.8.8.8.8.8.8.8.8.8.8.8.8.8.8.8.8.8.8.8.8.8.8.8.8.8.8.8.8.8.8.8.8.8.8.8.8.8.8.8.8.8.8.8.8.r.{ { I./.~.~.~.~.j.9.9.r.8.T 9.~.OX~..X^.^.XX~..XR.q.9.8.0.9.[ hXcXBXkX@.! q.9.0.3.3.3.3.9.9.0.0.0.3.0.0.0.0.0.0.0.0.0.0.0.0.8.8.8.8.8.8.8.8.8.8.8.8.8.8.8.8.8.8.8.8.8.8.8.8.8.8.8.8.8.0.8.8.8.8.8.8.8.8.8.8.8.8.8.8.8.8.8.8.8.8.8.8.8.8.8.8.8.8.8.8.8.8.8.8.8.8.0.0.8.8.8.8.8.w.r.3.r.r.2.s 1.5.3.3.3.0.0.8.8.8.8.8.8.8.8.8.8.8.8.8.w.8.8.w.w.8.8.9.{ k.[.W.~.^.~.R.oXT.0.| 0.{ e.'.oX~.~.XX^.^.~.R.'.T r.0.r.8.8.} zXkXyXkX'.r.8.r.8.8.r.8.8.8.8.8.8.8.8.8.8.8.8.8.8.8.8.0.8.8.0.0.0.0.3.0.8.8.8.8.8.8.8.8.8.8.8.8.8.8.8.8.8.8.8.8.8.8.8.8.8.8.8.8.8.8.8.8.8.8.8.8.8.8.8.8.8.8.8.8.8.8.8.8.8.8.8.8.8.8.8.8.8.8.8.8.8.8.8.8.8.8.8.8.8.8.8.8.8.8.8.8.8.8.8.8.8.8.8.8.8.8.8.8.8.8.8.8.8.8.8.8.8.8.8.r.0.8.9.| k..X.X~.~.~.R..X'.e.9.e.8.| T.oX~..X.X^.XX.XI.8.0.3.R R.NXBXBXcXhXtXW Q q.8.8.1.8.0.8.8.8.0.0.0.0.0.8.0.8.8.8.w.8.8.8.8.8.8.8.8.8.8.8.8.8.8.8.8.8.8.8.8.8.8.8.8.8.8.8.8.8.8.8.8.8.8.8.8.8.8.8.8.8.8.8.8.8.8.8.8.",
"8.8.8.8.8.8.8.8.8.8.8.8.8.8.8.8.8.8.8.8.8.8.8.8.8.8.8.8.8.8.8.8.8.8.8.8.8.8.8.8.8.8.8.8.8.8.8.8.8.8.8.8.8.8.8.8.8.8.8.8.8.8.8.8.8.r.{ ] I.~.~.~.~.~.f.9.9.r.8.R 9.~.OX~.~.~.^.OX~..XR.q.9.8.0.9.+.hXhXNXkXd.} q.8.3.3.3.3.0.| 9.8.8.8.8.8.8.8.8.8.8.8.8.8.8.8.8.8.8.8.8.8.8.8.8.8.8.8.8.8.8.8.8.8.8.8.8.8.8.8.8.8.8.8.8.8.8.8.8.8.8.8.8.8.8.8.8.8.8.8.8.8.8.8.8.8.8.8.8.8.8.8.8.8.8.8.8.8.8.8.8.8.8.0.0.8.8.8.8.8.w.w.8.r.r.1.u 1.5.3.3.8.0.8.8.8.8.8.8.8.8.8.8.8.8.8.8.w.8.w.8.w.8.8.9.{ k.[.W.~./.~.R.oXT.0.| 0.{ e.T.#X~.~.XX^.^.~.R.'.T r.w.r.w.9.} zXhXcXmXT.) T 3.8.8.r.8.8.8.8.8.8.8.8.8.8.8.8.8.8.8.8.8.8.8.0.0.0.0.3.0.8.8.8.8.8.8.8.8.8.8.8.8.8.8.8.8.8.8.8.8.8.8.8.8.8.8.8.8.8.8.8.8.8.8.8.8.8.8.8.8.8.8.8.8.8.8.8.8.8.8.8.8.8.8.8.8.8.8.8.8.8.8.8.8.8.8.8.8.8.8.8.8.8.8.8.8.8.8.8.8.8.8.8.8.8.8.8.8.8.8.8.8.8.8.8.8.8.8.8.r.r.8.9.| f..X.X~.~.~.R.'.}.e.9.e.8.| T.[.~..X.X^.XX.Xh.8.7.3.T R.zXhXyX8XhXgX+.] 9.T T K r.0.0.0.0.0.0.0.0.0.8.8.8.8.w.w.8.8.8.8.8.8.8.8.8.8.8.8.8.8.8.8.8.8.8.8.8.8.8.8.8.8.8.8.8.8.8.8.8.8.8.8.8.8.8.8.8.8.8.8.8.8.8.8.",
"8.8.8.8.8.8.8.8.8.8.8.8.8.8.8.8.8.8.8.8.8.8.8.8.8.8.8.8.8.8.8.8.8.8.8.8.8.8.8.8.8.8.8.8.8.8.8.8.8.8.8.8.8.8.8.8.8.8.8.8.8.8.8.8.8.r.{ { I.~.~.~.~.W.f.} 9.r.3.P q.~.OX~.~.~.^.OX~..XR.q.9.8.r.9.+.xXzXNXkXg.9.e.8.3.5.5.3.3.0.9.8.9.9.9.9.9.9.9.9.9.9.9.9.9.9.8.8.8.8.8.8.8.8.8.8.8.8.8.8.8.8.8.8.8.8.8.8.8.8.8.8.8.8.8.8.8.8.8.8.8.8.8.8.8.8.8.8.8.8.8.8.8.8.8.8.8.8.8.8.8.8.8.8.8.8.8.8.8.8.8.0.0.0.0.8.8.8.8.8.8.8.8.r.r.=.t 1.5.0.3.8.0.8.8.8.8.8.8.8.8.8.8.8.8.8.8.8.w.8.8.w.8.9.9.{ k.[.W.~.^.~.R.oXT.0.8.r.8.9.T..X~.~.XX^.^.~.W.'.R r.0.r.r.9.s.NXmXmXBXI.u 2 ) 3.1.0.r.8.8.8.8.e.8.8.w.w.w.8.8.8.w.w.w.8.8.8.8.8.8.8.8.8.8.8.8.8.8.8.8.8.8.8.8.8.8.8.8.8.8.8.8.8.8.8.8.8.8.8.8.8.8.8.8.8.8.8.8.8.8.8.8.8.8.8.8.8.8.8.8.8.8.8.8.8.8.8.8.8.8.8.8.8.8.8.8.8.8.8.8.8.8.8.8.8.8.8.8.8.8.8.8.8.8.8.8.8.8.8.8.8.8.8.8.8.8.8.8.8.8.8.0.0.0.9.| f..X.X~.~.~.R.'.'.e.9.9.{ | T.[.~.~.XX^.XX.Xh.9.0.0.E ~.NXyX5X*.6XtX} [ q.8.8.T r.0.0.0.r.r.r.r.8.8.8.8.8.8.8.8.8.8.8.8.8.8.8.8.8.8.8.8.8.8.8.8.8.8.8.8.8.8.8.8.8.8.8.8.8.8.8.8.8.8.8.8.8.8.8.8.8.8.8.8.8.8.8.8.",
"8.8.8.8.8.8.8.8.8.8.8.8.8.8.8.8.8.8.8.8.8.8.8.8.8.8.8.8.8.8.8.8.8.8.8.8.8.8.8.8.8.8.8.8.8.8.8.8.8.8.8.8.8.8.8.8.8.8.8.8.8.8.8.8.8.r.{ { I.~.~.~.~.W.f.} 9.r.1.K k.~.~.~.~.~.^.^.^..XR.q.9.8.w.9.+.xXNXNXNX~.9.8.8.3.5.5.3.3.8.8.9.9.9.9.9.9.9.9.9.9.9.9.9.9.9.9.8.8.8.8.8.8.8.8.8.8.8.8.8.8.8.8.8.8.8.8.8.8.8.8.8.8.8.8.8.8.8.8.8.8.8.8.8.8.8.8.8.8.8.8.8.8.8.8.8.8.8.8.8.8.8.8.8.8.8.8.8.8.8.8.0.0.0.0.8.8.8.8.r.8.8.8.r.3.Y 2 1.2.3.3.8.0.8.8.8.8.8.8.8.8.8.8.8.8.8.8.0.0.8.8.w.8.9.9.{ k.[.~.~.^.~.W.#XT.0.{ 0.{ 9.R..X.X^.^.^.^.~.W.'.K 8.8.r.8.9.@.NXbXMXBXT.2 # ^ 3.) 0.r.8.8.8.8.9.9.e.e.w.w.8.8.8.w.w.w.8.8.8.8.8.8.8.8.8.8.8.8.8.8.8.8.8.8.8.8.8.8.8.8.8.8.8.8.8.8.8.8.8.8.8.8.8.8.8.8.8.8.8.8.8.8.8.8.8.8.8.8.8.8.8.8.8.8.8.8.8.8.8.8.8.8.8.8.8.8.8.8.8.8.8.8.8.8.8.8.8.8.8.8.8.8.8.8.8.8.8.8.8.8.8.8.8.8.8.8.8.8.8.8.8.8.8.0.0.0.9.| f..X.X~.~.~.R.[.'.e.9.0.{ | T.'.~.~..X^.XX.Xh.9.8.r.Q ~.BXcX7X8X6XgX@.{ q.r.t.r.1.8.8.8.r.r.r.r.8.8.8.8.9.9.9.8.8.8.8.8.8.8.8.8.8.8.8.8.8.8.8.8.8.8.8.8.8.8.8.8.8.8.8.8.8.8.8.8.8.8.8.8.8.8.8.8.8.8.8.8.8.8.8.8.",
"8.8.8.8.8.8.8.8.8.8.8.8.8.8.8.8.8.8.8.8.8.8.8.8.8.8.8.8.8.8.8.8.8.8.8.8.8.8.8.8.8.8.8.8.8.8.8.8.8.8.8.8.8.8.8.8.8.8.8.8.8.8.8.8.8.r.{ { I.~.~.~.~.W.f.} 8.r.1.t f.~.~.R.~.~.^.~.^..XR.q.9.8.r.9.+.bXNXNXNXXXd.Q 8.3.7.5.7.7.w.w.8.8.8.8.8.8.8.8.8.8.8.8.8.8.8.8.8.8.8.8.8.8.8.8.8.8.8.8.8.8.8.8.8.w.w.w.w.w.w.w.w.w.w.w.w.w.w.8.8.8.8.8.8.8.8.8.8.8.8.8.8.8.8.8.8.8.8.8.8.8.8.8.8.8.8.8.8.8.8.8.0.0.0.0.8.8.8.8.r.8.3.0.r.1.s 1 1.5.0.3.8.0.8.8.8.8.8.8.8.8.8.8.0.8.8.8.8.8.8.8.w.8.8.9.{ k.oX~.~.^.~.W.#XT.9.9.e.{ 9.j.XX.X^.^.^.^.~..X'.K 8.8.8.9.} @.NXbXvXBXW.4 # ^ ` ) 0.r.8.8.8.9.e.e.e.e.w.w.w.w.w.w.w.w.e.e.w.8.w.8.w.8.8.8.8.8.8.8.8.8.8.8.8.8.8.8.8.8.8.8.8.8.8.8.8.8.8.8.8.8.8.8.8.8.8.8.8.8.8.8.8.8.8.8.8.8.8.8.8.8.8.8.8.8.8.8.8.8.8.8.8.8.8.8.8.8.8.8.8.8.8.8.8.8.8.8.8.8.8.8.8.8.8.8.8.8.8.8.8.8.8.8.8.8.8.8.8.8.8.8.9.0.0.0.8.{ k..X.X~.~.~.R.W.'.e.8.r.{ { T.'.~.~..X^..X.Xh.9.9.9.E ^.BXmXmXaXBXzX$.] 9.8.r.w.1.8.8.8.8.8.8.8.8.8.9.9.e.e.e.8.8.8.8.8.8.8.8.8.8.8.8.8.8.8.8.8.8.8.8.8.8.8.8.8.8.8.8.8.8.8.8.8.8.8.8.8.8.8.8.8.8.8.8.8.8.8.8.8.",
"8.8.8.8.8.8.8.8.8.8.8.8.8.8.8.8.8.8.8.8.8.8.8.8.8.8.8.8.8.8.8.8.8.8.8.8.8.8.8.8.8.8.8.8.8.8.8.8.8.8.8.8.8.8.8.8.8.8.8.8.8.8.8.8.8.r.{ { I./.~.~.~.W.k.{ 8.r.1.2 h.oX~.R.~.~.^.~.^..XR.q.8.8.r.9.+.NXBXmXBXuXx.} 8.8.3.3.7.w.w.w.8.8.8.8.8.8.8.8.8.8.8.8.8.8.8.8.8.8.8.8.8.8.8.8.8.8.8.8.8.8.8.8.w.w.w.w.w.w.w.w.w.w.w.w.w.w.w.w.8.8.8.8.8.8.8.8.8.8.8.8.8.8.8.8.8.8.8.8.8.8.8.8.8.8.8.8.8.8.8.8.0.0.0.0.8.8.8.8.8.1.3.r.7.( p 2 1.5.0.3.8.0.8.8.8.8.8.8.8.8.8.8.0.8.8.8.8.8.8.8.w.8.8.9.{ k.[.~.~.^.~.~.#XT.9.9.8.Q 8.h.XX.X.X.X^.^..X.X'.2 1.8.8.{ } @.NXcXvXMX>X' 4 ' ] { 0.0.9.8.8.9.e.e.e.e.w.w.w.w.w.w.w.w.w.e.w.w.w.w.e.w.8.8.8.8.8.8.8.8.8.8.8.8.8.8.8.8.8.8.8.8.8.8.8.8.8.8.8.8.8.8.8.8.8.8.8.8.8.8.8.8.8.8.8.8.8.8.8.8.8.8.8.8.8.8.8.8.8.8.8.8.8.8.8.8.8.8.8.8.8.8.8.8.8.8.8.8.8.8.8.8.8.8.8.8.8.8.8.8.8.8.8.8.8.8.8.8.8.8.9.0.0.0.8.{ k.XX.X~.~.~.R.W.}.9.8.9.) { T.W.~.~..X^..X.XI.9.9.q.E ^.mXmXMXbXBXzX[ S T 8.i.7.0.0.0.8.1.) T R 8.8.8.9.w.e.e.e.8.8.8.8.8.8.8.8.8.8.8.8.8.8.8.8.8.8.8.8.8.8.8.8.8.8.8.8.8.8.8.8.8.8.8.8.8.8.8.8.8.8.8.8.8.8.8.8.",
"8.8.8.8.8.8.8.8.8.8.8.8.8.8.8.8.8.8.8.8.8.8.8.8.8.8.8.8.8.8.8.8.8.8.8.8.8.8.8.8.8.8.8.8.8.8.8.8.8.8.8.8.8.8.8.8.8.8.8.8.8.8.8.8.3.r.{ { I./.~.~.oXW.k.8.8.r.( + I.oX~.R.~.~.^.~.~..XR.q.9.8.r.| &.bXbXcXBXmXuX~.9.9.8.8.8.8.e.8.0.3.3.3.3.3.3.3.3.3.3.3.3.3.3.3.8.8.8.8.8.8.8.8.8.8.8.8.8.8.8.8.w.w.w.w.w.w.w.w.w.w.w.w.w.w.w.w.8.8.8.8.8.8.8.8.8.8.8.8.8.8.8.8.8.8.8.8.8.8.8.8.8.8.8.8.8.8.8.8.0.0.0.0.8.8.8.8.1.1.3.r.3.Y p t 1.5.0.3.8.0.8.8.8.8.8.8.8.8.8.8.8.8.8.8.8.8.8.8.w.8.8.9.{ k.[.~.^.^.^.~.#XR.9.9.8.Q Q j.XXXX.X^.^.x..X.X'.@ T 8.8.| } @.NXvXwXnXzXI.] ] ] } 9.| 9.9.8.8.w.w.w.w.w.8.8.8.8.8.8.8.w.w.w.w.w.w.w.e.8.8.8.8.8.8.8.8.8.8.8.8.8.8.8.8.8.8.8.8.8.8.8.8.8.8.8.8.8.8.8.8.8.8.8.8.8.8.8.8.8.8.8.8.8.8.8.8.8.8.8.8.8.8.8.8.8.8.8.8.8.8.8.8.8.8.8.8.8.8.8.8.8.8.8.8.8.8.8.8.8.8.8.8.8.8.8.8.8.8.8.8.8.8.8.8.8.8.8.0.0.0.8.{ k..X.X~.~.~.T.'.}.9.8.9.) { T.W.~..X.X.XXX.XI.9.| q.W !.MXvXvXvXbXgXH Z T 0.G.7.3.3.3.3.3.1.) T 8.8.8.8.w.w.w.e.8.8.8.8.8.8.8.8.8.8.8.8.8.8.8.8.8.8.8.8.8.8.8.8.8.8.8.8.8.8.8.8.8.8.8.8.8.8.8.8.8.8.8.8.8.8.8.8.",
"8.8.8.8.8.8.8.8.8.8.8.8.8.8.8.8.8.8.8.8.8.8.8.8.8.8.8.8.8.8.8.8.8.8.8.8.8.8.8.8.8.8.8.8.8.8.8.8.8.8.8.8.8.8.8.8.8.8.8.8.8.8.8.8.3.r.8.{ I..X~.~.oXW.k.9.8.r.=.+ I.oX~.R.~.~.^.~.~..XR.q.9.8.r.| &.MXcX7XMXBXmXtX+.} } 9.9.9.e.9.0.3.3.3.3.3.3.3.3.3.3.3.3.3.3.3.8.8.8.8.8.8.8.8.8.8.8.8.8.8.8.8.8.8.w.8.w.8.w.8.w.8.w.8.w.8.w.8.8.8.8.8.8.8.8.8.8.8.8.8.8.8.8.8.8.8.8.8.8.8.8.8.8.8.8.8.8.8.8.8.0.0.0.0.8.8.8.8.T ) 3.r.5.s t y 1.5.0.3.8.0.8.8.8.8.8.8.8.8.8.8.8.8.8.8.8.8.8.8.w.8.8.9.{ k.[.~.^.^.^.~.#XR.9.9.8.Q { h.+XXX.X.XXX^..X'.`.@ T 3.8.9.} #.BXvXwXvXBX(.$.[ [ } f.] 9.9.8.8.8.w.w.w.0.3.0.0.0.0.8.8.w.w.w.w.w.w.w.w.8.8.8.8.8.8.8.8.8.8.8.8.8.8.8.8.8.8.8.8.8.8.8.8.8.8.8.8.8.8.8.8.8.8.8.8.8.8.8.8.8.8.8.8.8.8.8.8.8.8.8.8.8.8.8.8.8.8.8.8.8.8.8.8.8.8.8.8.8.8.8.8.8.8.8.8.8.8.8.8.8.8.8.8.8.8.8.8.8.8.8.8.8.8.8.8.8.8.8.0.0.0.8.| k..X.X~.~.~.T.W.}.8.8.0.) { T.W.~..X.X.XXX[.T.9.{ } W ^.BXvXMXMXBXkXW Z I 8.r.Y ( 1.1.3.3.3.3.1.8.8.8.8.w.w.w.w.8.8.8.8.8.8.8.8.8.8.8.8.8.8.8.8.8.8.8.8.8.8.8.8.8.8.8.8.8.8.8.8.8.8.8.8.8.8.8.8.8.8.8.8.8.8.8.8.",
"8.8.8.8.8.8.8.8.8.8.8.8.8.8.8.8.8.8.8.8.8.8.8.8.8.8.8.8.8.8.8.8.8.8.8.8.8.8.8.8.8.8.8.8.8.8.8.8.8.8.8.8.8.8.8.8.8.8.8.8.8.8.8.8.8.w.8.{ T..X~.~.~.W.q.8.r.7.s t T.W.~.~.~.~.^.~.^.j.#X} 8.8.8.9.%.qXMXvXMXMXcXcX(.g.[ E ! @.s.! 9.3.1.0.0.0.0.0.0.0.0.0.0.3.1.8.8.8.8.8.8.8.8.8.8.r.8.8.8.8.8.8.8.8.8.8.8.8.w.8.8.8.8.8.8.8.8.8.8.8.8.8.w.r.r.8.8.8.8.8.8.8.8.8.8.8.8.8.8.8.8.8.8.8.8.8.8.8.8.8.8.0.0.0.0.8.8.0.T Y 5.7.j r y y s 5.0.3.r.8.8.w.8.8.8.8.8.8.8.8.8.8.8.8.8.8.8.0.8.8.8.8.9.9.I.~.~.XX.X.X#Xh.{ 9.t.L T '.XX.X.XXXXXx..XR.}.P t 1.r.| [ Q.cXcXwXnXcXNXgX#.J W @.$.9.9.r.r.0.3.2.1.1.` ` 1.3.0.0.3.0.3.1.1.1.8.w.w.8.8.8.8.8.8.8.8.8.8.8.8.8.8.8.8.8.8.8.8.8.8.8.8.8.8.8.8.8.8.8.8.8.8.8.8.8.8.8.8.8.8.8.8.8.8.8.8.8.8.8.8.8.8.8.8.8.8.8.8.8.8.8.8.8.8.8.8.8.8.8.8.8.8.8.8.8.8.8.8.8.8.8.8.8.8.8.8.8.8.8.8.8.8.8.8.8.8.0.0.3.3.0.9.f.W.OX.X~.W.W.[.h.8.8.8.r.0.t.W.~.~.~.~..X'.h.| 9.E @.uXBXvXsXMXbXhXg.E L 9.r.1.^ ) 3.V.V.3.3.1.1.3.0.r.r.r.8.r.8.8.8.8.r.r.w.8.8.8.8.8.8.8.8.8.8.8.r.8.8.8.8.8.8.8.8.8.8.8.8.8.8.8.8.8.8.8.8.8.8.8.8.8.8.8.8.8.",
"8.8.8.8.8.8.8.8.8.8.8.8.8.8.8.8.8.8.8.8.8.8.8.8.8.8.8.8.8.8.8.8.8.8.8.8.8.8.8.8.8.8.8.8.8.8.8.8.8.8.8.8.8.8.8.8.8.8.8.8.8.8.8.8.8.w.8.{ j..X.X~.R.R.9.{ r.2.s p '.W.~.~.~.~.^.~.~.j.#X{ 8.8.0.9.%.7XvXvXsXsXaXcXBXxX(.~.^.Q.v.d.s.9.9.} { { Q E { { } 9.9.9.9.e.9.9.9.9.9.9.9.9.9.9.8.9.8.9.r.r.q.r.r.r.8.8.8.1.8.8.8.8.8.r.r.r.8.8.8.8.8.8.8.8.8.8.8.8.8.8.8.8.8.8.8.8.8.8.8.8.8.8.8.8.8.8.8.8.8.0.0.0.0.8.8.0.Y Y 5.7.j y y y s 5.3.1.r.8.8.w.8.8.8.8.8.8.8.8.0.0.8.8.8.8.8.0.8.8.8.9.9.k.T.#X~.^.~..X#Xh.8.8.q.K Q '..X.X.XXXXXx.XX'.}.K t 1.3.{ } ~.NXbXqXnXcXBXMX8X#.&.O.H ! ] { 8.0.r.Z.Z.Z.V.q.0.q.0.0.3.1.3.0.r.r.r.r.r.8.8.8.8.8.8.8.8.8.8.8.8.8.8.8.8.8.8.8.8.8.8.8.8.8.8.8.8.8.8.8.8.8.8.8.8.8.8.8.8.8.8.8.8.8.8.8.8.8.8.8.8.8.8.8.8.8.8.8.8.8.8.8.8.8.8.8.8.8.8.8.8.8.8.8.8.8.8.8.8.8.8.8.8.8.8.8.8.8.8.8.8.8.8.8.8.8.8.0.3.3.3.0.| q.R.OX.XW.R.W.[.h.8.8.8.r.0.t.[.W.~.~.~..X[.T.9.A.E ! ^.BXSXvXvXBXBXOX} E 9.q.8.3.3.3.3.1.) ^ u ` 1.1.3.0.0.3.1.0.8.8.8.8.r.8.8.8.8.8.8.8.8.8.8.8.8.8.8.8.8.8.8.8.8.8.8.8.8.8.8.8.8.8.8.8.8.8.8.8.8.8.8.8.8.8.8.",
"8.8.8.8.8.8.8.8.8.8.8.8.8.8.8.8.8.8.8.8.8.8.8.8.8.8.8.8.8.8.8.8.8.8.8.8.8.8.8.8.8.8.8.8.8.8.8.8.8.8.8.8.8.8.8.8.8.8.8.8.8.8.8.8.8.r.8.8.R.#X~..XR.R.9.) 3.1.p p '.W.~.~.~.~.^.~..Xj.#XE 8.8.r.| Q.cXSXMXMXZXvXBXBXBXNXNXNXmXcXiXiXuXuXuXuX@X@XXXd.d.d.d.d.o.o.o.! } ! ! Q Q Q E 9.9.9.9.9.9.9.9.8.8.9.8.9.9.8.9.8.8.8.8.9.8.9.8.8.8.8.8.w.r.r.8.8.8.8.8.8.8.8.8.8.8.8.8.8.8.8.8.8.8.8.8.8.8.8.8.8.1.0.0.0.0.3.3.K s 5.7.j y y y u 5.3.1.r.0.8.r.8.8.8.8.8.8.8.8.0.8.8.8.8.8.8.8.8.8.8.8.9.q.R.#X~.~.~.#X#X`.8.r.r.K T '.+X.X.X.XXXx.#X'.{.t t 3.1.1.9.W.zXbX7XvXvXSXSXmXyXtX^.g.d.9.| { / ) ) ) ) ) ) { 0.0.0.8.0.r.r.r.r.3.1.1.8.8.8.8.8.8.8.8.8.8.8.8.8.8.8.8.8.8.8.8.8.8.8.8.8.8.8.8.8.8.8.8.8.8.8.8.8.8.8.8.8.8.8.8.8.8.8.8.8.8.8.8.8.8.8.8.8.8.8.8.8.8.8.8.8.8.8.8.8.8.8.8.8.8.8.8.8.8.8.8.8.8.8.8.8.8.8.8.8.8.8.8.8.8.8.8.8.8.0.0.3.3.0.| 9.j..X.XR.W.W.[.t.8.8.0.0.| t.[.W.~.~.~.#X[.T.9.t./ } ^.BXBXvXvXcXcXtX%.W } 9.T 0.3.` ` ^ ^ u 4 ` ` ` 3.0.0.3.1.r.8.1.1.8.8.8.8.8.8.8.8.8.8.8.8.8.8.8.8.8.8.8.8.8.8.8.8.8.8.8.8.8.8.8.8.8.8.8.8.8.8.8.8.8.8.8.8.",
"8.8.8.8.8.8.8.8.8.8.8.8.8.8.8.8.8.8.8.8.8.8.8.8.8.8.8.8.8.8.8.8.8.8.8.8.8.8.8.8.8.8.8.8.8.8.8.8.8.8.8.8.8.8.8.8.8.8.8.8.8.8.8.8.8.q.8.9.R.#X~..XR.T.9.1.3.<.p s '.~.~.~.~.~.^.~..XR..XL { 8.r.{ @.6XbXbXMXsXaXMX7XhXhXkXbXmXmXmXmXmXmXmXmXmXmXmXBXBXBXmXmXkXiXiX@XXX.X.Xj.j.h.k.k.k.q.q.9.| | { { { 8.| 9.| 9.9.9.9.9.9.9.| 9.9.8.1.1.8.8.r.r.8.8.8.8.8.8.8.8.8.8.8.8.8.8.8.8.8.8.8.8.8.8.8.8.8.8.1.1.0.0.0.3.1.t u 5.6.j y q < u 5.3.1.r.0.8.r.8.8.8.8.8.8.8.8.8.8.8.8.8.8.8.8.r.r.8.{ { 9.h..X~.~.~.[.oXT.8.r.8.K T }.#X'..X.XXX^.#X'.{.t t 7.7.0.8.f.OXtX6XaXvXMXMXmXmXBXBXkXkXjX$X'.I.t.9.9.| { ] {  .9.9.9.9.8.r.0.8.8.3.1.8.8.8.8.8.8.8.8.8.8.8.8.8.8.8.8.8.8.8.8.8.8.8.8.8.8.8.8.8.8.8.8.8.8.8.8.8.8.8.8.8.8.8.8.8.8.8.8.8.8.8.8.8.8.8.8.8.8.8.8.8.8.8.8.8.8.8.8.8.8.8.8.8.8.8.8.8.8.8.8.8.8.8.8.8.8.8.8.8.8.8.8.8.8.8.8.8.8.0.0.3.3.0.| { h..X.XW.W.W.[.q.8.8.0.8.] t.[.W.~..X.X.X[.T.8.0.8.h.OXmXMXvXMXMXBXNXgXOX.Xj.9.{ | | ) D 2 5 5 | 0.0.0.0.0.q.Z.8.8.1.T 1.8.8.r.8.8.8.8.8.8.8.8.8.8.8.8.8.8.8.8.8.8.8.8.8.8.8.8.8.8.8.8.8.8.8.8.8.8.8.8.8.8.8.8.",
"8.8.8.8.8.8.8.8.8.8.8.8.8.8.8.8.8.8.8.8.8.8.8.8.8.8.8.8.8.8.8.8.8.8.8.8.8.8.8.8.8.8.8.8.8.8.8.8.8.8.8.8.8.8.8.8.8.8.8.8.8.8.8.8.8.q.8.8.R.#X~..X'.T.9.8.3.M a s '.~.~.~.~.~.~.~.XXR.#XL T 8.0.8.] ~.jXkXBXMXbXBXbXNXNXNXNXNXmXBXmXmXmXBXBXBXBXBXmXmXmXmXmXmXmXmXNXNXNXNXzXzXzXlXjXjX;X;X;X-X-X-X'.T.T.I.h.q.q.q.{ { { ] E E L L 8.8.8.8.8.8.8.8.8.8.8.8.8.8.8.8.8.8.8.8.8.8.8.8.8.8.8.8.8.8.8.8.0.1.1.0.0.0.1.1.t u 2.2.a y y < u 5.3.3.0.0.8.r.8.8.8.8.8.8.8.8.8.8.8.8.8.w.w.w.w.8.8.8.8.9.R.oX.X.X'.'.[.t.1.3.1.t T }.#X'..X.XXX^.OX'.{.t p 5.7.r.1.9.T.~.(.hXMXMXmXcXmXBXBXmXBXNXzXkXjXjX$XOX~.R.g.$.@.} E E Q ] { 8.9.r.q.t.8.8.8.8.8.8.8.8.8.8.8.8.8.8.8.8.8.8.8.8.8.8.8.8.8.8.8.8.8.8.8.8.8.8.8.8.8.8.8.8.8.8.8.8.8.8.8.8.8.8.8.8.8.8.8.8.8.8.8.8.8.8.8.8.8.8.8.8.8.8.8.8.8.8.8.8.8.8.8.8.8.8.8.8.8.8.8.8.8.8.8.8.8.8.8.8.8.8.0.3.3.3.0.| { h.~..X~.W.W.T.e.8.8.0.) ) t.[.W.~..X.X#X'.t.) 3.3.e..XkXMXMXaXvXMXBXNXzXkXXXg.} f.W.f.E G @ G I { { I 5 # P ) 8.1.T T 1.8.8.r.8.8.8.8.8.8.8.8.r.r.8.8.8.8.8.8.8.8.8.8.8.8.8.8.8.8.8.8.8.8.8.8.8.8.8.8.8.8.8.8.",
"8.8.8.8.8.8.8.8.8.8.8.8.8.8.8.8.8.8.8.8.8.8.8.8.8.8.8.8.8.8.8.8.8.8.8.8.8.8.8.8.8.8.8.8.8.8.8.8.8.8.8.8.8.8.8.8.8.8.8.8.8.8.8.8.w.q.8.8.h..XR.W.'.T.9.1.5.s a s '.~.~.~.~.~.~.~.~.~.#XS K ) 8.8.T h.'.$XkXkXkXmXbXzXzXzXkXkXkXmXkXkXkXkXkXkXkXkXkXkXkXzXNXNXNXNXkXjXkXkXjXjXjXlXzXlXlXlXlXlXlXlXzXzXzXlXlXlXlXlX;X;X;X-X#XoXoXoX`.G.t.t.t.r.r.8.8.8.8.8.8.8.8.8.8.8.8.8.8.8.8.8.8.8.8.8.8.8.8.8.0.1.1.0.0.0.1.( 1 u 1.2.y 9 y 9 s 5.3.3.0.0.8.r.8.8.8.8.8.8.8.8.8.8.8.8.8.8.r.w.8.8.8.9.9.k.T.#XOX$X.X'.}.A.0.r.) t T }.#X'..X.XXX^.OX'.{.t p <.7.7.1.) f.R.(.kXmXmXmXBXNXNXBXmXmXmXmXBXBXBXmXmXkXkXuXrX^.^.g.g.s.9.} { Q Q 8.8.8.8.8.8.8.8.8.8.8.8.8.8.8.8.8.8.8.8.8.8.8.8.8.8.8.8.8.8.8.8.8.8.8.8.8.8.8.8.8.8.8.8.8.8.8.8.8.8.8.8.8.8.8.8.8.8.8.8.8.8.8.8.8.8.8.8.8.8.8.8.8.8.8.8.8.8.8.8.8.8.8.8.8.8.8.8.8.8.8.8.8.8.8.8.8.8.8.8.0.3.3.3.0.{ { k.R.~.oXoXT.T.8.8.0.0.) ^ q.[.W.~..X.XoXT.e.T Z.5.) f.jXBXvX8X7X9XcXcXmXkXrXv.~.OXzXjXOXR.R./.I.T.T.} S A I 9.q.8.8.8.8.8.8.8.8.8.8.8.8.8.8.8.8.8.8.8.8.8.8.8.8.8.8.8.8.8.8.8.8.8.8.8.8.8.8.8.8.8.8.8.8.8.8.8.",
"8.8.8.8.8.8.8.8.8.8.8.8.8.8.8.8.8.8.8.8.8.8.8.8.8.8.8.8.8.8.8.8.8.8.8.8.8.8.8.8.8.8.8.8.8.8.8.8.8.8.8.8.8.8.8.8.8.8.8.8.8.8.8.8.8.r.8.8.h.'.R.R.R.I.9.1.5.s 7 s '.~.~.~.~.~.~.~.^.~.#XA K T 8.8.U 1.>.9.j.j.d.g.@.@.$.$.g.g.v.g.g.1Xg.$.$.$.$.$.g.$.g.$.$.$.$.$.#.#.#.#.d.g.g.g.@.$.$.$.f.f.f.f.[ [ } } 9. .f.f.f.g.f.f.k.f.f.q.A.t.t.t.t.t.r.r.8.8.8.8.8.8.8.8.8.8.8.8.8.8.8.8.8.8.8.8.8.8.8.8.0.1.1.0.0.0.1.Y 1 u <.j 9 9 h 9 s 5.0.3.r.0.8.r.8.8.8.8.8.8.8.8.8.8.8.8.8.8.0.8.8.8.9.9.9.q.h.R..X.XI.h.`.q.1.7.T t T |.#X'..X.X^.x.XX'.}.t r v 6.7.2.) 9.f.g.~.^.^.OXtXgXhXkXhXcXcXmXmXMXMXMXMXBXBXMXBXBXBXBXNXOXXX.Xj.k.9.Q Q 8.8.8.8.8.8.8.8.8.8.8.8.8.8.8.8.8.8.8.8.8.8.8.8.8.8.8.8.8.8.8.8.8.8.8.8.8.8.8.8.8.8.8.8.8.8.8.8.8.8.8.8.8.8.8.8.8.8.8.8.8.8.8.8.8.8.8.8.8.8.8.8.8.8.8.8.8.8.8.8.8.8.8.8.8.8.8.8.8.8.8.8.8.8.8.8.8.8.0.3.3.3.0.{ { 9.f.R.~.oXT.9.9.8.r.0.) ^ 9.[.~.~..X~.'.R.9.K N.6.1.} x.yXaX8XvXvXvXbXBXBXmXtXrXkXNXNXNXzXzXzXzXzXlX;XoXW.oX-X`.G.t.r.r.r.8.8.8.8.8.8.8.8.8.8.T 1.8.8.8.8.8.8.8.8.8.8.8.8.8.8.8.8.8.8.8.8.8.8.8.8.8.8.8.8.8.8.",
"8.8.8.8.8.8.8.8.8.8.8.8.8.8.8.8.8.8.8.8.8.8.8.8.8.8.8.8.8.8.8.8.8.8.8.8.8.8.8.8.8.8.8.8.8.8.8.8.8.8.8.8.8.8.8.8.8.8.8.8.8.8.8.8.8.r.1.) h.'.T.T.T.t.8.1.1.p 7 s [..X.X~.~.^.^.~.~.~.#XA 2 U 5.7.F.i.5.-.e.9.Q } } | } 9.9.9.! Q { ] ] { ] ] ] ] ] ] ] { { | { { } } @.} ! } ! [ } } ] ] { { { { 9.9.9.9.9.9.9.9.{ { { { { { { { 1.1.1.1.8.8.w.8.w.8.w.8.w.8.w.8.8.0.8.0.8.0.8.0.8.0.8.0.w.r.8.3.3.2.1.3.r.7.1.Y r p N j 9 9 h q s 5.3.1.0.0.3.r.8.0.8.0.0.0.3.3.3.3.7.7.7.7.7.7.7.r.r.8.1.{ 9.e.e.r.) ) 3.( u ( Y r -.}.#X'..X.XXXx.XX'. Xs r c 4.y.5.1.3.{ T { { ] ] ] ] [ s.g.d.d.d.d.v.l.c.^.^.^.^.XXOXuX$X$XjXjX;X;X-X}.}.{.8.8.w.8.w.8.w.8.w.8.w.8.w.8.w.8.5.0.w.0.w.0.w.0.w.0.w.0.w.0.w.0.0.0.0.0.0.0.0.0.0.0.0.0.0.0.0.0.0.0.0.0.0.0.0.0.0.0.0.0.0.0.0.0.0.3.0.3.0.3.0.3.0.3.0.3.r.7.3.0.0.0.0.0.0.0.0.0.0.0.0.0.0.0.0.0.8.0.3.3.3.3.3.0.{ 9.q.I.[.[.A.) 1.3.3.3.) P | oX~.~.~.~.W.I.| K 1.r.r.{ ! g.yXcXyXhXhXhXyXkXkXkXtXtXtXtXtXOXOX~.OXOX.X.X'.W.W.'.}.].`.A.t.r.8.8.8.8.8.8.8.8.8.8.K P T 8.8.w.8.8.8.8.8.8.8.8.8.8.8.8.8.8.8.8.8.8.8.8.8.8.8.8.8.8.",
"9.9.9.9.9.9.9.9.9.8.9.8.9.8.9.8.0.0.0.0.0.0.0.0.8.8.8.8.8.8.8.8.8.9.8.9.9.9.9.9.9.9.9.9.9.9.9.9.8.9.8.9.8.9.8.9.8.9.9.9.9.9.9.8.3.3.3.3.3.0.3.0.0.1.7.) ( u o ( '..X.X^.^.^.~.^.g.oX'.) t s M c 4.4.6.6.5.5.5.5.5.5.5.5.5.5.5.5.8.8.8.8.8.8.8.8.1.1.1.8.8.w.w.w.3.3.3.3.3.2.2.2.2.2.3.3.2.2.2.2.2.2.2.2.2.2.2.2.2.2.2.2.2.5.2.5.w.w.w.w.w.r.w.w.w.w.a.r.a.r.w.r.7.7.7.7.7.7.7.7.7.7.7.7.7.7.7.7.y.7.7.7.y.6.B a a a a q q q q q M <.2.3.6.5.2.4.5.2.1.1.<.( ( <.M v v M v B v v a a a a a a a a i a a q q q q y t t 1.{.#X.Xm..X@Xx.'.#X`.K r s N N M M 4.4.5.5.4.4.4.4.4.2.5.5.2.2.2.2.2.3.3.3.1.1.1.1.1.1.3.3.3.5.7.7.7.7.r.i.w.w.a.w.w.5.w.5.w.5.w.5.w.5.w.5.7.7.7.7.7.7.7.7.6.6.6.6.6.6.6.6.4.4.5.5.5.7.7.7.7.7.7.7.7.7.7.7.3.3.3.3.3.3.3.3.3.3.3.3.3.3.3.3.6.6.6.5.6.2.5.6.5.2.2.2.2.2.2.2.5.5.5.5.5.5.5.5.5.5.5.5.5.5.5.5.7.7.7.6.6.6.7.7.7.7.r.r.r.7.7.6.6.D.6.2.u 4 T.W./.~.R.W.T.I.{ A 8.8.9.9.9.9.s.f.s.s.9.9.9.9.} } } } } } } } } } ] ] ] ] { { { { | { { { { { { { 8.8.8.8.8.8.{ 8.8.8.8.8.8.8.8.8.8.r.9.r.e.r.9.8.8.8.8.8.0.0.0.0.0.0.0.0.0.0.0.0.",
"8.8.8.8.8.9.9.9.8.8.8.8.8.8.8.8.0.0.0.0.0.3.3.8.1.1.1.1.1.1.1.8.8.8.8.8.8.8.8.8.8.8.8.8.8.8.8.8.r.r.r.r.r.r.r.r.r.r.r.r.r.r.r.r.5.5.5.5.5.5.3.3.2.<.2.( ( s 1 1.}..X.X^.^.^.^.^.~.oX`.) r % q q q i i i a a a a c c c c c c c c c c c c c c c c c c c c c =.=.=.v M v M c M c M c s c c c c c s c c c s c c c c c s c c c c c c <.=.=.=.<.<.=.<.=.=.;.=.4.<.=.<.<.<.<.<.<.<.4.<.<.<.4.<.<.<.<.<.4.B M B 4.B M a a a a a a e a a a y a j j j s a y y y y i r 7 7 q q q q q q q q x a x a x a x a z w z w e e e a s s 1.`.+X.Xm.@X@Xm.'.#X`.P 2 r 7 7 7 q 7 q i i a a e e a a a a e e e a a a a a a p a a a p a p a p a a a a a b p p p p p p p p c c c c c c c c c c c c c c c x c c c x c x x x a s b s c c v M c s c s c s c s j j j j j j j j y y y y j j h h j j j a a a h h j j j j j j j j j s s s s j s j s s s j s j s s s a s a s a s a p a s a s a p a e m a j t K T.W.R.R.R.W.[.T.Q @ T ) 8.8.8.1.8.8.8.8.8.8.8.8.8.8.8.{ ) { { { { { 8.8.8.8.8.8.8.8.0.0.0.0.0.0.0.0.8.8.8.8.8.0.| 0.8.8.8.8.8.8.8.8.8.8.8.8.8.8.8.8.3.3.3.3.0.0.0.3.3.3.3.3.3.3.3.3.",
"r.r.r.r.0.r.r.r.r.r.0.0.r.r.r.7.7.7.7.7.7.7.7.7.7.7.7.7.7.7.7.7.7.7.r.7.7.7.5.7.r.7.r.7.r.7.r.7.7.5.7.5.7.5.7.5.1.1.1.1.1.1.1.1.c M M M j M M M s p s p a p 7 2.}..X.X^.^.^.^.~.~.W.T.r.u r i c i i a a a a a a i i q 7 q 7 q 7 q 7 q 7 q 7 q 7 7 7 q 7 q q a a i i i i i i i i i i i i i i i i i i i i i i i i i i i i i i i i i q q q q q q q q q q q q q q q i t p t p t p t p t i t p t p p i i r i a a a 7 q q q q q q q q 7 7 7 r i i i i p p p y a y a y a a a a a a a a q q q q q q q q q q e q q q q i u U 8.'.+Xm.M.@X.X.X.X#X`.8.t 1 u p p p p a a a a a a a a a p a a a a a a a a i p p p p p p p p i t p p p p a a a q a a q q q q q 7 q q q 7 q 7 q 7 q 7 q 7 q 7 q 7 q 7 7 7 7 7 7 7 7 7 i i i i p a p y p y p y i q y y y y y y y y y y y y y y q q 9 q y y y y q y y y y y y y 9 9 7 7 r 7 7 9 r 7 7 9 r 9 7 7 p a a a y y p a y y y y y y y a 0 8 > y 2 K T.W.R.~.~.~.oXT.E @ P 1.5.r.r.r.7.7.r.r.r.r.r.r.r.r.7.r.r.r.r.7.r.r.2.2.2.2.5.2.2.2.3.3.3.3.3.3.3.3.r.r.0.0.0.0.0.0.7.7.7.7.7.7.7.7.7.7.7.7.7.7.7.7.7.7.7.7.7.7.7.7.7.7.7.7.7.7.7.7.",
"5.5.5.5.5.5.5.5.5.5.7.7.7.7.7.5.7.7.7.6.7.7.5.7.7.7.7.7.7.6.7.7.7.7.6.6.6.6.4.4.4.4.4.4.4.4.4.4.s c c c c c c c a a a a a a a a a a i a i a a a i 7 a 7 i i 7 5.}..X.X^.~.^.~.~.~.W.'.T.1.p p c p p p p a a a a a s a a a a a a a h h a a h h h a a h h h h h h p s s s s s s s s s s s s s s s s s s s s s s s s s s s s s s a a a a a a a h h a a a a a a a a s s s s s s s s s s s s s s s s p t t t p p p p a a a a a a a a a p s s s s s s p p s p s s s s a a a a a a a a a a a a a a a a a a a a a a s u + K q.#X$X.Xm.M.x..X.X.X'.t.) u t t t t r r r r p u u t t p u u p p p p p p p p y y y y y y y y y y y y y p s p a e a a a a e e a a h h h h h a a s s s s s s s s s s s a a a s s a s a s s s s p p p p p a p a y y a a a y a y p a p a p a a a y y y y y y a a y y y y y y y y y y y y y y y y y y y y y y y y y y y y y y y y y y y y y y y q a a 7 y 2 A T.R.~.~.~.~.#X[.9.K r t a s =.M <.M =.c =.c =.<.<.<.<.M <.j <.M <.M 2.6.2.2.2.2.2.2.2.2.2.2.2.2.2.2.2.2.2.2.2.2.2.2.5.6.7.6.7.6.7.6.7.7.7.7.7.6.7.5.6.6.5.6.7.5.5.5.5.6.5.6.5.6.5.6.",
"v c c c B v v v <.B B B <.<.<.B v v v v v v v v v v v v v v v v c c x x x a a a a a a a a a a e q q e e e e e e e e e e e e e e a a a a a a a a a q x q a a q 7.}..X.X~.~.~.~.~.~.~.[.}.r.t * p r r r r r r r r r r r r r r r r 9 7 7 7 7 9 9 9 7 7 7 7 q q q y t t t t t t t t t t t t r r t t t t t t t t t t t t t t t t t r y q q q q q q q q q q q q q q y t t t t t t t t p p t t t t t t t r r r t t t r r r r r r r r r i p t r r p p p r r r r r r r r r r r r r r r r p t t p t t t t p p p p t t t 2 K { T.#X$X.Xm.M.x..X.X'.'.}.E.q.K K K u K K U K K t t t t t t t t t t t t t t t t t t t t t t t r t t t t t t t 7 9 9 9 9 9 9 9 7 7 7 7 9 9 9 9 r r r r r r r r t t t t t r r t r r r y t r t r r r r r r r r r i i i i i i i i a a i i i a i a 7 7 7 9 y y y y y y y y y y y y y y y y y y y y y y y y y y y y y y y y y y y y y y y y y y y y a s t u @ S W./.~.~.~.~.OX#Xj.8.t i i i i a a a a a a a a a a a a a a a a a a a 7 7 i q q q 7 i c =.=.c c c c =.s s s s s s s s c m c m x m x m c m m m M m m c c c c c c c v M c c c c c c c c ",
"i i i i i i i i i i p i p i p p p p p p p p i i i i i i i i i i a e q q q q q q e e e e e e e e e e e e e e e e e e a a a a e a a a a a a a a a a i a q a a q 7.}..X~.~.~.~.~.~.~.~.#X#X{.8.-.-.T ( ( ( ( ( ( ( Y Y s s Y U Y Y s s s s s s s s s s s s s s s s Y Y P P Y P Y Y P P P P P P P P P P P P P P P P K P P P P P P u Y s j j s j j s j j s s s s j Y P P K K K K K K U U K K P P P P T T Y U Y U Y Y Y Y Y Y Y Y Y Y Y Y Y Y U Y Y =.=.=.=.1.=.=.=.=.T ( T ( T ( T ( Y Y T Y T Y T T P R P P P P P L T.`.'..X.Xm.XXXX^..X.X~..X#X[.}.E.T.E.`.`.T.b.h.t.t.t.e.e.e.e.e.9.9.9.9.9.9.9.9.0.3.3.3.3.3.3.1.1.1.1.1.1.1.1.1.1.<.<.<.) ) ) ) s s s s s s s s u u u u u u u t t t t t t t t t 1 1 t 1 t t t t u u u u u u u u t p p p p p p p p i i p t t p t 1 1 r 1 r 1 r r r r r r r r r 1 r 9 r 9 r 7 r 7 r 7 r 9 r r r 7 y y y y y y y y y y r y r y t y , r 2 t # G T.~.^.~.^.~..XOX.XT.1.m a q 7 i a a a a a a a a p a y q y y y y y y s a s a h h a s r r r r r r r r i i i r i r i i i 7 7 7 7 7 7 7 7 7 7 7 7 7 7 7 i r r i i i t i i i r r i i i i ",
"p p p p p p p p p p p p p p p p p p p p p p p p i i i i i i i i a a a a a a a a a a x x a a a a a a a a a a a a a a a a a a a a p p p p p p t t p r p r t t r r.[..X~.~.~.~.~.^.~.R.'..X#X}.}.{.`.`.`.`.`.`.`.`.}.}.].].}.}.}.}.}.[.[.[.[.[.[.[.[.[.'.[.[.[.[.}.`.].].].].].].].].].].].}.}.}.}.].}.].].].].}.}.}.}.}.}.].].].}.}.}.}.}.}.'.'.'.}.'.'.'.}.}.}.}.].].].].`.`.`.`.`.`.`.`.`.`.`.].}.}.}.}.}.`.`.}.}.].].].].].}.}.}.}.}.}.}.}.}.}.{.{.{.{.{.{.{.{.{.`.{.{.{.{.{.{.}.].}.].}.|.}.}.}.'.'.'.}.}.}.[.oX#X#X~.~.^.XX^.^.^.~.~.~.W.[.#X[.[.[.[.'..X.X.X#X#X#XoXoXoXoXoX[.[.[.[.#X[.#X[.[. X X X}.}.}.].].].].].].].].}.'.'.'.'.'.'.'.'.[.[.[.[.[.[.[.}.{.].].].].`.].`.E.E.E.A.A.A.A.A.A.A.A.A.A.A.A.A.0.0.0.0.0.0.0.0.3.3.3.5.5.5.5.5.1.1.3.3.3.3.3.3.1.) 1.` 1.) 1.( ( ( ( ( ( ( ( ( ( ^ ( ^ ( ^ ( ^ ( ^ ( ^ ( ^ ( ^ u u s u s u u u s u u u u u u s s Y P ) L E ~.~.^.^.XX^.~..X.X'.r.<.s y t y p t u y u y p y p y t i i i t i t i r r r r r r r r p p p p p p p p s s s s s s s s s p s p s p s p t y y y y y y t t p p p p p p p p p p p p p p p ",
"Y Y Y Y Y Y Y Y U U U U Y Y U U U U U Y Y Y Y Y U U U U U U U U s s s s s s s s p p p p p p p p p p p p p p p p p p p p p t p p p p t p t u t t u t u r t u t A.[..X~.~.~.~.~.^.^.~.j.j..X#X#X}.'.'.'.'.'.'.'.'.'.'.'.'.'.'.'.'..X.X.X.X.X.X.X.X.X.X.X.X.X.X.X.X'.'.'.'.'.'.'.'.'.'.'.'.'.'.'.'.'.'.'.'.'.'.'.'.'.'.'.'.'.'.'.'.XXXXXXXXXX.XXX.XXXXXXX.XXXXXXXXX.X[.[.[.[.[.'.'.[.'.[.[.[.[.[.[.'.'.'.[.'.'.'.'.'.'.'.'.'.'.'.'.'.'.'.'.'.'.'.'.#X#X#X[.#X'..X'.'.'.'.'.'.'.'.'.'.'.'.'.'.'.'..X.X.X.X.X'.'.'.'.'..X~.~..XXX^.x.^.^.~..X~.g.j..X'.'..X.X.X.X.X.X.X~.W.R.R.R.R.R.W.W.~.~.~.~.~.W.[.[.'.'.'.'.'.T.'.'.'.'.'.'.'.'..X.XXX.XXX.XXX.X.X.X.X.X.X.X.X.X'.[.[.[.[.[.[.[.[.[.[.[.[.[.[.[.[.[.[.[.}.[.[.[.[.[.[.[.[.[.[.[. X X X X X X X X X}. X X X X X X X X X X}.].].].}.]. X X X X}. X].`.].`.].`.].`.].`.].`.].`.].`.].`.].`.].].].`.|.].].].].].|.|.].].`.[.T.R.OX^.x.^.XX^.x.~..X'. X].G.A.A.A.G.A.G.A.A.r.r.r.r.r.r.r.r.r.r.r.r.r.r.r.r.r.r.r.r.r.r.r.r.r.r.r.r.r.w.8.w.8.w.8.8.3.1.` 1.` 1.` 1.` 1.` 1.1.1.` 1.` T P T P T ) ) ) T P T P T P ( P ",
"|.].|.].|.].|.].].].].].].].].].}.}.}.}.}.}.}.}.}.}.}.}.}.}.}.}.}.}.}.}.}.}.}.}.{.{.{.{.{.{.{.{.{.{.{.{.{.{.{.{.{.{.{.{.{.{.{.{.`.`.`.`.`.`.`.T.`.T.`.T.`.`.`.`.'..X.X.X^.~.^.~.~.~..X.X.X.X.X.X.X.X.X.X.X.X.X.X.X.X.X.X.X.X.X.XXXXXM.M.M.XXM.XXXXXXXXXXM.XXM.XX.X.X.X.X.X.X.X.X.X.X.X.X.X.X.X.X.X.X.X.X.X.X.X.X.X.X.X.X.X.X.X^.XXXXM.M.XXXXXXXXXXXXM.XXM.XXM.XXx.~..X~..X.X.X.X.X.X.X.X.X.X.X.X~.~.~.~.~.~.~.~..X~..X~..X~..X~.~.~.~.~.~.~.~.~.~.~.~.~.~.~.~.~..X.X.X.XXX.XXX.X.X.X.X.X.X.X.X.X.X.X.X.X.X.X.X.X.X.X.X.X^.^.^.^.^.~.~.~.~.~.~.~.~..X.X.X.X.X.X.X~.~.~.~.~.~.~.~.~.~.~.~.~.~.~.~..X.X.X.X.X.X.X.X.X.X.X.X.X.X.X.XXX^.M.XXM.XXM.XXXXXXXXXXM.XXM.XX.X.X.X.X.X.X.X.X.X.X.X.X.X.X.X.X.X.X.X.X.X.X'.'..X'..X'..X.X.X.X.X.X.X'..X'..X.X.X.X'.'.'..X.X'.'.'.'.'.'.'.'.'.'.'.'.'.'.'.'.'.[.[.'.[.'.[.'.[.'.[.'.[.'.[.'.[.'.[.'.[.'.[.'.[.'.[.'.[.'.[.'.}.}.}.'.'..X.X~.^.^.^.^.^..X.X.X.X'.'.'.'.'.'.'.'.'.'.'.'.'.'.'.[.[.[.[.[.[.[.[.[.[.[.[.[.[.[.[.[.'.'.'.'.'.}.}.}.}.[.}.[.}.'.}.[.[.[.[.[.[.[.[.[.[.[.[.[.[.[.[.[.[.[.[.[.[.[.[.[.[.[.[.[.[.[.[.[.",
"[.[.[.[.[.[.[.[.[.[.[.[.[.[.[.[.'.'.'.'..X'..X'..X'..X'..X'..X'..X.X.X.X.X.X.X.X'..X'.'..X.X.X.X'.'.'.'.'.'.'.'.'.'.'.'.'.'.'.'.[.[.[.[.[.[.[.[.[.[.[.[.[.'.'..X.X.X.X.X^.^.^.^.^.^..X.X.X.X.X.X.XXXXXXXXXXXXXXXXXXXXXXXXXXXXXXXXXXXXXXXXXXXXXXXXXXXXXXXXXXXM.M.XXXXXXXXXXXXXX.X.XXXXXXXXXXXXXXXXX.XXXXXXXXXXXXXXXXXXXXXXXXXXX^.XXXXXXM.XXXXXXXX^.^.XXXXXXXXXXXXXX.XXXXXXXXXXX.X.X^..X^.^.^.^.^.XXXXXXXXXXXXXXXXXXXXXXXXXXXXXXXX^.^.^.^.^.^.^.^.^.^.^.^.^.^.^.^.XXXXXX.XXXXXXXXXXXXXXXXXXXXXXXXXXX.X.X.X.X.X.X.X~.~.~.~.^.^.^.^.~.~.~.~.~.~.~.~..X~..X.XXXXXXX^.^.~.^.^.^.^.^.^.^.^.^.^.^.^.^.^.^.XXXXXXXXXXXXXXXXXXXXXXXXXXXXXXXX^.XXXXXXXXXXXXXXXXXXXXXXXXM.M.XX.X.X.X.X.X.X.X.X.X.X.X.X.X.X.X.X.X.X.X.X.X.X.X.X.X.X.X.X.X.X.X~.~.~.~.~.~.~.~.^.^.~.~.~.~.~..X.X.X.X.X.X.X.X.X.X.X.X.X.X.X.X.X.X.X.X'..X.X.X.X.X.X.X.X.X.X.X.X.X.X.X.X.X.X.X.X.X.X.X.X.X.X.X.X'.'.'.'..X.X^.^.^.^.^.^..X.X.X.X~.~.~.~.~.~.~.~.~.~.~.~.~.~.~.~.~.~.~.~.~.~.~.~.~.~.~.~.~.~.~..X.X.X.X.X.X.X.X'..X'..X'..X.X.X.X.X~.~.~.~.~.~.~.~.~.~.~.~.~.~.~.~.W.W.W.~.W.~.W.~.W.~.W.~.W.W.W.",
"/./././././././.~.~.~.~./.~.~.~.~.~.~.~.~.~.~.~.~.~.~.~.~.~.~.~.~.^.^.^.^.^.^.^.XXXXXXXXXXXXXX.X~.~.~.~.~.~.~.~..X.X~.~.~.~.~.~.~.~.~.~.~.~.~.~.~.~.~.~.~.~.~.~..X.X.X.X.X.X^.^.^.^..X.X.X.X.XXXXX^.^.^.^.^.^.^.^.^.^.^.^.^.^.^.^.~.^.~.~.^.~.~.~.~.~.~.~.^.^.^.^.^.^.^.^.^.^.^.^.^.^.^.^.^.^.^.^.^.^.^.^.^.^.^.^.^.^.^.^.^.^.^.^.~.~.^.~.~.~.~.~.~.~.~.^.^.~.^.^.^.^.^.^.^.^.^.^.^.XXXX^.^.^.^.x.x.x.x.x.x.x.x.x.x.x.x.c.c.c.x.^.^.^.^.^.^.^.^.Q.Q.!.Q.Q.Q.Q.z.XXXXXXXXXXXXXXXXXXXXXXXXXXXXXXXXXXXXXXXXXXXX.X.X.X.X.X.X.X.X.X~.~.~.~.~.~.~.~.~..X.X~.~.^.^.^.^.^.^.^.^.^.^.^.^.^.^.^.^.^.^.^.^.^.^.^.^.^.^.^.^.^.^.^.^.^.^.^.^.^.~.~.~.^.^.~.~.~.~.~.~.~.^.^.^.^.^.^.^.^.^.^.^.^.^.^.^.^.^.^.^.^.^.^.^.^.^.^.^.^.^.^.^.^.^.^.^.^.^.^.^.^.^.^.^.^.^.^.^.^.^.^.^..X.X.X.X.X.X.X.X.X.X.X.X.X.X.X.X.X.X.X.X.X.X.X.X.X.X.X.X.X.X.X.X.X.X.X.X.X.X.X.X.X.X.X.X.X.X.X.X.X.X.X.X.X.X^.^.^.^.XXXX.X.X.X^.^.^.^.^.^.^.^.^.^.^.^.^.^.^.^.^.^.^.^.^.^.^.^.^.^.^.^.^.^.^.^.^.~.~.~.~.^.^.^.^.~.~.~.~.~.~.~.~.^.^.^.^.^.^.^.^.^.^.^.^.^.^.^.^.~.~.~.~.~.~.~.~.~.~.~.~.~.~.~.~.",
"~.~.~.~.~.~.~.~.~.~.~.~.~.~.~.~.~.~.~.~.~.~.~.~.~.~.~.~.~.~.~.~.^.^.^.^.^.^.^.^.^.^.^.^.^.^.^.^.^.^.^.^.^.^.^.^.^.^.^.^.^.^.^.^.^.^.^.^.^.^.^.^.^.^.^.^.^.^.^.^.~..X.X.X.X.X^.^.^.^..X.XXXXXXX^.^.^.^.^.^.^.^.^.^.^.^.^.^.^.^.^.~.~.~.~.~.~.~.~.~.~.~.~.~.~.~.^.^.^.^.^.^.^.^.^.^.^.^.^.^.^.^.^.^.^.^.^.^.^.^.^.^.^.^.^.^.^.^.^.~.~.~.~.~.~.~.~.~.~.~.~.~.~.~.~.^.^.^.^.^.^.^.^.^.^.^.^.^.^.^.^.^.XXXXXXXXXXXXXX^.^.^.^.^.^.^.^.^.^.^.^.^.^.^.^.^.^.^.^.^.^.^.^.^.XXXXXX^.XXXXXXXXXXXXXX^.^.^.XXXX.XXXXX.X.X.X.X.X.X.X.X.X.X.X.X.X~.~.~.~.~.~.~.~.~.~.~.~.~.~.~.~.~..X~..X~..X~..X~..X~..X~..X^.^.^.^.^.^.^.^.^.^.^.^.^.^.^.^.^.~.~.~.~.~.~.~.~.~.~.~.~.~.~.~.~.^.^.^.^.^.^.^.^.^.^.^.^.^.^.^.^.^.^.^.^.^.^.^.^.^.^.^.^.^.^.^.^.^.^.^.^.^.^.^.^.^.^.^.^.^.^.^.^.^.XXXXXXXXXXXXXXXXXXXXXXXXXXXXXX.X.X.X.X.X.X.X.X.X.X.X.X.X.X.X.X.X.X.X.X.X.X.X.X.X.X.X.X.X.X.X.X.X.X.X.X.X.X^.^.^.^.XX.X.X.X.X^.^.!.!.^.!.^.!.^.!.^.!.^.!.^.!.^.^.^.^.^.^.^.^.^.^.^.^.^.^.^.^.^.^.^.^.^.^.^.^.^.^.^.^.^.^.^.^.^.^.^.^.^.^.^.^.^.^.^.^.^.^.^.^.^.~.~.~.~.~.~.~.~.~.~.~.~.~.~.~.~.",
"~.~.~.~.~.~.~.~.~.~.~.~.~.~.~.~.~.^.^.^.^.^.^.^.^.^.^.^.^.^.^.^.^.^.^.^.^.^.^.^.^.^.^.^.^.^.^.^.^.^.^.^.^.^.^.^.^.^.^.^.^.^.^.^.^.^.^.^.^.^.^.^.^.^.^.^.^.^.^.^.^.^..X.XXXXXXXXXXXXX^.^.^.^.^.^.^.^.^.^.^.^.^.^.^.^.^.^.^.^.^.~.~.~.~.~.~.~.~.~.~.~.~.~.~.~.~.~.^.XXXXXX.X.X.XXXXXXXXXXXXXXXXXXX^.^.^..XXXXXXXXXXXXXXXXXXXXXXX~.~.~.~.~.~.~.~.~.~.~.~.W.~.~.~.~.~.^.^.^.^.XXXXXXx.x.x.x.x.x.x.~.~.~.~.~.~.~.~.~.~.~.^.^.^.^.^.^.~.~.~.~.~.~.~.~.~.~.~.~.~.~.~.~.~.~.~.~.~.~.~.~.~.~.~.~.~.~.~.~.~.~.^.~..X.X.X.X.X.X.X.X.X.X.X.X.X~.~.~.~.~.~.~..X.X.X.X~.~.~.~..X.X.X.X.X.X.X.X.X.X.X.X.X.X.X.X.X.XXXXXXXXXXXXX.X^..X^.XX.X.X~.~.~.~.W.~.~.~.~.W.~.~.~.~.W.W.~.~.^.^.^.^.^.^.^.^.^.^.^.^.^.^.^.^..XXX.XXX.XXX.XXX.XXX.X.X.XXX^.^.^.^.^.^.^.^.^.^.^.^.^.^.^.^.^.^.^.^.^.^.^.^.^.^.^.^.^.^.^.^.^.^.^.^.^.^.^.^.^.^.^.^.^.^.^.^.^.^.^.^.^.^.^.^.^.^.^.^.^.^.^.^.^.~.~.~.~.~.^.XXXXXXXXXX.X.X.X^.~.^.^.^.^.^.^.^.^.^.^.^.^.^.^.^.^.^.^.^.^.^.^.^.^.^.^.^.^.^.^.^.^.^.^.^.^.^.^.^.^.^.^.^.^.^.^.^.^.^.^.^.^.^.^.^.^.^.^.^.^.^.^.^.^.^.~.^.~.^.~.^.~.^.~.^.~.^.~.^.^.",
"~.^.~.~.^.^.^.^.~.~.~.~.~.~.~.~.~.~.^.~.^.~.^.~.^.~.^.~.^.~.^.^.^.^.^.^.^.^.^.^.^.^.^.^.^.^.^.^.^.^.^.^.~.~.^.^.^.^.^.~.^.^.^.^..XXXXXXXXXXXXXXXXXXX^.XX.X.X.XXX^.^.XXXXXXXXXXXXXXXX^.^.^.^.^.^.^.^.^.^.^.^.^.^.^.^.^.^.^.~.~.~.~.~.~.~.~.~.~.~.~.~.~.~.~.~.~.~..X.X.X.X.X^..X.X.X.X.X.X.X.X.X.X^.^..X.X.X.X.X.X.X.X.X.X.X.X.X.X~.~.~.~.~.~.~.~.~.~.~.~.~.~.~.~.~..X.X.X.X.X.XOX.X.X.X.X.X.X.X.XR.R.R.R.R.R.~.~.~.~.~.~.~.^.^.~..XoXoXoXoXoXoXoXR.R.W.R.R.R.R.R..X.X.X.X.X.X.X.X.X.XOX.XOXOX.XOX.X.XXXXX@X@X@X@XXXXXXXXXXXXXXXXXXX.X.X.X.X.X.X.X.X.X.X.X.XoXoX.X.X.X.X.X.X.X.X.X.X.X.X.X.X.X.X.X.X.X.X.X.X.X.X.X.X^..X.X.X.X.X.X~.~.~.~.~.~.~.~.~.~.~.~.~.~.~.~.~.~.~.~.~.~.~.~.~.~.~.~.~.~.~.~..X.X.X.X.X.X.X.X.X.X.X.X.X.X.X.X^.^.^.^.^.^.^.^.^.^.^.^.^.^.^.^.~.~.~.~.~.~.~.~.~.~.~.~.~.~.~.~.^.^.^.^.^.^.^.^.^.^.^.^.^.^.^.^.^.^.^.^.^.^.^.^.^.^.^.^.^.^.^.^.~.~.~.~.^.~.XXXXXX.X.X.X.X.X^.^.^.^.^.^.^.^.^.^.^.^.^.^.^.^.^.^..X.X.X.XXX.XXX.X.X.X.X.X.X.X.X.X.X^.XX^.XX^.XX^.XX^.XX^.XX^..X^.~.~.~.~.^.~.^.~.~.~.~.~.^.~.^.~.^.~.^.~.^.~.~.~.^.~.^.^.^.~.^.~.",
"^.~.~.~.~.~.~.~.~.~.~.~.~.~.~.~..X.X.X.X.X.X.X.X.X.X.X.X.X.X.X.X.X.X.X.X.X.X.X.X^.~.~.~..X.X.X~..X.X.X.X.X.X.X.X.X.X.X.X.X.X.X.X.X.X.X.X.X.X.X.X.X.X.X.X.X.X.X.XXX^.XXXXXXXXXXXXXXXX^.^.^.^.^.^.~.~.~.~.^.^.^.^.~.~.~.~.~.~.~.~.~.~.~.~.~.~.~.~.~.~.~.~.~.~.~.~..X.X.X.X~.~..X.X.X.X~.~..X.X.X.X~.~..X.X.X.X~.~..X.X.X.X.X.X~..X~.~.~.~.~.~.~.~.~.~.~.~.~.~.~.~..X'..XW.W.W.W.W.W.W.W.W.W.W.W.W.oX[.[.[.[.[.oXoX[.oXoXoXoXoXoXoX'.}.'.'.'.'.'.'.}.}.}.}.}.}.}.[.'.'.'.[.W.W.W.[.'.[.'.[.[.[.[.[..X.X.X.XXXXXXXXX.X.X.X.X.X.X.X.X.X.X.X.X.X.X.X.X.X.X.X.X.X.X'.'..X.X.X.X.X.X.X.X.X.X.X.X.X.X.X.X.X.X~.~..X.X.X.X.X.X.X.X.X.X.X.X~.~.~.~.~.~.~.~.~.~.~.~.~.~.~.~.~.~.~.~.W.W.~.~.~.W.W.W.~.~.~.~..X.X.X.X.X.X~..X.X.X.X.X.X.X.X.X.X.X.X.X.X.X.X.X.X.X.X.X.X.X.X~.~.~.~.~.~.~.~.~.~.~.~.~.~.~.~.~.~.~.~.~.~.~.~.~.~.~.~.~.~.~.~.~.~.~.~.~.~.~.~.~.~.~.~.~.~.~.~.~.~.~.~.~.~.^..X.X.X.X.X.X.X.X~.^..X.X.X.X.X.X.X.X.X.X.X.X.X.X.X.X.X.X.X.X.X.X.X.X.X.X.X.X.X.X.X.X.X.X.X.X.X.X.X.X.X.X.X.X.X.X.X.X.X'..X.X.X.X.X.X.X.X.X.X.X.X.X.X.X.X.X.X.X.X.X.X.X.X.X.X.X.X.X.X",
"~.~.~.^.^.~.^..X.X.X.X.X.X'..X.X.X.X'.'..X.X.X.X'.'.'.'.'.'.'.'.'.'.'.'.'.'.'.'.'.'.'.'.'.'.'.'.[.[.[.[.[.[.[.[.[.[.[.[.[.[.[.[.#X+X+X+X+X+X+X+X+X+X+X+X+X+X+X+X.X.X.X.X.X.X.X.X.X.X.X.X.X.X.X.X.X'.'.'.'.'.'.'.'.'.'.'.'.'.[..X.X.X.X.X.X~.~.~.~.~.^.^.^..X.X~.~.~.~.~.~.~.'.'.'..X.X'.'.'.'.'.[.[.[.[.[.[.'.'.'.'.'.'.[.[.[.'..X.X.X.X.X.X~.^.^.^.^.^.^..X.X.X'.[.`.T.T.T.A.A.t.t.t.t.t.q.q.t.0.0.0.0.0.0.0.0.0.0.0.9.9.9.9.9.q.q.q.r.r.q.r.r.r.r.r.r.r.r.r.r.t.t.t.t.t.t.t.t.t.t.t.t.t.t.t.t.h.h.h.h.f.f.f.f.h.h.h.h.h.h.h.h.T.T.T.T.T.T.T.T.R.R.T.T.T.T.T.T.'.'.'.'.'.'.'.'.'.'.'.'.'.'.'.'.'.[.'.'.'.[.[.[.[.[.[.[.[.[.[.'..X.X.X.X.X.X.X.X.X.X.X.X.X.X.X.X'.[.[.[.[.[.[.[.[.[.[.[.[.[.'.'..X~.~.~.~.~.~.~..X.X'.'.'.'.'.'.'.'.'.'.'.'.'.'.'.'.'.'.'.'.'.'.'.[.[.[.[.[.[.[.'.'.'.'.'.W.'.W..X~.'.W..X~..X~.'.W..XW.'.W..X.X.X.X'.'..X.X.X.X'.'.'..X.X.X'.W.~.~..X.X.X.X.X.X.X.X.X.X.X.X.X'.'.'.'.'.'.'.'.'.'.'.'.'.'.'.'.'.}.}.}.}.}.}.}.}.'.'.'.'..X.X.X.X.X.X.X.X.X.X.X.X.X.X.X.X.X.X.X.X'.'.'.'.'.'.'.'.'.'.'.'.'.'.'.'.'.'..X.X.X.X'.'.'..X.X.X.X.X.X.X",
"~.~.^.^.XX.X.XR.'.`.`.`.`.`.`.`.G.G.G.G.G.G.A.A.A.A.A.A.A.A.A.A.t.t.t.t.t.t.t.t.t.t.t.t.t.t.t.t.G.G.G.G.G.G.G.G.F.Z.G.A.G.A.A.t.t.t.t.p.p.p.p.p.t.t.t.t.t.t.t.t.t.t.t.t.t.t.t.t.t.t.t.t.t.t.t.t.t.t.t.t.t.t.t.t.t.t.t.t.t.t.t.t.9.t.`.'.#X.X~.~.~.~.^.~..X.X.X^.^.^.^.~.R.T.T.T.'.'.'.'.'.[.].].G.A.A.G.A.A.A.A.E.E.`.`.`.].|.|.|.].}.[.T.[.$X^.^.XXXXc.^.XX#X[. XG.3.( Y ( ( ^ ( ( ( ( 1.1.=.1.1.( 1.( 1.( 1.( 1.( 1.( 1.( 1.1.1.1.1.1.1.<.<.<.<.1.1.1.1.1.1.1.( ( ( ( ( ( ( ( ( ( ( ( ( ( ( ( T T T T ( P T ( ( ( ( ( ( ( ( ( ( ( ( ( ( ( ( ( ( ( ( ( ( ( ( ( ( ( ( ) ( ( ( ( 1.1.1.1.) ) ) ) 3.2.) 1.G.u Z.1.3.3.3.r.r.r.r.r.r.q.q.q.r.q.r.r.t.t.t.t.t.t.t.t.A.A.G.G.G.G.H.G.|.].].}.[.[.'.'.#X.X~.^.^.^.^.#X#X}.{.`.G.G.G.A.G.G.G.G.G.G.G.A.G.G.G.A.A.A.G.G.`.`.`.`.`.`.`.`.T. X`.A.`.].`.}.].].].].].].].].].].].].].].].].]. X].].].].].].A.A.A.A.A.A.A.A.A.A.T.T.A.G.G.G.G.A.T.A.G.G.G.G.G.G.G.G.G.G.`.G.G.G.G.G.G.G.G.G.p.p.G.p.p.p.t.r.t.`.A.t.'.XX^.^.~.~.^.^.^.^.^.~.#X[.A.t.A.G.`.G.G.A.G.A.A.A.A.A.G.A.G.A.A.A.G.G.|.|.}.}.}.{.|.|.G.}.OXXXc.c.~.~.",
"~.~.^.^.XXXX.XR.Q 1.2.2.2.2.2.1.1.1.1.1.1.1.1.1.1.1.1.1.1.1.1.1.1.1.1.1.1.1.1.1.1.1.1.1.1.1.1.1.Y Y Y Y Y Y Y Y s s Y Y Y Y Y Y Y T T T T Y Y Y 1.1.1.1.1.1.1.1.1.1.1.1.1.1.1.1.1.1.1.1.1.1.1.1.1.1.1.1.1.1.1.1.Y Y Y Y Y Y Y Y T -.8.t.'.#XOX~.~.~.~.~..X.X.X^.z.c.(.OXoX[.[.[.}.'.h.h.e.{ ) ) 1.1.1.1.1.` 1.` ( ( ( ( ( ( ( ( 3.1.1.8.{ f..X~.^.rXXXc..XXX[.`.r.3.( Y ( <.N j N N M M <.<.<.<.<.<.<.<.<.<.<.<.<.<.<.<.<.<.<.<.<.<.<.<.<.<.<.<.<.<.<.<.<.<.<.<.<.( ( ( ( ( ( ( ( ( ( ( ( ( ( ( ( ( ( ( ( ( j ( ( ( ( ( ( <.( ( ( ( ( ( ( ( ( ( ( <.( ( ( ( ( ( <.<.<.<.<.<.<.<.<.<.<.<.<.<.<.<.=.=.s Y 5.1 2.j ( ( ( ( <.<.<.1.=.=.=.1.1.1.1.1.1.1.1.1.1.1.1.1.1.1.1.1.1.2.2.2.) 1.1.0.q.T.'.#X#X.X^.^.^.^.^.XXk.e.w.5.6.4.1.1.1.1.1.1.1.1.1.1.1.1.1.1.1.1.2.1.2.2.2.2.3.3.3.3.1.r.3.T 1.8.1.0.1.1.1.1.1.1.1.1.3.3.3.3.3.3.3.3.3.3.3.3.3.3.1.1.1.1.1.1.1.1.1.1.1.1.1.1.1.1.1.1.1.1.1.1.1.1.1.1.1.1.1.1.1.1.1.1.4.4.2.1.1.1.<.<.<.<.1.1.1.1.<.1.Y 2.) { h.^.c.^.~.~.^.^.^.^.^.~.T.A.3.) 1.1.1.=.1.1.1.1.1.` ` ` 1.1.1.1.1.` 1.1.( <.-.-.-.1.( ( 7.A..XXXc.c.Q.Q.",
"~.~.~.^..X.X.XR.R P Y Y Y Y Y Y Y Y Y Y Y Y Y Y ( ( ( ( ( ( ( ( Y Y Y Y Y Y Y Y Y Y Y Y Y Y Y Y 1.1.1.1.1.1.1.1.<.1.1.1.1.1.1.1.1.1.1.1.1.1.1.1.Y Y Y Y Y Y Y Y Y Y Y Y Y Y Y Y Y Y Y Y Y Y Y Y Y Y Y Y Y Y Y Y 1.1.1.1.1.1.1.1.T P P { h.'.oX.X~.~.~.~..X.X.X.Xx.c.~./.oX[.T.T.9.8.8.Q T T P u Y ( ( Y Y Y Y Y ( 1.1.1.1.( ( ( ( U Y P P e.oX.XXXXXM.c..XXXR.t.P Y Y ( ( j M j N N N N <.<.<.<.<.<.<.<.<.<.<.<.<.<.<.<.<.<.<.<.<.<.<.<.<.<.<.B <.<.<.<.<.<.<.<.<.( ( ( ( ( ( ( ( ( ( ( ( ( ( ( <.<.<.<.( ( <.( ( ( ( ( ( ( ( ( ( ( ( ( ( ( ( ( ( ( ( ( ( ( ( ( <.<.<.<.<.<.<.<.<.( j j ( ( <.<.=.<.<.Y <.r ( j j j j j <.<.=.=.=.Y Y Y Y Y Y =.Y Y Y Y Y Y Y Y Y Y Y s ( j j j s Y ( P ) 8.h.'.#X.X~.^.^.^.^..X,.-.=.=.=.Y Y ^ ^ j j j j j j j j j j j j j j j Y Y =.Y Y Y Y T U 1.T K T ) P ) P Y Y Y Y Y Y Y Y Y Y Y Y Y Y Y Y Y Y Y Y Y Y Y Y Y Y Y Y Y Y Y Y Y Y Y Y Y Y Y Y Y Y Y Y Y Y Y s s Y Y Y Y Y ( <.<.Y Y Y Y Y Y Y Y U U =.=.=.Y s ( P T h.^.^.^.~.~.^.^.^.^.^.~.[.t.` Y Y Y U U Y Y Y Y Y Y Y Y Y Y Y Y Y Y Y ^ j ( 1.-.-.1.( j ( q..XXX^.!.^.Q.",
"~.~.~.^..X.X.XR.T ) 1.1.4.1.<.1.1.1.1.( 1.1.1.( 1.1.1.1.1.1.1.1.<.<.1.1.1.1.1.1.<.<.1.1.1.1.1.1.<.1.1.1.1.1.1.1.<.<.<.<.<.<.<.<.<.( ( ( <.<.<.<.1.1.1.1.1.1.1.1.<.<.1.1.1.1.1.1.<.<.1.1.1.1.1.1.1.1.1.1.1.1.1.1.<.<.<.<.<.<.<.<.2.( P T 9.I.'..XR.~.~..X.X.X.X.X^.^.~.T.T.t.8.) L R R T T ( ( ) 1.1.1.1.1.1.1.1.( ( ( 1.1.1.( ( 1.Y ( ( ) t.#X.XXX^.c.x.XX#Xh.8.P T 1.1.( j j j N N N <.<.<.<.<.<.<.<.<.<.<.<.<.<.<.<.<.<.<.<.<.<.<.<.<.<.<.<.B <.<.<.<.<.<.<.<.<.( ( ( ( ( ( ( ( ( ( ( ( ( ( ( ( ( ( ( ( ( ( ( ( ( ( ( ( ( ( ( ( ( ( ( ( ( ( ( ( ( ( ( ( ( ( ( <.<.<.<.<.<.<.<.( ( M j M <.( <.<.6.4.<.j s <.1.( ( ( <.<.<.<.<.<.1.1.1.1.1.<.<.1.1.1.1.1.1.1.1.<.<.<.<.<.<.<.<.( 1.1.( P T 8.t.'..X~.~.^.~.~..X>.-.<.<.<.<.) 1.<.<.<.<.<.( <.( <.<.<.<.<.<.<.<.<.<.<.1.<.1.1.1.T 3.1.P 1.1.1.1.1.( 1.( 1.( 1.( ( ( ( ( ( ( ( ( ( ( 1.1.1.( 1.( 1.1.1.1.1.1.1.1.<.( 1.1.1.1.1.( 1.( 1.1.1.1.1.1.<.<.1.<.1.<.1.<.1.<.1.<.1.4.2.5.4.<.1.1.=.<.<.1.s 1.( / h.~.^.^.~.~.^.^.^.^.^.~.[.t.) ^ 1.<.1.1.1.( 1.( 1.( 1.( 1.( 1.( 1.( 1.1.j j =.-.-.=.j j s 0.'.XX^.!.^.Q.",
"~.~.~.~..X.X'.T.T ( 1.<.<.1.=.=.<.1.1.1.<.1.<.<.<.<.<.<.<.<.<.<.<.<.<.<.<.<.<.<.<.<.<.<.<.<.<.<.<.<.<.<.<.<.<.<.<.<.<.<.<.<.<.<.<.<.<.<.<.<.<.<.<.<.<.<.<.<.<.1.<.<.<.<.1.1.<.<.<.<.<.<.<.<.<.<.<.<.<.<.<.<.<.<.<.<.<.<.<.<.<.<.4.1.1.( ) { T.[.W.~..X.X.X.X.X.XXX~.f.9.{ ) P P 1.1.T T ( ( ( ( <.<.<.<.<.<.<.<.( ( ( ( ( ( Y Y 1.^ ( ( ) t.'.R.~.^.x.^.XXoXt.T ( 1.1.( ( j M <.<.<.<.<.<.<.<.<.<.<.<.<.<.<.<.<.<.<.<.<.<.<.<.<.<.<.<.<.<.<.<.<.<.<.<.<.<.<.<.<.<.<.<.<.<.<.<.<.<.<.<.<.<.<.<.<.<.<.<.<.<.<.<.<.<.<.<.<.<.<.<.<.<.( ( <.<.<.<.<.<.<.<.<.<.<.<.<.<.<.<.<.<.<.<.<.<.<.<.<.<.<.<.<.c <.<.s y ( ( 1.( ( <.<.<.M B <.<.<.<.<.<.<.<.<.<.<.<.<.<.<.<.<.4.4.<.<.4.N N <.s j ( ( Y P 1.8.'.'.~.~.~.~.~.'.T -.<.<.<.<.) 1.<.<.<.<.<.<.4.<.<.<.<.<.<.<.<.<.<.<.<.<.=.<.=.=.=.2.1.Y 2.3.1.1.1.1.1.1.1.1.<.1.<.( <.( <.( <.<.<.<.<.1.4.1.<.<.<.1.<.<.<.<.<.1.<.<.<.<.1.1.1.1.<.1.<.1.<.1.<.<.c M M M M M c M <.M M M M M <.<.4.4.<.<.=.<.<.<.s ( Y ) h.~.x.x.~.~.~.^.^.^.^.~.[.0.P Y 1.1.1.<.1.1.<.( <.( 1.1.1.( 1.1.1.<.<.( N ( T T T T ( j j 0.'.XX^.^.~.~.",
"~.R.~.~..X.X'.T.P ^ j j M =.=.=.<.<.<.<.<.<.<.<.<.<.<.M <.<.<.<.M M M M <.<.<.<.M M M M <.<.<.<.4.4.4.4.4.4.4.4.2.2.2.2.4.4.4.4.4.4.4.4.4.4.4.4.<.<.<.<.<.<.<.<.<.<.<.<.<.<.<.<.<.<.<.<.<.<.<.<.<.<.<.<.<.<.<.<.4.4.4.4.6.6.4.4.j <.1.( Y T 0.T.'.W.~..X.X.X.X.XOXR.9./ ) ( ( ( 1.1.1.1.1.<.j N <.M <.<.<.M <.<.4.1.1.1.( ( 1.1.( s ^ ^ ( t.[.R.~.^.x.^..X[.t.) T T Y Y ( ( <.<.<.<.<.<.<.<.<.<.<.<.<.<.<.<.<.<.<.<.<.<.<.<.<.<.<.<.<.<.<.<.<.<.<.<.<.<.<.<.<.<.<.<.<.<.<.<.<.<.<.<.<.<.<.<.<.<.M M ( ( ( ( ( M <.<.<.<.<.<.<.<.<.<.<.( <.<.<.<.<.<.<.<.<.<.<.<.<.<.<.<.<.<.<.<.<.<.<.<.<.<.<.<.c <.<.s r 5.( 1.( ( <.<.<.<.<.<.M M M M M M M M M M <.M <.<.<.M M M M M M N N N j ( <.1.( ( ( ) `.'.~.~.~.~.W.T.T =.<.<.4.<.( ) <.<.<.<.B <.<.<.<.<.<.<.<.<.<.<.<.<.<.<.B =.=.<.s <.=.s 1.2.T Y <.<.<.<.<.<.<.<.<.<.<.<.<.<.<.<.M M <.<.<.<.<.M <.<.<.<.<.<.<.<.<.<.<.<.<.<.<.<.<.<.<.<.<.<.<.<.<.M <.M M M M M <.<.<.<.M M M s M <.<.1.<.<.<.j s ( s ^ T.oX^.^.~.~.~.^.^.^.^..X[.0.P Y 1.1.=.=.<.<.<.<.<.<.<.<.<.<.<.<.<.<.<.M 2.2.1.-.1.1.2.2.<.r.'.^.^.^.~./.",
"~.R.~.~..X.X'.E.P ^ j N <.<.=.<.<.4.4.4.4.4.4.4.4.4.4.<.4.4.4.4.<.<.M <.<.<.<.<.<.<.M <.<.<.<.<.s s s s s Y Y Y =.=.=.=.Y s s s s j j j M M M M <.<.4.<.4.4.4.4.4.4.<.4.<.<.4.4.4.4.4.4.4.4.4.4.4.4.4.4.<.<.<.<.M M j M s s s s j N ( ( Y P ) { '.'.W..X~..XXX.XOXI.| T Y ( <.4.=.=.=.<.<.<.M M M M 4.M 4.M <.4.c s s Y Y 1.3.3.5.( ^ ^ P 0.[.W.~.^.^.~..X'.t.) ( Y Y ( 1.1.1.<.<.<.<.<.<.<.<.<.<.<.<.<.<.<.<.<.<.<.<.<.<.<.<.<.<.<.<.<.<.<.<.<.<.<.<.<.<.<.<.<.<.<.<.<.<.<.<.<.<.<.<.<.<.<.<.<.<.<.<.<.<.<.<.<.<.<.<.<.<.<.<.<.<.<.<.<.<.<.<.<.<.<.<.<.<.<.<.<.<.<.<.<.<.<.<.<.<.<.<.<.<.<.<.<.<.4.M p r F.( 1.1.1.1.1.4.4.4.4.<.<.<.<.<.<.<.<.B M M M <.<.<.<.B B B M M M <.<.4.4.4.4.1.<.( P T.'.oX~.~./.W.T.) 1.4.M 6.4.<.<.<.<.4.<.<.<.4.<.4.<.4.<.4.<.4.4.4.4.4.4.4.4.4.<.M 4.<.s 5.5.<.<.<.M B M <.<.<.M 4.4.4.4.4.4.4.4.B B <.4.4.4.4.4.4.4.4.4.<.4.<.4.4.4.4.4.<.4.4.4.4.4.4.4.4.4.4.4.4.4.4.4.4.4.N N j M M 4.2.4.M N a s c <.<.<.<.M j j j ( T.OX~.^.~..X~.^.^.^.~.~.[.0.P ( 2.1.=.=.<.<.4.<.4.<.4.<.4.<.4.<.4.<.4.M j j T T T T j j j 0.R..X^.^.~.Y.",
"~.~.~.~..X.X'.E.( ^ N N <.<.1.<.<.B B B B B B B B B B B <.<.<.<.B M M M M M M M M M M M M M M M <.<.<.<.<.<.<.<.4.4.4.4.4.4.<.<.4.4.4.4.4.4.4.4.M M M M <.<.<.<.<.<.M <.<.<.<.<.<.<.M M <.<.<.<.M M M M <.<.<.<.4.4.4.4.4.4.4.4.2.N N j ( ( P L `.'.W..X~..XXX.X#XT.8.( ( M <.M 6.<.<.<.<.M m m M M B B B B B B 4.<.<.2.r.G.|.&XZ.2.( u u | T.W.~.~.^.~..X'.t.) 1.1.( 1.5.5.1.s <.<.<.<.<.<.<.<.<.<.<.<.<.<.<.<.<.<.<.<.<.<.<.<.<.<.<.<.<.<.<.<.<.<.<.<.<.<.<.<.<.<.<.<.<.<.<.<.<.<.<.<.<.<.<.<.<.<.<.<.<.<.<.<.<.<.<.<.<.<.<.<.<.<.<.<.<.<.<.<.<.<.<.<.<.<.<.<.<.( ( <.<.<.<.<.( M ( j ( ( ( <.M B c i o J.<.( ( ( <.<.<.M B B B M M M M M M M M M M M M M M M B B B M M M j j j s s s <.<.4.<.`.[.oX~.~./.W.T.( <.M M M N ( ( <.<.<.<.<.<.<.<.<.<.<.<.<.<.<.B B B B B B B B B B 6.<.s 5.7.<.M <.<.B B <.<.B B <.<.<.<.<.<.<.<.B B <.4.4.4.4.4.B B B B B B B B B B B B B B B B B B B B B B B B B m M m j j j j 7 7 p m M 4.M N 7 i s M <.<.<.j j j u ^ A.W.~.l..X.X~.^.^.^..X~.'.{ K ( 2.4.=.=.<.M B B M M M M B M M M M B M M j <.3.r.r.3.2.k u 3.'..XXX^.~.R.",
"~.~.~..X~.oX[.t.Y ^ 2.j 2.7.U <.<.B B B B B B B B B B B B B B B M B M M M M M M M M M M M M M <.<.<.<.<.<.<.<.<.<.<.<.<.<.<.<.<.<.M M M M M M M M M M M M M M M M M M M M M M M M M M M M M M M M M M M M M M B M M M M M M M N N N N j ( ( ( ) { '.#XR.~.~.^.~.oX`.8.Y <.<.m M <.<.<.<.<.M M M M M M M B B B B B <.<.3.]. X`.].H.1.j ) ( ) T.[.~.^..X.X'.[.A.P ( ( 1.s T |.Y 1.<.<.<.<.<.<.<.<.<.<.<.<.<.<.<.<.<.<.<.<.<.<.<.<.<.<.<.<.<.<.<.<.<.<.<.<.<.<.<.<.<.<.<.<.<.<.<.<.<.<.<.<.<.<.<.<.<.<.<.<.<.<.<.<.<.<.<.<.<.<.<.<.<.<.<.<.<.<.<.<.<.<.<.<.<.<.<.<.<.<.( ( <.<.<.<.<.<.j j <.<.( s <.M a O c F.s 1.1.<.<.<.<.B B B M M M M M M M M M M M M M M M M 6.M M B 4.M Y ( Y s s M <.4.B ( t.#XR.~././.oXt.( ( 4.m M 2.u 1.<.4.4.4.4.4.4.4.4.4.4.4.4.4.4.4.4.B B B B B <.<.<.c 7.r L.4.<.<.<.B B B B B B B B B B B B B B B B B B B B B B B B B B B B B B B B B B B B B B B B B B B B B B B M M M M M M M M O % a m M B m B N N <.<.<.<.<.N j j u ( A.W.~.^.~..X.X^.^.^.~.R.[.) P ( <.<.<.=.<.B B B B B B B B B B B B B B N N ( &X`.{.1.j j ( ( '.XXc.XX~.W.",
"~.~.~..X~.oX[.t.Y j 2.j 2.7.Y <.<.B B B B B B B B B B B B B B B M M M M M M M M M M M M M M M <.<.<.<.<.<.<.<.<.<.<.<.<.<.<.<.<.<.M M M M M M M M M M M M M M M M M M M M M M M M M M M M M M M M M M M M M M B M M M M M M M M N M N N M ( ( T ) `.#XR.~.^.^.~.[.`.1.Y <.N m M <.<.<.<.<.M M M M M B M B B B B <.<.=.3.`. X'.].H.1.j ^ ( ) T.[.~.~..X.X'.[.A.P ( ( 1.s ( %XY 1.1.1.<.<.<.<.<.<.<.<.<.<.<.<.<.<.<.<.<.<.<.<.<.<.<.<.<.<.<.<.<.<.<.<.<.<.<.<.<.<.<.<.<.<.<.<.<.<.<.<.<.<.<.<.<.<.<.<.<.<.<.<.<.<.<.<.<.<.<.<.<.<.<.<.<.<.<.<.<.<.<.<.<.<.<.<.<.<.<.<.( <.<.<.<.<.<.<.j j <.<.<.M 4.c i X 6.J.Y 1.1.1.<.<.<.B B B B M M M M M M M M M M M M M M B B B M <.<.1.1.3.G.7.1.( <.4.M s t.#XR.~././.oXt.Y j M m 4.6.u 1.<.4.4.4.4.4.4.4.4.4.4.4.4.4.4.4.4.B B B B B <.<.4.c 6.r L.4.<.M <.B B B B B B B B B B B B B B B B B B B B B B B B B B B B B B B B B B B B B B B B B B B B B B B M M M M M M M M i 7 a B 4.M m m N N <.<.<.<.<.N N j j ( A.W.~.^..X.X.X^.^..X~.'.'.) Y ( <.<.4.=.<.B B B B B B B B B B B B B B N ( ) &X`.{.8.j j ( ( '.XXM.@X~.W.",
"~.~.~..X~..X[.t.Y j 2.j 2.r.Y =.<.<.<.<.4.<.<.<.4.4.<.<.<.<.<.<.<.<.<.<.<.<.<.<.<.<.<.<.<.<.<.<.<.<.<.<.<.<.<.<.<.<.<.<.<.<.<.<.<.<.<.<.<.<.<.<.<.<.<.<.<.<.<.<.<.<.<.<.<.<.<.<.<.<.<.<.<.<.<.<.<.<.<.<.<.<.<.<.<.4.<.<.<.<.<.M N N N N M <.<.T ) `.#XW.~.^.^.~.[.`.1.Y <.N m M 4.4.<.<.<.B M M N N M B B B B B <.<.=.1.`.[.W.[.H.1.j ( ( ) T.oX~.~.XX.X'.[.A.P ( ( 1.Y 1.&X=.1.=.=.<.<.<.<.<.<.<.<.<.<.<.<.<.<.<.<.<.<.<.<.<.<.<.<.<.<.<.<.<.<.<.<.<.<.<.<.<.<.<.<.<.<.<.<.<.<.<.<.<.<.<.<.<.<.<.<.<.<.<.<.<.<.<.<.<.<.<.<.<.<.<.<.<.<.<.<.<.<.<.<.<.<.<.<.<.<.<.<.<.<.<.<.<.<.<.j j ( <.<.<.M 4.a % % y.J.Y 2.1.1.<.<.<.<.B B B <.<.<.<.<.<.<.B <.<.<.<.<.<.B M M B <.1.1.r.A.&XG.3.( 1.4.M Y h.#XR.~./.~.oXC.Y j M m 6.6.s 4.<.<.<.<.<.<.<.<.<.<.<.<.<.<.<.<.<.B B B <.<.<.<.4.c <.t K.4.1.M <.<.<.<.<.<.<.<.<.<.<.<.<.<.<.<.<.<.<.<.4.<.<.<.4.4.<.<.<.<.<.<.<.<.<.<.<.<.<.<.<.<.<.<.4.<.<.B M M M M M M M M M m c B M m m m N N <.<.<.<.<.N N j j ^ E.W.~.~..X.X.X.XXXXX.X'.T.) Y 1.<.<.4.=.<.<.<.<.<.<.<.<.B <.<.<.<.<.<.<.( (  X'.}.8.( j ( P '.@XM.@X~.W.",
"^.^.^.XX~..X[.t.Y j <.j 5.F.=.-.<.<.<.<.4.4.<.<.<.4.<.4.<.<.<.<.<.<.<.<.<.<.<.<.<.<.<.<.<.<.<.<.<.<.<.<.<.<.<.<.<.<.<.<.<.<.<.<.<.<.<.<.<.<.<.<.<.<.<.<.<.<.<.<.<.<.<.<.<.<.<.<.<.<.<.<.<.<.<.<.<.<.<.<.<.<.<.<.<.<.<.<.<.<.<.<.M N M M <.<.1.T T `.[.W.~.~.^.~.'.`.1.Y <.N m M 4.<.<.<.<.<.M N <.<.<.M B B B 4.<.<.=.8.`.oXW.[.H.1.j ( ^ ) T.oX~.~.XX.X'.[.A.P ( 1.1.Y 1.&X1.1.=.=.1.<.<.<.<.<.<.<.<.<.<.<.<.<.<.<.<.<.<.<.<.<.<.<.<.<.<.<.<.<.<.<.<.<.<.<.<.<.<.<.<.<.<.<.<.<.<.<.<.<.<.<.<.<.<.<.<.<.<.<.<.<.<.<.<.<.<.<.<.<.<.<.<.<.<.<.<.<.<.<.<.<.<.<.<.<.<.<.<.<.<.<.<.<.<.( ( <.<.<.<.<.B q X a J.F.U 2.1.1.=.<.<.B B B 4.<.<.<.<.<.<.<.<.<.<.<.<.<.<.4.M B 4.<.=.1.t.]. X`.r.( ( <.4.1.h.#X~.~./.R.[.t.Y s M m 6.7.Y 2.<.<.<.<.<.<.<.<.<.<.<.<.<.<.<.<.<.M B <.<.<.<.<.4.<.u s |.1.1.( <.<.<.<.<.<.<.<.<.<.<.<.<.<.<.<.<.<.<.<.<.<.<.<.<.4.<.4.<.<.<.<.<.<.<.<.<.<.<.<.<.<.<.<.4.<.<.<.<.M M M M M M M 6.M M m a i a m N <.<.<.<.<.<.M N 2.j ` T.oX^.XX.X'.j..XXXXX.X'.T.) Y 1.<.<.4.<.<.<.<.<.<.<.<.<.B B <.B <.<.<.<.) )  X'.}.8.( ( ) P '.@XM.@X~.W.",
"^.^.^.XX~..X[.t.P ^ <.s 7.G.-.-.<.<.<.<.<.<.<.<.<.<.<.<.<.<.<.<.4.4.4.4.4.4.4.<.4.4.4.<.<.<.<.<.<.<.<.<.4.4.4.4.<.<.<.B <.<.<.<.<.<.<.<.4.4.<.<.4.4.4.4.<.<.<.4.4.4.4.4.4.4.4.<.<.<.<.<.4.4.<.<.<.4.4.4.4.4.4.<.<.<.<.<.4.<.<.<.<.<.<.<.<.<.1.1.Y `.[.W.~.~.Q.~.'.T.1.Y <.N j B 4.4.=.=.<.<.<.<.<.<.<.M B B B 4.<.<.T { T.oX~.W.`.2.^ ^ ( ) T.oX~.^.XX.X'.[.A.L ( 1.1.Y 3.:X3.=.=.=.1.1.<.<.B B <.<.<.<.<.<.<.<.<.<.<.<.<.<.<.<.<.<.<.<.<.<.<.<.<.<.<.<.<.<.<.<.<.<.<.<.<.<.<.<.<.<.<.<.<.<.<.<.<.<.<.<.<.<.<.<.<.<.<.<.<.<.<.<.<.<.<.<.<.<.<.<.<.<.<.<.<.<.<.<.<.<.<.<.( <.<.<.<.( ( <.<.<.<.M x 7   b K.i.U 1.-.1.<.<.<.B B B <.<.<.4.4.4.4.4.<.4.4.4.4.4.4.4.B 4.4.=.T 8.I.[.'.'.T.8.Y ( 4.1.h.#X~.~.~.R.[.t.Y s M m 7.N.Y 1.<.<.<.<.<.<.<.<.<.<.<.<.<.<.<.<.<.<.<.<.<.<.<.<.1.( 1 ( %X1.1.( <.<.<.<.<.<.<.<.<.<.<.<.<.<.<.<.<.<.<.<.<.<.<.<.<.<.<.<.<.<.<.<.<.<.<.<.<.<.<.<.<.<.<.<.<.<.<.B 4.4.4.4.<.<.<.4.B 4.4.c r o r c <.<.<.<.<.<.<.N N <.^ ) T.OX^.XXOXR.g.x.@X@X.X'.t.P Y 4.<.M <.<.<.<.<.<.<.<.<.<.<.<.<.<.<.<.<.<.( T #X'.#Xq.( ( ) T '.XXM.@X~.W.",
"^.^.^.XX^..X[.t.P ^ <.s 7.G.-.-.<.<.<.<.<.<.<.<.<.<.<.<.<.<.<.<.4.4.4.4.4.4.<.<.4.4.<.<.<.<.<.<.<.<.4.<.B B 4.4.<.<.<.B <.<.<.<.<.<.<.<.4.4.4.<.4.4.4.4.<.<.<.4.4.4.4.4.4.4.<.<.<.<.<.<.4.4.<.<.<.4.4.4.4.4.4.<.<.<.<.<.<.<.<.4.<.<.<.<.<.<.<.1.P A.[.W.~.~.Q.~.W.T.) P ) <.j <.<.4.-.-.<.<.<.<.( ( <.<.M B B <.=.1.T { T./.Q.~.].1.^ ( P ) T.oX~.^.XXXX.X[.T.P ( 1.1.s 0.>Xw.T -.-.1.1.<.<.B B <.<.<.<.<.<.<.<.<.<.<.<.<.<.<.<.<.<.<.<.<.<.<.<.<.<.<.<.<.<.<.<.<.<.<.<.<.<.<.<.<.<.<.<.<.<.<.<.<.<.<.<.<.<.<.<.<.<.<.<.<.<.<.<.<.<.<.<.<.<.<.<.<.<.<.<.<.<.<.<.<.<.<.( ( ( <.<.<.( ( <.<.<.s s q 0   <.K.7.U -.-.1.<.<.4.B B B 4.<.<.<.4.4.4.4.4.4.<.<.4.4.4.4.4.6.<.Y T 9.R.#XT.oX[.t.( Y M ( h.OX~.~.~.R.[.q.Y s M m 7.F.Y 1.<.<.<.<.<.<.<.<.<.<.<.<.<.<.<.<.<.<.<.<.<.<.<.( ( 1.o 1.%X( ( ( <.<.<.<.<.<.<.<.<.<.<.<.<.<.<.<.<.<.<.<.<.<.<.<.<.<.<.<.<.<.<.<.<.<.<.<.<.<.<.<.<.<.<.<.<.<.<.<.4.4.4.4.<.<.4.4.c B 4.c r o r M <.<.<.<.<.<.<.<.<.<.^ ) R..X^.XX#Xh.d.j.@X@X.X'.t.P Y 4.<.M 4.<.<.<.<.<.<.<.<.<.<.<.<.<.<.<.<.( ( T #X'.#Xt.) ( ( T '.XXM.@X~.~.",
"^.c.^.XX^..X'.t.( ^ <.s 7.G.-.-.1.<.<.<.<.<.<.<.<.<.<.<.<.<.<.<.4.4.<.4.<.<.<.<.4.4.4.4.<.<.4.<.B 4.4.4.B B <.<.<.<.B B B 4.4.4.<.<.4.4.4.4.<.<.<.<.4.<.<.<.<.<.4.4.<.4.<.<.<.<.<.<.4.4.4.4.<.<.<.<.4.4.4.4.4.<.<.<.4.4.4.4.<.4.<.<.<.<.4.<.=.1.P t.'.'.~.(.Q.~.R.T.) P ) <.j <.<.-.-.-.=.<.<.<.( ( <.<.M B <.<.=.1.T { R./.Q.~.].1.^ ^ P ) T.oX~.^.XXXX.X[.T.P ( 1.1.s r.>Xw.T -.-.1.1.<.<.B B <.<.<.<.<.<.<.<.<.<.<.<.<.<.<.<.<.<.<.<.<.<.<.<.<.<.<.<.<.<.<.<.<.<.<.<.<.<.<.<.<.<.<.<.<.<.<.<.<.<.<.<.<.<.<.<.<.<.<.<.<.<.<.<.<.<.<.<.<.<.<.<.<.<.<.<.<.<.<.<.<.<.<.( <.<.<.<.<.<.<.<.<.j s p % q X 6.|.5.=.=.-.1.<.<.4.B B B 4.<.<.<.4.4.<.<.<.<.<.<.4.4.<.<.<.4.=.Y Q k.'..X~.#X[.t.) ( <.Y h.OX~.~.~.~.[.t.Y s <.M 7.F.P ) <.<.<.<.<.<.<.<.<.<.<.<.<.<.<.<.<.<.<.<.<.( ( ( Y 1.O 7.|.Y ( 1.<.<.<.<.<.<.<.<.<.<.<.<.<.<.<.<.<.<.<.<.<.<.<.<.<.<.<.<.<.<.<.<.<.<.<.<.<.<.<.<.<.<.<.<.<.<.<.<.<.<.4.4.<.<.<.<.B B <.<.b p a <.<.<.<.1.<.<.<.<.<.<.Y ) T..X^.^.#Xf.@.g.@XXX.X'.e.P Y 4.<.c 4.<.<.<.<.<.<.<.<.<.<.<.<.<.<.<.<.( ) I #X'.#Xf.) ( ( T '.XXM.@X~.~.",
"^.^.^.XX^.XX[.t.^ j ( Y r.`.-.1.1.<.<.<.<.<.<.<.<.<.<.<.<.<.<.<.<.4.<.<.<.<.<.<.4.4.4.<.<.<.4.4.4.4.4.4.4.4.<.<.<.<.B B B 4.4.4.<.<.<.4.4.4.<.<.<.<.<.<.<.<.<.<.4.4.<.<.<.<.<.<.<.4.4.4.4.4.<.<.<.<.<.<.4.4.4.<.<.<.4.4.4.4.4.<.<.<.<.<.<.<.<.=.U t.}.'.~.^.).~.R.T.) K ) <.c <.<.-.-.-.=.<.<.<.( ( <.<.<.<.<.<.<.1.T { R./.Q.~.].1.^ ^ P ) T.oX~.^.^.^.~.[.T.P ( 1.1.s r.lXq.T -.1.<.<.=.<.<.B <.<.<.<.<.<.<.<.<.<.<.<.<.<.<.<.<.<.<.<.<.<.<.<.<.<.<.<.<.<.<.<.<.<.<.<.<.<.<.<.<.<.<.<.<.<.<.<.<.<.<.<.<.<.<.<.<.<.<.<.<.<.<.<.<.<.<.<.<.<.<.<.<.<.<.<.<.<.<.<.<.<.<.<.<.<.<.<.<.<.M M M M a a X a % 6.|.5.=.=.-.=.<.<.<.B B B <.<.<.4.4.4.<.<.<.<.<.<.<.<.<.<.v =.Y R { h..X.X~.OXT.9.) 1.<.s h.OX~.~.~.R.[.t.( s <.M 7.Z.P ) ( <.<.<.<.<.<.<.<.<.<.<.<.<.<.<.<.<.<.<.<.( <.( s 1.O r.|.u ( 5.<.<.<.<.<.<.<.<.<.<.<.<.<.<.<.<.<.<.<.<.<.<.<.<.<.<.<.<.<.<.<.<.<.<.<.<.<.<.<.<.<.<.<.<.<.<.<.<.<.<.<.4.<.<.<.<.6.<.B 4.4.<.B <.<.<.<.<.<.<.<.<.<.( Y / T.~.^.XX#Xk.! g..X.X'.'.e.P Y 4.<.c 4.<.<.<.<.<.<.<.<.<.<.<.<.<.<.<.<.( ( I #X.X#Xf.1.( ( T '.XXx.@X~.~.",
"^.~.~..Xc.@X'.0.l h 2.K h. XP ( <.<.<.<.4.<.4.<.4.<.<.<.<.<.4.<.<.<.<.<.<.<.<.<.<.<.<.<.<.<.<.<.<.<.<.<.<.<.<.<.<.<.<.<.<.<.<.<.<.<.<.<.<.<.<.<.<.<.<.<.<.<.<.<.<.<.<.<.<.<.<.<.<.<.<.<.<.<.<.<.<.<.<.<.<.<.<.<.<.<.<.<.<.<.<.<.<.<.<.<.<.<.<.1.T r.`.[.~.~.^.~.oXt.) ( ( 2.<.4.<.<.<.<.<.<.<.N <.<.<.<.<.<.<.<.<.( 1.T '.~.^.^.}.0.) ( U ) T.[.~.Q.~.~.R.[.T.R <.c 1.P 9.lX#XL ( N M B 4.;.<.<.<.<.<.<.<.<.<.<.<.<.<.<.<.<.<.<.<.<.<.<.<.<.B <.B 4.4.<.<.4.4.B <.<.<.<.<.<.<.<.<.<.<.<.<.<.<.<.<.<.<.<.<.<.<.<.<.<.<.<.<.<.<.<.<.<.<.<.<.<.<.<.<.<.<.<.<.<.<.<.<.<.<.<.<.<.<.<.<.4.M c B 6.x X 7   y L.L.5.=.=.=.1.<.<.B B B B <.<.<.<.<.<.<.<.<.<.<.<.<.<.<.<.c <.1.T 8.R.XX.X.XR.'.T.1.Y <.Y h.#XR.~./.Y.[.0.( s 4.s Z.`.D ) ( <.<.<.M M M <.<.<.<.<.B B B <.<.<.<.M M N <.<.2.t # &XG.T 1.<.<.<.<.<.<.<.<.<.<.<.<.<.<.<.<.<.<.<.<.<.<.<.<.<.<.<.<.<.<.<.<.<.<.<.4.<.4.<.<.<.<.<.<.<.4.<.4.<.<.<.B B B B <.<.<.<.4.4.4.<.<.<.1.1.<.<.B M N N M ( Y ) T.oX^..X#XQ } ~.~.~.oX[.8.1.<.=.<.<.<.<.<.M <.<.<.<.<.M <.<.<.<.<.<.<.<.^ ) '..X+Xb.U <.( ( h.+XXXXXXX~.",
"~.~..X.XM.@X.X0.l l 2.P h.#XP j <.<.<.<.4.4.4.4.4.4.<.<.4.4.4.4.<.<.<.<.<.<.<.<.<.<.<.<.<.<.<.<.<.<.<.<.<.<.<.<.<.<.<.<.<.<.<.<.<.<.<.<.<.<.<.<.<.<.<.<.<.<.<.<.<.<.<.<.<.<.<.<.<.<.<.<.<.<.<.<.<.<.<.<.<.<.<.<.<.<.<.<.<.<.<.<.<.<.N N N N <.( Y r.`.[.~.~.^.Q.oXt.) ^ <.<.N 4.4.<.<.<.<.<.M M <.<.<.<.<.4.<.<.<.j 1.P [.R.XX.X[.0.T ) U 1.A.[.~.Q.~.~.R.[.T.R <.c 4.P q.zX@XE ( M C B ;.;.4.<.<.<.<.<.<.<.<.<.<.<.<.<.<.<.<.<.<.B <.<.<.<.B B B 4.4.<.<.4.4.B <.<.<.<.<.<.<.<.<.<.<.<.<.<.<.<.<.<.<.<.<.<.<.<.<.<.<.<.<.<.<.<.<.<.<.<.<.<.<.<.<.<.<.<.<.<.<.<.<.<.<.<.<.<.<.<.<.N B M B B z $ 7 O s K.L.4.U =.1.1.<.<.B B B B <.<.<.<.<.<.<.<.<.<.<.<.<.<.<.<.M <.1.T 8.R.XX.X.XR..X`.1.( <.Y T.#XR.~./.W.[.0.( j 4.s Z.].D ) ( <.<.<.<.M M <.B <.<.<.<.B B <.<.<.<.B N N M <.2.t + &XG.T ( <.<.<.<.<.<.<.<.<.<.<.<.<.<.<.<.<.<.<.<.<.<.<.<.<.<.<.<.<.<.<.<.<.4.<.4.4.4.4.<.<.<.<.4.4.4.4.4.4.<.<.B <.B B <.<.4.4.4.4.4.<.M <.1.1.<.M B M N N M ( Y ) T.oX~.~.#XQ { /.~.U./.[.8.1.<.<.<.<.<.=.<.B <.<.<.<.B B B B <.<.<.<.<.<.^ ) '..X+Xb.K ( j ( t.#XXX^.XX^.",
"~.~..X.XM.@X.X0.h l _ K h.#X^ k <.<.<.<.<.4.<.<.<.<.<.<.<.<.4.4.<.<.<.<.<.<.<.<.<.<.<.<.<.<.<.<.<.<.<.<.<.<.<.<.<.<.<.<.<.<.<.<.<.<.<.<.<.<.<.<.<.<.<.<.<.<.<.<.<.<.<.<.<.<.<.<.<.<.<.<.<.<.<.<.<.<.<.<.<.<.<.<.<.<.<.<.<.<.<.<.<.<.N N N M <.( Y r.`.[.~.~.^.Q.#Xt.) ^ <.<.M 4.4.4.<.<.<.<.M M <.<.<.<.<.<.<.<.<.j 1.P [.R.XX.X[.0.T ) U 1.A.[.~.Q.~.~.R.[.h.R <.c 4.P q.zXOXE ( M C B ;.:.4.<.<.<.<.<.<.<.<.<.<.<.<.<.<.<.<.<.B B <.<.<.<.<.B M 4.4.M B 4.4.M <.<.<.<.<.<.<.<.<.<.<.<.<.<.<.<.<.<.<.<.<.<.<.<.<.<.<.<.<.<.<.<.<.<.<.<.<.<.<.<.<.<.<.<.<.<.<.<.<.4.<.<.<.<.<.<.<.M B B B x q 6 > O j P.H.1.Y 1.1.1.1.<.<.M M M <.<.<.<.<.<.<.<.<.<.<.<.<.<.<.<.M <.1.T 8.R.XX~..X~..X`.1.( <.Y h.#XR.~./.W.[.0.( j 4.s V.].D / ( M <.<.<.<.<.<.B B <.<.4.4.<.<.<.<.<.B N N M <.1.t t &XG.T ( <.<.<.<.<.<.<.<.<.<.<.<.<.<.<.<.<.<.<.<.<.<.<.<.<.<.<.<.<.<.<.<.<.<.<.<.<.4.<.<.<.4.4.4.4.<.4.<.<.<.<.<.<.<.<.<.<.4.4.4.4.4.<.M M <.1.<.M M M N N M ( P { T.oX~..X}.T } oX~.U./.E.) 1.<.<.<.<.<.1.<.B <.<.<.<.<.<.<.<.<.<.<.<.<.<.^ ) '..X+Xh.U <.j ( t..XXX^.XX^.",
"~.~..X.XM.@X.X0.h l _ K j.-X^ j <.<.<.<.<.<.<.<.<.<.<.<.<.4.4.4.<.<.<.<.<.<.<.<.<.<.<.<.<.<.<.<.<.<.<.<.<.<.<.<.<.<.<.<.<.<.<.<.<.<.<.<.<.<.<.<.<.<.<.<.<.<.<.<.<.<.<.<.<.<.<.<.<.<.<.<.<.<.<.<.<.<.<.<.<.<.<.<.<.<.<.<.<.<.<.<.<.<.N N N M <.( Y r.T.[.~.~.^.Q.#Xt.) ^ ( <.N 4.4.4.4.4.<.<.M M <.<.<.<.<.<.<.<.<.j 1.P [.R.XX.X[.0.T ) U 1.A.[.~.Q.~.~.R.[.T.T <.c <.P q.zXOXQ ( k M B ;.:.<.<.<.<.<.<.<.<.<.<.<.<.<.<.<.<.<.<.B B <.<.<.<.B B M 4.4.M M 4.4.M <.<.<.<.<.<.<.<.<.<.<.<.<.<.<.<.<.<.<.<.<.<.<.<.<.<.<.<.<.<.<.<.<.<.<.<.<.<.<.<.<.<.<.<.<.<.<.<.<.<.<.<.<.<.<.<.<.m B 6.B q $ 6 X o 6.%XF.<.Y 1.1.<.<.<.<.M M M <.<.<.<.<.<.<.<.<.<.<.<.<.<.<.<.M M Y T q.'.XX^..X~..XT.1.( <.Y `.#X~.~./.W.[.0.( j 4.s Z.*XD / ( M <.<.<.<.<.<.B B <.<.4.4.<.<.<.<.<.M N N M <.1.* T  Xt.T ( <.<.<.<.<.<.<.<.<.<.<.<.<.<.<.<.<.<.<.<.<.<.<.<.<.<.<.<.<.<.<.<.<.<.<.<.<.4.4.<.<.4.4.4.4.<.<.<.<.<.<.<.<.<.<.<.<.M M M M <.<.B <.<.<.<.M B M N N M ) P { T.oX~.~.`.T } [.~.U./.T.T ) <.<.<.<.1.1.<.<.<.<.<.<.<.<.<.<.<.<.<.<.<.<.^ ) '..X+Xh.K <.j ( t..XXX^.XX^.",
"~.~..X.XM.@X.X0.h l _ L j.;X^ j <.<.<.<.<.<.<.<.<.<.<.<.<.<.<.<.<.<.<.<.<.<.<.<.<.<.<.<.<.<.<.<.<.<.<.<.<.<.<.<.<.<.<.<.<.<.<.<.<.<.<.<.<.<.<.<.<.<.<.<.<.<.<.<.<.<.<.<.<.<.<.<.<.<.<.<.<.<.<.<.<.<.<.<.<.<.<.<.<.<.<.<.<.<.<.<.<.<.N N M N <.( Y 0.T.W.~.~.^.~.#Xt.) ^ <.<.M 4.4.4.;.;.<.<.M M <.<.<.<.<.<.<.<.<.j 1.P [.R.XX.X[.0.T ) U 1.A.[./.Q.~.~.R.[.T.T <.c <.P f.zXtX! ( k M M ;.:.<.<.<.<.<.<.<.<.<.<.<.<.<.<.<.<.<.<.<.<.<.<.<.<.<.<.M 4.4.M M 4.4.M <.<.<.<.<.<.<.<.<.<.<.<.<.<.<.<.<.<.<.<.<.<.<.<.<.<.<.<.<.<.<.<.<.<.<.<.<.<.<.<.<.<.<.<.<.<.<.<.<.<.<.<.<.<.<.<.<.M B B x $ $ 7 O 1 Z.%XF.( Y 1.1.1.<.<.<.N M M <.<.<.<.<.<.<.<.<.<.<.<.<.<.<.<.M j Y ) t.'.XX^..X~..X`.1.( <.Y `.#X~.~./.W.[.0.( j 4.s Z.&XI ^ ( <.<.<.<.<.<.<.<.<.<.<.4.4.4.<.<.<.<.M N N M <.Y @ 8.|.t.T ( <.<.<.<.<.<.<.<.<.<.<.<.<.<.<.<.<.<.<.<.<.<.<.<.<.<.<.<.<.<.<.<.<.<.<.<.<.<.<.<.<.<.<.<.<.<.<.<.<.B B <.<.<.<.B B a s c M B <.<.<.<.<.<.<.B B N N M ) P { T.oX~..Xh.R 9.oX~.R./.T.T T <.<.<.<.1.<.<.<.<.<.<.<.<.<.<.<.<.<.<.<.B <.^ ) '..X+Xh.K ( j ( t..XXXXXXX^.",
"~.~..X.XM.@X.X3.h l _ L R.;X^ j <.<.<.<.<.<.<.<.<.<.<.<.<.<.<.<.<.<.<.<.<.<.<.<.<.<.<.<.<.<.<.<.<.<.<.<.<.<.<.<.<.<.<.<.<.<.<.<.<.<.<.<.<.<.<.<.<.<.<.<.<.<.<.<.<.<.<.<.<.<.<.<.<.<.<.<.<.<.<.<.<.<.<.<.<.<.<.<.<.<.<.<.<.<.<.<.<.<.N N M M <.( s 0.T.W.~.~.^.^.#Xt.) ^ <.4.M 4.4.4.=.;.<.<.M M <.<.<.<.<.<.<.<.M j 1.P [.R.XX.X[.0.T ) Y 1.A.[./.Q.~.~.R.[.T.R <.s 1.P f.zXuX} ( j M M ;.:.<.<.<.<.<.<.<.<.<.<.<.<.<.<.<.<.<.<.<.<.<.<.<.<.<.<.4.4.<.c c <.4.<.<.<.<.<.<.<.<.<.<.<.<.<.<.<.<.<.<.<.<.<.<.<.<.<.<.<.<.<.<.<.<.<.<.<.<.<.<.<.<.<.<.<.<.<.<.<.<.<.<.<.<.<.<.<.<.<.<.M B m q $ $ 6 O u G.%XZ.( <.1.1.<.<.<.<.<.M M <.<.<.<.<.<.<.<.<.<.<.<.<.<.<.<.4.j Y ) t.'..X.X.X~..X`.8.( <.( T.#X~.~.~.W.E.0.Y ( 6.s Z.-X/ I ( <.<.<.<.<.<.<.<.<.<.<.4.4.<.<.<.<.<.M M N M <.s # p.|.t.T ( <.<.<.<.<.<.<.<.<.<.<.<.<.<.<.<.<.<.<.<.<.<.<.<.<.<.<.<.<.<.<.<.<.<.<.<.<.<.<.<.<.<.<.<.<.<.<.<.<.B B <.<.<.<.B B a a s M M <.<.<.<.<.<.M B B N M <.( P { T.oX~.~.e.R 9.oXR.R./.T.R T <.<.<.<.<.<.<.<.<.<.<.<.<.<.B <.<.<.<.<.B <.^ ` '..X+Xh.K ( j ( t..XXXXXXX^.",
"~.~..X.XM.@X.X3.h l ) L .X;X^ ^ <.<.<.<.<.<.<.<.<.<.<.<.<.<.<.<.<.<.<.<.<.<.<.<.<.<.<.<.<.<.<.<.<.<.<.<.<.<.<.<.<.<.<.<.<.<.<.<.<.<.<.<.<.<.<.<.<.<.<.<.<.<.<.<.<.<.<.<.<.<.<.<.<.<.<.<.<.<.<.<.<.<.<.<.<.<.<.<.<.<.<.<.<.<.<.<.<.<.N N M M <.( u 8.T.T.~.~.^.^.[.t.) ^ <.4.M 4.<.<.=.=.<.<.M M <.<.<.<.<.<.<.<.<.j 1.P [.R.XX.X[.0.T ) Y ) A.[.W.Q.~.~.R.[.T.R <.s 1.P f.NXuX@.( k M B ;.:.4.B <.<.<.<.<.<.<.<.<.<.<.<.<.<.<.<.<.<.B B <.<.<.<.4.4.<.s c <.4.<.<.<.<.<.<.<.<.<.<.<.<.<.<.<.<.<.<.<.<.<.<.<.<.<.<.<.<.<.<.<.<.<.<.<.<.<.<.<.<.<.<.<.<.<.<.<.<.<.<.<.<.<.<.<.<.<.M M B a 7 6 0 6 o s J.%Xr.( ( ( <.<.<.<.<.<.N N <.<.<.<.<.<.<.<.<.<.<.<.<.<.<.<.4.s s ) h.'..X~.~.~..X`.8.( <.( T.OX~.~.~.W.E.8.T ( 6.s A.:X/ ^ ( <.<.<.<.<.M M <.<.<.<.4.4.B 4.<.<.<.B N N M <.p O {.`.t.T ( <.<.<.<.<.<.<.<.<.<.<.<.<.<.<.<.<.<.<.<.<.<.<.<.<.<.<.<.<.<.<.<.<.<.<.<.<.<.<.<.<.<.<.<.<.<.<.<.<.B B <.<.<.<.<.<.c c M B <.<.B B <.<.<.M M M M M ( ( P { T.oXR.~.9.L q.oXR.R./.T.L T <.4.<.M <.<.<.<.B B <.<.<.<.B B <.<.<.<.B <.^ ) }..X+Xb.K ( j ( t..XXX^.XX^.",
"~.~..X.XM.@X.X8.l l ) R .X;X^ ^ <.<.<.<.<.<.<.<.<.<.<.<.<.<.<.<.<.<.<.<.<.<.<.<.<.<.<.<.<.<.<.<.<.<.<.<.<.<.<.<.<.<.<.<.<.<.<.<.<.<.<.<.<.<.<.<.<.<.<.<.<.<.<.<.<.<.<.<.<.<.<.<.<.<.<.<.<.<.<.<.<.<.<.<.<.<.<.<.<.<.<.<.<.<.<.<.<.<.N N N M <.( u 8.T.T.~.~.^.^.[.t.) ^ <.<.M 4.<.<.<.=.<.<.M M <.<.<.<.<.<.<.<.<.j 1.P [.R.XX.X[.0.T ) Y ) A.[.W.Q.~.~.R.[.T.R 1.s 1.P f.NXiX@.( j M B ;.=.<.B <.<.<.<.<.<.<.<.<.<.<.<.<.<.<.<.<.<.B B B B <.<.<.4.B s c B 4.<.<.<.<.<.<.<.<.<.<.<.<.<.<.<.<.<.<.<.<.<.<.<.<.<.<.<.<.<.<.<.<.<.<.<.<.<.<.<.<.<.<.<.<.<.<.<.<.<.<.<.<.<.<.<.<.<.M 4.B 7 % 6 0 % o Y H.|.r.( 1.( <.<.<.<.<.<.N <.<.<.<.<.<.<.<.<.<.<.<.<.<.<.<.<.<.s u 1.h.'..X~.~.~..XT.8.( <.( T.$X~.^.~.R.T.{ T ( 5.s G.:X] I ( <.<.<.M M M M <.<.<.<.B B B 4.<.<.<.B N N N <.r O |.`.r.T ( <.<.<.<.<.<.<.<.<.<.<.<.<.<.<.<.<.<.<.<.<.<.<.<.<.<.<.<.<.<.<.<.<.<.<.<.<.<.<.<.<.<.<.<.<.<.<.<.<.<.<.<.<.<.<.<.<.<.4.4.4.4.<.B M <.<.<.<.M M N <.( ( P { T.oXW.'.{ L q.oXR.R./.I.L Y <.4.B M <.<.<.B B <.<.<.<.B B B <.<.<.<.B <.( ) '..X+Xb.U <.j ( t..X.X^.XX~.",
"~.~..X.XM.@X.X) k l ` L .XjX) ^ ( <.<.<.<.<.<.<.<.<.<.<.<.<.<.<.<.<.<.<.<.<.<.<.<.<.<.<.<.<.<.<.<.<.<.<.<.<.<.<.<.<.<.<.<.<.<.<.<.<.<.<.<.<.<.<.<.<.<.<.<.<.<.<.<.<.<.<.<.<.<.<.<.<.<.<.<.<.<.<.<.<.<.<.<.<.<.<.<.<.<.<.<.<.<.<.<.<.M M N N <.( T ) t.#X~.Q.^.Q.[.t.) ^ ( N N <.4.4.4.4.<.<.B M <.<.<.<.<.<.<.<.4.j 1.P [.R.XX.X[.t.P ) 1.P t.[./.Q.(.~.~.oXT.T 1.2.j u g.NXmXj.P j N 4.5.5.<.M <.<.<.<.<.<.<.<.<.<.<.<.<.<.<.<.<.<.<.<.<.<.<.<.4.M 4.M p c 4.M <.<.<.<.<.<.<.<.<.<.<.<.<.<.<.<.<.<.<.<.<.<.<.<.<.<.<.<.<.<.<.<.<.<.<.<.<.<.<.<.<.<.<.<.<.<.<.<.<.<.<.<.<.<.<.<.s <.M 7 % 6 q % O r.|.%Xr.u 1.1.( 1.o 6.s <.6.M <.<.<.<.<.<.<.<.<.<.<.<.<.<.<.<.<.( Y ) T.'.R.~.~.~.#X'.0.( <.Y T..X~.XX~.W.oX{ ( ( <.<.A.>XI I ( <.<.<.<.<.<.<.<.<.<.B B <.<.<.=.<.4.B N M M c o t `. X8.T 1.s <.<.<.<.<.<.<.<.<.<.<.<.<.<.<.<.<.<.<.<.<.<.<.<.<.<.<.<.<.<.<.<.M M M <.<.<.<.<.<.<.<.<.<.<.<.<.<.<.<.<.<.<.<.B B B <.<.<.<.<.<.<.<.<.<.M M M <.<.1.) / '.T.=XT.T T T.oXU./.oX9.T ( <.4.4.<.<.<.<.B <.<.<.<.B B M M M 4.4.4.4.<.^ q.'.XX+Xh.( j <.^ q.XXXX^..X~.",
"~.~..X.XM.rX.X) j l 1.L .XjX{ ^ ( <.<.<.<.<.<.<.<.<.<.<.<.<.<.<.<.<.<.<.<.<.<.<.<.<.<.<.<.<.<.<.<.<.<.<.<.<.<.<.<.<.<.<.<.<.<.<.<.<.<.<.<.<.<.<.<.<.<.<.<.<.<.<.<.<.<.<.<.<.<.<.<.<.<.<.<.<.<.<.<.<.<.<.<.<.<.<.<.<.<.<.<.<.<.<.<.<.N M N N <.( T ) t.#X~.Q.^.Q.[.t.) ^ ( N M B 4.4.4.4.<.<.B B <.<.<.<.<.<.<.<.<.j 1.P [.R.XX.X[.t.P 1.1.Y t.[./.Q./.~.~.oXT.T <.4.j P g.NXmX~.P j N 4.5.1.<.M <.<.<.<.<.<.<.<.<.<.<.<.<.<.<.<.<.B <.<.<.<.B B 4.M 4.c p c 4.M <.<.<.<.<.<.<.<.<.<.<.<.<.<.<.<.<.<.<.<.<.<.<.<.<.<.<.<.<.<.<.<.<.<.<.<.<.<.<.<.<.<.<.<.<.<.<.<.<.<.<.<.<.<.<.<.s <.B 7 % 6 q % O r.|.|.r.u 1.( ( ( 1 6.s <.2.j <.<.<.<.<.<.<.<.<.<.<.<.<.<.<.<.<.( Y { `.W.R.~.~.~.oX'.0.( <.Y T..X~..X~.W.[.{ ( 1.<.( A.>XI I ( M <.<.<.<.M M <.<.<.B <.<.<.<.=.<.4.B N M N s o U |. X8.T 1.<.<.<.<.<.<.<.<.<.<.<.<.<.<.<.<.<.<.<.<.<.<.<.<.<.<.<.<.<.<.<.<.<.<.<.<.<.<.<.<.<.<.<.<.<.<.<.<.<.<.<.<.<.<.<.B B B B <.<.<.<.<.<.<.<.<.<.M M <.<.1.1.) / [.T.=XI.T T T.oXU./.oX9.T ( <.4.4.4.<.<.B B <.<.<.<.B B M M M 4.4.4.4.<.^ q.'.XX+Xh.( j <.^ q.XXXX^..X~.",
"~.R..X.XM.rX'.) j l ` L .XzX{ ^ ( <.<.<.<.<.<.<.<.<.<.<.<.<.<.<.<.<.<.<.<.<.<.<.<.<.<.<.<.<.<.<.<.<.<.<.<.<.<.<.<.<.<.<.<.<.<.<.<.<.<.<.<.<.<.<.<.<.<.<.<.<.<.<.<.<.<.<.<.<.<.<.<.<.<.<.<.<.<.<.<.<.<.<.<.<.<.<.<.<.<.<.<.<.<.<.<.<.N N N N <.( ( ) t.#X~.Q.^.~.[.t.) ^ ( N M <.4.4.;.=.<.<.B B <.<.<.<.4.4.<.<.<.j ) P [.R.XX.X}.t.P 1.1.U t.[./.Q.~./.R.oXT.T <.4.j P g.NXmX^.L j N 4.1.1.<.M <.<.<.<.<.<.<.<.<.<.<.<.<.<.<.<.B B <.<.<.<.<.B 4.M <.c p c 4.M <.<.<.<.<.<.<.<.<.<.<.<.<.<.<.<.<.<.<.<.<.<.<.<.<.<.<.<.<.<.<.<.<.<.<.<.<.<.<.<.<.<.<.<.<.<.<.<.4.4.<.<.<.<.<.<.s N B q $ 0 0 % # t.|.|.0.u 1.( ( j r 2.j <.2.j <.<.<.<.<.<.<.<.<.<.<.<.<.<.<.<.<.( Y 8.'.[.~.~.~.~.oXT.8.( <.Y T..X~..X~.W.[.{ T 1.<.Y A.>X] I ( <.<.<.<.<.M M <.<.<.<.<.<.<.<.<.<.4.B N M M a o =.|. X8.T 1.<.<.<.<.<.<.<.<.<.<.<.<.<.<.<.<.<.<.<.<.<.<.<.<.<.<.<.<.<.<.<.<.<.<.<.<.<.<.<.<.<.<.<.<.<.<.<.<.<.B <.<.<.<.<.<.<.<.<.<.<.<.<.<.<.N N N N M M <.<.1.( ) / [.T.=Xf.T T A.[.U././. .P ( <.B B 4.<.<.B B <.B <.<.<.<.M M M 4.4.4.4.<.j V.'.XX+Xh.T j 2.^ q.#XXX^.XX^.",
"~.R..X.XM.@X'.) j l ` L XXzX{ ^ ( <.<.<.<.<.<.<.<.<.<.<.<.<.<.<.<.<.<.<.<.<.<.<.<.<.<.<.<.<.<.<.<.<.<.<.<.<.<.<.<.<.<.<.<.<.<.<.<.<.<.<.<.<.<.<.<.<.<.<.<.<.<.<.<.<.<.<.<.<.<.<.<.<.<.<.<.<.<.<.<.<.<.<.<.<.<.<.<.<.<.<.<.<.<.<.<.<.N N N N <.( ( ) t.#X~.Q.^.~.[.t.) ^ ( N M <.4.4.4.=.<.<.B B <.<.<.<.;.4.<.<.4.j ) P [.R.XX.X[.A.P 1.1.U t.[./.Q.~./.R.[.T.T <.<.j ^ I.NXmX^.I j N <.1.1.<.M <.<.<.<.<.<.<.<.<.<.<.<.<.<.<.<.B B B <.<.<.B B 4.M <.c i s 4.B <.<.<.<.<.<.<.<.<.<.<.<.<.<.<.<.<.<.<.<.<.<.<.<.<.<.<.<.<.<.<.<.<.<.<.<.<.<.<.<.<.<.<.<.<.<.<.<.4.4.<.<.<.<.<.<.c N B a 0 0 0 % + t. X].1.K 1.( ( s u 2.M <.4.j <.<.<.<.<.<.<.<.<.<.<.<.<.<.<.<.<.( Y 8.[.W.~.~.~.~.oXT.8.( <.Y T..X~.XX~.R.[.{ T 1.<.Y A.>X] I ( <.<.<.<.<.<.M <.<.<.<.<.<.<.<.<.<.<.m N M j p o 3.&X|.1.T 1.4.<.<.<.<.<.<.<.<.<.<.<.<.<.<.<.<.<.<.<.<.<.<.<.<.<.<.<.<.<.<.<.<.<.<.<.<.<.<.<.<.<.<.<.<.<.<.<.<.B <.<.<.<.<.<.<.<.<.<.<.<.<.<.<.N N N N M <.<.<.1.) ) { [.W.#Xf.T T T.oXU./.W.| P ( B B B M <.<.<.<.<.<.<.<.<.<.M M M 4.4.4.4.<.j V.'..X+Xh.( j 2.^ q.#XXX^..X^.",
"~.R..X.XM.@X'.) j h ` L @XzX| ^ ( <.<.<.<.<.<.( <.<.<.<.<.<.<.<.<.<.<.<.<.<.<.<.<.<.<.<.<.<.<.<.<.<.<.<.<.<.<.<.<.<.<.<.<.<.<.<.<.<.<.<.<.<.<.<.<.<.<.<.<.<.<.<.<.<.<.<.<.<.<.<.<.<.<.<.<.<.<.<.<.<.<.<.<.<.<.<.<.<.<.<.<.<.<.<.<.<.N N N N <.( ( ) t.oX~.Q.^.~.[.t.T ^ ( N N <.<.<.<.=.<.<.M M <.<.<.<.;.<.<.<.4.j 1.P [.'.XX.X[.A.P 1.1.U t.[./.Q.~./.R.[.T.T 1.<.j ^ U.NXmXtXI ^ <.<.1.1.<.N <.<.<.<.<.<.<.<.<.<.<.<.<.<.<.<.<.<.<.<.<.<.<.<.4.M 4.s i a 4.<.<.<.<.<.<.<.<.<.<.<.<.<.<.<.<.<.<.<.<.<.<.<.<.<.<.<.<.<.<.<.<.<.<.<.<.<.<.<.<.<.<.<.<.<.<.<.<.<.4.4.<.<.<.<.<.<.M M B a q 6 0 % @ T. X`.1.P 1.^ ( y j <.( ( <.<.<.<.<.<.<.<.<.<.<.<.<.<.<.<.<.<.j ( ^ | [.oX~.~.~.~.oXT.{ ( <.^ T..Xx.XX~.R.[.{ T 1.<.s G.lX{ I ( <.<.<.<.<.<.<.B B B <.4.4.<.<.<.<.B m N M s t O r.&XG.1.T ( 4.<.<.<.<.<.<.<.<.<.<.<.<.<.<.<.<.<.<.<.<.<.<.<.<.<.<.<.<.<.<.<.<.<.<.<.<.<.<.<.<.<.<.<.<.<.<.<.<.B B <.<.<.<.<.<.<.<.<.<.<.<.B B N N M M <.<.<.<.1.) T { [.W.#X} T T A.[.W.W.W.{ P ( <.M B M <.<.<.<.<.<.<.<.<.<.M M M <.<.4.4.<.j q.'.XX+Xh.T j 2.^ q.#XXX^.XX^.",
"~.R..X.XM.@X'.) j h ` L @XNX| ^ ( <.<.<.<.<.<.<.<.<.<.<.<.<.<.<.<.<.<.<.<.<.<.<.<.<.<.<.<.<.<.<.<.<.<.<.<.<.<.<.<.<.<.<.<.<.<.<.<.<.<.<.<.<.<.<.<.<.<.<.<.<.<.<.<.<.<.<.<.<.<.<.<.<.<.<.<.<.<.<.<.<.<.<.<.<.<.<.<.<.<.<.<.<.<.<.<.<.N N N N <.( ( ) t.oX~.Q.^.~.[.t.T Y ( N N <.<.<.<.=.<.<.M M <.<.<.<.4.<.<.<.4.j 1.P '.'.XX.X[.A.P 1.1.U t.[./.Q.~.~.R.[.T.T 1.<.j ^ U.mXBXuXT ( <.<.-.1.<.N <.<.<.<.<.<.<.<.<.<.<.<.<.<.<.<.<.<.<.<.<.<.<.<.<.B 4.s r a 4.4.<.<.<.<.<.<.<.<.<.<.<.<.<.<.<.<.<.<.<.<.<.<.<.<.<.<.<.<.<.<.<.<.<.<.<.<.<.<.<.<.<.<.<.<.<.<.<.<.<.4.<.<.<.<.<.<.<.M B m q 6 6 % @ T.}.`.1.P 1.s ( r 2.j <.j ( <.<.<.<.<.<.<.<.<.<.<.<.<.<.<.<.<.j ( ^ 0.[.oX~.~.~.~./.T.) ( 1.( T..Xx..X~.R.[./ T 1.<.s A.lX{ I ( <.<.<.<.<.<.<.B B B <.4.<.<.<.<.<.M m N M s r o G.&Xt.1.( ( 1.<.<.<.<.<.<.<.<.<.<.<.<.<.<.<.<.<.<.<.<.<.<.<.<.<.<.<.<.<.<.<.<.<.<.<.<.<.<.<.<.<.<.<.<.<.4.<.<.<.B <.<.<.<.<.B <.<.<.<.<.<.B M N N M M <.<.<.1.1.) T { [.W.oX} I T T.oXW.Y.W.] P ( <.M B M <.<.<.<.<.<.<.<.<.<.M M B <.<.<.4.<.j V.'.XX+Xh.T j 2.^ q.#XXX^.XX^.",
"~.R.~..XM.@X'.) k h ) L pXNX| P ( <.<.<.<.<.<.<.( ( <.<.<.<.<.<.<.<.<.<.<.<.<.<.<.<.<.<.<.<.<.<.<.<.<.<.<.<.<.<.<.<.<.<.<.<.<.<.<.<.<.<.<.<.<.<.<.<.<.<.<.<.<.<.<.<.<.<.<.<.<.<.<.<.<.<.<.<.<.<.<.<.<.<.<.<.<.<.<.<.<.<.<.<.<.<.<.<.M N M M <.( ( ) t.oX~.Q.^.~.[.t.T Y ( N N <.<.<.4.4.<.<.M M <.<.<.<.<.<.<.<.4.j 1.P '.R.XX.X[.A.P 1.1.U t.[./.Q.~.~.~.oXT.T 1.<.j ^ R.mXBXkXT ( <.<.=.1.<.N <.<.<.<.<.<.<.<.<.<.<.<.<.<.<.<.<.<.B <.<.<.<.<.<.B 4.s 7 p 4.4.<.<.<.<.<.<.<.<.<.<.<.<.<.<.<.<.<.<.<.<.<.<.<.<.<.<.<.<.<.<.<.<.<.<.<.<.<.<.<.<.<.<.<.<.<.<.<.<.<.B <.<.<.<.<.<.<.N B M a 6 $ % = `.}.T.) Y 1.g ( < 6.j <.j ( <.<.<.<.<.<.<.<.<.<.<.<.<.<.<.<.M j ( ( 0.[.oX~.~.(.~./.T.) ( 1.( j..X^..X~.R.W.{ T 1.<.s A.lX} I ( <.<.<.M M <.<.B B <.<.4.4.<.<.<.<.M m N M a % o J.&Xr.1.1.( <.<.<.<.<.<.<.<.<.<.<.<.<.<.<.<.<.<.<.<.<.<.<.<.<.<.<.<.<.<.<.<.<.M j ( <.<.4.1.4.2.2.2.2.5.6.2.2.<.<.<.<.<.<.<.B B B B <.<.<.<.M M N M M <.<.<.1.<.) T { [.W.oX] I T T.oXW.Y.E.{ P ( <.B B M <.<.<.<.<.<.<.<.<.<.B B B <.<.4.4.<.j q.'.XX+Xh.( j 2.^ q.#XXX^.XX^.",
"~.~.~..XM.@X'.1.j j ) L @XNX} P ( <.<.<.<.<.<.<.<.( <.<.<.<.<.<.<.<.<.<.<.<.<.<.<.<.<.<.<.<.<.<.<.<.<.<.<.<.<.<.<.<.<.<.<.<.<.<.<.<.<.<.<.<.<.<.<.<.<.<.<.<.<.<.<.<.<.<.<.<.<.<.<.<.<.<.<.<.<.<.<.<.<.<.<.<.<.<.<.<.<.<.<.<.<.<.<.<.<.N M <.<.( ( ) t.oX~.~.^.~..Xe.T Y ( N M M <.4.4.4.<.<.M N M <.<.<.<.<.<.<.N j 1.P '.R.XX.X[.t.P 1.=.U t.[./.~.~.~.~.#XT.T <.N j / U.mXBXkXE ) ( <.=.=.<.N <.<.<.<.<.<.<.<.<.<.<.<.<.<.<.<.<.<.<.<.<.<.<.<.<.<.<.s 7 p 4.4.<.<.<.<.<.<.<.<.<.<.<.<.<.<.<.<.<.<.<.<.<.<.<.<.<.<.<.<.<.<.<.<.<.<.<.<.<.<.<.<.<.<.<.<.<.<.<.<.<.<.<.<.<.<.<.<.<.M M M a 6 6 % t R.}.A.) Y 5.s <., 7.j 4.( ( <.<.<.<.<.<.<.<.<.<.<.<.<.<.<.<.M j ( ( 0.[.OX~.~.^.~./.T.) ^ 1.( T..Xx.^.~.R.'.) P 2.<.U T.zX} I ( N N N M M M <.<.<.<.<.4.4.<.<.<.1.M m N M a o + |. X8.1.1.s j <.<.<.<.<.<.<.<.<.<.<.<.<.<.<.<.<.<.<.<.<.<.<.<.<.<.<.<.<.<.<.<.j j ( ( 1.1.4.1.7.3.7.3.7.7.7.7.<.<.<.<.<.<.<.<.<.<.<.<.<.<.B B M M M M <.<.<.<.1.) ) {  XT.[.{ T T A.[.W.W.E.{ P 1.<.4.4.<.1.( <.<.<.<.<.<.<.<.<.<.B <.<.M M <.j q.'.XX+Xh.( j N j e.#X@X^.~.~.",
"c.x..X.X.X+Xn.T j j ) T uXkX~.I ( N N N M N N M M M M M M <.<.<.j j ( ( ( <.<.<.( ( ( ( ( ( ( <.<.<.<.<.<.<.<.4.<.<.<.N <.N <.<.<.<.<.<.<.<.<.<.<.<.<.<.<.<.<.<.<.<.<.4.4.1.1.<.<.<.<.<.<.M M M <.( ( j j j ( ( j j j j ( <.<.<.( ( ( j j j j ( 1.P 9.[..X~.^.^..Xt.T T <.M M M <.<.4.4.<.<.<.N M <.<.<.<.<.<.N N 2.( ) h.XXXX.X'.t.) P 1.1.r.[.R.Q.~.~.R.[.`.T M m ^ D Q.NXbXNX@.P 1.<.c 6.M <.<.<.1.<.<.<.<.<.M M M <.<.<.4.<.1.1.( ( T T T T 1.-.1.=.p s 2.5.2.1.1.1.1.1.<.<.Y =.<.<.<.<.<.<.<.<.<.<.<.<.<.<.<.<.<.<.<.<.<.<.<.<.<.<.<.<.<.<.<.<.<.<.<.<.<.<.<.<.<.<.<.<.<.<.4.m m M m q 6 , R R.}.t.) j j N s r F.s <.<.<.<.<.<.<.<.<.<.<.<.<.<.<.<.<.<.<.M N ( P Z.[.T.~.^.x.~.W.f.) ( ( ( ]..X4X4X~.oXT.) 1.=.<.P j.zXR.D ( N N N N N M M <.<.<.<.<.4.4.<.1.( 4.N j V j o o |.|.1.T Y <.j <.<.<.<.<.<.<.<.<.<.<.<.<.<.<.<.<.<.<.<.<.<.<.<.<.<.<.<.<.<.<.<.( ( ( 1.1.3.7.r.0.0.8.8.8.8.8.8.r.5.3.1.1.=.<.<.<.<.<.<.<.<.<.<.B B B <.<.<.<.<.( 1.) 8.]. Xq./ P P `.[.W.[.f.{ T 1.<.6.5.3.0.0.3.2.5.2.1.1.=.=.=.<.<.<.N N M N ^ Z.'.+X.Xt.^ j j j e.'..X.X.X~.",
"2Xc..X[..X+Xn.-.j j <.T ;XkX.XI ( N N N N N M M M M <.<.<.<.<.<.<.( ( ( ( j j j ( ( ( ( ( ( ( j <.<.<.<.<.<.<.<.<.M M M M M M M <.<.<.<.<.<.<.<.<.<.<.<.<.<.<.<.<.<.<.<.<.<.<.<.<.<.<.M <.<.<.<.( ( j j j j ( ( j j j j j j j j j j ( j j j j ( ) P e.[..X~.^.^.XXt.T T <.M M M <.<.4.<.<.<.<.<.M M ( ( M <.M M j 2.^ ) h.XXXX^.'.t.) T 1.1.0.[.~.U.~.~.R.[.`.( V M ^ I Q.NXbXNXd.L 1.<.m 6.M <.<.1.1.1.<.<.<.<.<.<.<.<.<.<.<.<.Y Y ( ) 1.1.8.8.w.1.8.1.U =.7.7.3.3.3.1.1.1.1.1.Y Y =.1.<.<.<.<.<.<.<.<.<.<.<.<.<.<.<.<.<.<.<.<.<.<.( <.<.<.<.<.<.<.<.<.<.<.<.<.<.<.<.<.<.<.<.<.4.m m M m q 6 , R R.[.q.) j j N p p F.=.=.<.<.<.<.<.<.<.<.<.<.<.<.<.<.<.<.<.<.<.N ( P Z.[.R.XX^.^.~.~.f.) ( ( ( ].R.4X4X^.#X`.) 1.=.<.T x.BXU.D ( N N N N N M M <.<.<.<.<.<.4.<.1.( <.N j V j o o %X|.2.T Y <.j <.<.<.<.<.<.<.<.<.<.<.<.<.<.<.<.<.<.<.<.<.<.<.<.<.<.<.<.<.<.<.<.( ( ( 1.1.3.0.r.8.8.8.8.8.9.9.8.8.3.3.1.1.1.=.=.1.1.<.<.<.<.<.<.<.<.B <.<.<.<.<.( 1.) 1.]. Xe.) P ( ].[.T.oXk.{ 1.1.5.5.5.0.0.r.8.5.5.5.1.1.1.1.1.1.<.<.N N N k ^ Z.'.XX.Xt.^ j j j q.'..X~..XR.",
"2Xc..X'..X+Xn.-.j j <.T ;XkXOXI ( N N N N M N N <.<.<.<.<.<.<.<.( ( ( ( ( ( ( ( 1.1.) ) 1.1.1.1.1.4.1.<.<.<.<.M <.<.<.M M M M j <.<.<.<.B B <.<.B B <.<.<.<.<.<.<.<.<.<.<.<.<.<.<.<.<.<.<.<.1.1.1.1.1.1.) 1.1.1.( ( ( ( ( ( ( ( j j j ( ( ( ( ( ) P e.[..X~.^.^..Xt.T T <.M M M <.<.<.<.<.<.<.M j j M ( <.<.<.N j <.^ ) h.XXXX^.'.t.) P 1.1.r.[.~.U.~.~.R.[.`.( V M ^ I Q.NXbXNXg.I ( <.M 6.B <.<.<.<.<.<.<.<.<.<.<.<.<.<.<.<.<.( ( ) 1.8.8.w.r.r.w.w.3.U =.7.r.r.r.0.3.0.3.3.3.=.1.1.1.<.<.1.=.<.<.<.<.<.<.<.<.<.<.<.<.<.<.<.<.<.<.<.<.<.<.<.<.<.<.<.<.<.<.4.4.<.<.<.<.<.<.<.<.4.M m M M e 6 o / W.}.0.( j k N i a i.=.=.<.<.<.<.<.<.<.<.<.<.<.<.<.B B <.<.<.<.<.( Y A.[.R.XX^.^.~.~.q./ ( ( ( ].W.4X2X~.[.`.) 1.=.<.T m.BX/.D ^ N N N N N <.M <.<.<.<.4.4.4.<.1.( <.N j V j o r |.J.1.1.Y 4.M <.<.<.<.<.<.<.<.<.<.<.<.<.<.<.<.<.<.<.<.<.<.<.<.<.<.<.<.<.<.B <.( ( 1.1.3.3.0.0.8.8.8.8.8.8.9.8.8.8.3.3.3.1.1.1.1.1.<.<.<.<.<.<.<.<.<.<.<.<.<.<.( 1.( 1.].|.e.T ) ( ]. XT.oXf.{ 8.w.5.7.r.r.r.r.0.r.0.0.3.3.3.3.1.1.( ( j j j k ^ Z.'.XX.Xq.( j j j 0.'..X^..XR.",
"2Xc..X[..X+Xn.-.j j ( T jXzXOXL ( N N N N N N <.<.<.<.<.<.<.<.( ( ( ( ( 1.1.5.5.5.3.3.3.3.3.3.3.2.4.4.4.1.<.<.M <.4.<.<.<.N <.<.B B <.<.<.<.<.<.B B <.<.<.<.<.<.<.<.<.<.<.<.<.<.<.1.1.<.4.2.2.2.5.5.5.5.5.5.5.5.5.5.1.1.1.1.1.1.( ( ( ( ( ( ( ( ) I e.[..X~.^.^..Xt.T T <.N M M <.<.<.<.<.<.<.M <.<.1.<.1.4.4.<.s <.Y ) h..X^.^.'.t.) P 1.1.9.[.~.Q.~.~.W.[.`.( V M ( L ~.NXbXNXR.R ( <.M 6.M <.<.<.<.<.<.<.<.<.<.=.1.<.1.<.<.1.3.3.3.3.8.8.8.8.w.1.w.1.s U 5.7.r.r.r.r.w.r.0.3.5.5.3.2.1.=.U s <.<.<.<.<.<.<.<.<.<.<.<.<.<.<.<.<.<.<.<.<.<.<.<.<.<.<.<.<.<.4.4.<.<.<.<.<.<.<.<.<.B M M M a 0 X { [.[.3.^ N N N 7 <.y.=.<.4.<.M <.<.<.<.<.<.<.<.<.<.B B <.<.<.<.<.) P A.[.R.XX^.^.~.~.q./ ( ( ) ].T.M.2X~.[.`.) 1.=.<.T m.BX/.F ( N N N N N <.M <.<.<.<.4.4.4.<.1.( <.N h V j o r |.G.1.1.Y <.M <.<.<.<.<.<.<.<.<.<.<.<.<.<.<.<.<.<.<.<.<.<.<.<.4.4.<.<.<.<.M M ( ( 1.3.0.0.0.3.8.8.8.8.8.8.8.8.8.8.3.3.3.3.1.1.1.1.<.<.<.<.<.<.<.<.<.<.<.<.<.<.( 1.( 0.|.|.e.T ) ) ].[.W.oXf.{ w.r.r.7.r.0.0.0.0.3.0.0.0.r.r.r.1.1.1.( j j j N ( Z.'.XX.Xt.( j k j 0.'..X^..XR.",
"c.c..X[..X+Xn.T j k ( I jXzXOXL ( M N <.<.<.<.<.<.<.<.<.<.( ( ( 1.1.1.1.3.3.7.7.3.3.3.3.3.3.3.7.2.2.2.1.1.1.<.<.( j ( <.<.<.<.<.M <.<.<.<.<.<.<.<.<.<.<.<.<.M <.4.<.<.( ( <.1.1.4.2.2.2.2.3.5.5.7.3.3.3.3.3.3.3.3.3.3.3.3.3.3.2.1.1.1.1.) ( ( ( ) I e.[..X~.^.^..Xt.T Y <.N M M M <.<.<.<.<.<.N j ( <.1.1.1.1.<.j <.Y ( T..X^.^.'.t.) P 1.) 9.[./.Q.~.~.W.#X{.1.M M ( L ~.BXbXNX~.L ) <.M 6.M <.<.<.<.<.<.<.<.<.Y Y 1.1.2.5.5.7.r.r.r.r.0.8.8.8.w.1.w.1.p s 5.7.r.r.8.8.8.0.8.0.r.r.5.3.1.1.=.Y 1.1.<.<.<.<.<.<.<.<.<.<.<.<.N <.<.<.<.<.<.<.<.<.<.<.<.<.<.<.4.4.<.<.<.<.<.<.<.<.<.B B M M m 9 X 8.[.].` ^ <.M m % 7.5.=.1.4.<.<.<.<.<.<.<.<.<.<.<.<.<.<.M <.<.<.<.) P T.#XR.OX^.^.~.R.q./ ( ) ) ].T.c.2X~.[.E.) 1.=.1.T m.NX/.X.^ M N N <.<.<.<.<.<.<.<.4.<.<.<.<.( <.N j V j o p |.p.=.1.Y <.M <.<.<.<.<.<.<.<.<.<.<.<.<.<.<.<.<.<.<.<.<.<.1.<.<.<.<.<.<.<.<.<.1.1.2.3.0.0.3.3.8.8.8.8.8.8.8.8.8.8.w.r.0.3.2.4.1.<.<.<.<.<.<.<.<.<.<.<.<.<.<.<.( ( ( 0.|.].9.T 1.1.].[.W.oXk.{ w.w.r.7.7.0.0.0.3.3.3.0.8.8.r.r.3.1.1.1.( ( j ( ^ Z.'.XXXXf.( j j g 0.[..X^.~.~.",
"c.^.~.[..X+Xn.T ( k ) I jXNXOXL ( <.<.<.<.<.<.<.<.<.1.<.1.1.1.1.3.3.0.3.0.3.0.3.3.3.3.3.3.3.3.3.3.2.2.2.2.2.4.4.Y Y Y j j j <.<.<.<.<.<.<.<.<.<.<.<.<.<.<.<.M <.<.<.( ( <.<.4.2.2.5.5.w.w.r.w.r.0.3.0.3.0.3.0.3.0.3.0.3.3.3.3.3.3.1.1.1.1.) ( ( ) I e.#X.X~.^.^..Xt.T Y j N N M B <.<.<.1.<.<.( j s Y <.1.1.1.1.( 1.^ ) T..X^.^.'.t.) P 1.T 9.'.~.Q.~.~.W.#X{.=.M M ) E ^.BXbXNXOXE ) 1.<.4.c <.<.M <.<.<.<.<.1.1.1.1.1.5.w.r.r.r.0.0.0.8.8.w.w.w.8.r.3.p s 5.7.8.8.8.8.8.8.8.8.8.8.w.5.3.1.1.1.=.1.<.<.<.<.<.<.<.<.<.<.<.<.N N <.<.<.<.<.<.<.<.<.<.<.<.<.<.4.4.<.<.<.<.<.<.<.<.<.<.M M M m q O 8.[.`.) ( <.M p % J.5.1.=.4.( <.<.<.<.<.<.<.<.<.<.<.<.<.<.<.<.<.<.( P E.oXW.OX^.^.~.R.q./ P ( 1.].T.c.5X~.[.E.( <.c 1.T .XBX/./ ^ M <.<.<.<.<.<.<.<.<.<.<.<.<.<.<.( <.N j V j o s K.r.T 1.Y <.M <.<.<.<.<.<.<.<.<.<.<.<.<.<.<.<.<.<.<.<.<.<.1.1.<.<.<.<.<.<.<.1.1.2.3.3.0.3.3.8.8.8.8.8.8.8.8.8.8.8.w.w.0.8.5.2.1.1.<.<.<.<.<.<.<.<.<.<.<.<.<.<.( ( T 0. X].9.T ) 1.].[.T.oXk.{ 8.w.5.7.7.0.8.8.3.3.3.3.8.8.8.8.3.3.2.1.1.<.j j ^ Z.'.XXXXk.( j j g 0.[..X^..X~.",
"c.^.~.[..XXXn.Q ) k ) I kXNXOXE ( <.<.<.<.<.<.<.1.1.1.1.2.2.2.2.r.r.r.0.8.0.8.3.3.3.3.3.8.3.8.3.5.5.3.3.5.5.5.5.1.1.1.<.<.<.( j <.<.<.<.<.<.<.<.<.<.<.<.<.<.<.<.<.<.<.( <.4.5.7.7.7.w.w.w.w.w.w.8.3.8.3.8.3.8.3.8.3.8.3.8.3.8.0.3.3.3.5.1.1.1.1.) I e.#X.X~.^.^..Xe.) ( ( N N N B <.<.<.1.<.<.( j ( 1.1.1.1.2.2.1.5.( ) T.#X^.~.'.h.T P 1.T 9.'.~.~.~.~.~.#X{.-.M k ) E ^.BXcXmXOXE T 1.<.4.s 4.<.( <.<.<.<.1.1.2.2.3.8.w.w.r.r.8.8.8.8.8.8.r.r.w.w.r.3.p s 5.7.8.8.9.8.8.8.8.8.8.8.8.8.w.w.8.5.=.1.1.<.<.<.<.<.<.<.<.<.<.<.N N <.<.<.<.<.<.<.<.<.<.<.<.<.<.4.4.<.<.<.<.<.<.<.<.<.<.<.M M M q O 8.[.`.( ^ 2.j i r |.1.1.=.1.( <.<.M N N N N <.<.<.<.<.<.<.<.<.<.<.( P E.#XW.OX^.^.^.R.q.T T ( 1.].T.^.5X~.[.E.( ( s 1.T .XBX/.' ( ( ( ( <.<.<.<.<.<.<.<.<.<.<.<.<.( <.N j V j o s K.r.Y 1.=.<.M <.<.<.<.<.<.<.<.<.<.<.<.<.<.<.<.<.<.<.<.<.<.<.1.<.=.<.1.1.<.<.1.3.3.3.3.0.0.8.8.8.8.8.8.8.8.8.8.8.8.0.0.0.0.0.3.<.<.<.<.<.<.<.<.<.<.<.<.M M <.<.( ( T r. X`.{ T ) ) ].[.T.W.k.] 8.w.w.7.w.0.0.0.0.3.0.0.8.8.8.8.1.3.3.5.1.1.( j ^ C.'.XXXXk.( ( j g q..X.X^..X~.",
"c.^./.[.'.XXn.Q ) j ^ I kXNXtXE T <.<.<.<.<.1.1.1.1.<.2.2.7.7.7.8.8.8.8.8.0.0.r.0.0.8.8.8.8.8.8.8.r.w.7.w.7.r.7.7.7.7.2.4.1.<.( <.<.<.<.<.<.<.<.<.<.<.<.<.<.<.<.<.<.M <.1.2.7.7.r.r.w.w.w.w.w.8.w.0.0.0.0.0.0.0.8.8.8.8.8.0.r.r.3.3.3.3.3.3.3.3.) R e.[..X~.^.~..Xe.) ^ ( N N N B <.<.1.1.1.( ( 1.1.2.3.5.w.7.7.2.3.` ) T.OX^.~.'.t.T R -.T 9.'./.~.~.~.~.#X'.1.M j ) E ^.BXcXbXtXQ T 1.<.4.s 1.<.( <.<.<.<.1.1.7.w.w.w.w.w.w.8.8.8.8.8.8.8.8.8.8.3.r.2.p p 4.7.8.9.8.8.8.8.8.8.w.w.w.8.w.8.1.1.=.1.1.<.<.<.<.<.<.<.<.<.<.<.<.<.<.<.<.<.<.<.<.<.<.<.<.<.<.<.4.4.<.<.<.<.<.<.<.<.<.<.<.<.M M a O 8.}.`.( j 2.j r r &X1.1.T 1.( <.M M N N N N <.<.<.<.<.<.<.<.<.<.( ) T T.#X~.OX^.^.^.R.q.T T 1.1.H.T.^.^.R.[.E.( ( s 1.T XXBX/.] ( ( ( ( <.<.<.<.<.<.<.<.<.<.<.<.<.( <.N j V j o Y K.5.U 1.Y <.M <.<.<.<.<.<.<.<.<.<.<.<.<.<.<.<.<.<.<.<.<.<.<.<.Y =.=.<.<.<.1.1.r.3.3.3.3.0.0.0.8.8.8.8.8.8.8.8.8.8.8.8.8.0.r.r.1.<.<.<.<.<.<.<.<.<.<.<.M <.<.<.( ( P r. X`.{ R ( ) `.[.R.~.q.Q w.w.w.r.r.r.r.r.0.r.r.0.0.8.8.8.8.8.3.3.2.1.( s ^ A..XXXXXk.( ( j g q..X.X^..X~.",
"!.^./.oXR.XXn.Q ^ j ^ { jXkXkXH P s ( ( ( 1.1.1.3.3.3.3.3.3.0.0.8.8.8.8.8.8.8.8.8.8.8.8.8.8.8.8.8.8.8.r.8.0.0.3.r.r.r.7.3.5.2.5.1.1.1.<.<.( Y Y 1.<.1.<.1.<.1.<.<.( <.1.4.5.5.3.3.0.8.8.8.8.8.8.8.8.8.8.8.8.8.8.8.8.8.8.8.8.8.8.0.0.0.3.3.3.3.0.8.9.q.R..X^.^.~.#Xt.) Y j j N N M <.=.=.1.( 1.1.3.3.3.0.8.8.8.0.3.r.1.{ T..X^..X[.T.) R -.T 8.'.U.Q.~.~.~.[.`.) 4.j ) H 6XcXMXbXjX} L 1.2.Y Y <.s s j ( 1.2.3.3.3.0.8.8.8.8.8.8.8.8.8.8.8.8.w.8.w.r.r.2.s t c 7.8.9.9.9.9.9.8.8.8.8.8.8.8.8.w.w.5.5.2.2.2.1.1.<.<.<.<.<.<.M j j <.<.<.( <.M M M <.<.<.<.4.4.4.4.<.<.<.<.<.<.<.<.<.c <.6.M M m , K  XA.s ( 2.M o <.|.5.U 7.( j <.M M N N <.<.<.<.j j <.1.1.1.1.1.3.3.r.T.[.~.~.^.~.OXR.q.9.8.1.3.S.T.^.^.R.E.E.( ( <.1.R pXBXxX..P ( ( ( <.1.1.1.<.<.<.<.<.<.<.<.1.( <.N h N j o 1.K.1.t 5.1.j N <.<.<.<.<.<.<.<.<.<.<.<.<.<.<.<.<.( ( <.<.<.<.<.( Y Y Y 1.2.5.r.3.0.0.0.3.0.8.8.8.8.8.8.8.8.8.8.8.8.8.8.8.0.0.3.1.1.1.<.( <.<.1.<.<.<.<.<.<.<.<.1.1.Y A.&Xr.{ T P r.T.T.oXR.9.9.w.w.w.7.w.8.9.9.0.0.8.8.8.8.8.8.8.8.8.0.1.1.( ^ ^ A..XXX.Xk.( j j ^ t.#X@XXXXX~.",
"!.^./.W.R.XXn.Q ^ _ ^ { jXmXkXH T 1.1.1.1.1.2.3.3.3.3.3.0.0.8.8.8.8.8.8.8.8.8.8.8.8.8.8.8.8.8.8.8.8.8.8.8.8.8.0.0.3.r.r.7.3.3.5.5.5.2.2.2.2.2.4.2.4.2.4.2.4.1.1.1.1.1.2.5.3.3.r.0.8.8.8.8.8.8.8.8.8.8.8.8.8.8.8.8.8.8.8.8.8.8.8.0.0.8.0.0.0.0.8.8.{ q.R..X^.^.^..Xq.T Y ( j N M s Y =.-.1.3.3.3.3.3.0.8.8.8.w.w.3.r.1.{ T..X^..X#XT.8.T 8.1.9.'.~.Q.~.~.R..X`.T <.j ) E tXcXMXbXjX} L 1.1.Y =.( ( ( ( 1.1.2.3.3.0.8.8.8.8.8.8.8.8.8.8.8.8.8.w.w.w.r.r.2.s t M 7.8.9.9.9.9.9.8.8.8.8.8.8.8.8.w.w.5.7.5.2.2.4.1.1.Y ( ( ( <.<.<.<.<.<.<.<.<.<.<.<.<.<.<.<.4.4.4.4.<.<.<.<.<.<.<.<.<.=.<.4.M M m 7 K  XZ.s <.<.s o 4.|.w.U 3.( j ( j M N <.<.<.<.( <.1.1.1.2.2.2.2.3.3.r.T.[.~.~.^.~.OXR.9.9.8.1.0.S.T.^.^.~.E.E.) ( <.1.R pXBXxX] ) 1.1.1.<.( <.( Y ( M M M M M <.1.( <.N h N j , 1.K.=.p 5.1.M N <.<.<.<.<.<.<.<.<.<.<.<.<.<.<.<.<.<.<.<.<.<.<.<.<.Y Y <.1.2.5.r.0.0.0.0.0.0.8.8.8.8.8.8.8.8.8.8.8.8.8.8.8.8.0.0.2.1.1.<.=.( <.<.<.<.<.<.<.<.<.<.( 1.U Z. Xr.{ T P t.T.T.oXR.9.} 8.w.w.w.w.8.9.9.0.0.8.8.8.8.8.8.8.8.8.8.3.1.( ( ( A..XXX.Xk.P ( j ^ e.oXXX^.XX~.",
"!.^./.W.R.XXn.Q ) _ ^ { kXmXkXW { 1.1.3.3.3.3.0.8.3.8.8.8.8.8.8.8.8.8.8.8.8.8.8.8.8.8.8.8.8.8.8.8.8.8.8.8.8.8.8.8.3.8.0.0.0.3.3.r.7.r.7.5.5.5.7.3.2.5.2.3.3.3.2.3.5.5.3.3.3.0.0.0.8.8.8.8.8.8.8.8.8.8.8.8.8.8.8.8.8.8.8.8.8.8.8.8.8.8.8.8.8.8.8.8.{ q.R..X^.^.^.'.e.T P ( j M <.=.=.-.1.8.r.r.r.3.3.8.8.8.8.8.w.3.r.1.{ T..X^.~.#X`.8.8.w.8.9.'.~.~.^.~.~..X`.) <.j / E yXcXBXbXkXs.R ) 1.Y ( 1.1.1.1.1.1.3.3.0.0.8.8.8.8.8.8.8.8.8.8.8.8.8.8.8.w.r.r.4.s i s 7.8.9.9.9.9.9.8.8.8.8.8.8.8.8.8.8.5.5.5.5.5.2.3.2.1.1.1.1.1.<.<.<.<.<.<.<.<.<.<.<.<.<.<.<.<.<.4.4.<.M <.<.<.<.<.<.<.=.<.4.M M M r u |.r.s <.M s O 7.|.8.Y 3.( ( j j j <.( <.<.<.=.1.2.2.2.5.5.w.w.0.8.r.T.[.~.~.^.~.OXR.9.9.8.8.0.S.T.^.!.Q.W.T.) ( ( 1.R pXmXxX..) 1.1.1.( ( ( ( Y Y j j <.<.<.<.1.( <.N h N M , 1.J.T U 3.1.<.N <.<.<.<.<.<.<.<.<.<.<.<.<.<.<.<.4.<.<.<.<.<.1.1.1.1.1.1.1.3.5.3.8.8.8.8.8.8.8.8.8.8.8.8.8.8.8.8.8.8.8.8.0.0.0.0.3.1.1.( =.=.<.<.<.<.<.<.M M <.<.( ( K Z.|.r.) T T A.`.'..XT.9.} 8.w.w.w.w.8.8.8.0.0.0.0.8.8.8.8.8.8.8.0.0.1.1.` ^ C.'..X.Xq.) ( g u 9..XXX^.XX~.",
"!.^./.W.R.XXm.,.1.2.`  .kXmXmX+.9.3.3.3.0.0.0.r.8.8.8.8.8.8.8.8.8.8.8.8.8.8.8.8.8.8.8.8.8.8.8.8.8.8.8.8.8.8.8.8.8.8.8.8.0.0.0.0.r.r.r.w.w.5.5.5.w.w.w.w.w.w.w.3.0.0.0.0.3.3.0.0.8.8.8.8.8.8.8.8.8.8.8.8.8.8.8.8.8.8.8.8.8.8.8.8.9.8.8.8.8.8.8.8.8.{ q.R..X^.^.^..Xq.T ) 1.1.<.<.5.5.8.w.8.w.8.0.3.3.8.8.8.8.8.8.0.q.1.{ I.oX^.~.[.`.8.8.q.8.e.'.~.~.^.~.~..X`.T M j / E hXcXMXcXNXs.R T ( =.1.1.1.1.1.1.3.3.3.0.8.8.8.8.8.8.8.8.8.8.8.8.8.8.8.8.w.r.r.4.s i s 7.0.9.9.9.9.8.8.8.8.8.8.8.8.8.8.8.w.w.w.w.w.w.w.5.5.3.3.1.1.1.Y Y ( ( <.<.<.<.<.<.<.<.<.<.<.<.4.4.<.M <.<.<.<.<.<.<.=.<.<.M 4.B r u ].r.Y <.s p O i.|.8.T 1.( ( j ( <.( ( <.=.<.1.2.3.3.w.w.w.w.w.8.8.r.T.[.~.~.~.~.OXT.} 9.8.1.0.E.W.^.5XQ.W.T.) 1.( 3.T pXmXxX$.P Y ( ( ( ( 1.1.<.<.<.<.<.<.<.4.<.( <.N h N N 7 4.F.T U 2.( <.M <.<.<.<.<.<.<.<.<.<.<.<.<.<.<.<.<.<.<.<.<.<.1.1.1.1.1.3.3.5.5.8.8.8.8.8.8.8.8.8.8.8.8.8.8.8.8.8.8.8.8.8.8.0.8.0.3.3.1.1.<.<.1.<.<.<.<.<.M M <.<.( 1.Y Z.|.r.{ ) 1.G.'.'..Xj.} } 8.w.w.w.w.8.9.8.0.0.0.0.8.8.8.8.9.9.8.r.r.0.0.3.) A..X.X.Xe.P ( j ^ 9..X.X^.XX^.",
"!.^./.W.R.XX.X{ 3.3.` q.mXmXmX@.9.3.3.3.0.0.0.0.8.8.8.8.8.8.8.8.8.8.8.8.8.8.8.8.8.8.8.8.8.8.8.8.8.8.8.8.8.8.8.8.8.8.8.8.0.0.0.0.r.r.r.8.8.8.8.8.8.8.8.w.8.8.8.8.8.3.3.3.3.8.8.8.8.8.8.8.8.8.8.8.8.8.8.8.8.8.8.8.8.8.8.8.8.8.8.8.8.8.8.8.8.8.8.8.8.8.k.R..X~.^.^.OXh.{ ` 5.2.2.4.r.r.w.w.w.8.8.8.0.0.8.8.8.8.8.8.8.q.8.{ I.oX^.~.'.T.8.8.q.8.9.'.~.^.^.^.~..X'.1.( j / H yXcXMXcXNXf.T ) =.1.3.1.3.3.0.0.0.8.8.8.8.8.8.8.8.8.8.8.8.8.8.8.8.8.8.8.w.w.r.4.s i s 7.0.| | | 8.8.8.8.8.0.8.8.8.0.0.8.8.8.8.r.r.r.r.r.r.r.0.3.1.1.1.1.<.<.<.<.M M <.<.<.<.<.<.<.<.<.<.B B <.<.<.<.<.<.<.=.<.<.M 4.B i u H.3.j <.s t o G.{.1.1.1.Y 2.j ( ( ( ( ( ( 1.1.3.3.8.8.8.8.8.8.8.8.9.T.[.~.~.~.~.OXj.} 9.9.8.0.`.W.^.2XQ.W.T.) 1.1.1.E pXMXzX$.P P ( ( ( ( 1.1.( ( <.<.<.<.4.4.<.<.4.N j N N 7 4.r.T T 1.Y 4.M <.<.<.<.<.<.<.<.<.<.<.<.<.<.<.<.<.( ( ( ( ( ( ( 1.1.3.3.8.8.8.8.8.8.8.8.8.8.8.8.8.8.8.8.0.0.3.8.8.9.8.8.8.0.8.0.3.3.1.1.( ( ( <.<.<.<.<.<.<.<.<.( 1.P A. Xr.{ 8.8.`.}.'..XR.} } 8.w.w.5.w.8.9.9.0.0.0.0.8.9.9.9.9.9.8.8.r.0.0.0.) E..X.X.Xk.P ^ ( ^ e..X.X^.XX^.",
"!.^./.W.R.XX.X9.3.3.3.f.mXmXNX%.9.3.3.3.8.8.8.8.8.8.8.8.8.8.8.8.8.8.8.8.8.8.8.8.8.8.8.8.8.8.8.8.8.8.8.8.8.8.8.8.8.8.8.8.8.0.8.8.r.r.w.r.w.r.w.w.8.8.8.w.8.8.8.8.8.8.8.8.8.8.8.8.8.8.8.8.8.8.8.8.8.8.8.8.8.8.8.8.8.8.8.8.8.8.8.8.8.8.8.8.8.8.8.8.8.8.k.R..X~.^.^.OXh.| { 3.3.5.2.w.w.e.e.9.8.8.8.8.8.8.8.8.9.9.8.8.q.{ | I.oX~.~.'.T.9.8.r.8.e.'.~.~.^.^.~..X'.1.<.( / H yXcXMXcXNXT.{ ) 1.2.5.1.8.8.8.8.8.8.8.8.8.8.8.8.8.8.8.8.8.8.8.8.8.8.8.8.w.w.7.1.s r s 5.0.| | { 8.8.8.0.0.0.8.3.0.0.0.8.8.8.w.w.w.w.w.8.8.8.8.3.0.0.0.3.1.<.<.<.M <.M M <.<.<.<.<.<.<.<.B B <.<.<.<.<.<.<.=.<.<.=.4.<.t Y G.2.j <.p i * |.{.1.1.T Y 2.j ( ( ( ( 1.1.3.3.8.8.8.8.8.8.8.8.8.8.9.T.[.~.~.~.~./.j.} 9.8.8.r.].W.5X2XQ./.T.{ 0.1.8.Q pXMXbXI./ 1.1.1.1.( ( ( ( ( <.<.( ( M <.<.<.<.N j V N r 2.7.Y 1.1.Y 2.j <.<.<.<.<.<.<.<.<.<.<.<.<.<.<.<.j j ( ( ( 1.1.1.2.3.3.0.w.8.8.8.8.8.8.8.0.8.8.8.8.8.8.8.3.3.3.0.8.9.8.8.8.8.8.8.0.3.1.1.( ( ( <.<.<.<.<.<.<.<.<.( 1.T A. Xr.9.8.8.`.}.'..XR.} } 8.w.w.w.w.8.9.9.0.0.0.0.8.8.9.9.8.8.8.8.9.8.8.0.0.E.XX@X.Xk.P ( _ ( t..X.X^.XX^.",
"!.^./.W.R.XX.X9.0.3.0.f.NXmXmXg.9.8.8.8.8.8.8.8.8.8.8.8.8.8.8.8.8.8.8.8.8.8.8.8.8.8.8.8.8.8.8.8.8.9.8.8.8.8.8.8.8.8.8.8.8.8.8.8.w.w.w.w.e.w.e.w.8.8.8.8.8.8.8.8.8.8.8.8.8.8.8.8.8.8.8.8.8.8.8.8.8.8.8.8.8.8.8.8.8.8.8.8.8.8.8.8.9.9.8.8.8.8.8.8.8.8.k.R..X~.^.^..Xh.9.{ 7.7.7.3.w.w.8.9.9.9.9.r.8.8.8.8.9.9.9.8.9.r.{ | I.oX~.~.'.h.8.8.r.8.q.[.~.Q.^.^.~.#X}.8.5.2.{ W hXcXSXbXNX~.| 8.3.7.r.3.8.8.8.8.8.8.8.8.8.8.8.8.8.8.8.8.8.8.8.8.8.8.8.8.w.r.7.1.p 7 a 2.0.{ { { 8.0.0.0.0.0.0.0.0.3.0.0.8.8.w.w.w.8.8.8.8.8.8.8.w.r.r.r.5.2.2.4.<.<.<.<.<.<.<.<.<.<.<.<.B M <.<.<.<.<.<.<.=.<.<.=.4.4.t ( G.1.j <.p i r |.J.1.1.T U 1.j ( ( ( ( 1.3.r.r.8.8.8.w.w.8.8.8.8.8.9.T.[.~.~.~.~./.g.} 9.9.8.r.].W.^.2XQ./.T.{ r.1.8.! iXMXNXU.{ 1.3.3.2.1.1.1.1.( <.<.<.<.j j <.<.4.N j 2.N r 5.2.U 1.=.s 6.j <.<.<.<.<.<.<.<.<.<.<.<.<.<.<.<.j ( ( <.1.1.2.2.3.3.0.0.8.8.8.8.8.8.8.8.8.8.8.8.8.8.3.3.3.3.3.0.8.9.9.9.8.8.0.0.0.3.3.1.( ( ( <.<.<.<.<.<.<.<.<.( 1.P A.].r.9.r.8.G.}.'..XT.9.9.8.w.w.w.w.8.9.9.0.3.0.0.8.8.8.8.8.9.9.9.8.8.8.8.3.E.XX@X.Xh.) 1.3.` t..X.X^.XX~.",
"!.^./.W.~.XX.X9.0.3.| f.NXmXmXg.9.8.8.8.8.8.8.8.8.8.8.8.8.8.8.8.8.8.8.8.8.8.8.8.8.8.8.8.8.8.8.8.8.8.8.8.8.8.8.8.w.8.8.8.8.8.8.8.8.8.8.8.8.8.8.8.8.8.8.8.8.8.8.8.8.8.8.8.8.8.8.8.8.8.8.8.8.8.8.8.8.8.8.8.8.8.8.8.8.8.8.8.8.8.8.8.8.9.8.8.8.8.8.8.8.8.k.R..X~.^.~..Xf.8.{ 0.3.3.3.r.w.8.8.9.8.8.8.8.8.8.8.9.9.8.8.8.q.| | I.oX~.~.[.T.9.8.r.8.e.#X~.Q.^.^.~.#X'.8.r.3.| W hXMXSXMXBX^.9.8.3.r.r.1.8.8.8.8.8.8.8.8.8.8.8.8.8.8.8.8.8.8.8.8.8.8.8.8.8.w.r.1.s 7 a 6.0.8.8.8.8.0.8.0.0.0.0.0.0.0.0.0.8.w.w.w.w.8.8.8.r.w.w.8.8.8.8.3.7.7.7.2.4.<.1.1.1.1.1.1.<.<.<.<.<.<.<.<.1.1.1.1.<.=.1.<.<.4.4.u 1.G.1.j N y r t  XG.1.1.T U 5.j ( ( ( 1.1.3.r.r.w.w.w.e.e.w.8.8.8.8.9.T..X.X~.^.~.OXf.{ 9.9.8.e.].R.^.c.Q./.T.9.r.8.e.9.iXMXbX~.| 8.0.0.r.0.r.r.1.1.1.1.1.( ( ( ( ( <.N j 2.<.r 5.1.U 1.1.s 5.j <.<.<.<.<.<.<.<.<.<.<.<.<.<.<.<.( ) 1.1.2.3.3.3.3.r.0.8.8.8.8.8.8.8.8.8.8.8.8.8.8.8.8.3.8.0.8.8.8.8.8.8.0.0.0.0.0.0.3.1.( ( ( ( <.M <.<.<.<.<.( Y 1.P A.].8.8.9.8.`.'.'..XT.9.9.8.w.w.w.w.8.8.8.8.0.0.8.8.8.9.8.8.9.8.8.8.8.8.8.) T..XXXXXh.8.3.3.1.h..X^.^.XX~.",
"^.^.~.~..X.Xh.8.{ 0.| g.zXmXMX*.[ 8.9.8.8.8.8.8.8.8.8.8.8.8.8.8.8.8.8.8.8.8.8.8.8.8.8.8.8.8.8.8.8.8.8.8.8.8.8.8.8.8.8.8.8.8.8.8.8.8.8.8.8.8.8.8.8.8.8.8.8.8.8.8.8.8.8.8.8.8.8.8.8.8.8.8.8.8.8.8.8.8.8.8.8.8.8.8.8.8.8.8.8.8.8.8.8.8.8.8.8.8.8.8.8.9.q.R..X~.~.~.#Xh.9.8.0.0.3.0.r.8.8.8.8.8.8.8.1.1.3.8.8.8.8.8.8.8.8.{ t.[.oXoXT.T.9.8.w.8.e.'..X~.^.^.~.XX'.8.1.0.} W hXMXMXMXbXkX@.{ r.5.w.w.8.8.8.8.8.8.8.8.8.8.8.8.8.8.8.8.8.8.8.8.8.9.9.8.8.8.i.=.p p p 5.r.r.8.) 8.r.8.1.8.8.8.8.8.8.8.8.8.8.8.8.8.8.8.8.8.8.8.8.8.8.8.8.8.0.0.0.0.0.0.0.3.3.1.1.1.T T T 1.<.( ( ( ( ( 1.1.Y ( 1.( 1.1.t 1.G.) s 6.r O 2.|.G.1.T T P Y Y 1.1.1.8.8.0.r.r.8.8.8.8.8.8.8.8.3.1.8.h..X.X.X^.~.R.h.9.{ 8.8.9.'..X^.^./.oXI.0.8.8.8.Q kXBXMX6X[ | 9.8.r.8.w.8.8.8.8.0.0.0.0.3.( 1.1.( ( ( j u s ( 1.1.( 1.1.( 1.1.<.1.<.1.<.1.<.<.<.( <.<.<.1.T ) 1.3.0.0.8.8.8.8.8.8.8.8.8.8.8.8.8.8.8.8.8.8.8.8.8.8.8.8.8.8.0.0.0.0.3.3.0.3.0.3.3.1.1.T P s <.<.<.<.<.j ( Y 1.s 3.].A.8.8.9.{ I.'.'.'.h.8.8.8.w.w.w.8.8.8.8.8.8.8.8.8.8.8.8.8.8.8.8.8.8.8.9.{ T..XoX[.h.{ 0.r.{ q.'.~..X.X~.",
"^.~.^.~..X.Xh.9.| 9.} $.zXbXMX*.} 8.9.8.8.8.8.8.8.8.8.8.8.8.w.8.8.8.8.8.8.8.8.8.8.8.8.8.8.8.8.8.8.8.8.8.8.8.8.8.8.8.8.8.8.8.8.8.8.8.8.8.8.8.8.8.8.8.8.8.8.8.8.8.8.8.8.8.8.8.8.8.8.8.8.8.8.8.8.8.8.8.8.8.8.8.8.8.8.8.8.8.8.8.8.8.8.8.8.8.8.8.8.8.8.9.q.R.oX~.~.~.[.h.9.8.9.0.0.0.0.1.3.3.8.8.8.8.0.0.8.8.8.8.8.8.t.q.9.9.t.'.'.T.T.T.9.1.r.8.r.'..X~.^.^.x.@X'.8.1.0.} W hXvXMXvXbXhX@.} e.w.a.5.w.8.8.8.8.8.8.8.8.8.8.8.8.8.8.8.8.3.0.0.8.8.9.9.8.8.i.=.p p p 5.r.e.8.1.8.8.8.8.8.8.8.8.8.8.8.8.8.8.8.8.8.8.8.8.8.8.8.8.8.8.8.8.8.8.8.8.8.8.8.8.8.8.8.8.8.1.1.1.( ( ( ( ( ( ( ( ( s ( ( Y ( ( t 1.Z.( s 2.< O 5.|.t.1.T ) ( ( ( 1.8.8.8.8.8.r.r.8.8.8.8.8.8.8.0.7.2.8.h.XXXX.X.X.XR.h.9.8.8.8.9..X.X~.~./.oXI.9.8.8.8.Q jXBXMX7X! | 9.8.e.8.8.8.8.8.8.8.8.{ | | ` 1.1.1.1.2.) s u ( 1.( ( ( ( ^ ( <.<.<.<.<.=.<.=.<.1.1.1.1.4.1.1.1.8.8.8.8.8.8.8.8.8.8.8.8.8.8.8.8.8.8.8.8.8.8.8.8.8.8.8.8.8.8.0.3.3.3.3.3.3.3.3.3.3.3.1.) ( Y <.M j ( ( ( ( ( 3.Y 0.].A.8.8.9.} I.'.'.'.t.8.8.w.w.w.w.8.8.8.8.8.8.8.8.8.8.8.8.8.8.8.8.8.8.8.9.} I..X[.[.h.| 9.r.{ q.'.R..X.X~.",
"^.~.^.~..X.Xh.9.| | } g.NXbXMX*.{ 8.r.r.8.8.8.8.8.8.8.8.8.8.w.8.8.8.8.8.8.8.8.8.8.8.8.8.8.8.8.8.8.8.8.8.8.8.8.8.8.8.8.8.8.8.8.8.8.8.8.8.8.8.8.8.8.8.8.8.8.8.8.8.8.8.8.8.8.8.8.8.8.8.8.8.8.8.8.8.8.8.8.8.8.8.8.8.8.8.8.8.8.8.8.8.8.8.8.8.8.8.8.8.8.9.q.R.oX~.~.~.[.h.9.8.9.0.0.0.0.8.3.0.8.8.8.1.0.3.0.8.3.8.8.8.-.8.8.9.T.}.[.E.T.T.9.8.r.8.q.'.'.~.^.~.^.XX'.8.1.0.} W hXbXMXvXbXhX#.} 9.8.a.5.w.8.8.8.8.8.8.8.8.8.8.8.8.8.8.8.8.8.0.0.8.8.9.9.8.8.i.=.p p p 5.r.r.8.1.1.8.8.8.8.8.8.8.8.8.8.8.8.8.8.8.8.8.8.8.8.8.8.8.8.8.8.8.8.8.8.8.8.8.8.8.r.r.8.8.8.8.8.8.1.1.1.1.1.1.1.1.( Y ( ( Y 1.( t 1.Z.( s 2.1 O 3.].q.1.T 1.1.1.2.8.8.8.8.8.8.8.8.8.8.8.8.8.8.8.0.7.5.0.h..X.X.X~..XT.q.| 8.r.r.q..X.X~.~.~./.I.9.8.8.8.} jXmXMX7X[ 8.9.8.8.8.8.8.8.8.8.8.8.{ | 0.3.3.3.1.5.5.1.( s ( 1.( ( ( ( ( ( ( ( ( ( ( ( ( 1.( 1.1.1.5.3.7.1.8.8.8.r.8.8.8.8.8.8.8.8.8.8.8.8.8.8.8.8.8.8.8.8.8.8.8.8.8.8.8.0.0.0.0.0.0.0.0.0.0.3.3.1.1.1.( Y j ( 1.1.1.1.1.0.) 0.].A.8.8.9.} I.'.'.'.t.8.8.w.w.w.w.8.8.8.8.8.8.8.8.8.8.8.8.8.8.8.8.8.8.8.9.} T..X[.[.f.9.9.9.{ q.'.R..X.X~.",
"^.~.^.^..X.Xh.9.| | } g.NXbXSXz.{ 8.r.r.8.8.8.8.8.8.8.8.8.8.w.8.8.8.8.8.8.8.8.8.8.8.8.8.8.8.8.8.8.8.8.8.8.8.8.8.8.8.8.8.8.8.8.8.8.8.8.8.8.8.8.8.8.8.8.8.8.8.8.8.8.8.8.8.8.8.8.8.8.8.8.8.8.8.8.8.8.8.8.8.8.8.8.8.8.8.8.8.8.8.8.8.8.8.8.8.8.8.8.8.8.9.q.R.oX~.~.~.#Xh.9.8.9.0.0.0.1.1.3.8.8.8.1.T ( ) 3.0.r.0.3.3.K R 1.9.T.[.[.E.T.T.9.8.r.8.q.'.'.~.^.~.x.XX'.8.1.0.} W hXbXMXvXvXbX%.[ 9.8.a.w.8.8.8.8.8.8.8.8.8.8.8.8.8.8.8.8.8.8.0.0.8.8.9.8.8.8.r.=.p p a <.w.r.8.) -.8.8.8.8.8.8.8.8.8.8.8.8.8.8.8.8.8.8.8.8.8.8.8.8.8.8.8.8.8.8.8.8.8.8.8.8.8.8.8.8.8.8.8.3.2.3.2.3.2.3.2.3.1.1.2.1.3.3.u 8.r.1.( <.1 1 r.|.t.8.8.8.3.3.0.8.8.8.8.8.8.8.8.8.8.8.8.8.8.8.0.3.1.1.e.'..X.X~.#XI.9.{ r.r.r.q..X.X~.~.~.oXI.9.8.8.8.} jXmXMXyX[ 8.9.8.8.8.8.8.8.8.8.8.8.8.8.0.0.r.0.3.3.7.3.1.( 1.3.1.1.3.3.1.3.2.3.2.3.2.3.2.3.2.3.3.3.3.r.r.8.8.r.r.r.8.8.8.8.8.8.8.8.8.8.8.8.8.8.8.8.8.8.8.8.8.8.8.8.8.8.8.8.0.0.0.0.0.0.0.3.3.0.0.3.3.1.1.1.1.1.1.2.3.3.3.r.1.r.`.t.8.8.9.[ T.[.'.'.e.8.r.w.w.w.w.8.8.8.8.8.8.8.8.8.8.8.8.8.8.8.8.8.8.8.9.} R..X[.[.f.9.9.9.{ q.'.R..X.X~.",
"~.~.^.~..X.Xh.9.| | } g.NXcXSX8X[ 8.r.r.8.8.8.8.8.8.8.8.8.8.w.8.8.8.8.8.8.8.8.8.8.8.8.8.8.8.8.8.8.8.8.8.8.8.8.8.8.8.8.8.8.8.8.8.8.8.8.8.8.8.8.8.8.8.8.8.8.8.8.8.8.8.8.8.8.8.8.8.8.8.8.8.8.8.8.8.8.8.8.8.8.8.8.8.8.8.8.8.8.8.8.8.8.8.8.8.8.8.8.8.8.9.q.R..X~.~.~.[.t.9.8.9.0.0.0.1.1.3.0.8.8.1.T t u 1.3.r.r.3.3.T 1.8.9.e.C.t. .T.T.9.8.w.8.r.'.'.~.^.^.^.XX'.8.1.0.} W hXcXMXvXcXbXg.} 9.8.a.w.8.8.8.8.8.8.8.8.8.8.8.8.8.8.8.8.8.8.0.0.8.8.8.8.r.1.r.=.p a p <.w.r.8.T T 8.8.8.8.8.8.8.8.8.8.8.8.8.8.8.8.8.8.8.8.8.8.8.8.8.8.8.8.8.8.8.8.8.8.8.8.8.8.8.8.8.8.8.0.3.0.3.0.3.3.3.0.1.0.r.3.r.r.P r.r.3.1.( t p G.|.t.8.8.8.8.3.3.0.8.8.8.8.8.8.8.8.8.8.8.8.8.8.0.5.1.1.e.h.XXXX.X#XI.| { 0.0.8.9.'..X^.~.~.oXI.9.r.8.9.} jXbXMXcX} | 8.0.8.8.8.8.8.8.8.8.9.9.8.8.0.r.r.3.0.r.0.1.) 3.r.3.0.r.r.3.r.r.r.r.r.r.r.7.r.r.r.r.0.0.r.r.r.r.r.r.r.8.8.8.8.8.8.8.8.8.8.8.8.8.8.8.8.8.8.8.8.8.8.8.8.8.8.8.8.0.3.3.0.0.0.0.3.3.0.8.0.0.3.3.2.5.5.3.3.7.0.0.r.8.t.`.q.9.8.9.} R.#X'.'.e.8.r.w.w.w.w.8.8.8.8.8.8.8.8.8.8.8.8.8.8.8.8.8.8.8.9.} R..X[.'.t.{ 9.9.{ q.'.R.~..X~.",
"~.~.^.~..X.Xh.9.| { } g.NXcXSX8X[ 8.r.r.8.8.8.8.8.8.8.8.8.8.w.8.8.8.8.8.8.8.8.8.8.8.8.8.8.8.8.8.8.8.8.8.8.8.8.8.8.8.8.8.8.8.8.8.8.8.8.8.8.8.8.8.8.8.8.8.8.8.8.8.8.8.8.8.8.8.8.8.8.8.8.8.8.8.8.8.8.8.8.8.8.8.8.8.8.8.8.8.8.8.8.8.8.8.8.8.8.8.8.8.8.9.q.R..X~.~.~.[.h.9.8.9.0.0.0.0.1.3.0.8.8.8.1.t u ( 3.r.r.7.3.3.0.8.8.{ { | { T.T.9.8.w.8.r.'..X~.^.^.~.XX'.8.1.0.} W hXbXMXvXcXbXl.} 9.8.a.w.8.8.8.8.8.8.8.8.8.8.8.8.8.8.8.8.8.8.0.0.8.8.8.8.r.1.r.=.p a i =.w.r.8.T T 1.8.8.8.8.8.8.8.8.8.8.8.8.8.8.8.8.8.8.8.8.8.8.8.8.8.8.8.8.8.8.8.8.8.8.8.8.8.8.8.8.8.8.8.3.8.3.8.3.8.3.8.1.8.0.8.r.8.P t.r.8.1.( t Y G.}.h.9.9.8.8.8.3.0.8.8.8.8.8.8.8.8.8.8.8.8.8.8.0.3.5.1.9.h..XXX.X'.t.{ 0.0.1.8.e.'.~.^.~.~./.T.9.e.8.9.9.jXkXMXbX} 0.0.8.8.3.8.8.8.8.8.8.8.9.8.8.8.0.0.3.8.r.8.1.T 3.0.3.8.0.r.0.r.r.r.r.r.r.r.r.r.r.r.r.0.3.8.8.r.8.8.8.8.8.8.8.8.8.8.8.8.8.8.8.8.8.8.8.8.8.8.8.8.8.8.8.8.8.8.8.8.3.3.3.3.0.0.0.3.3.0.8.0.0.3.3.r.r.r.r.r.r.0.0.r.8.q.A.8.9.8.9.} R.#X'.`.9.8.q.w.w.w.w.8.8.8.8.8.8.8.8.8.8.8.8.8.8.8.8.8.8.8.9.9.R..XW.'.t.{ 9.e.{ q.'.R.~.XX^.",
"~.~.^.~..X.Xh.9.| { { I.NXhXSX8X[ 8.r.r.8.8.8.8.8.8.8.8.8.w.w.w.8.8.8.8.8.8.8.8.8.8.8.8.8.8.8.8.8.8.8.8.8.8.8.8.8.8.8.8.8.8.8.8.8.8.8.8.8.8.8.8.8.8.8.8.8.8.8.8.8.8.8.8.8.8.8.8.8.8.8.8.8.8.8.8.8.8.8.8.8.8.8.8.8.8.8.8.8.8.8.8.8.8.8.8.8.8.8.8.8.9.q.R..X~.~.~.[.t.9.8.9.0.0.0.0.1.3.3.8.8.8.8.1.) 1.5.5.5.5.3.2.3.3.) / { | | T.T.9.1.w.8.r.'..X~.^.^.~.XX'.8.1.0.} W kXMXvXvXcXNXQ.} 9.8.t.w.8.8.8.8.8.8.8.8.8.8.8.8.8.8.8.8.8.8.8.8.8.8.8.8.r.1.r.=.p a i c 7.r.8.T T 1.8.8.8.8.8.8.8.8.8.8.8.8.8.8.8.8.8.8.8.8.8.8.8.8.8.8.8.8.8.8.8.8.8.8.r.r.8.8.8.8.8.8.8.8.8.8.8.8.8.8.8.1.8.r.8.0.8.P t.r.8.1.Y t ( |.|.t.9.9.9.8.8.8.8.8.8.8.8.8.8.8.8.8.8.8.8.8.8.0.7.3.1.8.f.'.'.j.h.9.{ 0.0.1.8.t.'.~.~.~.~./.T.9.e.8.8.9.jXhXMXbX .0.0.3.1.3.0.0.0.8.8.8.8.9.9.9.8.0.8.8.8.r.8.) T 1.8.8.8.0.w.8.8.8.8.8.8.8.8.8.8.0.8.0.8.8.8.8.8.8.8.8.8.8.8.8.8.8.8.8.8.8.8.8.8.8.8.8.8.8.8.8.8.8.8.8.8.8.8.8.8.8.8.8.8.8.8.8.8.8.8.8.8.8.8.3.r.r.r.r.r.r.0.8.r.8.e.t.8.9.e.9.} W.#X'.T.9.8.q.w.w.w.w.8.8.8.8.8.8.8.8.8.8.8.8.8.8.8.8.8.8.8.9.9.R..XW.'.t.{ 9.e.{ q.'.R..XXX~.",
"~.^.^.~..X.Xh.8.| { { I.NXhXSX7X} 8.r.r.8.8.8.8.8.8.8.8.w.w.w.w.8.8.8.8.8.8.8.8.8.8.8.8.8.8.8.8.8.8.8.8.8.8.8.8.8.8.8.8.8.8.8.8.8.8.8.8.8.8.8.8.8.8.8.8.8.8.8.8.8.8.8.8.8.8.8.8.8.8.8.8.8.8.8.8.8.8.8.8.8.8.8.8.8.8.8.8.8.8.8.8.8.8.8.8.8.8.8.8.8.9.q.R..X~.~.~.[.t.9.8.9.0.0.0.0.8.3.3.8.8.w.8.r.7.5.1.1.1.5.5.r.r.3.) T / | { T.T.9.1.w.8.r.'..X~.^.^.~.XX'.8.1.0.} W kXvXvXvXcXBXQ.+.9.9.t.w.8.8.8.8.8.8.8.8.8.8.8.8.8.8.8.8.8.8.8.8.8.8.8.0.r.1.7.=.p a q s 7.r.3.) P T 8.8.8.8.8.8.8.8.8.8.8.8.8.8.8.8.8.8.8.8.8.8.8.8.8.8.8.8.8.8.8.8.8.8.8.8.8.8.8.8.8.8.8.8.8.8.8.8.8.8.r.8.w.r.8.r.8.R t.8.8.1.K t 1.|.{.t.8.9.e.e.8.r.8.8.8.8.8.r.r.r.8.8.8.8.8.8.8.0.3.5.1.T 9.h.j.q.9.{ ) 0.0.1.8.h.'.~.~.~.~./.T.9.e.8.8.9.jXhXMXbX .0.0.` 1.3.3.3.0.0.8.8.8.8.8.8.8.8.8.8.8.r.8.1.T 8.8.8.8.r.r.8.8.8.8.8.8.8.8.8.8.8.8.8.8.8.8.8.8.8.8.8.8.8.8.r.8.8.8.8.8.8.8.8.8.8.8.8.8.8.8.8.8.8.8.8.8.8.8.8.8.8.8.8.8.8.8.8.8.8.8.8.8.8.3.1.w.w.3.8.8.w.8.8.8.8.9.t.9.8.e.9.} W.#X'.T.9.8.q.w.w.w.w.8.8.8.8.8.8.8.8.8.8.8.8.8.8.8.8.8.8.8.9.q.W..XW.'.t.{ 9.e.{ q.'.R..XXX~.",
"~.^.^..X.X.Xh.8.9.9.E R.NXbXvXyXQ r.r.8.8.r.8.8.8.8.8.8.8.8.w.8.8.8.8.8.8.8.8.8.8.8.8.8.8.8.8.8.8.8.8.8.8.8.8.8.8.8.8.8.8.8.8.8.8.8.8.8.8.8.8.8.8.8.8.8.8.8.8.8.8.8.8.8.8.8.8.8.8.8.8.8.8.8.8.8.8.8.8.8.8.8.8.8.8.8.8.8.8.8.8.8.8.8.8.8.8.8.8.8.9.{ 9.'.#X~.~.~.W.T.9.) { 0.r.0.0.0.0.3.8.8.8.8.3.3.7.( u t ( 7.3.3.3.) ) 0.t.q.T.'.9.T w.8.8.'.oX~.^.^.^.XX'.9.3.0.9.W mXMXvXvXvXcX(.@.Q 9.e.e.w.8.8.8.8.8.8.8.8.8.8.8.8.8.8.8.8.8.8.8.8.8.0.0.3.0.5.Y p i a a 2.3.r.1.t T r.0.8.8.8.8.8.8.8.8.8.8.8.8.8.8.8.8.8.8.8.8.8.8.8.8.8.8.8.8.8.8.8.8.8.8.8.8.8.8.8.8.8.8.8.8.8.8.8.8.8.8.9.r.8.8.8.Q t.8.8.1.2 t r.|.{.e.,.9.e.8.8.r.8.8.8.8.8.8.8.8.8.8.8.8.8.8.8.0.1.3.0.8.8.9.9.} { | 0.0.8.0.r.t..X.X~.~.~.W.f.| 8.8.9.} zXbXvXbXY.] / q.0.0.r.3.3.3.8.8.8.9.9.9.8.8.8.8.8.8.8.1.1.8.8.8.8.8.8.8.8.8.8.8.8.8.8.8.8.8.8.8.8.8.8.8.8.8.8.8.8.8.8.8.8.8.8.8.8.8.8.8.8.8.8.8.8.8.8.8.8.8.8.8.8.8.8.8.8.8.8.8.8.8.8.8.8.8.8.8.8.8.8.8.w.w.w.w.8.8.8.8.8.8.8.9.9.8.9.8.} g.[.[.h.9.8.r.w.w.w.w.8.8.8.8.8.8.8.8.8.8.8.8.8.8.8.8.8.8.8.9.9.T.'.W.'.t.{ 9.9.9.t.'.oXR.~.OX",
"~.^.^.^..X'.h.8.9.9.E R.NXcXvXyX] r.r.8.8.r.8.8.8.8.w.w.8.8.w.8.8.8.8.8.8.8.8.8.8.8.8.8.8.8.8.8.8.8.8.8.8.8.8.8.8.8.8.8.8.8.8.8.8.8.8.8.8.8.8.8.8.8.8.8.8.8.8.8.8.8.8.8.8.8.8.8.8.8.8.8.8.8.8.8.8.8.8.8.8.8.8.8.8.8.8.8.8.8.8.8.8.8.8.8.8.8.8.8.8.{ 9.T.#X~.~.~.'.T.9.{ { 0.0.0.0.0.0.0.8.8.8.8.1.1.5.( u t Y 5.5.3.3.) 0.T.T.W.T.I.R K 8.w.8.}.oX~.^.^.^.XX'.9.3.0.9.! mXMXZXvXvXcX(.@.[ e.e.8.8.8.8.8.8.8.8.8.8.8.8.8.8.8.8.8.8.8.8.8.8.8.0.0.3.3.5.s p a a a 2.3.r.1.u P r.0.8.8.8.8.8.8.8.8.8.8.8.8.8.8.8.8.8.8.8.8.8.8.8.8.8.8.8.8.8.8.8.8.8.8.8.8.8.8.8.8.8.8.8.8.8.8.8.8.8.8.9.e.8.8.8.>.t.8.8.1.t t r.|.{.e.,.e.t.8.8.r.8.8.8.8.8.8.8.8.8.8.8.8.8.8.8.8.1.3.0.{ { } } ] { { 0.` 1.8.r.t..X.X~.~.~.W.f.{ 8.8.9.} zXbXvXMX~.| / 0.) 1.0.r.3.3.8.8.8.8.9.8.8.8.8.8.8.8.8.1.1.8.8.8.8.8.8.8.8.8.8.8.8.8.8.8.8.8.8.8.8.8.8.8.8.8.8.8.8.8.8.8.8.8.8.8.8.8.8.8.8.8.8.8.8.8.8.8.8.8.8.8.8.8.8.8.8.8.8.8.8.8.8.8.8.8.8.8.8.8.8.8.w.w.w.8.8.8.8.8.8.8.8.9.9.8.9.8.} I.[.'.h.9.8.r.w.w.w.w.8.8.8.8.8.8.8.8.8.8.8.8.8.8.8.8.8.8.8.9.9.R..XW.T.t.{ 9.9.9.q.'.OX~.~.OX",
"~.~.^.^..X'.f.8.| 9.E ~.NXbXvXcX} r.r.8.8.8.8.8.8.8.8.w.8.8.w.8.8.8.8.8.8.8.8.8.8.8.8.8.8.8.8.8.8.8.8.8.8.8.8.8.8.8.8.8.8.8.8.8.8.8.8.8.8.8.8.8.8.8.8.8.8.8.8.8.8.8.8.8.8.8.8.8.8.8.8.8.8.8.8.8.8.8.8.8.8.8.8.8.8.8.8.8.8.8.8.8.8.8.8.8.8.8.8.8.8.{ 9.T.#X~.~.~.#XT.9.{ 8.0.0.0.3.0.0.3.8.8.8.8.1.1.3.1.s u ( 1.5.3.3.8.e.T.[.oX'.f.A @ 1.r.r.'.oX~.^.^.^.XX'.9.3.0.9.W mXMXvXvXvXnX6X@.! k.t.Q 8.8.8.8.8.8.8.8.8.8.8.8.8.8.8.8.8.8.8.8.8.8.0.0.3.3.5.M a a a a 5.2.3.1.t Y 0.r.8.8.8.8.8.8.8.8.8.8.8.8.8.8.8.8.8.8.8.8.8.8.8.8.8.8.8.8.8.8.8.8.8.8.8.8.8.8.8.8.8.8.8.8.8.8.8.8.8.8.9.9.8.8.8.8.t.8.8.1.t t r.|.`.e.8.9.e.8.8.r.8.8.8.8.8.8.8.8.8.8.8.8.8.8.8.8.1.3.0.{ 9.s.k.9.| { { ) 8.8.8.t..X.X~.~.~.W.q.{ 8.8.9.} zXkXvXMXQ.} { 9.{ 1.r.r.3.7.w.8.8.8.8.8.8.8.8.8.8.8.8.1.8.8.8.8.8.8.8.8.8.8.8.8.8.8.9.9.8.8.8.8.8.8.8.8.8.8.8.8.8.8.8.8.8.8.8.8.8.8.8.8.8.8.8.8.8.8.8.8.8.8.8.8.8.8.8.8.8.8.8.8.8.8.8.8.8.8.8.8.8.8.8.8.w.w.8.8.8.8.8.8.8.8.8.r.r.8.8.8.} I.oX'.f.9.8.r.w.w.w.w.8.8.8.8.8.8.8.8.8.8.8.8.8.8.8.8.8.8.8.9.} R..XW.T.t.{ 9.9.| q.'.OX~.~.XX",
"~.~.^.^..X'.f.{ | 9.E ~.NXcXvXcX} r.8.8.8.8.8.8.8.8.8.8.8.8.w.8.8.8.8.8.8.8.8.8.8.8.8.8.8.8.8.8.8.8.8.8.8.8.8.8.8.8.8.8.8.8.8.8.8.8.8.8.8.8.8.8.8.8.8.8.8.8.8.8.8.8.8.8.8.8.8.8.8.8.8.8.8.8.8.8.8.8.8.8.8.8.8.8.8.8.8.8.8.8.8.8.8.8.8.8.8.8.8.8.9.{ 9.T.oX~.~.~.oXT.9.8.9.0.0.0.3.0.0.0.8.8.8.8.8.0.r.3.1.( 1.5.5.3.1.8.t.'.#X[.'.h.K @ 8.r.r.'.oX~.^.^.^.XX'.9.3.0.9.W mXMXvXvXqXMXhX#.W 9.e.>.8.8.8.8.8.8.8.8.8.8.8.8.8.8.8.8.8.8.8.8.8.8.0.0.3.7.5.M a a e a 5.2.3.1.t u 3.r.8.8.8.8.8.8.8.8.8.8.8.8.8.8.8.8.8.8.8.8.8.8.8.8.8.8.8.8.8.8.8.8.8.8.8.8.8.8.8.8.8.8.8.8.8.8.8.8.8.8.8.8.8.8.8.8.q.8.8.1.t u r.|.t.e.9.9.e.8.8.0.8.8.8.8.8.8.8.8.8.8.8.8.8.8.8.8.1.1.8.e.f.j.'.'.9.| { { 8.8.8.e..X.X^.~.~.R.q.I 8.8.9.} zXkXvXMX^.@.} q.9.9.r.3.5.5.w.w.8.8.8.8.8.8.8.8.8.8.8.1.8.8.8.8.8.0.8.8.8.8.8.8.8.8.9.9.8.8.8.8.8.8.8.8.8.8.8.8.8.8.8.8.8.8.8.8.8.8.8.8.8.8.8.8.8.8.8.8.8.8.8.8.8.8.8.8.8.8.8.8.8.8.8.8.8.8.8.8.8.8.8.8.w.w.8.8.8.8.8.8.8.8.8.r.8.8.8.9. .T.oXR.q.9.8.8.w.w.w.w.8.8.8.8.8.8.8.8.8.8.8.8.8.8.8.8.8.8.8.9.} R..XW.'.t.{ 9.9.{ q.'.OX~.~.XX",
"~.~.~.^..X'.f.{ | 9.] /.NXbXvXcXf.r.8.8.8.8.8.8.8.8.8.8.8.w.w.8.8.8.8.8.8.8.8.8.8.8.8.8.8.8.8.8.8.8.8.8.8.8.8.8.8.8.8.8.8.8.8.8.8.8.8.8.8.8.8.8.8.8.8.8.8.8.8.8.8.8.8.8.8.8.8.8.8.8.8.8.8.8.8.8.8.8.8.8.8.8.8.8.8.8.8.8.8.8.8.8.8.8.8.8.8.8.8.8.e.{ 9.I.oX~.~.~.#Xh.{ { 9.0.0.0.3.0.0.0.8.8.8.8.8.r.r.r.3.5.5.3.r.r.8.8.q.T.'.W.W.T.{ P r.r.8.'.oX~.^.^.^.XX'.9.3.r.9.W mXMXvXvXqXnXbX%.W [ 9.9.8.8.8.8.8.8.8.8.8.8.8.8.8.8.8.8.8.8.9.8.8.8.0.0.3.7.5.m a a e a 5.1.3.1.t u 1.r.0.8.8.8.8.8.8.8.8.8.8.8.8.8.8.8.8.8.8.8.8.8.8.8.8.8.8.8.8.8.8.8.8.8.8.8.8.8.8.8.8.8.8.8.8.8.8.8.8.8.8.8.8.8.8.8.q.8.r.1.t u r.|.t.e.9.9.9.8.8.0.8.8.8.8.8.8.8.8.8.8.8.8.8.8.8.8.3.8.8.f.'..X#X#Xt.0.{ 0.r.9.9.f..X.X~.~.~.W.q.I 8.8.9.} zXmXvXMXuXg.! } { 9.r.1.r.r.w.w.w.w.e.w.8.3.1.3.8.0.8.3.8.3.8.0.0.0.0.8.8.8.8.8.9.8.8.8.8.8.8.8.8.8.8.8.8.8.8.8.8.8.8.8.8.8.8.8.8.8.8.8.8.8.8.8.8.8.8.8.8.8.8.8.8.8.8.8.8.8.8.8.8.8.8.8.8.8.8.8.8.8.8.8.w.w.8.8.8.8.8.8.8.8.8.0.8.0.8.9.q.R.oXI.9.9.8.8.w.w.w.w.8.8.8.8.8.8.8.8.8.8.8.8.8.8.8.8.8.8.8.9.} T..XW.'.q.{ 9.9.{ 9.R.OX.X~..X",
"~.~.~.~..XR.q.{ { 9.] /.NXcXvXbXf.r.8.8.r.8.8.8.8.8.8.8.8.8.w.8.8.8.8.8.8.8.8.8.8.8.8.8.8.8.8.8.8.8.8.8.8.8.8.8.8.8.8.8.8.8.8.8.8.8.8.8.8.8.8.8.8.8.8.8.8.8.8.8.8.8.8.8.8.8.8.8.8.8.8.8.8.8.8.8.8.8.8.8.8.8.8.8.8.8.8.8.8.8.8.8.8.8.8.8.8.8.8.8.q.{ { h.oX~.~.~.oXt.E { r.0.8.0.0.0.0.0.8.8.8.8.8.9.8.0.r.3.5.5.r.r.8.8.q.T.oXR.W.[.e.8.r.8.8.'.oX~.^.^.^.XX'.9.3.r.9.! mXMXvXvX9XnXbX^.@.} 9.9.8.8.8.8.8.8.8.8.8.8.8.8.8.8.8.8.8.8.9.9.8.8.0.0.3.7.5.m a q e q 2.1.7.5.u t 1.r.0.0.8.8.8.8.8.8.8.8.8.8.8.8.8.8.8.8.8.8.8.8.8.8.8.8.8.8.8.8.8.8.8.8.8.8.8.8.8.8.8.8.8.8.8.8.8.8.8.8.8.8.8.8.8.8.r.8.r.5.u u Z.|.r.e.9.9.8.8.8.0.8.8.8.8.8.8.8.8.8.8.8.8.8.8.8.8.r.8.8.h.'..X.X'.I.9.{ 0.e.9.9.f.XX.X~.~.~.W.} K 8.8.9.} zXkXvXMXmX^.s.! E { q.8.r.r.r.r.r.r.e.q.8.3.1.1.3.0.0.0.3.3.0.0.0.0.0.0.8.8.8.8.9.9.8.8.8.8.8.8.8.8.8.8.8.8.8.8.8.8.8.8.8.8.8.8.8.8.8.8.8.8.8.8.8.8.8.8.8.8.8.8.8.8.8.8.8.8.8.8.8.8.8.8.8.8.8.8.8.8.8.8.w.w.8.8.8.8.8.8.8.8.0.0.0.0.0.9.q.R.[.h.9.9.8.8.w.w.w.w.8.8.8.8.8.8.8.8.8.8.8.8.8.8.8.8.8.8.8.9.9.T..XW.'.q.{ 9.9.{ 9.R.OX.X^.~.",
"^.~.~.^..XR.q.Q { 9.] /.NXcXMXbXh.r.1.8.r.8.8.8.8.8.8.8.8.8.w.w.8.8.8.8.8.8.8.8.8.8.8.8.8.8.8.8.8.8.8.8.8.8.8.8.8.8.8.8.8.8.8.8.8.8.8.8.8.8.8.8.8.8.8.8.8.8.8.8.8.8.8.8.8.8.8.8.8.8.8.8.8.8.8.8.8.8.8.8.8.8.8.8.8.8.8.8.8.8.8.8.8.8.8.8.8.8.8.8.q.{ Q h.oXoX~.W.#X9.L ) 0.0.8.0.0.0.0.0.8.8.8.8.8.8.8.8.3.7.5.5.2.1.T { q.'..XR.W.[.e.8.q.8.1.`.oX~.^.^.^.XX.X9.3.r.9.! mXMXvXvXwXvXbXgX~.f.9.9.8.8.8.8.8.8.8.8.8.8.8.8.8.8.8.8.8.8.9.9.8.8.0.0.3.7.5.m a q e q 2.1.7.7.u t ( 0.0.0.8.8.8.8.8.8.8.8.8.8.8.8.8.8.8.8.8.8.8.8.8.8.8.8.8.8.8.8.8.8.8.8.8.8.8.8.8.8.8.8.8.8.8.8.8.8.8.8.8.8.8.8.8.8.r.8.r.5.u u Z.|.8.e.e.8.8.8.0.0.8.8.8.8.8.8.8.8.8.8.8.8.8.8.8.8.r.8.9.h..X.XR.T.I.9.{ 0.9.8.9.k..X.X~.~.~.W.} A 8.8.9.} zXbXvXMXBXiX@Xj.9.9.q.8.w.r.w.w.w.w.e.w.8.3.1.1.3.0.0.3.3.3.3.0.r.0.3.0.9.9.8.8.8.8.8.8.8.8.8.8.9.9.9.9.8.8.8.8.8.8.8.8.8.8.8.8.8.8.8.8.8.8.8.8.8.8.8.8.8.8.8.8.8.8.8.8.8.8.8.8.8.8.8.8.8.8.8.8.8.8.8.8.w.w.8.8.8.8.8.8.0.0.0.1.1.0.0.0.q.W.#Xh.8.9.8.8.w.w.w.w.8.8.8.8.8.8.8.8.8.8.8.8.8.8.8.8.8.8.8.9.9.T..XW.'.t.{ 9.9.{ | R.#X.X^.~.",
"^.^.^.^..XR.q.{ ) 0.] /.zXcXvXbXg.9.{ 8.r.8.8.8.8.8.8.8.w.w.w.w.8.8.8.8.8.8.8.8.8.8.8.8.8.8.8.8.8.8.8.8.8.8.8.8.8.8.8.8.8.8.8.8.8.8.8.8.8.8.8.8.8.8.8.8.8.8.8.8.8.8.8.8.8.8.8.8.8.8.8.8.8.8.8.8.8.8.8.8.8.8.8.8.8.8.8.8.8.8.8.8.8.9.8.8.8.8.8.8.q.{ Q h.oX.X~.~.#X9.R / r.0.1.0.0.8.8.8.8.8.8.8.8.9.8.8.3.7.3.5.Y U K R 9.'.#X~.W.'.9.T r.8.8.T.#X~.^.^.~.XX'.9.1.0.9.[ zXbXvXvXvXvXcXbXhXx.@.! } } } 9.9.9.9.9.9.9.8.8.8.8.8.8.8.8.8.8.9.8.8.0.3.7.5.M a q e e 2.<.7.7.u t ( 3.0.0.8.8.8.8.8.8.8.8.8.8.8.8.8.8.8.8.8.8.8.8.8.8.8.8.8.8.8.8.8.8.8.8.8.8.8.8.8.8.8.8.8.8.8.8.8.8.8.8.8.8.8.8.8.8.r.8.r.3.u s Z.|.8.8.e.8.8.8.8.3.8.8.8.8.8.8.8.8.8.8.8.8.8.8.8.8.r.8.9.R.#XXX.X.XT.9.) 8.8.8.8.e..X~.~.~./.T.| 2 8.0.8.{ zXbXvXMXmXmXBXkX^.g.k.Q { 8.8.,.9.9.! } 9.8.{ { { 9.9.9.9.9.r.8.r.8.8.8.9.9.9.9.9.9.9.8.8.8.9.9.9.9.9.9.8.8.8.8.8.8.8.8.8.8.8.8.8.8.8.8.8.8.8.8.8.8.8.8.8.8.8.8.8.8.8.8.8.8.8.8.8.8.8.8.8.8.8.8.8.8.8.8.8.w.8.8.8.8.8.8.0.0.8.1.8.0.8.0.q.W.#Xh.{ 9.8.8.8.8.8.8.8.8.8.8.8.8.8.8.8.8.8.8.8.8.8.8.w.8.8.9.} U.~.W.'.q.{ 8.8.{ | T.#X.X~.~.",
"z.^.^.XXR.[.R 1.0.| ' W.zXbXnXqXgXI.} 9.q.9.9.8.8.8.8.r.r.r.a.w.w.w.w.w.8.8.8.8.w.w.w.8.8.8.8.8.8.8.w.8.w.8.w.8.w.8.w.8.w.8.w.0.7.3.7.3.7.3.7.3.7.3.7.3.7.3.7.3.7.0.w.0.w.0.w.0.w.0.5.0.5.0.w.w.w.w.w.w.w.w.w.w.w.w.w.w.w.w.w.8.} } 9.9.8.8.w.w.w.8.L k.#Xg.Q.~.#Xt.2 K 0.1.3.3.8.8.8.8.8.8.8.8.T T { 0.3.3.` ) 4 1 5 K 9.T.'.'.R.j.f.E 9.9.L T.R..Xx..X.X.X#X{ 0.| ] } (.BXBXqXZXZXZXZXvXvXsXsXz.l.#.&.O.O.! } } } } | 9.0.r.0.) ` { { | 9.9.8.8.r.7.s 7 a a q j 2.7.5.s t u 1.0.0.0.0.8.8.8.w.w.w.w.w.w.w.w.w.w.w.w.w.w.w.w.w.w.8.w.w.w.8.w.w.w.w.w.8.w.8.w.w.w.w.w.w.w.w.w.w.w.w.w.w.w.w.w.w.r.8.8.r.P P |.`.8.8.8.8.8.8.8.8.r.r.r.r.r.r.w.w.8.8.8.8.8.8.8.8.e.{ k..X$X.X~..X'.9.1.1.r.r.T t.[.R.W.W.[.}.q.5 ` 0.| | /.NXnXMXMXMXMXMXmXmXmXmXyXyXtX5X5Xc.z.z.d.d.@.@.} ! ! W ! } ! ! ! s.s.9.9.9.9.9.9.q.q.q.| | 9.9.9.9.9.e.8.r.r.r.r.r.r.0.8.8.8.8.8.8.3.3.8.8.w.8.8.8.8.1.w.8.w.8.w.8.w.8.w.8.w.8.w.8.w.8.w.8.w.8.w.8.w.8.8.8.8.8.8.8.8.8.8.8.8.0.r.8.8.8.t.`.[.t.I { t.8.0.0.0.0.0.0.0.0.w.w.w.w.w.w.w.w.w.8.w.8.w.8.w.9.+.l.~.R.R.e.8.8.t.R 8.[.#X~.~.~.",
"z.^.^.XXR.[.R 1.3.` ] <XzXVXnXqXzX/.$.[ [ } q.h.9.9.8.8.8.5.1.-.r.r.r.r.r.r.r.r.1.8.8.8.8.8.8.8.8.8.8.8.8.8.8.8.8.8.8.8.8.8.8.8.3.3.3.3.3.3.3.3.3.3.3.3.3.3.3.3.0.0.0.0.0.0.0.0.3.3.3.0.3.0.0.8.w.w.w.w.w.w.w.w.w.w.w.w.w.w.w.8.} } 9.9.8.8.w.w.w.8.K q.#XR.~.~.oXT.4 P r.1.7.7.w.w.e.9.w.8.8.8.R I ) ) 3.3.1.` ^ ^ P ) 0.T.'.'.'.j.k.] 9.{ L T..XXXx.XX.X.X#X{ ^ ) ] } U.xXNXnXvXvXZXCXCXsXsXsXSXBXcXyX!.l.#.@.+.} ] ] { { { { ` ` | { | 9.9.8.8.r.7.s a a a q j 2.7.3.s t u 1.3.3.8.8.8.8.8.8.8.8.8.8.8.8.8.8.8.8.8.8.8.8.8.8.8.8.8.8.8.8.8.8.8.8.8.8.8.8.8.8.8.8.8.8.8.8.8.8.8.8.8.8.8.8.8.8.8.8.1.8.K K `.G.8.8.8.8.8.8.8.8.8.8.8.8.8.8.8.8.8.8.8.8.8.8.8.8.9.{ k..X$X.X.X.XT.8.0.3.r.0.U r.[.R.W.[.[.}.r.2 ^ 3.` ..=XNXcX9XMXMXMXMXMXMXMXMXMXMXMXMXMXMXMXMXkXkXkXkXkXkXkXkX^.^.x.l.v.d.d.s.@.} } ! Q E E E } [ } ] { ] { { 8.1.8.8.8.8.8.8.8.8.r.r.r.r.r.r.w.w.w.w.w.w.r.r.8.8.8.8.8.8.8.8.8.8.8.8.8.8.8.8.8.8.8.8.8.8.8.8.8.8.8.8.8.8.8.8.8.8.8.8.r.8.8.8.r.`. Xt.R { t.8.8.8.8.8.8.3.3.8.8.8.8.8.8.8.8.8.8.8.8.8.8.8.8.9.+.z.~.R.R.e.1.r.r.R 8.[.#X~.~.~.",
"Q.^.~..XR.[.P T 1.{ { =XNXqXZXvXNXxX/.[ E ] } ] } | 9.8.r.t.t.t.0.0.3.1.1.1.) ) 0.0.0.0.0.r.r.r.8.8.8.8.8.8.8.8.8.8.8.8.8.8.8.8.8.8.8.8.8.8.8.8.8.8.8.8.8.8.8.8.8.8.8.8.8.8.8.8.8.8.8.8.8.8.8.8.8.8.8.8.8.8.8.8.8.8.8.8.8.8.8.8.} } 9.9.8.r.r.r.w.1.K 9.oXR.~.~.oXf.A P 3.1.r.r.w.8.9.9.8.9.8.8.{ { 8.8.0.3.3.3.r.3.0.0.q.h.'.'.#XT.t.| 0.T G T..XXXx.XX.X.X#X{ 2 ^ ` | $.(.zXNXMXMXMXBXBXMXMXMXaXcXmXmXmXNXzXzX$X#X'.T.e.9.8.8.0.0.0.r.0.9.e.r.8.w.3.s a a a q j 2.Z.7.Y r p 1.7.0.8.8.8.8.8.8.8.8.8.8.8.8.8.8.8.8.8.8.8.8.8.8.8.8.8.8.8.8.8.8.8.8.8.8.8.8.8.8.8.8.8.8.8.8.8.8.8.8.8.8.8.8.8.8.w.8.8.w.R R {.p.w.w.w.w.w.w.w.8.8.8.8.8.8.9.8.8.8.8.8.8.8.8.8.9.| { f..XOX.X~.'.f.8.q.0.r.1.K e.oX~.~..X'.}.t.2 u ) )  .=XNXNXMXaXvXcXcXcXcXcXcXcXcXcXMXMXMXMXBXmXmXkXkXNXmXNXNXNXBXBXBXmXmXmXkXjXjXjX=X$X$X#XOXj.f.f.g.f.f.s.9.9.e.e.9.9.9.9.8.{ { 8.8.9.8.8.{ 8.8.8.8.8.8.8.8.8.8.8.8.8.8.8.8.8.8.8.8.8.8.8.8.8.8.8.8.8.8.8.8.8.8.8.8.8.8.8.8.8.9.8.8.r.r.8.8.9.`.}.9.R 8.r.8.8.8.8.8.w.r.r.0.8.8.8.8.8.8.8.8.8.8.r.r.8.8.8.9.} ~.oX'.`.r.1.r.3.K ) '.#XR.~.~.",
"~.~.~..X'.}.R T r.8.] gXBXvXZXZXbXzXxX).%.%.$.[ W E E E ] 8.9.9.0.0.0.0.0.0.0.0.{ ` ) 1.) ) 1.1.0.9.8.9.8.9.8.8.8.9.8.9.8.9.8.8.8.9.8.9.8.9.8.9.8.9.8.9.8.9.8.9.8.9.8.9.8.9.8.9.9.9.9.9.8.9.8.8.8.8.8.8.8.8.8.8.8.9.8.9.8.8.8.9.9.| 8.8.8.r.r.r.5.-.@ 9.#X.X~.~.W.f.G 4 ` ) 3.r.8.8.8.9.9.9.{ { 8.8.8.8.0.3.3.3.3.3.0.8.8.t.'.}.#X`.t.0.q.P @ T.'.#X.XXX.X.X'.T 5 u ` ) { I.OXzXkXkXbXmXmXmXkXkXNXNXNXzXzXzXjXjX;X-X#X`.t.r.r.0.0.0.0.r.8.8.w.w.r.r.2.s a a a q s 1.N.7.( t u ( 3.0.0.8.8.8.8.8.8.8.8.8.8.8.8.8.8.8.8.8.8.8.8.8.r.0.r.0.r.0.r.0.r.9.8.9.r.0.r.r.r.r.8.r.8.r.0.0.8.r.8.r.8.r.0.0.w.8.8.r.P T |.t.8.w.w.w.w.8.8.8.9.9.9.9.9.9.9.9.9.9.9.9.9.9.9.e.| | t.'.#X.XR.T.9.{ 0.0.0.) L h.~.^.~..X.X}.t.@ Y 1.` { W.jXkXBXmXBXBXBXBXBXBXBXmXmXmXmXmXmXbXbXmXNXmXNXmXNXBXBXhXkXkXkXmXNXBXNXzXzXzXzXzXzXzXzXzXzXzXlXlXlXlXjX#X[.[.[.'.T.h.h.q.q.9.9.9.{ { ] 9.9.8.9.8.8.8.8.9.9.9.9.8.9.8.9.8.9.8.9.8.9.8.9.9.9.9.9.8.9.8.8.8.8.8.8.8.8.8.8.8.8.8.8.r.q.8.8.{ `.`.{ T 9.r.8.8.8.8.8.w.r.r.r.r.0.r.0.r.9.r.0.r.r.r.r.r.r.r.0.} T.[.].`.0.1.7.<.t ) `.oXW.~.~.",
"R./.R..X'.}.K R t.8.Q OXBXAXDXCX9XbXNXhXhXhXhX6X^.^.j.g.d.s.s.} ] ] ] { { }  . .9.0.0.9.8.8.0.8.9.9.9.9.9.9.9.9.9.9.9.9.9.9.9.9.9.9.9.9.9.9.9.9.9.9.9.9.9.9.9.9.9.9.9.| 9.9.9.9.9.| 9.| 9.9.9.9.9.9.8.9.8.9.8.9.9.9.9.9.8.9.8.8.0.0.1.1.3.7.7.5.1.Y @ 9.#X.X~.~.R.I.G 2 ( ( 3.0.0.w.9.9.9.9.{ 8.8.8.8.8.3.2.2.2.2.2.3.3.8.8.h.{.|.A.r.3.7.u 2 `.[.+X.XXX.X.X.XT t y j ^ ) 0.T.oXjXjXjXjXjXjXjX;XOXOX.XR.j.f.k.q.9.9.8.8.8.8.0.r.3.1.3.3.8.8.8.w.p.i.<.a i a x a s <.7.7.M t p Y 2.3.3.3.3.8.8.8.8.8.8.{ 1.{ 1.8.1.{ 8.{ 8.8.8.8.8.| 0.{ 0.{ 8.{ 8.{ 8.{ 0.| 0.8.8.8.8.8.0.0.0.0.8.8.8.8.8.0.0.0.8.w.8.w.Y -.{.r.1.8.w.w.w.w.8.8.8.8.8.8.9.9.9.9.9.9.9.9.9.9.9.{ | | q.T.'.W.T.I.t.{ 0.` ) P K R.~.x.c.XXXX+Xt.= T 7.3.) | 9.d.^.rXtXtXtXtXtXtXtXhXhXhXhXgXtXtXtXkXkXkXkXiXkXiXhXkXkXkXkXkXkXkXkXjXjXjXjXjXjXzXzXjXjXjXjXjXjX;X;XlXlXlXlXlXlX>X;X;X;X;X-X-XoX#X[.A.t.t.t.r.0.r.0.0.| 0.| 0.0.8.8.0.| 0.{ 8.8.8.8.0.| 0.| 8.8.8.8.0.0.8.8.8.8.8.8.8.0.8.8.r.e.8.T ) }.`.T T r.r.8.8.8.8.8.8.8.8.3.0.| 0.| 8.{ 8.{ 8.{ 8.{ 0.| 0.| 0.`.].|.H.7.4.7.s t 1.`.[.W.~.^.",
"W.W.R.'.'.}.U U r.e.Q ~.kXMXDXCXvXMXMXMXbXMXBXBXBXBXmXkXiXuXpXOXU.g.g.$.@.} [ [ } } } { 9.9.8.8.9.9.9.8.9.9.9.9.8.8.9.9.9.9.9.9.9.9.9.9.9.9.9.9.9.9.9.9.9.9.9.9.9.9.9.9.9.9.9.9.9.9.9.9.9.9.9.9.8.0.8.0.8.0.8.0.0.0.0.0.0.0.8.0.0.3.1.2.3.7.5.<.U U @ 8.#X.X.X~.[.I.A 2 ( ) 7.r.r.r.q.q.r.r.0.0.8.w.w.7.r.7.7.7.7.r.r.r.8.w.t.p.G.7.7.<.2.s 2 `.}.#Xx.XX.X.X.XE y y y u Y ) 0.0.{ | { { { { { E Q Q E E Q { 9.8.8.8.8.8.0.r.r.r.7.7.7.7.r.r.r.w.i.5.=.a i e x x a j 2.2.j y y s 5.7.7.7.7.7.7.3.3.3.3.3.3.3.3.3.3.3.3.3.3.3.3.3.0.3.0.3.0.3.0.3.0.3.0.3.0.3.0.3.0.3.0.3.0.3.0.3.0.3.0.3.0.3.0.3.r.7.r.r.T 2.|.7.r.r.r.r.r.r.r.r.w.8.8.8.r.r.r.r.8.8.8.8.8.8.8.0.` ` 0.C.T.h.t.t.V.) 1.P K t K T..Xc.c.XX.X+Xt.= p 4.7.7.0.{ Q s.} } +.+.+.+.+.+.@.@.@.@.@.@.@.$.@.@.@.@.@.&.&.&.d.@.@.@.@.o.O.O.! ! } } } } } } } } } } } } } 9.Q { { } 9.9.} } { { { } } } { { Z.t.t.q.r.r.0.0.0.0.0.0.0.0.0.0.0.0.0.0.0.0.0.0.0.0.0.0.0.0.0.0.0.0.0.0.0.0.0.0.0.0.0.1.0.r.8.L )  X`.L T r.0.0.8.3.w.w.w.r.7.3.0.3.0.3.0.3.0.3.3.3.3.3.3.` 3.3.3.F.L.F.F.6.4.7.u r 1.`.[.~.~.~.",
"'.'.R.'.'.}.U t -.r.8.9.^.yXSXsXSXMXvXvXvXdXdXMXmXdXmXmXmXmXmXiXBXNXzXkXjXOXOXXXs.s.9.9.,.Q ,.T 8.0.3.3.3.3.0.3.3.3.3.3.0.0.0.0.8.8.8.8.8.8.8.8.8.8.8.8.8.8.8.8.0.0.0.0.0.0.0.0.0.0.0.0.0.0.0.0.3.3.3.3.3.3.0.3.3.3.3.3.3.3.3.3.3.1.1.5.7.5.<.U p K @ e.#X'..X.X[.`.K 1 s ( 6.7.7.r.r.r.r.0.3.5.7.7.7.7.7.7.7.7.7.7.7.5.5.5.w.5.4.4.4.a j s t G.}.+Xn..X.X.XOX{ y q q p s s Y ( 0.0.0.0.0.0.3.3.q.q.r.r.0.1.1.1.r.r.r.7.7.5.5.5.6.6.6.5.5.5.5.5.4.c a a e e z e e y h k j y i p 6.6.2.2.2.2.5.2.5.2.5.2.1.2.1.2.1.2.1.2.1.2.5.2.3.3.3.3.3.3.5.3.5.3.5.3.3.3.3.3.1.3.5.3.3.3.3.3.5.3.5.3.5.3.5.5.5.5.5.6.Y 4.K.2.5.6.5.6.7.6.7.5.3.3.3.3.3.3.3.3.3.3.3.3.3.3.3.3.2.2.2.1.3.0.1.1.1.s j u u t t `..Xx.c.XX.X#Xt.= r M 4.5.F.r.8.9.9.9.} } 9.} } { } } } } } } } } ] [ ] ] Q Q Q Q } } } 9.9.9.e.e.e.e.e.9.9.9.9.9.9.9.9.9.9.9.9.9.) { 8.8.9.9.9.9.8.8.9.9.9.9.9.0.3.3.3.3.3.3.3.3.3.3.3.3.3.3.3.3.3.3.3.3.3.3.3.3.3.3.3.3.3.3.3.3.3.3.3.3.3.3.3.3.3.7.3.1.3.r.1.t T &XG.t ( r.1.2.7.7.7.7.7.7.5.5.3.3.3.3.1.3.5.3.1._ 1._ 1._ 1.2.j 2.2.2.6.M j M t t 8.[.[.~.~.^.",
"'.'.R.'.'.}.= = t r.1.) 9..XNXkXMXdXmXBXBXMXmXMXMXMXmXmXmXmXmXkXkXkXkXzXzXzXzXzXzXlXjX;X#X}.}.{.3.3.3.3.3.3.3.3.3.3.3.3.3.3.3.3.3.3.3.3.3.3.3.3.3.3.3.3.3.3.7.7.5.5.5.5.5.5.3.5.5.5.5.5.5.5.7.5.5.5.5.5.5.3.3.3.5.5.5.5.5.5.5.5.3.1.1.5.7.2.Y s = t @ q.#X'.'.'.}.`.t 1 s s 6.6.5.5.5.5.5.2.1.4.4.4.4.4.<.<.M s M c s Y U U U s a m N 7 a y t A.{..Xj..X.X.XOX{ r q 7 a p p s s p p s u s u s u t u s s s s u u p s s s s s s s a a a a s s a a a q q e z e w e 9 9 q a a y 7 q j j s j j j j j j j j j j j j j j j j j j j j j l j l l j j j j j j j j l l j j j j j j j j j j j j j j j j j j j M M N i s D.s j j j j j j j j M M M M M M M M <.M <.M <.M <.N C C M j ( ( ( j s 7 y r p s U }.XX^..XXXXX+Xt.* s m a B 7.7.1.w.0.r.0.0.0.8.8.8.r.r.8.8.8.8.8.8.8.8.8.8.0.0.r.r.8.8.8.8.8.8.8.8.8.8.8.8.8.8.8.8.r.r.r.0.0.0.0.3.r.r.r.r.r.3.3.3.3.3.3.3.3.3.1.1.5.5.5.3.7.7.7.7.5.5.5.5.5.5.5.5.5.5.5.5.5.5.5.5.5.5.5.5.5.5.5.5.5.5.5.5.5.5.5.5.5.7.5.4.5.7.<.r Y %XF.2 Y 3.1.1.<.<.<.<.<.<.<.M j l j j j j j j u u u g g g u a a h a q h a 7 y t t 8.[..X.X.X^.",
"oXR.'..X'.t.-.p r p j 1.3.0.9.} d.#.d.d.d.g.g.j.g.g.g.g.j.j.g.g.g.f.h.f.k.k.f.t.t.t.t.t.a.a.a.r.7.7.7.7.5.5.5.5.7.5.7.7.5.5.5.5.6.6.6.6.6.6.6.6.5.6.5.6.6.6.5.6.6.6.6.6.6.6.6.6.6.6.6.2.2.V 2.6.2.4.4.<.<.<.<.M 4.N M M M s s s u u u u u u u u + @ K 8.'.$X#X'.}.t.Y t a a a i a p p p p p a a i i i i i i i i i i i t t t p p p p a a y r ^ r.}..X.X.X.X.X~.'.t 7 7 a s c p r p t t t i y y y y y y y y i i i y y y y i i i y y y y y y y y y a a a e e e w e e 9 9 9 9 y y y y y q q q q y y y y y y y y y y q q q q q q q q q y q q q q q 9 q 9 9 9 q q q q a a a a a a a a a a a a a a a a y y y y 7 k N q y y y y y y y a q q q q q q q q q q q q q q q q d f w q a a p a q q a a 7 r 1.`.'.~..XR..X#Xq.p s a a M 6.D.y.5.7.7.7.7.7.7.7.7.7.7.7.7.7.7.7.7.7.3.7.7.7.7.7.7.5.5.5.5.7.5.7.5.7.7.7.7.7.5.5.7.7.7.7.7.7.7.7.7.2.2.2.2.2.2.2.2.4.4.4.4.4.4.4.4.4.4.2.2.6.4.4.4.<.<.<.<.<.<.<.<.<.<.M M M M M M s s s s s s s s c a a a a a a a a a a a a p a p s %X2., 1 1 r y 1 1 7 7 7 7 7 7 y q y y y y y y q 9 9 q q q q q q q q 9 q y y y u Y 8.[.#X.X^.XX",
".X~..X.X'.h.T t p a h N 2.2.` ) / T / / / / { { ) ) 1.1.-.-.1.) ) T T ) T T T ( 1.1.<.<.<.=.v v c c c c s a a a a a a a a a a s c h m m m m m m a a a a a a a q q q q q q q q q e e e q q q q q a a a i i i i i p a a a a i i i s u u t 2 2 2 t T 8.e.T..X#XXX'.#X`.3.s 7 q q q i a p i p p i i p y y y y y y y y y y y u u u u s r 1 , , 1 ) A.'..X.X.X.X.X~.'.Z.4.p 7 r i p p p p p y y y y y y y y y a a a a y y y y i i i y y y y y y y y y a a a a e e e e 9 y y y y y y y y y y y y y y y a a a a a a a a a a a a a a a a a a a a a a a a a a a a a a a a a a a a a a a a a a a a q q q q y 9 y 9 7 h M 9 y y y y q 9 y q e e e w e w e e q q w q q q q w w w q q q i i a m a a a i p 5.{.'.oX.X'..X[.8.2 r 7 7 q a j m s 4.4.4.4.4.4.4.4.<.<.=.B B B B M s j s j j h j j a a x x x x x x a a a a a a a a a a a a a a a a a a a a a a a a a a a a a a a y a a p p p a p a a p p p p p p p p p p a p a p p i i i i i i i i i i i i i i i i a a a a a a a p 1.%XN.t u y u u y y y y p y a a a a a a a a a a a a a a a a a a a a a a a a s u + K e.'.XX~.^.XX",
"~..X.X.X.Xn.8.+ r 9 9 9 9 9 y 3 3 < 9 < 9 9 y y 7 7 7 7 7 7 7 7 y y r y r 7 7 7 q q 9 q q q 0 q a a a a a a a a a a a a a a a a a e e e e q e e a a a a a a a a a a e e e e e e a e e e e e a a a p p p p p a a a p p p p p p p t 2 2 2 K P ) 8.h.'.#X#X.X.X.X.X#X|.G.7.<.a a a b c s b a a a a r y r r r r t t r r t t t t t t t 2 1 1 u ) A.*X'..X.XXX.X~.~.'. XF.( t r r p s * * r r 1 1 1 1 , < < < , , , , r r r r t t r r r r r r r r r r y y y y y 9 9 9 7 < 7 < 7 < 7 < r r r r 9 3 y y i i q i i i i i 7 7 7 7 7 7 7 7 y y y y y y y y 7 7 7 7 7 7 7 7 a a a a a a a a a a a a a a a a y y y y y l N y y y y y y y y a h m m m m m m m d e n d e d e e n d e a a x a x a q 7 a s =.a.}.[.[.[.'.#X'.9.t u y 9 9 y a s p p a p p p a a a a a a a a a a p a a a a a a a a a a a a a a a a a a a a a a a a a a a a q q q a a a a a a a a a a a a a a a a a i p p p a a a a a a a a a a a a a p p p a a a a a a a a a a a a a a a a a a a a a a a a a a a s ( K.) 1 4 1 3 1 1 r r y r r r r 7 7 7 7 7 7 7 7 7 7 7 7 7 7 7 i y y r y r t t t 2 ) T.'..X.XXXXX",
"~..X.X.X.X.X8.+ u a 9 9 9 9 y y 9 9 9 9 9 9 9 9 9 9 e e e e q 9 9 y y y 9 9 9 9 q q e e e e w q i p p p p p p p p p p p p p p p i i i i i i i i 7 7 7 7 7 7 7 7 7 7 7 7 q q 7 7 7 7 7 7 7 7 i y i t t t t p p p t t t t t t t p t t L T 9.T.}.oXR.'.#X#X.X~..XXX'.}.}.|.J.F.5.<.p p p p p p p t Y Y Y Y Y Y Y Y ( ( ( ( ( ) ) ) T T ) 0.V.S.].[..X.X.XXX^.~.~.'. X].A.r.8.w.w.w.w.w.r.r.0.0.0.3.1.1.1.1.1.1.1.1.) ) ) ) ) ) ) ) ( ( ( ( ( ( ( ( ^ ( ^ ^ ^ ^ j ^ u u s u s u s u Y Y Y Y s u Y j s s a s s s s s s s s s s s s s u u u u u u u u t t t t t t t t r r r r r t t t t t t t t t t t t 1 t 1 1 u s 1 t 1 t 1 t 1 t r 7 7 7 7 7 7 7 7 7 7 7 7 7 7 7 7 7 7 7 7 r r r r i 7 r s 1.t.'.#X'.T.W.W..X#XT.| K u 1 < , r r r r r r r r r r r * * * * * * * r r r r r r r r i i i i i i i i i p t t t t t t t i i i i i 7 7 i t t t t p t t t i i i i i i i t t r r r r p p s p p p p p p p p t t t t p p p p i p p i p p p p t t t p p p p p p p p p p p p p ( A.P 2 u u u 2 u u u u u u u u u s s s s s s s s s s s s s s u u u u u u K K K 8.T.#X.X.X@XXXx.",
"~.OX.X~..X.Xt.K t r 7 7 7 7 r r 9 9 < < < < 9 9 9 9 9 9 7 9 7 7 < < < < < < 7 7 7 7 9 9 9 9 9 r r 2 t t t t t t t t t t t t t t u u u u u u u u u u u u u u u u s s s s s s u s Y Y Y Y Y ( ( ( T T T T ) ) 1.1.1.1.1.1.1.1.1.8.9.e.t.T.T.'.'.#X'..X.X.X.X.X.X.X~.~..X[. X|.G.t.|.}.}.}.}.].].].A.E.E.E.E.E.E.E.`.`.`.`.`.`.[.'.T.'.[.]. X].T.I..X.XXX^.^.~.~.~.oX[.#X#X}.}.}.}. X X}.}.}.[.[. X X X X X X X X X].].].].}.].}.}.`.`.].].].].].].E.E.E.E.E.E.E.E.T.T.`.T.`.E.`.E.G.A.G.A.G.A.G.G.G.G.G.G.G.G.G.G.A.A.A.G.A.A.A.A.t.Z.Z.Z.t.Z.Z.Z.r.t.t.t.t.r.r.r.0.0.0.0.r.r.r.r.1.1.1.1.3.3.1.1.8.) 8.0.) 8.r.) 1.) 1.) 1.) 1.1.) ( ( ( ( ( 1.1.( ( ( ( ( ( ( ( ( ( Y T T T T ( 1.` 3.q.`.[.#X#XW.R.R.R.~.OX.XT.9.| ) ( ( ( ) T T T T T T T T T 1.1.1.1.1.1.1.) 1.` 1.1.1.1.1.1.1.1.1.1.1.1.2.1.8.8.1.1.1.1.1.1.3.3.3.3.3.2.2.3.3.3.3.3.3.3.3.3.1.1.3.3.3.3.3.3.1.1.1.1.1.8.8.w.8.8.8.8.8.8.w.w.8.8.8.w.r.r.r.r.8.8.8.8.8.8.w.8.8.8.8.8.8.r.r.r.q.t.q.q.q.q.t.t.A.].t.9.t.t.A.0.t.Z.t.t.t.t.r.r.A.A.A.A.A.A.A.A.A.A.A.A.A.A.A.A.A.A.A.A.A.A.t.t.[.#X#X.X.X@X@Xx.",
"R./..X~..XXXh.8.K p u u u p p u s u s u u s s s s s s s s s Y Y Y ( ^ ^ Y ( ( ( ( ( ) ) ) ` ` ) 8.8.8.8.8.r.9.8.q.q.e.r.e.r.e.e.t.t.t.t.t.t.t.t.`.`.`.`.`.`.`.`.`.`.`.`.`.`.`.`.}.{.{.{.{.}.}.}.[.[.}.[.}.[.}.}.}.[.}.}.[.}.[.[.'.[.#X#X#X'.R.R..X.X.X~..X.X.X^.5X^.l.R.'.[.}.'.'.'.R.R.T.T.T.T.[.[.[.[.[.[.[.[.#XoX#XoX#X#X#X#XOXOXoXW.E.[.W.R..X^.^.^.^.~.~.~.~.~.~..X.X.X#X#X'.'.'.'.'.'.W.W..X.X.X.X.X.X.X'.#X#X#X#X#X#X#X#X#X#X#X#X#XoXoXoX[.[.[.[.[.[.oXoX#X#X#X#X#X#X#X#X#X#X#X#X#X#X#X}.}.[.}.[.}.[.}.[.[.[.[.[.[.[.[.[.[.oX[.[.[.[.[.[.[.[.[.[.[.[.[.[.[.oX#XoX#X#X#X#X}.[.}.[.}.[.}.}.#X[.#X#X}.[.#X}.}.}.}.}.[.}.[.[.[.}.[.[.[.[.[.}.[.[.[.[.[.[.[.].].].].}.}.[.}.}.].].].E.oXOX^.l.OX/.~.~.^.^.~..X#X[.].].].].'.'.T.T.T.T.T.T.T.T.[.[.[.[.[.[.[.[.[.[.[.[.[.[.[.[.[.[.}.}.}.}.}.}.[.#X[.[.[.[.[.[.[.[.[.[. X[.[.[.[.}.}.}.}.}.}.}.[.[.}.}.}.}.}.#X}.}.'.}.}.}.}.#X}.}.}.}.#X#X}.}.}.}.}.}.#X#X#X#X}.}.#X#X#X#X#X#X#XoXoXoXoXoXoXoX#X#X#X#X#X#X-X-X[.=XT.[.#X'.-X[.[.[.[.[.[.[.}.[.oXoXoXoX[.[.#X[.[.[.[.[.[.[.[.[.[.[.[.[.[.[.[.[.oX#X.Xj..X@X@Xm.",
"R.~.~.~..X.X'.`.b.G.G.G.G.G.b.b.}.'.'.}.'.}.'.'.'.'.'.'.'.'.'.'.#X#X#X#X#X#X#X#X#X#X#X#X$X#X$X$X#X[.#X[.#XoX#XoX#XoX#XoX#XoX#X#X#X#X#X#X#X#X#X#X[.[.[.[.[.[.[..X.X.X.X.X.X.X.X.X.X.X.X.X.X.X.X.XoXW.[.W.[.W.'.W.W.W.W.W.W.W.'.W..X.X.X.X.X.X~.~.XX~..X^.^.^.^.^.8X8X!.Q.Q.R.~.oXOX.XXX~./././.W.W.R.R.R.~.~.~.~.x.~.~.~.~.~.~.~.~.^.~.I.I.W.oXOX~.^.^.^.^.~..X~.~.Q.^.l.x.~..X.XXXXXXX.X.X~.~.~..X.XXXXXXXXXXX.Xx.x.x.x.x.x.x.x.^.^.^.~.~.~.~.~.~.~.~.~.~.~.~.~..X.X.X.X.X.X.X.X.X.X.X.X.X.X.X.X.X~..X~..X~..X~.~.~..X~..X~.~.~.~.~.~.~.~.~.~.~.~.~.~.~.~.~.~.~.R.R.R.R.R.R.R.R.~.~.~.~.~.~.~.~..Xj..XXXj.j.XX.X.X.X.X.X.X.X.X~.~.~.~.~.~.~.~.~.~.~.~.~.~.~.~.~.[.[.'.'..X~./.W.W././.R.~.^.z.*././.~.~.^.^.^.^.~.~.W.T.T.T.R.~.OX/././././.~.~.~.~.~.~.~.~.~.~.~.~.~.~.~.~.~.~.~.~..X.X.X.X.X.X^.^.^.~.~.~.~.~.~.~.W.~.W.~.~.~.~.~.~..X.X~.~.~.~.~.~.~.~.~.~.~..X'.'..X.X.X.X.XR.R.R.R.R.'.R.'.R.'.'.'.R.R.R.R.'.'.'.'..X'.'.R.W.R.R.R.R.R.R.R.R.R.R.R.R.R.R.R.~.~.R.OX.XR.$X.X.X.X'.'.'.'.'.'.~.~.~.~.~.~.~.~.~.~.~.~.~.~.~.~.W.'.'.'.'.W.'.W..X~.~..XXXXXM.M.",
"/.R.~.~.~.~..X$X.X'.'.}.}.}.'..X.X.X.X.X.X.XXX@X.X.X.X.X.X.X.X.X.X.X.X.X.X.XXXXX^.^.^.^.^.^.^.~.~.W.R.W.R.R.R.R.R.R.R.R.R.R.R.R.~.^.^.~.~.~.~.~.~.~.~.~.~.^.^.^.~.~..X^.^.^.^.^.XX.X~.~.~.~.^.~.~.~.~.~.~.~.R.R.~.~.~.~.~.~.~.~..X~.~.~.~.~.~.~.~.~.^.~.^.~.~.^.*.z.8X6X^.Q.Q.~.~.^.^.^.~.~.Q.~.~.~.~.~.~.~.^.^.^.^.^.^.^.XXXX^.^.OXOX~.R.~.~.~.^.^.^.^.^.~..X~.~.^.^.^.^..X.X.X.X.X^.^.^.^.^.^.XXXXXXXXXXXXXXXXXX^.XX^.XX^.^.^.^.^.^.^.^.^.^.^.^.~.~.^.^.^.^.^.XXXXXXXXXXXXXXXXXXXXXXXXXXXXXXXX^.^.^.^.^.^.^.~.~.~.~.~.~.~.~.~.~.~.~.~.~.~.~.~.~.~.~.~.~.~.~.~.~.~.~.~.^.^.^.^.~.~.~.~.~.~.^.^.XX~.XXOXx.x.@X.X.X.X.X.X.X.X.X~.^.^.^.^.^.^.^.^.^.^.^.^.^.^.^.^.~.~.~.~.~.^.~.~.U.~.~.U.Q.(.5X!.Q.~.^.^.!.^.!.^.l.Q.~.~.~.~.^.^.^.~.^.~.^.~.^.^.~.~.^.~.~.~.~.~.~.~.~.~.^.~.^.^.^.^.^.^.^.^.^.^.^.^.^.^.^.^.^.^.^.^.^.^.^.^.^.^.^.^.^.^.^.^.^.^.^.^.^.^.^.^.^.^.~.~..XXXXX.X.X~..X.X.X.XXXXXXX.X.X.X.X.X~.~.~.~.~.~.~.~.~.~.~.~.~.~.~.~.~.~.~.~.^.~.~.~.~.~.~.~.^.^.~.OX^.j.OX.X~.~.~.~..X.X.X.X^.^.^.^.~.~.~.~.~.~.~.~.~.~.~.~.~.~.~.~.~.~.~.~..X~..X$X@Xx.x.XX",
"~.~.^.^.^.^.^.^.^.~.~.~.~.~.^.^.^.~.^.^.^.^.^.^.^.^.^.^.^.^.^.^.^.^.^.^.^.^.^.^.^.^.^.^.^.^.^.^.~.~..X~..X~..X~..X~.~.~..X~..X~.^.^.^.^.^.~.~.~.~.~.^.^.^.^.^.^.^.~.~.~.^.^.^.^.~.~.~.~.~.~.~.~.~.~.~.~.~.~.~.~.~.Q.~.~.~.~.Q.Q./.~./.~.~.~.~.~.~.Q.~.Q.~.~.~.~.!.!.!.!.^.~.~.~.^.^.^.^.^.^.Q.Q.~.~.~.^.^.^.^.^.^.^.^.^.^.^.^.^.^.^.^.~.~.~..X.XXXXXXXXXXX.X.X~.^.~.^.^.^.^.^.^.^.^.^.^.^.^.^.^.^.^.^.^.^.^.^.^.^.^.^.^.^.^.^.^.^.^.^.^.^.^.^.^.^.^.^.^.^.^.^.^.XXXX^.XX^.XXXXXXXXXXXXXXXXXX^.^.!.!.!.!.^.^.^.^.^.^.^.Q.^.^.^.^.~.~.~.~.~.~.~.~.l.^.OX^.^.^.^.~..X~.~.Q.!.^.^.^.XXXXXXXXXXXX^.^.^.^.^.^.^.^.^.^.^.^.^.^.^.^.^.^.^.^.^.^.^.^.^.^.^.^.^.^.^.^.^.^.~.~.~.~.^.^.~.~.^.^.^.^.^.^.^.^.^.~.^.^.^.^.^.^.~.~.~.~.~.~.^.^.^.~.^.~.^.~.^.~.^.~.^.~.^.~.^.^.^.^.~.~.~.^.^.^.^.^.^.^.^.^.~.^.^.^.c.c.^.^.^.^.^.^.^.^.^.^.^.^.^.^.^.^.^.^.^.^.^.^.^.^.^.^.^.^.x.^.XX^.x.~..X^..X.X.X.X.X.X.X.X~.~.~.~.^.~.^.OX^.~.^.~.^.~.^.~.~.~.~.~.~.~.^.~.^.~.^.~.^.^.^.^..X.X.X.X^.^..X.X^.^.^..X.X.XXX.X^.^.^.^.^.^.^.^.^.^.^.^.XXXX.X.X.X.X.X.X~.~..X.X~.^.^.^..X.X.X.X",
"^.^.^.^.^.^.^.^.XX^.XX^.XX^.XX^.^.~.~.~.~.~.~.~.~.~.~.~.~.~.~.~.~.~.~.~.~.~.~.~.^.~.~.~.^.(.(.^.~.~.~.~.~.~.~.~.~.~.~.~.~.~.~.x.x.z.x.Q.^.Q.~.Q././.^.^.^.^.^.^.^.~.~.~.^.^.^.^.~.~.~.~.~.~.~.~.^.^.^.Q.~.~.~.~.~.~./.(.^.^.^.~.~.~.~.~.~.~.~.~.~.Q.~.Q.~.~.~.~.^.Q.^.^.^.^.^.^.~.~.~.~.^.~.^.^.~.~.~.~.~.~.~.~.~.~.~.~.~.~.~.~.x.~.~.~.~.~.~..Xx.x.x.x.x.x.x.x.~.~.~.~.~.~.~.~.~.~.~.~.~.~.~.~.~.~.~.~.~.~.^.^.~.^.~.~.~.~.~.~.^.~.~.~.~.^.~.~.~.Q.~.Q.~.Q.~.~.x.x.x.l.x.l.x.x.x.x.x.x.x.x.x.z.c.c.c.!.!.Q.Q.Q.~.^.^.^.^.^.^.^.~.~.~.~.~.~.~.~.^.^.^.^.^.^.^.~.OX/.~.^.(.(.(.^.x..X.X.X.X^.^.^.^.^.XX^.XX^.XX^..X~..X~..X~..X^.XX^.XX^.XX^.XX^.XX^.XX^.XX^.XX^.^.^.^.^.~.~.~.~.~.~.~.~.~.~.~.~.~.~.~.~.~.~.~.~.~.~.~.~.~.~.~.~.~.~.~.~.~.~.^.^.^.~.~.~.^.^.^.^.~.~..X.X.X.X.X.X.X.X.X.X.X.X.X.X.XXXXXXX.X.X.XXX^.^.^.^.^.^.^.^.^.^.^.^.^.^.^.^.XX^.XX^.XX^.^.^.x.^.XX^.~.OXOX.X.X.X.X.X.X.X.X.X~.~.~.~.~.Q.^.~.~.~.~.~.^.^.^.^.~.~.~.~.~.^.^.~.~.~.~..X~.^..X^..X.X.X.X^.^..X.X^.^..X.X.X.X.X.X.X.X.X.X.X.X.X.X.X.X.X.X.X.X.X.X.X.X.X.X~.~..X.X.X.X.X.X.X.X.X.X",
"~.~..X~.~.~.~.~..X~..X~.~.~.~.~.~.~.~.~.~.~.~.~.~.~.~.~.~.~.~.~.~.~.~.~.~.~.~.~.~.~.~.~.~.~.~.~..X~..X.X.X.X.X.X.X.X.X.X.X.X.X.XXX^.XX^..X/.OX/.~.~.~.~.~.^.^.^.~.~.~.~.^.^.^.^.~.~.~.~.~.~.~.~.~.^.^.^.^.~.^.^.~.~.^.^.^.^.~.~.~.~.~.~.~.~.~.~.~.~.~.~.~.~.~.~.~.~.~.~.~.~.~.~.~.~.^.^.^.^.^.~.~.~..X~..X~..X~.~.~.~.~.~.~.~.~..X.XXXXXXXXX#X#XXXXXXXXXXXXX.X.X.X.X.X.X.X.X.X.X.X.X.X.X.X.X.X.X.X.X.X.X.X.X.X.X.X.X.X.X.X.X.X.X.X/..X/..X/..X/.~.~..X~..X~..X.X.X.X.X~..X.X.X.X.X.X.X.X.X~..X~.XX^.^.^.^./././.~.~.~.~.^.~.^.^.~.~.~.~.~.~.~.~.^.^.~.Q.^.XX~.~.W.W.~.~.!.!.^.^.XX+X#X#X#XOXOX(.^.~.~.~.~.~.~.~.~.~.~.~.~.~.~.~.~.~.~.~.~.~.~.^.~.~.~.~.~.~.~.~.~.~.~.~.~.~.~.~..X~..X~.~.~..X~.~.~.~.~.~.~.~.~..X~..X~..X~..X~.~.~.~.~.~.~.~.~..X~..X~..X~..X.X~.'.'.'..X.X.X.X'..X'.'..X'.'..X.X.X.X.X.X.X.X.X.X.X.X.X.X.X.X~..X~.~.~.~.~.~.~.~.~.~.~.~.~.~.~.~.~.~.~..X.X.X~..X.X.X.X.X.X.X.X~.~.~.~.~.~.~.~.~.~.~.~.~.~.~.~.~.~.~.~.~.~.~.~.~.~..X.X.X.X.X.X.X.X.X.X.X.X.X.X.X.X.X.X.X.X.X.X.X.X.X.X.X.X.X.X.X.X.X.X.X.X.X.X.X.X.X.X.X.X'.'.'.R.R.R.R.R.R.R.",
".XoX.X.X.X.X.X.X.X.X.X.X.X.X.X.X.XoX.X.X.X.X.X.X.XW..X'..X.X.X.X.XoX.XoX.XoX.XoX~.W.W.W.~.W.~.W..X'..X'..X'.'.'..X'..X'..X'.'.~.~.~.~.~.R.W.W.W.W.'.W.~.~.~.~.~.~.~.~.~.^.^.^.^.^.~.~.~.~.~.~.~.~.^.^.^.^.^.^.^.^.^.^.^.^.^.^.~.~.~.~.~.~.~.^.^.~.~.~.~.~.~.~.~.~.~.~.~.~.~.~.~.~.~.~.~.~.~.~.~.~.'..X'..X'..X'..X'.'.'.'.'..X'.R.R.R.R.R.R.R.R.R.R.R.R.R.R.R.R.'.'.'.'.'.'.'.'.'.'.'.'.'.'.'.'.'.'.'.'.'.'.'.'.'.'.'.'.'.'.'.W.R.W.R.W.R.W.R.W.~.W.~.W.~.W.~.~..X.X.X.X.X.X.X.X.X.X.X.X.X.X.X.X~.~.R.R.W.W.W.W.~.oX/.~.~.^.^.^.^.~.~.~.~.~.~.~.^.~.^.~.~.~..X.X'.[.oX~.Q.Q.Q.^..X'.}.}.'.'.~.~.~.'..X'.'.'..X'..X.X.X.X.X.X.X.X'.'.'.'..X.X.X.X'.'.'.'.'.'.'.'..X.X.X.X.X'..X'..X#X.X#X.X#X.XoX.X.X.X.X.X.X.X.X.X.X.X.X.X#X.X#X.X.X.X.X.X.X.X.X#X#X#X#X#X#X#X#X'.'.'.'.'.'.'.'.'.'.'.'.'.'.'.'..X.X.X.X.X.X.X.X#X.X#X.X#X#X#X#X.X.X.X.X.X.X.X.X'.'.'.'.'.'.'.'.#X#X.X.X.X.XR.j..X.X.X.X.X.X~.~..XW.W.W..X.X.X.X.X.X.X.X.X.X.X.X.X.X.X.X.X.X.X.X.X.X.X.X.X.X.X.X.X.X.X.X.X.X.X'..X'..X.X.X.X.X.X.X'..X'..X'..X'..X#X.X.X.X.X.X.X'.'.'.'.'.'.'.'.'.'.'.'.'.'.'.'.",
"[.[.[.[.[.[.[.[.[.oX#XoX[.[.[.[.[.oX#X[.#XoX#XoX#XoX#X[.#XoX#XoX#X[.#X[.#X[.#X[.#X[.#X[.#X[.#X[.[.[.[.[.[.[.[.[.[.[.[.[.[.[.[.[.'..X.X[.[.[.[.[.[.[.[.[.#X#X#X#X~.~.~.~.^.^.^.^.^.^.~.~.~.W.~.~.~.^.^.~.~.^.~.~..X~.~.~..X.X.X~.~.~.~.~.~.~.~.~.~.~.~.~.~.~.~..X.X.X.X.X.X.X.X.X.X.X.X.X.X.X.X'.'.[.'.[.'.[.'.[.'.[.'.[.'.[.'.[.'.[.'.[.[.[.[.[.[.[.[.[.[.[.[.[.'.[.[.[.[.[.[.[.[.[.'.[.[.[.[.[.[.[.[.[.[.[.[.[.'.[.[.[.[.[.[.[.[.[.[.[.[.[.[.[.[.[.[.[.[.[.[.[.[.[.#X[.#X[.#X[..X[.#X[.#X[..X[.[.[.[.[.[.[.[.[.[.#XOX.X~.^.^.^.~.~.~.~.~.~.~.~.~.~..XOX.X.X.X.X[. X[.oX/.~.~..X'.}.}.}.}.[..X.X[.[.#X[.#X[.#X[.[.[.#X[.#X[.#X[.[.[.[.[.[.[.[.[.[.[.[.[.[.[.[.[.'.'.'.}.'.[.'.[.'.[.'.'.'.[.'.[.'.'.'.'.'.'.'.'.'.'.'.'.'.'.'.'.'.'.'.'.'.'.'.'.'.'.'.'.'.'.'.'.`.`.`.`.`.`.`.`.`.`.`.`.`.`.`.`.'.'.'.'.'.'.'.'.}.}.}.}.}.}.}.}.}.'.'.'.'.'.'.'.[.[.[.[.[.[.[.[.}.[.'.'.'.[.'.'..X.X.X~.~.~.~.~.#X[.'.'.'.'.'.T.T.T.T.T.T.T.T.T.T.T.T.T.T.T.'.'.'.'.'.'.'.}.'.}.'.}.'.}.}.}.}.}.'.'.'.}.'.'.'.}.[.[.[.[.[.[.[.'.'.'.'.'.'.'.'.}.}.}.}.}.}.}.}.}.[.[.[.[.[.[.[.[.",
"t.t.t.t.t.t.t.t.t.t.t.t.t.t.t.t.t.t.t.t.t.t.t.t.t.t.t.t.t.t.t.t.t.t.t.t.t.t.t.t.t.t.t.t.t.t.t.t.`.`.`.`.`.`.`.`.`.`.`.`.`.`.`.`.'.'.'.'.`.`.`.`.`.`.`.`.`.`.`.'..X~.~.~.~.^.^.^.^.~.~.~.W.'.'.'.OXOXOX.X.X.X.X.X~.~.~.~.~.~.~.~.#X#X#X#X#X#X.X.X.X.X.X.X.X.X.X.X[.[.[.[.[.[.[.[.'.[.'.[.'.'.'.[.}.].}.].}.].}.].`.`.`.`.`.`.`.`.}.].}.].}.}.}.].].].}.].}.].}.].`.{.{.{.{.{.}.{.{.{.{.{.{.{.{.{.{.{.{.{.{.`.{.`.{.{.{.{.{.{.{.`.`.`.`.`.`.`.`.`.`.`.`.`.`.`.`.`.`.`.`.`.`.`.`.`.`.`.`.`.`.`.`.`.{.`.`.`.`.`.`.`.T.[.[.oX~.~.^.^.~.~.~.~.~.~.~.~.~.R.R.oXOX'.R.T.A.A.T.T.~.~.~.W.`.`.`.`.`.`.T.T.t.t.t.t.t.t.t.t.q.t.q.t.t.t.t.t.q.t.r.r.r.r.t.t.r.r.r.r.q.q.r.q.q.q.q.q.q.q.q.q.e.r.e.r.e.r.e.r.e.r.e.r.e.r.e.r.8.r.8.r.9.r.9.r.9.8.9.8.9.8.9.8.8.8.8.8.8.8.8.8.8.8.8.8.8.8.8.8.8.8.8.8.8.8.8.8.8.8.8.8.8.8.8.8.8.8.8.8.8.8.8.8.r.r.r.r.r.r.r.r.r.r.r.r.r.r.r.r.r.r.q.t.t.h.T.[..X.X~.~.~.~.~.~.[.`.t.r.r.9.9.{ 9.8.9.8.9.8.9.8.9.8.9.8.8.8.9.8.9.8.8.8.8.8.8.8.q.r.q.r.w.r.q.r.e.w.w.r.q.r.q.q.q.r.q.r.q.r.q.r.q.q.q.q.q.q.q.q.r.r.r.r.r.r.r.r.r.r.r.r.r.r.r.r.",
"( ( ) ) ) ) ( ( ( ( T T P P T T T P T P T P T P T P T P T P T P ) ) ) ) ) ) ) ) T P T P T P T P T ) T ) T ) T ) T ) T ) T ) T T 1.) ) ) ) ) ) ) 0.0.0.0.8.8.8.9.'..X.X.X~.~.^.^.~.~..X.X'.'.'.'.[.[.[.[.'.T.'.T.#X#X#X#X#X#X#X[.'.'.'.'.`.b.b.h.b.h.h.h.h.h.h.h.t.t.t.t.t.t.t.t.q.q.q.q.e.r.e.r.r.r.r.r.r.r.r.r.0.0.0.0.0.0.0.0.) ) ) ` ) ` 1.` ) ) ) ) ) ) ) ) 1.) ) 1.) 1.) ) ) ) ) ) ) ) 1.1.) ) ) ) T ) ) ) T ) ) ) ) ) ) ) ) ) ) ) ) ) ) ) ) ) ) ) ) ) ) ) T T T T T T T T T T T T T T T T 1.) 1.( ( ( ) ) r.t.'.oX~.^.^.^.~.~.~.~.~.~.~.~.R.f.k.R.#X'.q.{ 3.1.{ e.W./.W.T.T T =.=.T T T T T T T T T T T T T T T T T T T T T T T T T T T T P P P P T T P P ( ( T ) T ( T ) T T T T T P T T T T T T T T T T T T T T T T T T P P P P P P P P P P P P P P P P T T T T T T T T T T T T T T T T Y Y T T Y Y Y Y T T T T T T T T T T T T P P T P P Y Y Y Y Y Y Y T T ) 1.) ) e.'.'..X~.~.~.~.~.~.T.0.) P P P P P P P P P P P P P P P P P P P P P P T T T T T Y T T T T T T T T T T T T T T T T 1.Y P P P Y Y Y T T T T T T T T T T T T T T T T T T T P Y P Y P Y ",
"<.<.<.1.<.<.<.<.<.<.<.<.<.1.1.1.1.( 1.( 1.( 1.( ( ( ( ( ( ( ( ( ( ( ( ( ( ( ( ( ( ( ( ( ( ( ( ( ( ( 1.( 1.( 1.( 1.( 1.( 1.( 1.( ( ) ( ( ( ( ( ( T T T T T T T T '..X.X.X~.~.^.^.~.~..X.X'.'.}.}.T.T.T.A.t.t.t.e.9.9.9.9.9.9.9.9.8.8.1.T -.T T R T R T R T R T P Y P P P P P P P P P P P P P P U Y Y Y Y Y Y Y Y s Y Y Y Y Y Y Y Y Y Y ^ Y ( ( ( ( ( ( ( ( ( ( ( ( ( 1.( 1.( 1.( 1.( 1.( 1.( 1.( 1.( ( ( =.( 1.( 1.T ( ( ( ( ( ( ( ( ( ( ( ( ( ( ( ( ( ( ( ( ( ( T T 1.( 1.( 1.( 1.( 1.( 1.( =.( ( ( ( ( ( ( ( ( P 8.T.[..X~.^.~.~.~.~.~.~.~.~..X'.9.] h.[.'.8.K 1.Y T 0.T.oXoX'.) 1.1.<.1.1.( ( ( ( 1.( 1.( <.( 1.1.1.1.1.1.1.1.1.1.<.<.<.<.1.1.<.( <.( <.<.<.( 1.( 1.1.1.( 1.( 1.( 1.( 1.( 1.( 1.( 1.( 1.( 1.( =.( 1.( 1.( 1.( 1.1.1.1.1.1.1.1.1.1.1.1.1.1.1.1.1.1.<.1.<.1.<.1.<.1.<.1.<.1.<.1.<.<.<.<.<.<.<.<.4.1.4.1.4.1.4.1.<.( <.( <.( <.( 1.1.1.1.1.1.1.1.<.Y 1.1.T T e.[.'..X~.~.~.~.^.~.A.3.( s Y 1.1.1.1.1.1.1.1.( 1.( 1.1.1.1.1.1.1.1.1.1.1.1.<.<.<.<.1.1.1.1.1.1.1.1.=.1.=.1.<.1.<.1.<.1.<.1.<.1.<.1.<.1.<.1.<.1.<.1.1.1.1.1.1.1.<.1.4.2.2.4.4.4.4.4.",
"<.M <.<.<.<.<.<.<.<.<.<.<.<.<.<.<.( <.( <.( <.( <.( <.( <.( <.( <.( <.( <.( <.( <.( <.( <.( <.<.<.<.<.<.<.<.<.<.<.<.<.<.<.<.<.<.2.1.Y ( 1.1.1.1.1.1.1.Y ( 1.2.T t.#XXXR.~.OX^.^.~.~.#X[.q.9.8.T ( ( ( ( ( ( ( ( ( ( ( ( ( ) ( ) T ( 1.( 1.( 1.( 1.( 1.( 1.( 1.( 1.( 1.( 1.( 1.( 1.T =.T 1.( 1.1.1.<.<.<.<.<.<.<.<.<.<.<.<.<.<.<.( ( ( ( ( ( ( ( ( ( ( ( ( ( ( <.<.<.<.<.<.<.<.<.<.<.<.<.<.<.<.<.<.<.<.<.<.<.<.<.<.<.<.<.<.<.<.<.<.( <.( <.( <.( ( ( <.( <.( <.<.1.1.1.1.1.1.1.1.<.1.<.1.<.1.<.1.( 5.1.s 4.6.<.( Y T T f.#X/.g.^.^.^.~.~.~.~..X.X#X9.L Q t.}.`.P <.5.Y ) E.E.T.[.8.-.=.<.<.<.( ( <.<.<.<.<.<.<.<.<.<.<.<.<.<.<.<.<.<.<.<.<.<.<.<.<.<.<.<.<.<.M M <.<.<.<.<.<.<.<.<.<.<.<.<.<.<.<.<.<.<.<.<.<.<.<.<.<.<.<.<.<.<.<.<.<.<.<.<.<.<.<.<.<.<.<.<.<.<.<.<.<.<.<.<.<.<.<.<.<.<.<.<.<.<.<.B M <.<.<.<.<.<.<.<.<.<.<.<.<.<.<.<.<.<.<.<.<.<.<.<.<.<.<.<.<.<.<.4.1.1.1.P 8.[.[.'.~.~.~.^.^.R.r.( <.2.<.Y <.( <.( <.( <.( <.( ( ( ( ( <.<.<.<.<.<.<.<.<.<.<.<.<.<.<.<.<.<.<.<.<.<.<.<.<.<.<.<.<.<.<.<.<.<.<.<.<.<.<.<.<.<.<.<.<.<.<.<.<.<.<.<.<.<.<.<.<.<.<.<.",
"N N N N N M N N N N N N N N M M <.<.<.<.<.<.<.<.<.<.<.<.<.<.<.<.<.<.<.<.<.<.<.<.( ( <.<.<.<.<.<.<.<.<.<.<.<.<.<.<.<.<.<.<.<.<.<.<.j Y <.4.2.4.1.<.<.1.( <.<.1.T q..X#XR..XXX^.^.^.~..X'.8.1.1.T ( ( ( ( ( ( ( ( ( ( ( ( ( ( ( ( <.<.<.<.<.<.<.<.<.<.<.<.<.<.<.<.1.1.1.1.1.1.1.1.1.1.<.<.<.1.1.1.<.<.<.<.<.<.<.<.<.<.<.<.<.<.<.<.<.( <.( <.( <.( <.( <.( <.( <.<.<.<.<.<.<.<.<.<.<.<.<.<.<.<.<.<.<.<.<.<.<.<.<.<.<.<.<.<.<.<.<.<.<.( <.<.<.<.<.<.<.<.<.<.<.<.<.<.<.<.<.<.<.<.<.<.<.<.<.<.<.1.<.<.( 5.) s 4.6.4.4.( ( T 9.'.~.~.~.^.^.~.~.~..X.X'.#X9.L T 8.`.G.T <.6.Y ) E.W.T.[.8.-.=.<.4.<.( <.<.<.<.<.<.<.<.<.<.<.<.<.<.<.<.<.M M N N N N M M N M N N N N M M M <.<.<.<.<.<.<.<.<.<.<.<.<.<.<.<.<.<.<.<.<.<.<.<.<.<.<.<.<.<.<.<.<.<.<.<.<.<.<.<.<.<.<.<.<.<.<.<.B B <.<.B <.<.<.<.<.<.<.<.<.<.M M M M M M M M M M M M M M M M M N N N N N N N N N N N N N M M M <.<.1.1.P 1.[.[.'.~.~.~.^.^.R.0.j <.2.<.j <.j <.<.<.<.<.<.<.<.( ( <.<.<.<.<.<.<.<.<.<.<.<.<.<.<.<.<.<.<.<.<.<.<.<.<.<.<.<.<.<.<.<.<.<.<.<.<.<.<.<.<.<.<.<.<.<.B B B B <.<.<.<.<.<.<.<.<.<.<.<.",
"M M M M M M M M M M M M M B B N <.<.<.M <.<.<.<.( ( <.<.<.<.<.<.<.<.<.<.<.<.<.<.( ( <.<.<.<.<.<.<.<.<.<.<.<.<.<.<.<.<.<.<.<.<.<.j j ( <.4.4.1.Y =.<.4.<.j M M Y q.'.#X~..XXX^.^.XX~.'.h.8.T 1.1.( j j j j j j j j j j j j j j j M N N N N N N N N N N N N N N M <.<.<.<.<.<.<.<.<.<.<.<.<.<.<.<.<.<.<.<.<.<.<.<.<.<.<.<.<.<.<.<.<.<.<.<.<.<.<.<.M M <.<.<.<.<.<.<.<.<.<.<.<.<.<.<.<.<.<.<.<.<.<.<.<.<.<.<.<.<.<.<.<.<.<.<.<.<.<.( ( <.<.<.<.<.<.<.<.<.<.<.<.<.<.<.<.<.<.<.<.<.<.<.<.<.<.<.<.<.( u ) ( s <.<.M <.1.( P { T.W.~.OX~.^.~.~.~..X.X'.oX9.R P 1.A.G.<.<.<.Y ) T.oXW.[.8.) =.<.4.<.j <.<.<.<.<.<.<.<.<.<.B B B <.<.<.<.B B B B M M M M M M M M B B B B <.<.<.<.<.<.<.<.<.<.<.<.<.<.<.<.<.<.<.<.<.<.<.<.<.<.<.<.<.<.<.<.<.<.<.<.<.<.<.<.<.<.<.<.<.<.<.<.B B B B B B B B B B B B B B B B B B B B B B B B B B B B B B B M M M M M M B M M M M M M M B B M s <.<.<.1.P ) `.[.'.~.~.~.^.^.R.0.j <.4.j j <.j ( <.<.<.M <.<.<.<.<.<.M <.<.<.<.<.<.<.<.<.<.<.<.B B B B <.<.<.<.4.4.<.<.<.<.<.<.4.4.4.<.<.<.<.<.<.4.<.<.4.<.<.<.B B B B B B B B B B B B B B B B ",
"<.B <.<.<.<.<.<.<.<.<.<.<.<.<.<.<.<.<.<.<.<.<.<.<.<.<.<.<.<.<.<.<.<.<.<.<.<.<.<.<.<.<.<.M <.<.<.<.<.<.<.<.<.<.<.<.<.<.<.<.<.<.<.<.<.<.<.<.<.<.Y Y 1.4.1.<.j j Y 9.[.#X~..X.X^.^.^.~..X`.-.Y 1.=.<.j N j N j N j N j N j N j N N N N N N N M N M N N N N N N N N M <.<.<.<.<.<.<.<.M <.<.<.<.<.<.<.<.<.<.<.<.<.<.<.<.<.<.<.<.<.<.<.<.<.<.<.<.<.<.M M <.<.<.<.<.<.<.<.<.<.<.<.<.<.<.<.<.<.<.<.<.<.<.<.<.<.<.<.<.<.<.<.<.<.<.<.<.<.<.<.<.<.<.<.<.<.<.<.<.<.<.<.<.<.<.<.<.<.<.<.<.<.<.<.<.B <.<.c Y P 8.1.1.5.1.s <.1.1.P / T.T.R.OX~.^.~.~..X.X.X'.}.9.T P T 7.r.4.<.c 1.) I.#XW.T.9.T =.<.4.N M <.<.<.<.<.<.<.<.<.<.B <.B <.<.<.<.<.<.<.B <.<.<.<.<.<.<.<.<.<.B B <.<.<.<.<.<.<.<.<.<.<.<.<.<.<.<.<.<.<.<.<.<.<.<.<.<.<.<.<.<.<.<.<.<.<.<.<.<.<.<.<.<.<.<.<.<.<.<.B B B B B B B B B B B B B B B B B <.<.<.<.<.<.<.<.<.<.<.<.<.<.<.<.<.B <.<.<.<.<.<.<.<.<.<.<.<.<.M 4.<.Y 1.T ) `.[.'..X~.~.^.^.R.3.j <.4.j <.4.j <.( <.<.<.<.<.<.<.<.M M <.<.<.<.<.<.<.<.<.<.<.<.B B B B <.<.<.<.4.<.<.<.<.<.<.<.4.4.4.<.<.<.<.4.<.<.<.<.4.<.<.<.B B B B B B B B B B B B B B B B ",
"<.<.<.<.<.<.<.<.<.<.<.<.<.<.<.<.<.<.<.<.<.<.<.<.<.<.<.<.<.<.<.<.<.<.<.<.<.<.<.<.<.<.<.<.<.<.<.<.<.<.<.<.<.<.<.<.<.<.<.<.<.<.<.<.4.<.<.j Y <.2.5.( ( 1.1.<.M M ( 8.'.#X'..X~.^.~.^..X+X'.8.=.4.=.<.M <.M <.N <.N <.N <.M <.M <.M M N N N M N M N M N N N N N N N M M <.<.<.<.<.<.M M <.<.<.<.<.<.<.<.<.<.<.<.<.<.<.<.<.<.<.<.<.<.<.<.<.<.<.<.<.<.<.<.<.<.<.<.<.<.<.<.<.<.<.<.<.<.<.<.<.<.<.<.<.<.<.<.<.<.<.<.<.<.<.<.<.<.<.<.<.<.<.<.<.<.<.<.<.<.<.<.<.<.<.<.<.<.<.<.<.<.<.<.<.<.<.<.<.<.<.=.<.Y 0.T.E.`.H.7.<.4.<.1.T ) T.T.R.~.~.^.~.~..X'.'.[.}.8.T ( ( 2.5.<.4.s r.8.f.OXR.R.{ T Y <.4.<.M <.<.<.<.<.<.<.<.<.<.<.<.<.<.<.<.<.M M M M <.<.<.<.<.<.<.<.<.<.<.M <.<.<.<.<.<.<.<.<.<.<.<.<.<.<.<.<.<.<.<.<.<.<.<.<.<.<.<.<.<.<.<.<.<.<.<.<.<.<.<.<.<.<.<.<.<.<.<.<.<.<.<.B B <.<.<.<.<.B B B <.<.<.<.<.<.<.<.<.<.<.<.<.<.<.<.<.<.<.<.<.<.<.<.<.<.<.<.<.<.<.<.<.<.6.5.1.Y 1.T ) T.[..X.X.X.X^.^.R.1.j <.<.j <.2.<.<.<.<.<.<.<.<.<.<.<.<.<.<.<.<.<.<.<.<.<.4.4.<.<.<.<.<.<.<.<.<.<.<.<.<.<.<.<.<.<.<.<.<.<.<.<.<.<.<.<.<.<.<.<.<.B <.<.<.<.<.<.<.<.<.<.<.<.<.<.<.<.",
"1.<.<.<.1.<.1.<.<.<.1.<.1.<.1.<.<.<.( <.<.<.<.( <.<.<.<.<.<.<.<.<.<.<.<.<.<.( ( <.<.<.<.<.<.<.<.<.<.<.<.<.<.<.<.<.<.<.<.<.<.<.<.<.<.j s Y 2.F.H.3.1.Y 1.1.<.<.( 8.}.#X.X.X~.^.~.^..X#X}.8.=.4.4.<.<.<.<.<.<.<.<.<.<.<.<.<.<.<.<.M <.<.<.<.<.<.<.<.<.<.M <.<.<.<.<.M <.<.<.<.<.<.<.M <.<.<.<.<.<.<.<.<.<.<.<.<.<.<.<.<.<.<.<.<.<.<.<.<.<.<.<.<.<.<.<.<.<.<.<.<.<.<.<.<.<.<.<.<.<.<.<.<.<.<.<.<.<.<.<.<.<.<.<.<.<.<.<.<.<.<.<.<.<.<.<.<.<.<.<.<.<.<.<.<.<.<.<.<.<.<.<.<.<.<.<.<.<.<.<.<.<.<.<.<.( I.W.[.[. Xr.Y <.s 1.T ) T.[.W.~.~.^.~.~..X'.'.'.}.8.T 1.1.4.6.c 4.a G.9.} OXR.W.{ T T <.4.<.M <.<.<.<.<.<.<.<.<.<.<.<.<.<.<.<.<.<.<.<.<.1.<.<.<.1.<.1.<.<.<.<.<.<.<.<.<.<.<.<.<.<.<.<.<.<.<.<.<.<.<.<.<.<.<.<.<.<.<.<.<.<.<.<.<.<.<.<.<.<.<.<.<.<.<.<.<.<.<.<.<.<.<.<.<.B B <.<.<.<.<.<.B B <.<.<.<.<.<.<.<.<.<.<.<.<.<.<.<.<.<.<.<.<.<.1.<.1.<.<.<.<.<.1.<.1.<.r.F.5.T T T 8.h.[..X.X.X.XXX^.R.1.j <.<.j 4.5.<.<.<.<.<.<.<.<.<.<.<.<.<.<.<.<.<.<.<.<.<.<.4.<.<.<.<.<.<.<.<.<.<.<.<.<.<.<.<.<.<.<.<.<.<.<.<.<.<.<.<.<.<.<.<.<.<.<.<.<.B <.<.<.<.<.<.<.<.<.<.<.<.",
"=.1.=.<.1.<.1.1.=.<.=.<.1.<.1.1.<.<.<.<.<.<.<.<.<.<.<.<.<.<.<.<.<.<.<.<.<.<.<.<.<.<.<.<.<.<.<.<.<.<.<.<.<.<.<.<.<.<.<.<.<.<.<.<.<.M ( Y 1.r.J.%Xp.3.Y 1.4.<.j ( 1.'.#X.X.X~.^.^.^..X#X{.1.=.4.6.<.<.<.<.<.<.<.<.<.<.<.<.<.<.<.<.<.<.<.<.<.<.<.<.<.<.<.<.<.<.<.<.M N N N M M M N N M N N M M M <.<.<.<.<.<.<.<.<.<.<.<.<.<.<.<.<.<.<.4.4.4.4.<.<.<.<.<.<.<.4.<.<.<.<.<.<.<.<.<.<.<.<.<.<.<.<.<.<.<.<.<.<.<.<.<.<.<.<.<.<.<.<.<.<.<.<.( <.<.<.<.<.( ( <.<.<.<.<.<.<.1.1.1.<.<.<.1.<.<.<.1.1.<.<.) T.~.W.[.|.r.Y s <.2.( ) t.[.W./.~.^.~.~..X.X'.}.}.8.T 1.<.<.4.c 4.p {.q.[ OX~.~.} T T 1.4.<.M <.<.<.<.<.<.<.<.<.<.<.<.<.<.<.<.<.<.<.1.1.=.1.=.<.1.<.1.1.1.1.1.1.<.<.<.<.<.<.<.<.<.<.<.<.<.<.<.<.<.<.<.<.<.<.<.<.<.<.<.<.<.<.<.<.<.<.<.<.<.<.<.<.<.<.<.<.<.<.<.<.<.<.<.<.<.<.<.<.<.<.<.<.B <.<.<.<.<.<.<.<.<.<.<.<.<.=.<.=.<.<.<.=.1.=.<.1.<.1.1.=.<.=.<.=.1.1.<.K.K.r.T T T 8.h.[..X.X.X.XXX^.R.) Y <.<.Y 2.7.<.<.<.<.<.<.<.1.1.( ( <.<.<.<.<.<.<.<.<.<.<.<.<.<.<.<.<.<.<.<.<.<.<.<.<.<.<.<.<.<.<.<.<.<.<.<.<.<.<.<.<.<.<.<.<.<.<.<.B B <.<.<.<.<.<.B B <.<.<.<.",
"1.1.<.<.<.1.<.<.<.1.<.<.<.<.1.1.<.<.<.<.<.<.<.<.<.<.<.<.<.<.<.<.<.<.<.<.<.<.<.<.<.<.<.<.<.<.<.<.<.<.<.<.<.<.<.<.<.<.<.<.<.<.<.<.<.<.<.( 1.r.`. X`.0.T ( 4.<.j Y 1.'.#X.X.X^.^.^.^.'.'.`.=.=.5.7.<.1.1.1.<.<.<.<.<.<.<.<.<.<.<.<.<.<.1.<.1.<.1.<.1.<.1.<.1.<.1.<.<.M <.N <.M <.M <.M <.N <.N <.<.<.<.<.<.<.<.<.<.<.<.<.<.<.<.<.<.<.<.4.4.4.4.<.<.<.<.<.<.<.<.<.<.<.<.<.<.<.<.<.<.<.<.<.<.<.<.<.<.<.<.<.<.<.<.<.<.<.<.<.<.<.<.<.<.<.<.<.<.<.<.<.<.<.( <.<.<.<.<.<.1.1.<.<.<.<.<.<.<.<.<.<.<.<.2.1.oX~.R.T.}.r.( 1.<.2.( T t.}.[.oX~.~.~.~..X.X'.}. X8.T Y <.<.4.B <.p  Xf.[ OX~./.{ T T <.4.<.M <.<.<.<.<.<.<.<.<.<.<.<.<.<.<.<.<.<.<.1.1.1.1.<.<.<.<.1.1.1.1.1.1.<.<.<.<.<.<.<.<.<.<.<.<.<.<.<.<.<.<.<.<.<.<.<.<.<.<.<.<.<.<.<.<.<.<.<.<.<.<.<.<.<.<.<.<.<.<.<.<.<.<.<.<.<.B <.<.<.<.<.<.B <.<.<.<.<.<.<.<.<.<.<.<.<.<.<.<.<.<.<.1.1.<.<.=.1.1.<.<.<.1.<.1.=.1.(  X Xr.) T ) 8.h.[..X.X.X.X.X.XR.) j 1.<.s 2.7.<.<.<.M M <.<.1.1.<.<.<.<.<.<.<.<.<.<.<.<.<.<.<.<.<.<.<.<.<.<.<.<.<.<.<.<.<.<.<.<.<.<.<.<.<.<.<.<.<.<.<.<.<.<.<.<.<.<.B B B <.<.<.<.B B B B B <.<.",
"<.<.<.<.<.<.<.<.<.<.<.<.<.<.<.<.<.<.<.<.<.<.<.<.<.<.<.<.<.<.<.<.<.<.<.<.<.<.<.<.<.<.<.<.<.<.<.<.<.<.<.<.<.<.<.<.<.<.<.<.<.( ( <.j 2.) P r.'.[.[.[.0.P ( <.<.<.1.T T..X~.XX^.^.^..X'. Xt.( ( Y 7.( ( <.<.<.<.<.4.<.<.<.<.<.<.<.<.<.<.<.<.<.<.<.<.<.<.<.<.<.<.<.<.<.<.<.<.<.<.<.<.<.<.<.<.<.<.<.<.<.<.<.<.<.<.<.<.<.<.<.<.<.<.<.<.<.<.<.<.<.<.<.<.<.<.<.<.<.<.<.<.<.<.<.<.<.<.<.<.<.<.<.<.<.<.<.<.<.<.<.<.<.<.<.<.<.<.<.<.<.<.<.<.<.<.<.<.<.<.<.<.<.<.<.<.<.<.<.<.<.<.<.<.<.<.<.<.<.<.<.4.4.s Y t.OXQ.U.oX}.q.( Y ( 4.T T t.[.'..X~.~.~.~.~..X.X'.'.q.T Y 4.M M M 1.t [.oXE OXI.[.r.( <.6.<.<.4.<.<.<.<.<.<.<.<.<.<.<.<.<.<.<.<.<.<.<.<.<.<.<.<.<.<.<.<.<.<.<.<.<.<.<.<.<.<.<.<.<.<.<.<.<.<.<.<.<.<.<.<.<.<.<.<.<.<.<.<.<.<.<.<.<.<.<.<.<.<.<.<.<.<.<.<.<.<.<.<.<.<.<.<.<.<.<.<.<.<.<.<.<.<.<.<.<.<.<.<.<.<.<.<.<.<.<.<.<.<.<.<.<.<.<.<.<.<.<.<.<.<.4.4.<.1.U T `.[.[.A.Y Y 1.U `.'..X^.^.^.#X.XT.1.M s 1.Y 1.F.j k k M N M <.<.=.<.s s <.<.c c <.<.<.<.<.<.<.<.<.<.<.<.<.<.<.<.<.<.<.<.<.<.<.<.<.<.<.<.<.<.<.<.<.<.<.<.<.<.<.<.<.<.<.<.<.<.<.<.<.<.<.<.<.<.<.<.<.",
"<.<.<.<.<.<.<.<.<.<.<.<.<.<.<.<.<.<.<.<.<.<.<.<.<.<.<.<.<.<.<.<.<.<.<.<.<.<.<.<.<.<.<.<.<.<.<.<.<.<.<.<.<.<.<.<.<.<.<.<.<.<.<.( j 2.( P q.'..X.X[.q.^ ^ ( <.<.1.T T..X~.XXXX^.^.~.T. Xq.( ( Y 7.( ( ( ( <.<.4.4.4.4.<.<.<.<.<.<.<.<.<.<.<.<.<.<.<.<.<.<.<.<.<.<.<.<.<.<.<.<.<.<.<.<.<.<.<.<.<.<.<.<.<.<.<.<.<.<.<.<.<.<.<.<.<.<.<.<.<.<.<.<.<.<.<.<.<.<.<.<.<.<.<.<.<.<.<.<.<.<.<.<.<.<.<.<.<.<.<.<.<.<.<.<.<.<.<.<.<.<.<.<.<.<.<.<.<.<.<.<.<.<.<.<.<.<.<.<.<.<.<.<.<.<.<.<.M M M 4.<.<.<.s Y A./.U.I.[.].0.( ( <.1.T T h.[.'..X~.~.~.~.~..X.X.X'.q.T Y 4.M M M 1.K [.#X] /.I.].r.( <.4.<.<.4.<.<.<.<.<.<.<.<.<.<.<.<.<.<.<.<.<.<.<.<.<.<.<.<.<.<.<.<.<.<.<.<.<.<.<.<.<.<.<.<.<.<.<.<.<.<.<.<.<.<.<.<.<.<.<.<.<.<.<.<.<.<.<.<.<.<.<.<.<.<.<.<.<.<.<.<.<.<.<.<.<.<.<.<.<.<.<.<.<.<.<.<.<.<.<.<.<.<.<.<.<.<.<.<.<.<.<.<.<.<.<.<.<.N N <.<.<.<.<.<.<.4.M <.1.P T T.oXoXT.Y =.1.s `.'..X^.^.^.OX'.G.1.<.M 1.t u 7.y N C M M M M 4.4.p t a <.<.<.<.4.<.<.<.<.<.<.<.<.<.<.<.<.<.<.<.<.<.<.<.<.<.<.<.<.<.<.<.<.<.<.<.<.<.<.<.<.<.<.<.<.<.<.<.<.<.<.<.<.<.<.<.<.<.<.<.<.",
"<.<.<.<.<.<.<.<.<.<.<.<.<.<.<.<.<.<.<.<.<.<.<.<.<.<.<.<.<.<.<.<.<.<.<.<.<.<.<.<.<.<.<.<.<.<.<.<.<.<.<.<.<.<.<.<.<.<.<.<.<.<.<.<.j 2.( P q.'..XoX[.t.) ^ <.<.<.1.T T.#X.XXXXX^.^.~.T. Xq.( ( ( Z.( ( ( ( <.<.<.<.4.4.<.<.<.<.<.<.<.<.<.<.<.<.<.<.<.<.<.<.<.<.<.<.<.<.<.<.<.<.<.<.<.<.<.<.<.<.<.<.<.<.<.<.<.<.<.<.<.<.<.<.<.<.<.<.<.<.<.<.<.<.<.<.<.<.<.<.<.<.<.<.<.<.<.<.<.<.<.<.<.<.<.<.<.<.<.<.<.<.<.<.<.<.<.<.<.<.<.<.<.<.<.<.<.<.<.<.<.<.<.<.<.<.<.<.<.<.<.<.4.4.<.<.<.<.M M M 4.M <.1.Y =.p.T.I.R.[.A.1.( <.( 1.P T h.[..X~.~.~.~.~.~..X.X.X}.q.T Y 4.M M M 1.K [.=X[ /.W.[.r.( <.4.<.<.2.<.<.<.<.<.<.<.<.<.<.<.<.<.<.<.<.<.<.<.<.<.<.<.<.<.<.<.<.<.<.<.<.<.<.<.<.<.<.<.<.<.<.<.<.<.<.<.<.<.<.<.<.<.<.<.<.<.<.<.<.<.<.<.<.<.<.<.<.<.<.<.<.<.<.<.<.<.<.<.<.<.<.<.<.<.<.<.<.<.<.<.<.<.<.<.<.<.<.<.<.<.<.<.<.<.<.<.<.<.<.<.<.<.M N <.<.<.<.=.<.M 4.M <.1.P { '..XoXT.P ( 1.s G.'..X^.^.^..X'.A.1.4.<.<.+ 2 1., j k h h m M 4.6.r i s <.6.<.<.<.<.<.<.<.<.<.<.<.<.<.<.<.<.<.<.<.<.<.<.<.<.<.<.<.<.<.<.<.<.<.<.<.<.<.<.<.<.<.<.<.<.<.<.<.<.<.<.<.<.<.<.<.<.<.<.<.",
"<.<.<.<.<.<.<.<.<.<.<.<.<.<.<.<.<.<.<.<.<.<.<.<.<.<.<.<.<.<.<.<.<.<.<.<.<.<.<.<.<.<.<.<.<.<.<.<.<.<.<.4.<.<.<.<.<.<.<.<.<.<.<.<.k 2.^ I t.'..XoX[.C.) ^ ( <.<.<.T T.#X.XXXXX^.^.~.T. Xq.( ( ( Z.( ( ( ( <.<.<.<.4.4.<.<.<.<.<.<.<.<.<.<.<.<.<.<.<.<.<.<.<.<.<.<.<.<.<.<.<.<.<.<.<.<.<.<.<.<.<.<.<.<.<.<.<.<.<.<.<.<.<.<.<.<.<.<.<.<.<.<.<.<.<.<.<.<.<.<.<.<.<.<.<.<.<.<.<.<.<.<.<.<.<.<.<.<.<.<.<.<.<.<.<.<.<.<.<.<.<.<.<.<.<.<.<.<.<.<.<.<.<.<.<.<.<.<.<.<.<.<.<.4.4.4.<.<.M M M 4.c =.1.Y 1.t.'.W.[.].Z.1.( <.<.4.P T h.[.'.~.~.~.~.~.~..X.X.X}.q.-.Y 4.M M M 1.K T.;X[ Y.W.[.r.T <.6.<.<.2.<.<.<.<.<.<.<.<.<.<.<.<.<.<.<.<.<.<.<.<.<.<.<.<.<.<.<.<.<.<.<.<.<.<.<.<.<.<.<.<.<.<.<.<.<.<.<.<.<.<.<.<.<.<.<.<.<.<.<.<.<.<.<.<.<.<.<.<.<.<.<.<.<.<.<.<.<.<.<.<.<.<.<.<.<.<.<.<.<.<.<.<.<.<.<.<.<.<.<.<.<.<.<.<.<.<.<.<.<.<.<.<.<.M M <.<.<.<.<.<.M M M ( 1.T 8.[..XoXT.P 1.1.s G.'..X^.^.^..X'.A.<.4.j Y + t ( O j h h m m B <.<.c c c 4.6.<.M <.<.<.<.<.<.<.<.<.<.<.<.<.<.<.<.<.<.<.<.<.<.<.<.<.<.<.<.<.<.<.<.<.<.<.<.<.<.<.<.<.<.<.<.<.<.<.<.<.<.<.<.<.<.<.<.<.",
"<.<.<.<.<.<.<.<.<.<.<.<.<.<.<.<.<.<.<.<.<.<.<.<.<.<.<.<.<.<.<.<.<.<.<.<.<.<.<.<.<.<.<.<.<.<.<.<.4.4.4.4.<.<.<.<.<.<.<.<.<.<.<.<.k N Y T h..XW.oX[.A.` ^ ( <.B ( T T.#X.XXXXX^.~.~.W. X0.P ( ( Z.( ( ( ( <.<.<.<.4.4.<.<.<.<.<.<.<.<.<.<.<.<.<.<.<.<.<.<.<.<.<.<.<.<.<.<.<.<.<.<.<.<.<.<.<.<.<.<.<.<.<.<.<.<.<.<.<.<.<.<.<.<.<.<.<.<.<.<.<.<.<.<.<.<.<.<.<.<.<.<.<.<.<.<.<.<.<.<.<.<.<.<.<.<.<.<.<.<.<.<.<.<.<.<.<.<.<.<.<.<.<.<.<.<.<.<.<.<.<.<.<.<.<.<.<.<.<.<.4.4.4.4.4.4.M M j <.s s 1.<.1.r.}.oX X].r.<.M <.M 4.T T h.'..X~.~.~.~.~.~..X.X'.}.q.T Y <.M M M ( P T.lX$.U.R.[.r.( <.4.B <.4.<.<.<.<.<.<.<.<.<.<.<.<.<.<.<.<.<.<.<.<.<.<.<.<.<.<.<.<.<.<.<.<.<.<.<.<.<.<.<.<.<.<.<.<.<.<.<.<.<.<.<.<.<.<.<.<.<.<.<.<.<.<.<.<.<.<.<.<.<.<.<.<.<.<.<.<.<.<.<.<.<.<.<.<.<.<.<.<.<.<.<.<.<.<.<.<.<.<.<.<.<.<.<.<.<.<.<.<.<.<.<.<.<.M M <.<.<.<.;.4.M N M j 1.T 9.[..X/.T.P <.4.s G.[..X^.^.^.OX'.A.<.M s <.u T 3.O s h k M M B 4.<.6.<.<.4.<.M <.4.<.<.<.<.<.<.<.<.<.<.<.<.<.<.<.<.<.<.<.<.<.<.<.<.<.<.<.<.<.<.<.<.<.<.<.<.<.<.<.<.<.<.<.<.<.<.<.<.<.<.<.<.<.<.<.<.",
"<.<.<.<.<.<.<.<.<.<.<.<.<.<.<.<.<.<.<.<.<.<.<.<.<.<.<.<.<.<.<.<.<.<.<.<.<.<.<.<.<.<.<.<.<.<.<.<.4.4.4.4.<.<.<.<.<.<.<.<.<.<.<.<.N N Y ) I..XW..X[.E.0.^ s <.B s T T.#X.XXXXX^..X~.W. Xq.( ( ( Z.( ( ( ( <.<.<.<.4.4.<.<.<.<.<.<.<.<.<.<.<.<.<.<.<.<.<.<.<.<.<.<.<.<.<.<.<.<.<.<.<.<.<.<.<.<.<.<.<.<.<.<.<.<.<.<.<.<.<.<.<.<.<.<.<.<.<.<.<.<.<.<.<.<.<.<.<.<.<.<.<.<.<.<.<.<.<.<.<.<.<.<.<.<.<.<.<.<.<.<.<.<.<.<.<.<.<.<.<.<.<.<.<.<.<.<.<.<.<.<.<.<.<.<.<.<.<.<.4.4.4.4.4.<.M M j 4.M s 1.1.1.r.{.}.].A.2.M m B B 4.Y T h.[.~.~.~.~.~.~.~..X.X.X}.q.T Y <.M M M ( T T.lX$.I.W.E.r.T <.4.B <.4.<.<.<.<.<.<.<.<.<.<.<.<.<.<.<.<.<.<.<.<.<.<.<.<.<.<.<.<.<.<.<.<.<.<.<.<.<.<.<.<.<.<.<.<.<.<.<.<.<.<.<.<.<.<.<.<.<.<.<.<.<.<.<.<.<.<.<.<.<.<.<.<.<.<.<.<.<.<.<.<.<.<.<.<.<.<.<.<.<.<.<.<.<.<.<.<.<.<.<.<.<.<.<.<.<.<.<.<.<.<.<.<.<.M M <.1.<.<.;.4.M N M j 1.T 8.[.~./.T.P 1.4.s G.[..X^.^.^..X'.A.Y M s 1.T r.G.o j j N M 4.4.4.4.6.<.M <.<.M <.6.<.<.<.<.<.<.<.<.<.<.<.<.<.<.<.<.<.<.<.<.<.<.<.<.<.<.<.<.<.<.<.<.<.<.<.<.<.<.<.<.<.<.<.<.<.<.<.<.<.<.<.<.<.<.<.<.",
"<.<.<.<.<.<.<.<.<.<.<.<.<.<.<.<.<.<.<.<.<.<.<.<.<.<.<.<.<.<.<.<.<.<.<.<.<.<.<.<.<.<.<.<.<.<.<.<.4.4.<.<.<.<.<.<.<.<.<.<.<.<.<.<.N j Y ) T..XR..X[.T.0.( s <.<.Y P T.#X.XXXXX^..X.XT. X0.P ( ( Z.( ( ( ( <.<.<.<.4.4.<.<.<.<.<.<.<.<.<.<.<.<.<.<.<.<.<.<.<.<.<.<.<.<.<.<.<.<.<.<.<.<.<.<.<.<.<.<.<.<.<.<.<.<.<.<.<.<.<.<.<.<.<.<.<.<.<.<.<.<.<.<.<.<.<.<.<.<.<.<.<.<.<.<.<.<.<.<.<.<.<.<.<.<.<.<.<.<.<.<.<.<.<.<.<.<.<.<.<.<.<.<.<.<.<.<.<.<.<.<.<.<.<.<.<.<.<.<.<.<.<.<.<.<.M M s 4.<.Y 1.1.T 1.q.q.r.3.<.M B M B 4.Y T t.[.~.~.~.~.~.~.~..X.X.X}.q.-.Y <.M M M T T T.zXg.g.W.[.r.T <.6.B <.4.<.<.<.<.<.<.<.<.<.<.<.<.<.<.<.<.<.<.<.<.<.<.<.<.<.<.<.<.<.<.<.<.<.<.<.<.<.<.<.<.<.<.<.<.<.<.<.<.<.<.<.<.<.<.<.<.<.<.<.<.<.<.<.<.<.<.<.<.<.<.<.<.<.<.<.<.<.<.<.<.<.<.<.<.<.<.<.<.<.<.<.<.<.<.<.<.<.<.<.<.<.<.<.<.<.<.<.<.<.<.<.<.<.N N <.<.<.<.=.<.M 4.M j 1.T 8.oX~./.T.P 1.4.s G.[..X^.^.^..X'.A.s N ( 1.T r.|.u <.j k m m B 4.4.4.M c <.<.<.<.6.<.<.<.<.<.<.<.<.<.<.<.<.<.<.<.<.<.<.<.<.<.<.<.<.<.<.<.<.<.<.<.<.<.<.<.<.<.<.<.<.<.<.<.<.<.<.<.<.<.<.<.<.<.<.<.<.",
"<.<.<.<.<.<.<.<.<.<.<.<.<.<.<.<.<.<.<.<.<.<.<.<.<.<.<.<.<.<.<.<.<.<.<.<.<.<.<.<.<.<.<.<.<.<.<.<.4.<.<.<.<.<.<.<.<.<.<.<.<.<.<.<.N j Y ) R..X~..X[.T.q.( s <.<.Y P T.#X.XXXXX^.^..XT. X0.P ( ( Z.( ( ( ( <.<.<.<.4.4.<.<.<.<.<.<.<.<.<.<.<.<.<.<.<.<.<.<.<.<.<.<.<.<.<.<.<.<.<.<.<.<.<.<.<.<.<.<.<.<.<.<.<.<.<.<.<.<.<.<.<.<.<.<.<.<.<.<.<.<.<.<.<.<.<.<.<.<.<.<.<.<.<.<.<.<.<.<.<.<.<.<.<.<.<.<.<.<.<.<.<.<.<.<.<.<.<.<.<.<.<.<.<.<.<.<.<.<.<.<.<.<.<.<.<.<.<.<.<.<.<.<.<.<.M M s 4.<.Y 1.1.T ) T T -.Y c B B B B 4.Y T h.[.~.~.~.~.~.~.~..X.X.X}.q.T Y <.M M M T T T.zXg.g./.[.r.T <.6.<.<.2.1.<.<.<.<.<.<.<.<.<.<.<.<.<.<.<.<.<.<.<.<.<.<.<.<.<.<.<.<.<.<.<.<.<.<.<.<.<.<.<.<.<.<.<.<.<.<.<.<.<.<.<.<.<.<.<.<.<.<.<.<.<.<.<.<.<.<.<.<.<.<.<.<.<.<.<.<.<.<.<.<.<.<.<.<.<.<.<.<.<.<.<.<.<.<.<.<.<.<.<.<.<.<.<.<.<.<.<.<.<.<.<.<.N N <.<.<.<.=.<.<.4.M j 1.T 8.oX~./.T.P 1.4.s G.[..X^.^.^..XT.A.s 2.1.1.P r.&X1.1.M a a a x v 4.4.<.<.6.6.<.c <.<.<.<.<.<.<.<.<.<.<.<.<.<.<.<.<.<.<.<.<.<.<.<.<.<.<.<.<.<.<.<.<.<.<.<.<.<.<.<.<.<.<.<.<.<.<.<.<.<.<.<.<.<.<.<.<.",
"<.<.<.<.<.<.<.<.<.<.<.<.<.<.<.<.<.<.<.<.<.<.<.<.<.<.<.<.<.<.<.<.<.<.<.<.<.<.<.<.<.<.<.<.<.<.<.<.<.<.<.<.<.<.<.<.<.<.<.<.<.<.<.<.j <.Y ) T..X~..XT.[.A.( ( 1.<.1.( t.[.#X.X^.^.^.~.[.[.{ ) P K |.5.u 1.<.s 4.B 4.4.4.<.<.<.<.<.<.<.<.<.<.<.<.<.<.<.<.<.<.<.<.<.<.<.<.<.<.<.<.<.<.<.<.<.<.<.<.<.<.<.<.<.<.<.<.<.<.<.<.<.<.<.<.<.<.<.<.<.<.<.<.<.<.<.<.<.<.<.<.<.<.<.<.<.<.<.<.<.<.<.<.<.<.<.<.<.<.<.<.<.<.<.<.<.<.<.<.<.<.<.<.<.<.<.<.<.<.<.<.<.<.<.<.<.<.<.<.<.<.<.<.4.4.<.<.B B s M <.<.<.1.T P P R 1.2.c B 6.B B 4.Y T T.oX~.~.~.~.~.~.~..X.X.X}.q.T Y <.M M N 1.K -XlX~.[ $X[.`.U <.4.<.6.=.1.<.<.<.<.<.<.<.<.<.<.<.<.<.<.<.<.<.<.<.<.<.<.<.<.<.<.<.<.<.<.<.<.<.<.<.<.<.<.<.<.<.<.<.<.<.<.<.<.<.<.<.<.<.<.<.<.<.<.<.<.<.<.<.<.<.<.<.<.<.<.<.<.<.<.<.<.<.<.<.<.<.<.<.<.<.<.<.<.<.<.<.<.<.<.<.<.<.<.<.<.<.<.<.<.<.<.<.<.<.<.<.<.M N <.<.<.<.<.<.B M N ( Y 1.t.[.R.W.T.) Y 4.Y r.#X~.^.^.x..X'.t.j j 1.s P |.&XP 1.<.s 7 % % b u.<.<.<.<.<.<.<.<.<.<.<.<.<.<.<.<.<.<.<.<.<.<.<.<.<.<.<.<.<.<.<.<.<.<.<.<.<.<.<.<.<.<.<.<.<.<.<.<.<.<.<.<.<.<.<.<.<.<.<.<.<.<.<.<.",
"<.<.<.<.<.<.<.<.<.<.<.<.<.<.<.<.<.<.<.<.<.<.<.<.<.<.<.<.<.<.<.<.<.<.<.<.<.<.<.<.<.<.<.<.<.<.<.<.<.4.<.<.<.<.<.<.<.<.<.<.<.<.<.<.j <.Y ) R..X~..XW.[.A.( ( 1.<.1.P t.[.#X^.^.^.^.~.oX[.{ ) P K |.3.u 1.<.s 4.B 4.4.4.<.<.<.<.<.<.<.<.<.<.<.<.<.<.<.<.<.<.<.<.<.<.<.<.<.<.<.<.<.<.<.<.<.<.<.<.<.<.<.<.<.<.<.<.<.<.<.<.<.<.<.<.<.<.<.<.<.<.<.<.<.<.<.<.<.<.<.<.<.<.<.<.<.<.<.<.<.<.<.<.<.<.<.<.<.<.<.<.<.<.<.<.<.<.<.<.<.<.<.<.<.<.<.<.<.<.<.<.<.<.<.<.<.<.<.<.<.<.<.<.4.4.<.<.M B j M <.<.( 1.=.T t.t.G.r.<.<.6.m B 4.( T T.oX.X~.~.~.~.~.~..X.X.X}.q.T Y <.M M N 1.K -XlX/.[ OX[.`.U <.4.<.6.=.1.<.<.<.<.<.<.<.<.<.<.<.<.<.<.<.<.<.<.<.<.<.<.<.<.<.<.<.<.<.<.<.<.<.<.<.<.<.<.<.<.<.<.<.<.<.<.<.<.<.<.<.<.<.<.<.<.<.<.<.<.<.<.<.<.<.<.<.<.<.<.<.<.<.<.<.<.<.<.<.<.<.<.<.<.<.<.<.<.<.<.<.<.<.<.<.<.<.<.<.<.<.<.<.<.<.<.<.<.<.<.<.<.M M <.<.<.<.<.<.B M N ( Y 1.t.[.R.W.T.) Y 4.Y q.#X~.^.^.x..X'.r.j j 2.s P |.&XP 1.<.a 7 $ % b u.<.<.<.<.<.<.<.<.<.<.<.<.<.<.<.<.<.<.<.<.<.<.<.<.<.<.<.<.<.<.<.<.<.<.<.<.<.<.<.<.<.<.<.<.<.<.<.<.<.<.<.<.<.<.<.<.<.<.<.<.<.<.<.<.",
"<.<.<.<.<.<.<.<.<.<.<.<.<.<.<.<.<.<.<.<.<.<.<.<.<.<.<.<.<.<.<.<.<.<.<.<.<.<.<.<.<.<.<.<.<.<.<.<.4.4.4.4.<.<.<.<.<.<.<.<.<.<.<.<.j <.T { R..X~..XW.[.A.( ( 1.<.1.( t.[..X^.^.^.^.R.[.'.{ ) T P |.7.u <.<.s 4.B 4.4.4.<.<.<.<.<.<.<.<.<.<.<.<.<.<.<.<.<.<.<.<.<.<.<.<.<.<.<.<.<.<.<.<.<.<.<.<.<.<.<.<.<.<.<.<.<.<.<.<.<.<.<.<.<.<.<.<.<.<.<.<.<.<.<.<.<.<.<.<.<.<.<.<.<.<.<.<.<.<.<.<.<.<.<.<.<.<.<.<.<.<.<.<.<.<.<.<.<.<.<.<.<.<.<.<.<.<.<.<.<.<.<.<.<.<.<.<.<.<.<.4.4.4.<.<.M M M M <.<.( 1.1.1.}.}. XG.1.<.M c B 4.Y T T.#X.X~.~.~.~.~.~..X.X.X}.q.T Y <.M M N 1.K #XlX(.[ /.[.`.P <.4.<.6.=.1.<.<.<.<.<.<.<.<.<.<.<.<.<.<.<.<.<.<.<.<.<.<.<.<.<.<.<.<.<.<.<.<.<.<.<.<.<.<.<.<.<.<.<.<.<.<.<.<.<.<.<.<.<.<.<.<.<.<.<.<.<.<.<.<.<.<.<.<.<.<.<.<.<.<.<.<.<.<.<.<.<.<.<.<.<.<.<.<.<.<.<.<.<.<.<.<.<.<.<.<.<.<.<.<.<.<.<.<.<.<.<.<.M M <.<.<.<.<.<.B M N ( Y 1.t.[.R.R.`.) Y 4.Y q.#X~.^.^.^..X'.r.j j 2.u P  X&XP 1.<.p 7 $ % b u.<.<.<.<.<.<.<.<.<.<.<.<.<.<.<.<.<.<.<.<.<.<.<.<.<.<.<.<.<.<.<.<.<.<.<.<.<.<.<.<.<.<.<.<.<.<.<.<.<.<.<.<.<.<.<.<.<.<.<.<.<.<.<.<.",
"<.<.<.<.<.<.<.<.<.<.<.<.<.<.<.<.<.<.<.<.<.<.<.<.<.<.<.<.<.<.<.<.<.<.<.<.<.<.<.<.<.<.<.<.<.<.<.<.4.4.4.4.<.<.<.<.<.<.<.<.<.<.<.<.j <.T { '.XX~..XW.[.A.( ( 1.<.1.P 0.'..X^.^.^.^.R.[.'.{ ) T P |.r.u <.( s 4.B <.4.4.<.<.<.<.<.<.<.<.<.<.<.<.<.<.<.<.<.<.<.<.<.<.<.<.<.<.<.<.<.<.<.<.<.<.<.<.<.<.<.<.<.<.<.<.<.<.<.<.<.<.<.<.<.<.<.<.<.<.<.<.<.<.<.<.<.<.<.<.<.<.<.<.<.<.<.<.<.<.<.<.<.<.<.<.<.<.<.<.<.<.<.<.<.<.<.<.<.<.<.<.<.<.<.<.<.<.<.<.<.<.<.<.<.<.<.<.<.<.<.4.4.4.<.<.M M <.M <.1.<.1.2.r.}.[. X`.1.<.4.M M 4.T T T.#X.X~.~.~.~.~.~..X.X.X}.q.T Y <.M M N 1.L #XlXOX[ R.[.`.U <.4.<.6.=.1.<.<.<.<.<.<.<.<.<.<.<.<.<.<.<.<.<.<.<.<.<.<.<.<.<.<.<.<.<.<.<.<.<.<.<.<.<.<.<.<.<.<.<.<.<.<.<.<.<.<.<.<.<.<.<.<.<.<.<.<.<.<.<.<.<.<.<.<.<.<.<.<.<.<.<.<.<.<.<.<.<.<.<.<.<.<.<.<.<.<.<.<.<.<.<.<.<.<.<.<.<.<.<.<.<.<.<.<.<.<.<.<.M M <.<.<.<.<.<.B M N ( Y ) t.[.R.W.`.) =.4.Y q.#X~.^.^.^..X'.r.j j 2.P T  X-XT 1.<.s i q q v u.<.<.<.<.<.<.<.<.<.<.<.<.<.<.<.<.<.<.<.<.<.<.<.<.<.<.<.<.<.<.<.<.<.<.<.<.<.<.<.<.<.<.<.<.<.<.<.<.<.<.<.<.<.<.<.<.<.<.<.<.<.<.<.<.",
"<.<.<.<.<.<.<.<.<.<.<.<.<.<.<.<.<.<.<.<.<.<.<.<.<.<.<.<.<.<.<.<.<.<.<.<.<.<.<.<.<.<.<.<.<.<.<.<.<.<.4.4.<.<.<.<.<.<.<.<.<.<.<.<.j <.( 8.'.XX~..XW.[.A.P ( 1.=.<.Y 0.`..X^.^.^.^.R.[.`./ T P P |.Z.s <.( c 4.<.<.4.4.<.<.<.<.<.<.<.<.<.<.<.<.<.<.<.<.<.<.<.<.<.<.<.<.<.<.<.<.<.<.<.<.<.<.<.<.<.<.<.<.<.<.<.<.<.<.<.<.<.<.<.<.<.<.<.<.<.<.<.<.<.<.<.<.<.<.<.<.<.<.<.<.<.<.<.<.<.<.<.<.<.<.<.<.<.<.<.<.<.<.<.<.<.<.<.<.<.<.<.<.<.<.<.<.<.<.<.<.<.<.<.<.<.<.<.<.<.<.4.4.4.4.<.<.M M <.M <.1.<.1.3.A.R.W.[.E.) ( 4.( <.4.T T T.[..X~.~.~.~.~.~..X.X.X}.q.-.Y <.M M N T R #XzXgX[ I.[.`.U <.4.=.4.=.1.<.<.<.<.<.<.<.<.<.<.<.<.<.<.<.<.<.<.<.<.<.<.<.<.<.<.<.<.<.<.<.<.<.<.<.<.<.<.<.<.<.<.<.<.<.<.<.<.<.<.<.<.<.<.<.<.<.<.<.<.<.<.<.<.<.<.<.<.<.<.<.<.<.<.<.<.<.<.<.<.<.<.<.<.<.<.<.<.<.<.<.<.<.<.<.<.<.<.<.<.<.<.<.<.<.<.<.<.<.<.<.<.N N <.<.<.<.<.<.B M N ( Y ) q.[.~.W.`.) Y 4.Y t.#X~.^.^.^..X'.0.j j 2.Y T -X-XR 1.1.4.M b c v 4.4.<.<.<.<.<.<.<.<.<.<.<.<.<.<.<.<.<.<.<.<.<.<.<.<.<.<.<.<.<.<.<.<.<.<.<.<.<.<.<.<.<.<.<.<.<.<.<.<.<.<.<.<.<.<.<.<.<.<.<.<.<.<.<.",
"<.<.<.<.<.<.<.<.<.<.<.<.<.<.<.<.<.<.<.<.<.<.<.<.<.<.<.<.<.<.<.<.<.<.<.<.<.<.<.<.<.<.<.<.<.<.<.<.<.<.4.4.<.<.<.<.<.<.<.<.<.<.<.<.j <.( 8.'.#X^..XW.oXA.P ( 1.=.<.Y 0.T..X~.^.^.^.R.[.'./ T P P |.Z.s <.j c 6.<.<.4.4.<.<.<.<.<.<.<.<.<.<.<.<.<.<.<.<.<.<.<.<.<.<.<.<.<.<.<.<.<.<.<.<.<.<.<.<.<.<.<.<.<.<.<.<.<.<.<.<.<.<.<.<.<.<.<.<.<.<.<.<.<.<.<.<.<.<.<.<.<.<.<.<.<.<.<.<.<.<.<.<.<.<.<.<.<.<.<.<.<.<.<.<.<.<.<.<.<.<.<.<.<.<.<.<.<.<.<.<.<.<.<.<.<.<.<.<.<.<.4.4.4.4.<.<.M M 4.M <.4.<.Y 7.`.T.~.oXT./ P 1.<.<.1.T ) T.[..X~.~.~.~.~.~..X.X.X}.q.-.Y <.M M N T R #XzXxX[ s.oX`.P <.4.=.4.=.1.<.<.<.<.<.<.<.<.<.<.<.<.<.<.<.<.<.<.<.<.<.<.<.<.<.<.<.<.<.<.<.<.<.<.<.<.<.<.<.<.<.<.<.<.<.<.<.<.<.<.<.<.<.<.<.<.<.<.<.<.<.<.<.<.<.<.<.<.<.<.<.<.<.<.<.<.<.<.<.<.<.<.<.<.<.<.<.<.<.<.<.<.<.<.<.<.<.<.<.<.<.<.<.<.<.<.<.<.<.<.<.<.N N <.<.<.<.=.<.B M M ( Y ) q.[.~.W.`.) Y 4.Y t.#X~.^.^.^..X'.0.j j ) P ) -X:XR ( 1.6.6.6.B u.4.4.<.<.<.<.<.<.<.<.<.<.<.<.<.<.<.<.<.<.<.<.<.<.<.<.<.<.<.<.<.<.<.<.<.<.<.<.<.<.<.<.<.<.<.<.<.<.<.<.<.<.<.<.<.<.<.<.<.<.<.<.<.<.<.",
"<.<.<.<.<.<.<.<.<.<.<.<.<.<.<.<.<.<.<.<.<.<.<.<.<.<.<.<.<.<.<.<.<.<.<.<.<.<.<.<.<.<.<.<.<.<.<.<.<.<.<.<.<.<.<.<.<.<.<.<.<.<.<.<.j ( ( 9.'.#X^..XW.oXA.P ( 1.=.<.K 0.`..X~.^.^.^.~.oX'./ T T P &XF.j <.( c 6.<.4.4.4.<.<.<.<.<.<.<.<.<.<.<.<.<.<.<.<.<.<.<.<.<.<.<.<.<.<.<.<.<.<.<.<.<.<.<.<.<.<.<.<.<.<.<.<.<.<.<.<.<.<.<.<.<.<.<.<.<.<.<.<.<.<.<.<.<.<.<.<.<.<.<.<.<.<.<.<.<.<.<.<.<.<.<.<.<.<.<.<.<.<.<.<.<.<.<.<.<.<.<.<.<.<.<.<.<.<.<.<.<.<.<.<.<.<.<.<.<.<.<.4.<.4.<.<.M M 4.M <.4.1.Y r.].W.~.OXT./ P 1.( <.1.T ) T.[..X.X~.~.~.~.~..X.X.X}.q.-.Y <.M M N T T #XzXzX[ $.oX`.P <.4.=.<.=.1.<.<.<.<.<.<.<.<.<.<.<.<.<.<.<.<.<.<.<.<.<.<.<.<.<.<.<.<.<.<.<.<.<.<.<.<.<.<.<.<.<.<.<.<.<.<.<.<.<.<.<.<.<.<.<.<.<.<.<.<.<.<.<.<.<.<.<.<.<.<.<.<.<.<.<.<.<.<.<.<.<.<.<.<.<.<.<.<.<.<.<.<.<.<.<.<.<.<.<.<.<.<.<.<.<.<.<.<.<.<.<.<.M N <.<.<.<.<.<.M M N ( Y ) t.[.~.~.`.) <.4.1.t.#X~.^.^.^..XT.{ j j ) P ) -X:XR T 1.4.4.6.B B v 4.<.<.<.<.<.<.<.<.<.<.<.<.<.<.<.<.<.<.<.<.<.<.<.<.<.<.<.<.<.<.<.<.<.<.<.<.<.<.<.<.<.<.<.<.<.<.<.<.<.<.<.<.<.<.<.<.<.<.<.<.<.<.<.",
"<.<.<.<.<.<.<.<.<.<.<.<.<.<.<.<.<.<.<.<.<.<.<.<.<.<.<.<.<.<.<.<.<.<.<.<.<.<.<.<.<.<.<.<.<.<.<.<.<.<.<.<.<.<.<.<.<.<.<.<.<.<.<.<.M <.( 9..X$X.X.XW.oXt.P ( <.<.<.s 0.'..X~.~.~.~.~..X'.) P P T &XG.Y 1.j c 6.B B 4.4.<.<.<.<.<.<.<.<.<.<.<.<.<.<.<.<.<.<.<.<.<.<.<.<.<.<.<.<.<.<.<.<.<.<.<.<.<.<.<.<.<.<.<.<.<.<.<.<.<.<.<.<.<.<.<.<.<.<.<.<.<.<.<.<.<.<.<.<.<.<.4.4.<.<.<.<.<.<.<.<.<.<.<.<.<.<.<.<.<.<.<.<.<.<.<.<.<.<.<.<.<.<.<.<.<.<.<.<.<.<.<.<.<.<.<.<.<.<.4.4.<.<.<.<.<.<.6.<.M 4.<.Y r. XR.~.OXR.T Y 1.<.<.4.T T T.'..X.X~.~.~.~.~.~..X.X[.q.T Y <.M M <.T T $XzXzX+. .[.T.P -.<.=.4.Y 1.<.<.<.<.<.<.<.<.<.<.<.<.<.<.<.<.<.<.<.<.<.<.<.<.<.<.<.<.<.<.<.<.<.<.<.<.<.<.<.<.<.<.<.<.<.<.<.<.<.<.<.<.<.<.<.<.<.<.<.<.<.<.<.<.<.<.<.<.<.<.<.<.<.<.<.<.<.<.<.<.<.<.<.<.<.<.<.<.<.<.<.<.<.<.<.<.<.<.<.<.<.<.<.<.<.<.<.<.<.<.<.<.M N <.<.=.=.<.<.M M N <.Y ) t.[.~..X`.) <.4.( t.#X~.^.^.^..X'.8.j j ) P { :X:XR T <.<.B B v v ;.<.<.<.<.<.<.<.<.<.<.<.<.<.<.<.<.<.<.<.<.<.<.<.<.<.<.<.<.<.<.<.<.<.<.<.<.<.<.<.<.<.<.<.<.<.<.<.<.<.<.<.<.<.<.<.<.<.<.<.<.<.<.<.<.",
"<.<.<.<.<.<.<.<.<.<.<.<.<.<.<.<.<.<.<.<.<.<.<.<.<.<.<.<.<.<.<.<.<.M <.M <.<.<.<.<.<.B B <.<.<.<.<.<.<.<.<.<.<.<.<.<.<.<.<.<.<.<.<.( T 9..XXX~..X'.oXA.) 1.1.<.<.( ) '.^.^./.I./..X.Xb.T 1.) T  X`.Y ( 1.M M M 6.4.4.4.<.<.B M B <.<.<.<.<.<.<.<.<.<.<.1.1.1.1.1.<.<.<.<.<.<.<.<.<.<.<.<.<.<.<.<.N N M N <.<.<.<.<.N M M <.<.<.<.<.<.<.<.<.<.<.<.<.<.<.<.<.<.<.<.4.4.4.<.4.<.<.<.<.<.<.B <.M <.B M M M N M <.<.<.M <.<.<.<.<.<.<.<.<.<.<.M M M M <.<.<.<.<.<.<.<.<.<.<.<.<.<.4.<.6.<.<.4.1.<.7.%X'.#X#Xh.1.=.<.6.<.<.1.R '.'..X.X~.~.~.~.^.^.^..X[.e.) ( <.<.<.<.u { OXmXBX+. .*XA.T T 1.<.<.1.( <.<.<.<.<.4.4.4.M M M M M M M M <.<.<.<.<.<.<.<.<.<.<.<.4.4.4.4.<.<.<.4.<.<.<.M 4.4.4.4.<.<.<.<.<.<.4.5.5.4.<.=.=.=.<.<.<.<.M M <.<.<.<.<.<.<.<.<.<.<.<.<.<.<.<.<.<.<.<.<.<.<.<.<.<.<.<.<.<.<.<.<.<.<.<.<.<.<.<.<.<.<.<.<.<.<.<.N <.<.1.=.;.4.4.<.B <.<.T T t.[..X.X`.T Y 4.Y r.[.~.^.^.~.#X'.1.<.N 5.L 9.lX#XL ) <.B B 4.4.<.<.<.<.4.4.<.<.<.<.<.<.<.<.<.<.M M 4.m M 4.M a s 6.<.M <.M <.M <.<.<.<.<.<.<.<.<.<.<.<.<.<.<.<.<.<.<.<.4.4.4.4.4.4.4.4.4.4.4.4.<.<.",
"N N <.<.<.<.<.<.<.<.<.<.<.<.<.<.<.<.<.<.<.<.<.<.<.<.<.<.<.<.<.M M M M M M M <.<.<.<.B B <.<.<.<.<.<.<.<.<.<.<.<.<.<.<.<.<.<.<.<.<.( ( e..XXXx..X'.#XA.) 1.1.<.<.M ) '.^.^./.I./..X.X`.1.<.( T  X}.P =.1.M M M 6.4.4.4.<.<.B M M M <.<.<.<.<.<.<.<.<.<.<.( ( ( ( 4.4.<.<.<.<.<.<.<.<.<.<.<.<.<.<.N N j j j j <.<.<.<.M M <.<.<.<.<.<.<.<.<.<.<.<.<.<.<.<.<.<.<.<.4.4.4.4.4.4.<.<.<.<.B B M M B B M M M N N N M M <.<.<.<.<.<.<.<.<.j ( ( j M M M <.<.<.<.<.<.<.<.<.M <.<.<.4.4.4.4.=.<.4.<.( 7.|.'.#X}.t.-.=.4.6.<.=.1.R '.'..X.XW.W.~.^.^.^.^.~.[.t.) ( ( <.<.<.u { rXmXBX+. ._.A.T T 1.<.j 1.( ( M M <.<.<.<.<.M M M M M M <.M <.<.<.<.<.<.<.<.<.<.<.<.<.4.4.4.<.<.4.4.<.<.<.M M M 4.4.<.<.( ( 4.4.5.5.5.5.2.1.=.=.<.<.<.<.M M <.<.<.<.<.<.<.<.<.<.<.<.<.<.<.<.<.<.<.<.<.<.<.<.<.<.<.<.<.<.<.<.<.<.<.<.<.<.<.<.<.<.<.<.<.<.<.<.N <.<.1.=.=.4.4.<.B <.1.T T t.[..X.X'.T Y 1.Y r.[.~.^.^.~.#X'.1.j a 1.K } lX#XT ) <.B B 4.<.-.-.4.4.<.<.<.<.<.<.<.<.<.<.<.<.<.<.M m M 4.M a a 4.M M M M M M M <.<.<.<.<.<.<.<.<.<.<.<.<.<.<.<.<.<.<.4.4.4.4.4.4.4.4.4.4.4.4.<.<.",
"N N N N <.<.<.<.<.<.<.<.<.<.<.<.<.<.<.<.<.<.<.<.<.<.<.<.<.<.M <.M M M M <.<.<.<.<.<.B B <.<.<.<.<.<.<.<.<.<.<.<.<.<.<.<.<.<.<.<.<.<.( e..XXXx..X'.#XA.) 1.1.<.<.<.) .X^.^./.I./..X.X`.1.<.( T  X}.R =.1.M 4.M 4.4.4.<.<.<.B N N M <.<.<.<.<.<.<.<.<.1.1.( ( ( ( 1.1.1.1.1.( ( ( ( ( ( ( ( ( ( ( j N j j ( ( <.<.<.<.<.<.<.<.<.<.<.<.<.<.<.<.<.<.<.<.<.<.<.<.<.<.4.4.4.4.4.B B <.B B <.<.N N N N N N N N M M M M <.<.<.1.<.<.<.<.M j j j ( ( <.<.<.<.<.<.<.<.<.<.<.<.<.<.4.<.4.4.<.c =.4.<.( 5.G.#X#X`.8.-.=.<.<.<.<.1.R '.'..X.XW.W.~.^.^.^.^.~.[.t.) ( ( <.<.<.u { tXMXBX@..._.A.T T 1.<.j 1.( <.<.<.<.<.<.<.<.M M <.<.<.<.<.<.<.<.<.<.<.<.<.<.<.<.<.<.<.<.4.4.;.;.4.4.<.<.<.M M M 4.4.<.<.<.<.5.5.7.r.r.r.5.5.1.=.1.<.<.<.M M <.<.<.<.<.<.<.<.<.<.<.<.4.4.<.<.<.<.<.<.<.<.<.<.<.<.<.<.<.<.<.<.<.<.<.<.<.<.<.<.<.<.<.<.<.<.<.<.M N <.1.=.=.=.<.<.B <.1.T T t.[..X.X'.) Y 1.Y r.[.~.^.^.~.#X'.1.m a ) K 9.lX;X{ ) <.B B 4.<.-.-.4.4.<.<.<.4.<.<.<.<.<.<.<.<.<.<.4.M M 4.B p s 4.<.<.<.<.<.<.<.<.<.<.<.<.<.<.<.<.<.<.<.<.<.<.<.<.<.<.<.4.<.<.<.<.<.<.<.<.4.<.<.<.",
"N N N N <.M <.<.<.<.<.<.<.<.<.<.<.<.<.<.<.<.<.<.<.<.<.<.<.<.<.<.<.M <.<.<.<.<.<.<.<.<.<.<.<.<.<.<.<.<.<.<.<.<.<.<.<.<.<.<.<.<.<.<.( ( e..XXX^..X'.oXA.) 1.1.<.<.<.` '.^.^./.I./..X.X`.T ( ( T  X}.T T 1.<.4.M 4.4.4.<.<.<.B N N M <.<.<.<.<.<.<.<.<.1.<.( ( ( ( ( ( ( ( ( ( ( ( ( ( ( ( ( ( ( ( ( j ( ( ( ( <.<.<.<.<.<.<.<.<.<.<.<.<.<.<.<.<.<.<.<.<.<.<.<.<.<.4.4.4.4.B B B B <.B B <.<.N <.N <.M <.<.<.<.M M M <.<.<.<.<.<.Y j j j j ( ( <.<.<.<.<.<.<.<.<.<.<.<.<.<.4.<.4.4.=.=.<.4.<.( 1.r.}.'.t.8.=.1.<.c <.<.1.R }.T..X.XW.W.~.^.^.^.^.~.[.t.) ( ( <.<.<.j / iXMXBX%..._.T.T T -.1.( 1.( 1.4.4.4.<.<.<.<.c M <.<.<.<.<.<.<.<.<.<.<.<.<.<.<.<.<.<.<.<.4.4.;.;.4.4.<.<.<.M M M <.<.<.1.1.1.7.7.7.r.r.r.r.7.1.1.<.1.<.<.<.M <.<.<.<.<.<.<.<.<.<.<.<.4.4.4.<.<.<.<.<.<.<.<.<.<.<.<.<.<.<.<.<.<.<.<.<.<.<.<.<.<.<.<.<.<.<.<.<.M N <.<.=.=.=.<.<.M <.( Y ) q.[..X.X'.) Y 1.Y r.[.~.^.^.~.#X'.1.N j 1.P 9.lX[.A ) <.B B 4.<.=.1.<.4.<.<.4.4.<.<.<.<.<.<.<.<.<.<.4.M M 4.M a s 4.<.<.<.<.<.<.<.<.<.<.<.<.<.<.<.<.<.<.<.<.<.<.<.<.<.<.<.<.<.<.<.<.<.<.<.<.<.<.<.<.",
"N N N N N N <.<.<.<.<.( <.<.<.<.<.<.<.<.<.<.<.<.( <.<.<.<.<.<.<.<.<.<.<.<.<.<.<.<.<.<.<.<.<.M M <.<.<.<.<.<.<.<.<.<.<.<.<.<.<.<.<.<.T e..XXX^..X~.oXA.) 1.<.<.1.<.` '.^.^./.I./..X.X`.) ( ( T  X XT T <.<.4.M B 4.4.<.<.<.<.N N M M <.<.<.<.<.<.<.<.( ( ( ( ( ( Y Y Y ( 1.1.1.2.1.1.1.1.( ( ( ( ( ( ( ( ( ( <.<.<.<.<.<.<.<.B B <.<.<.<.<.<.<.<.<.<.<.<.<.<.<.<.4.4.4.4.<.<.<.<.<.<.<.<.<.<.<.<.<.<.<.<.<.<.<.<.( ( <.<.<.<.Y Y ( ( ( ( ( ( ( <.<.<.<.<.<.<.<.<.<.M <.<.<.<.4.4.<.4.<.4.<.Y ( 1.9.9.>.T T 4.<.c 4.<.1.P }.T..X~.W.W.~.^.^.^.^.~.[.t.) ^ ( <.<.<.^ / kXMXBX%.' _.E.Q T -.=.j 1.( 1.1.1.1.<.<.<.<.( ( ( <.<.<.<.1.<.<.<.<.<.<.<.<.<.<.<.<.<.<.<.4.;.=.4.4.<.<.<.<.<.<.<.<.<.1.1.2.7.7.r.r.r.r.r.r.3.2.1.1.<.<.<.<.<.<.<.<.<.<.<.<.<.<.<.<.4.4.4.4.<.<.<.<.<.<.<.<.<.<.<.<.<.<.<.<.<.<.<.<.<.<.<.<.<.<.<.<.<.<.<.<.N N <.<.=.=.<.<.B N N ( Y 1.t.}..X.X'.) Y 1.Y e.[.~.^.^.~.#X'.1.M j 1.P } ;Xh.# ) <.B B B <.=.1.<.<.<.<.<.<.<.<.<.M M M M M <.<.4.<.<.4.<.p s <.<.<.<.<.<.<.<.<.<.<.<.<.<.<.<.<.<.<.<.<.<.<.<.<.<.<.<.<.<.<.<.<.<.<.<.<.<.<.<.<.",
"N N N N N N <.<.<.<.<.( <.<.<.<.<.<.<.<.<.<.( j <.<.<.<.<.<.<.<.<.<.<.<.<.<.<.<.<.<.M M <.<.<.<.<.<.<.<.<.<.<.<.<.<.<.<.<.<.<.<.<.( P r..X#X^..X~.oXA.) ( 4.<.<.M ` '.^.^./.I./..X.X`.T ( ( I  X-XT T ( <.2.m B 4.<.=.<.<.<.M M M M <.<.<.<.<.<.<.<.( ( ( 1.1.1.( 1.1.1.3.3.r.r.3.1.1.1.1.1.1.1.( ( ( ( ( ( <.<.<.<.<.M <.<.B <.<.<.<.<.<.<.<.<.<.<.<.<.<.<.<.<.4.B 4.4.<.<.<.<.<.<.<.<.<.<.<.<.<.<.<.<.<.1.1.1.( 1.1.1.1.1.1.=.1.1.1.( ( ( ( <.<.<.<.<.<.<.<.<.<.B B <.<.<.4.<.4.<.<.1.Y Y ( ) R L R P Y 1.4.B 4.<.1.P }.T..X~.W.W.~.^.^.^.^.~.[.t.) ^ ( <.<.<.( I mXMXBXQ.X.E.E.{ T -.<.j 1.( Y ( Y ( =.<.1.1.1.1.1.1.1.<.<.<.<.<.<.<.<.<.<.<.<.<.<.<.<.<.<.<.=.=.<.<.<.<.<.<.<.<.<.<.<.1.2.2.7.7.7.7.w.w.w.w.w.3.1.1.1.<.<.<.<.<.( <.<.<.<.<.<.<.<.<.4.4.<.4.<.<.<.<.<.<.<.<.<.<.<.<.<.<.<.<.<.<.<.<.<.<.<.<.<.<.<.<.<.<.<.<.N N <.<.<.<.<.<.B N N ( ( ) t.}..X.X'.) Y 1.Y r.[.~.^.^.~.#X'.) <.j 1.I k.zX'.Z T <.B B B <.1.1.<.<.<.<.<.<.<.<.<.<.M M <.<.<.<.4.<.<.4.s t s <.<.<.<.<.<.<.<.<.<.<.<.<.<.<.<.<.<.<.<.<.<.<.<.<.<.<.<.<.<.<.<.<.<.<.<.<.<.<.<.<.",
"N M N N <.<.<.<.<.<.<.<.1.<.<.<.<.<.<.<.<.<.<.<.( <.<.<.<.<.<.<.<.<.<.<.<.<.<.<.<.<.<.M <.<.<.<.<.<.<.<.<.<.<.<.<.<.<.<.<.<.<.<.<.<.P r..XXX^.~.~.oXA.( ( 1.<.1.M ) '.^.^./.I./..X.Xb.T j ( I  X-X>.T ( <.2.m M 4.4.;.<.<.<.N N N N <.<.<.<.<.<.j ( <.1.1.1.1.1.3.3.8.3.0.r.r.r.8.3.8.3.1.1.1.1.( ( ( ( ( ( <.<.<.<.M M <.<.<.<.<.<.<.<.<.<.<.<.<.<.<.<.<.<.<.<.B B 4.4.<.<.<.<.<.<.<.<.<.<.<.<.Y ( ( ( <.1.1.<.1.1.2.2.2.2.1.2.1.1.1.) ( ( ( ( 1.1.<.<.<.<.<.<.<.<.<.<.<.<.<.<.<.<.<.Y Y T ) ) 9.9.8.T Y <.4.M M <.1.P [.T..X~.W.W.~.^.^.^.^.~.'.t.( ^ ( <.<.<.) L mXMXBX).F S.`.8.T -.<.j 1.( Y <.( <.1.<.<.4.<.1.1.1.1.<.1.<.( ( <.<.<.<.<.<.<.<.<.<.<.<.<.<.=.=.<.<.<.<.<.<.<.M M <.1.1.2.7.7.7.5.5.w.w.w.w.w.5.1.1.1.<.<.<.<.<.<.( <.<.<.<.<.<.<.<.<.<.<.<.<.<.<.<.<.<.<.<.<.<.<.<.<.<.<.<.<.<.<.<.<.<.<.<.<.<.<.<.<.<.<.<.N j M <.1.1.<.<.M M N ( ( ) t.[..X.X'.) Y 1.Y r.oX~.^.^.~.#X'.1.4.M 1.I h.NX;XL T <.B B B <.1.1.<.M M M M M <.<.<.<.<.<.( ( ( <.4.<.<.4.Y p s <.<.<.<.<.<.<.<.<.<.N M M N N N N N N N N M M M <.<.<.<.<.<.<.<.<.<.<.<.<.<.<.<.<.",
"<.M <.<.<.<.<.<.<.<.<.<.<.<.1.<.<.<.<.<.<.<.<.( <.( <.<.<.<.<.<.<.<.<.<.<.<.<.<.<.<.<.M <.<.<.<.<.<.<.<.<.<.<.<.<.<.<.<.<.<.<.<.( ( P 9..X#X~..X~.oXA.) ) 4.1.<.M ) '.^.^./.I./..X.Xb.T j ( P [.;X{ T ( <.2.m B 4.4.<.<.<.<.<.N M M <.<.<.<.<.<.j ( <.1.1.1.5.3.0.0.0.0.8.8.8.8.0.8.8.8.8.1.1.1.( ( ( ( ( ( <.<.<.<.M M <.<.<.<.<.<.<.<.<.<.<.<.<.<.<.<.<.<.<.<.B B B 4.<.<.<.<.<.<.<.<.<.<.<.<.Y Y Y Y 1.1.1.2.2.3.3.3.5.5.3.3.3.2.1.1.( ( ( ( 1.1.1.<.<.<.<.<.<.<.<.<.<.<.4.<.c <.<.Y T ) 1.{ [.'.T.8.T ( M N M M 1.P [.T./.~.W.W.~.^.^.^.^.~.'.t.) ^ ( <.<.<.1.R mXMXBX).F S.].8.-.-.<.( 1.( 1.1.1.2.3.7.7.7.1.2.1.1.1.1.T Y <.<.<.<.<.<.<.<.<.<.<.<.<.<.<.4.=.=.<.<.<.<.<.<.<.<.<.=.1.1.3.7.7.7.5.5.w.w.w.w.w.w.1.1.1.=.<.<.<.<.<.<.<.<.<.<.<.<.<.<.<.<.<.<.<.<.<.<.<.<.<.<.<.<.<.<.<.<.<.<.<.<.<.<.<.<.<.<.<.<.<.<.<.<.<.<.N j M <.1.1.<.<.M M N ( ( ) t.[..X.X'.) Y 1.Y r.oX~.^.^.~.#X'.1.<.s ) S f.NX;XE T <.B M B B 1.1.<.M M M M N <.<.<.<.<.<.( ( ( ( 4.<.<.4.Y t s <.<.<.<.<.<.<.<.<.<.N N M M N N N N N N N M M M <.<.<.<.<.<.<.<.<.<.<.<.<.<.<.<.<.",
"( ( ( j j ( ( 1.( 1.1.1.1.1.2.2.1.1.1.1.1.1.1.1.( ( ( ( ( ( ( ( 1.1.<.<.<.( ( ( <.<.<.<.<.<.<.<.<.<.<.<.<.<.<.<.j j <.<.<.<.<.j ( ( ) 9.#XOXx.~.~.oXC.P P 1.=.<.<.( '.^.Q./.R.R..X.Xb.T ( ( R [.;X9.P ( <.N M B B <.<.<.<.<.j j <.<.<.<.<.<.( ( 5.5.5.5.5.3.3.3.8.8.8.8.8.8.8.8.8.8.8.8.8.8.8.8.1.1.( ( ( ( 1.1.<.<.<.<.<.<.<.<.<.<.<.<.<.<.<.<.<.<.<.<.<.<.<.<.<.<.<.B <.<.<.<.<.<.1.1.1.1.<.Y ( 1.1.2.2.3.3.3.0.0.0.0.8.0.w.r.0.3.r.r.0.1.1.( ( ( =.<.<.<.1.1.<.<.<.<.<.<.<.<.<.<.<.1.T T q.}.[.R.`.A.1.s 4.N <.1.( ) T.W.R.~.W.W.~.^.^.^.^.~.[.t.` ( ( <.<.1.( { iXMXBX(.F C.].8.R -.1.1.2.1.3.3.0.3.0.3.0.3.0.3.r.3.3.1.T Y <.<.<.<.<.<.M M <.<.<.<.<.<.4.4.4.<.<.<.<.<.B B <.<.<.1.1.3.w.w.0.0.8.8.8.8.8.8.8.8.0.3.2.1.( ( <.<.<.<.4.<.<.<.<.<.<.<.<.<.4.4.<.<.<.<.<.<.<.<.<.<.<.<.<.<.<.<.<.<.<.<.<.<.<.<.<.<.<.<.<.<.<.<.N j <.<.<.1.<.c N N <.<.( ) t.#X.X.X`.T Y 1.Y r.[.~.^.^.~..XT.T ( ( ) S OXzXjXL T 1.M M B M =.Y <.M M M <.<.<.<.s j ( ( 1.1.1.1.2.5.2.2.2.s p 2.1.( <.=.Y Y Y Y <.<.<.<.<.<.<.<.<.<.<.<.M <.<.<.<.<.<.<.<.<.<.<.M M M <.<.<.<.<.",
"( Y ( ( 1.1.1.2.1.1.1.2.3.3.3.3.2.5.2.5.2.5.2.5.1.1.1.1.1.( ( ( 1.1.1.<.<.<.<.<.<.<.<.<.<.<.<.<.<.<.<.<.<.<.<.<.<.<.<.<.<.<.( j j ^ ( 0..X.X^.~.~.[.t.P T 1.<.1.<.( '.^.Q.(.R.R..X.Xb.Y ( ( R [.;X9.P ( <.N M B B <.<.<.<.1.1.<.<.<.<.<.1.1.1.1.3.3.3.5.3.3.3.3.8.8.8.8.8.8.8.8.8.8.8.8.8.8.8.8.1.1.1.( ( ( 1.<.<.<.<.<.<.<.<.<.<.<.<.<.<.<.<.<.<.<.<.<.<.<.<.<.<.<.<.<.<.<.<.<.<.<.<.1.1.1.1.( 1.1.3.3.3.3.0.0.0.8.8.8.8.8.w.8.0.0.r.r.0.1.1.1.1.1.1.1.<.<.<.<.<.<.<.<.<.<.<.<.<.<.<.1.T T t.[.[.'.}.`.1.( 4.<.M 1.Y ) T.'.W.~.W.W.~.^.^.^.^.~.[.t.` ( ( <.<.1.( { iXMXBXtXF C.`.{ T -.1.1.3.3.3.3.0.3.0.0.0.0.0.0.r.r.3.1.1.T ( <.<.<.<.<.M M <.<.<.<.<.<.4.4.4.<.<.<.<.<.<.B <.<.=.1.2.3.w.w.8.0.8.8.w.8.w.w.8.8.8.3.3.2.1.1.1.<.<.<.<.<.<.<.<.<.<.<.<.<.4.4.<.<.<.<.<.<.<.<.<.<.<.<.<.<.<.<.<.<.<.<.<.<.<.<.<.<.<.<.<.<.<.<.N j <.1.1.<.1.<.M M j ( ^ ) t.#X.X.X'.) Y 1.Y r.[.~.^.^.~..XT.T ( ( ) S OXzXjXE T <.M M M <.1.1.<.M M <.<.M <.<.<.<.( 1.1.2.2.2.2.7.2.2.2.s s 2.1.1.1.1.1.1.1.1.j M M M M M <.<.<.<.<.<.M <.<.<.<.<.<.<.<.<.<.<.<.<.<.<.<.<.<.<.",
"Y ^ ( 1.1.3.3.3.3.3.3.3.0.r.r.r.0.3.0.3.0.3.0.3.0.3.3.5.1.1.1.1.=.=.1.1.1.<.<.<.<.<.<.<.<.<.N <.<.<.<.<.<.<.<.<.<.<.<.( <.j <.j j j P | ~..X^.~.R.[.t.^ ( 1.1.4.<.( R.^.Q./.R.R..X.Xb.Y ( ( R [.;Xe.R ) <.N M M B <.<.<.<.1.4.1.( ( 1.1.1.1.2.2.3.3.3.3.3.3.3.3.0.8.8.8.8.8.8.8.8.8.8.8.8.8.8.8.3.3.1.1.1.( <.<.<.<.<.<.<.<.M <.<.<.<.<.<.<.<.<.<.<.<.<.<.<.<.<.<.M <.<.<.<.<.<.Y Y 1.1.1.1.1.1.3.3.3.r.r.r.r.r.8.8.8.8.8.8.8.8.8.0.0.0.0.1.1.1.3.1.1.1.<.<.<.1.( ( <.<.<.M B <.<.<.<.( T 8.t.[.#X'.[.`.3.1.4.<.j ( P ) T..X~.~.W.W.~.^.^.^.^.~.[.t.` ( ( <.<.1.( { iXMXBXtXX.V.`.{ Q 8.2.5.r.0.3.8.8.8.8.8.8.8.8.8.0.0.8.8.1.1.( ( ( ( <.<.M M <.<.<.<.<.4.4.4.4.4.<.<.<.<.<.<.<.<.<.<.1.w.w.w.8.8.8.8.8.8.8.8.8.8.8.0.0.3.1.1.( <.<.<.<.<.<.<.<.<.<.<.4.4.4.4.<.<.<.<.<.<.<.<.<.<.<.<.<.<.<.<.<.<.<.<.<.<.<.<.<.<.<.<.<.<.<.<.j j ( ( =.1.<.<.M j ( ( Y ) t.[..X.X'.) ( 2.Y r.[.~.^.^.~..XT.T ( ( ) L $XzXjXE T ( M M M <.1.1.<.4.4.<.<.<.<.1.1.1.1.1.3.3.0.r.3.7.5.5.3.s s 7.2.2.2.2.2.2.2.2.( j j <.M <.<.<.<.<.<.<.<.<.<.<.<.<.<.<.<.<.<.<.<.<.<.<.<.<.<.<.",
"T ( 1.1.0.0.0.0.8.8.8.8.w.w.r.r.3.3.3.3.3.3.8.8.r.0.0.0.3.3.1.3.1.1.1.1.1.1.Y Y <.<.<.<.<.<.N N <.<.<.<.<.<.<.<.<.<.( j <.<.<.<.( ( ( | .X.X^.~.R.[.C.^ ( 1.<.1.<.( R.^.Q.(.R.R..X.Xb.T j ( I [.lXe.R T ( j M M M <.<.<.1.1.1.1.Y ( 1.1.1.3.3.3.3.3.3.3.3.0.0.0.8.8.8.8.8.8.8.8.8.8.8.8.8.8.8.0.0.3.3.1.1.1.<.<.<.<.<.<.<.<.M M <.<.<.<.<.<.<.<.<.<.<.<.<.<.<.<.<.M <.<.<.<.<.<.Y Y 1.<.2.3.3.0.3.3.0.r.r.r.r.r.8.8.8.8.8.8.8.8.8.8.8.r.r.0.8.3.1.1.1.( <.1.1.4.( ( <.<.<.N M B <.<.1.( T 8.h.[..X.X#X].0.1.1.Y s ( P { R.~.~.~.W.W.~.^.^.^.^.~.[.t.` ( ( <.<.1.( | mXMXBXgX]  .}.9.>.e.3.5.r.0.8.8.8.8.8.8.8.8.8.8.8.0.8.8.8.3.1.<.( ( <.<.<.<.<.<.<.<.4.4.4.4.4.4.<.<.<.<.<.<.<.<.=.1.1.w.w.8.8.8.8.8.8.8.8.8.8.8.8.0.0.0.3.5.( ( ( ( <.<.<.<.<.<.<.<.4.4.4.<.<.<.<.<.<.<.<.<.<.<.<.<.<.<.<.<.<.<.<.<.<.<.<.<.<.<.<.<.<.<.<.<.j j Y Y T =.<.<.<.( ( ) ( ) q.[..X.X`.) ( 2.Y r.[.~.^.^.~..XT.T ( ( / L OXzXjXE T ( M M M <.1.( <.<.<.<.1.1.1.1.2.1.3.3.8.r.8.r.0.r.7.7.5.s s 7.7.7.7.7.5.5.2.2.1.1.1.1.<.<.( ( <.<.( <.<.<.Y Y <.<.<.<.<.<.<.<.<.<.<.<.<.<.<.<.",
"1.1.3.0.0.0.8.8.8.8.8.8.8.8.8.8.8.8.8.8.8.8.8.8.8.8.8.8.0.0.0.0.8.3.3.1.1.( ( ( ( ( ( ( ( j j j ( ( ( ( ( ( ( ( ( ( j j <.<.2.2.2.1.` 9.oXOXl.~.~.oXC.^ ( ( Y ( <.( '.^.Q./.R.R..X.Xb.T ( ( I [.lXf.R ) ( j M M M 4.1.=.T Y ( ( ( ( 1.1.3.0.0.r.0.8.0.0.0.8.8.8.8.8.8.8.8.8.8.8.8.8.8.8.8.8.8.8.w.r.8.3.1.1.1.( <.<.<.<.<.M M M <.<.<.<.<.<.<.<.<.<.<.<.<.<.<.<.<.M M <.<.<.<.<.=.<.1.2.3.0.r.r.8.8.0.0.w.8.8.8.8.8.8.8.8.8.8.8.9.8.8.8.r.0.0.0.3.1.1.1.( ( ( ( ( ( <.<.<.N N N M <.1.T T 9.T.#X.X'.#X}.8.1.1.Y Y ) T | R.~.~.~.~.W.~.^.^.^.^.~.[.t.` ( ( <.<.1.( 9.mXMXMXkX] ..[.9.,.e.5.5.7.3.8.8.8.8.8.8.8.8.8.8.8.8.8.8.8.0.1.<.<.( <.<.<.<.<.<.<.<.<.<.<.<.4.4.4.4.<.<.<.<.<.1.1.1.8.w.w.8.8.8.8.8.8.8.8.8.8.8.8.0.0.0.0.3.1.<.( ( <.<.<.<.<.<.<.<.4.<.<.<.<.<.<.<.<.<.<.<.<.<.<.<.<.<.<.<.<.<.<.<.<.<.<.<.<.<.<.<.<.<.<.<.j j Y Y T =.1.2.2.1.1.1.) { f..X~.'.T.T Y 2.Y r.[.~.^.^.~..XT.T ( Y ) E =XzXjXE T ( M B M j Y Y <.<.<.1.2.2.2.3.3.3.8.8.8.8.8.8.8.r.8.8.3.U t 3.3.3.3.3.3.3.3.2.3.5.2.1.1.1.( ( ( ( ( ( ( ( Y Y <.<.<.<.<.<.<.<.<.<.<.<.<.j ( ( ",
"8.8.8.8.8.8.8.8.8.8.8.8.8.8.8.8.8.8.8.8.8.8.8.8.8.8.8.8.8.8.r.r.r.r.0.3.1.1.( ( ( ( ( ( ( j j j ( ( ( ( ( ( ( ( j ( ( ( 1.2.6.6.6.3.) 9.oX/.x.~.~.oXC.) ) ( ( <.<.( R.^.Q./.R.R..X.Xb.T ( ( I #XzXh.T ) ( j N m M <.<.=.Y T ( ( 1.1.1.3.3.8.0.r.0.8.8.8.8.8.9.9.8.8.8.8.8.8.8.8.8.8.8.8.8.8.8.8.w.w.r.0.3.1.1.1.<.<.<.<.<.M M M <.<.<.<.<.<.<.<.<.<.<.<.<.<.<.<.<.M M B <.<.<.<.1.1.3.3.0.r.r.r.8.8.8.0.8.8.8.8.8.8.8.8.8.8.8.9.8.9.8.8.8.r.8.0.r.3.3.2.1.( Y s ( ( <.<.<.N N N M <.( P 1.t.'.#X.X~.#X}.8.1.1.1.( 1.) | '..X^.~.~.W.~.^.^.^.^.^.[.t.` ( ( <.<.<.Y 9.mXfXMXzX] |  Xe.,.e.7.5.7.3.8.8.8.8.8.8.8.8.8.8.8.8.8.8.8.0.5.2.1.<.<.<.<.<.<.<.<.<.<.<.<.<.4.4.<.<.<.<.<.<.1.1.1.1.w.w.w.8.8.8.8.8.8.8.8.8.8.8.8.8.8.0.3.3.4.1.<.<.<.<.<.4.<.<.<.<.<.<.<.<.<.<.<.<.<.<.<.<.<.<.<.<.<.<.<.<.<.<.<.<.<.<.<.<.<.<.<.<.<.<.<.<.j ^ Y T T 1.1.2.7.5.5.3.8.| f..X~.'.`.) ( 5.( t.oX~.^.^.~..XR.T ( Y T E jXzXjXE T ( M M M j Y Y 1.<.1.2.2.5.r.r.8.8.8.8.8.8.8.8.8.r.8.3.3.U t 3.3.3.3.3.3.3.3.3.r.7.7.3.2.1.1.1.1.1.( ( ( ( Y ( <.<.<.<.<.<.<.<.( ( <.<.<.<.<.<.",
"8.8.8.8.8.8.8.8.8.8.8.8.9.9.9.8.8.8.8.8.8.8.8.8.8.8.8.8.8.8.8.8.r.r.r.0.3.3.1.1.( ( ( ( ( j j j ( ( ( ( ( ( ( ( ( ( 1.2.2.3.6.3.3.3.) 9..X/.^.~.R.oXC.) ` 3.1.4.( ( R.^.Q./.R.R..X.Xb.T j ( I #XzXh.T ( ( j M M N M Y Y T ( 1.1.3.8.8.8.8.8.8.8.8.8.8.8.9.9.9.9.8.0.0.0.0.0.0.0.0.0.0.0.0.0.0.0.8.w.w.r.3.2.1.1.<.<.<.<.<.M M M <.<.<.<.<.<.<.<.<.<.<.<.<.<.<.<.<.N N N <.<.<.<.2.5.3.3.r.8.8.8.8.8.8.8.8.8.8.8.8.8.8.8.8.8.8.9.9.9.9.9.9.8.r.0.0.3.r.7.5.1.1.( ( ( ( <.<.N N N j <.( P 1.f.'.#X.X~.#X'.9.1.5.1.1.3.8.9.W..X^.^.~.W.~.^.^.^.^.~.[.t.` ( ( <.<.1.Y q.mXfXMXzX] '  X9.,.e.r.7.7.3.8.8.8.8.8.8.8.8.8.8.8.8.8.8.8.0.7.6.2.<.<.<.<.<.<.<.<.<.<.<.<.<.<.<.<.<.<.<.<.<.1.=.1.1.w.w.w.8.8.8.8.8.9.9.8.8.8.8.8.8.8.3.3.3.5.2.<.<.<.<.<.4.<.<.<.<.<.<.<.<.<.<.<.<.<.<.<.<.<.<.<.<.<.<.<.<.<.<.<.<.<.<.<.<.<.<.<.<.<.<.<.<.( ^ ) 1.1.8.8.3.7.5.3.3.8.9.h..X.X.X'.1.1.3.1.A.oX~.^.^.~..X`.T ( Y T E jXNXjXQ T ( N M 4.4.1.1.2.2.2.3.5.5.r.w.8.8.8.8.8.8.9.8.8.r.3.3.3.K t 1.8.3.3.3.3.3.3.3.7.7.3.3.3.3.3.3.3.1.1.1.1.1.1.1.<.<.<.<.<.<.<.<.<.<.<.<.4.2.2.2.",
"8.8.8.8.8.8.8.q.8.8.8.8.9.9.9.9.8.8.8.8.8.8.8.8.e.r.e.8.8.8.8.8.8.8.8.8.0.0.3.3.( ( ( ( ( ( ( ( ( ( ( ( ( ( ( ( ) 1.2.5.5.5.5.3.3.` ) 9.'..X~.~.R.oXI.{ 0.0.3.3.( T R.~.Q.(.R.~..X.Xb.P ( ^ I #XzXh.T ) ( j N M j j Y P ) 1.3.0.0.8.w.8.8.8.8.8.9.8.8.8.9.9.9.9.8.0.0.0.0.0.0.0.0.0.0.0.0.0.0.8.8.w.w.w.3.3.1.1.1.<.<.<.<.<.<.M <.<.<.<.<.<.<.<.<.<.<.<.<.<.<.<.<.<.<.<.<.1.<.( 7.7.7.r.r.8.8.8.8.8.8.r.r.8.8.8.8.8.8.8.8.8.8.8.e.r.8.9.9.9.8.r.1.1.r.r.r.r.3.3.( ( ( ( <.<.<.<.j ( ( T { h..X#X.X~.#X'.9.8.r.3.1.8.8.q.'..X~.^.~.~.~.~.^.^.~.~.[.t.) ( ( <.<.( P q.mXsXMXBX[ ' }.8.8.e.r.7.r.0.8.8.8.8.8.8.8.8.8.8.8.8.8.8.8.8.r.7.5.1.1.<.<.<.<.<.<.<.<.<.<.<.<.<.<.<.<.<.<.<.=.1.1.1.w.w.w.8.8.8.8.8.8.8.8.8.8.8.8.8.8.8.3.3.7.5.4.1.<.<.<.<.<.<.<.<.<.<.<.<.<.<.<.<.4.<.<.<.<.<.<.<.4.<.4.<.<.<.<.<.<.<.<.<.<.<.<.<.<.<.<.<.( ( 1.8.8.r.r.r.r.3.3.0.9.9.f.R.OX.X'.8.1.r.1.A.oX~.^.^.~.#X`.T ( P T E jXNXjX! R Y <.4.4.5.3.0.r.7.r.r.w.8.8.8.8.8.8.8.8.8.9.9.8.r.3.3.1.t t 1.3.8.8.8.8.3.3.3.3.3.3.3.3.8.3.0.0.0.0.3.3.3.1.1.( ( 1.( 1.( <.( 1.1.1.1.2.5.7.3.",
"8.8.8.8.8.8.8.8.8.8.8.8.8.8.8.8.8.8.8.8.8.8.8.8.8.8.8.8.8.8.8.8.8.8.8.8.8.8.8.8.8.3.3.1.1.) ) ( Y Y ( ( ( 1.1.1.3.3.3.3.3.3.3.3.1.0.0.9.W.OX~.^.~..Xf.{ 9.0.1.0.0.8.T.#X^.~.(.~.OXR.t.R ) / L oXzX~.L T 1.c 2.<.( ( ) ) { { 8.0.8.8.8.8.8.8.8.9.9.9.8.8.9.9.9.8.8.8.8.8.8.8.8.8.8.8.8.8.8.8.8.8.8.8.8.8.8.8.0.3.T Y ( 1.1.<.( j M M M <.<.<.4.4.M M M <.<.4.<.<.j j j ( 1.2.5.3.3.0.8.8.8.8.8.8.8.8.8.8.8.8.8.8.8.8.8.8.8.8.8.8.8.8.8.8.8.8.8.8.8.8.8.8.8.8.8.8.1.1.1.1.1.1.1.( ( ) T T } I.W.~.~.~..X'.q.8.r.1.8.8.8.q..X.X^.~.~.~.~.~.~.~.~.W.[.T.{ L T Y Y 1.) E BXsXZXBXQ.] T.Z.r.8.8.r.0.0.8.8.8.8.8.8.8.8.8.8.8.8.8.8.8.8.8.8.0.0.1.1.( Y ( ( 1.1.<.<.M j <.( ( ( ( ( ( ( Y ( 1.8.r.r.e.8.8.8.8.8.8.8.8.8.8.8.8.8.8.8.8.0.3.3.3.3.5.1.( j ( ( N N N j j j <.<.4.<.4.4.4.4.4.<.4.4.4.4.4.<.<.<.<.<.<.<.<.<.<.<.<.<.<.<.<.( 0.0.8.8.8.8.0.0.0.3.8.r.8.| f.'..XoXh.8.w.8.8.t.'.~.^.~.~.~.h.8.1.) ] @.zXzXkXW 9.0.7.5.5.3.0.8.8.8.8.8.8.8.8.8.8.8.8.8.8.8.8.8.8.r.0.3.5.u t 4.7.r.8.8.8.0.0.0.8.8.8.8.8.8.8.8.8.8.8.8.8.8.8.8.8.0.0.0.0.0.0.0.0.0.0.0.0.0.0.0.",
"8.8.8.8.8.8.8.8.8.8.8.8.8.8.8.8.8.8.8.8.8.8.8.8.8.8.8.8.8.8.8.8.8.8.8.8.8.8.8.8.8.8.8.8.8.1.1.1.1.1.1.1.3.3.3.3.3.3.3.3.3.3.3.3.1.q.| 9.T.#X~.^.~..Xf.{ 9.r.1.0.8.8.T.oX^.^.(.~..XR.t.T { / L oXzX/.L T 1.<.6.4.1.` ) { { | 8.0.8.8.8.8.9.9.9.9.9.9.8.8.9.9.8.8.8.8.8.8.8.8.8.8.8.8.8.8.8.8.8.8.8.8.8.8.8.8.8.0.1.) ( ( ( ( ( ( <.M <.<.<.<.<.<.<.<.<.<.<.<.<.<.j j ( 1.1.2.3.3.0.0.8.8.8.8.8.8.8.8.8.8.8.8.8.8.8.8.8.8.8.8.8.8.8.8.8.8.8.8.8.8.8.8.8.8.8.8.8.8.r.r.8.3.3.3.1.1.1.) { { q.W./.~.^.~..X.Xq.9.r.1.8.8.8.q..X.X~.~.~.~.~.~.~.~.~.Y.T.T.9.T 1.1.T 1./ E BXsXZXMXl.[ C.Z.r.8.8.8.0.0.8.8.8.8.8.8.8.8.8.8.8.8.8.8.8.8.8.8.8.8.8.1.) ) ( ( ( ( ( ( <.( j j j ( ( ( ( ( ( ) 1.8.w.r.9.8.8.8.8.8.8.8.8.8.8.8.8.8.8.8.8.8.3.3.3.3.3.1.1.) ( j j j j k j j <.4.4.4.4.4.4.4.4.4.4.4.4.4.4.<.<.<.<.<.<.<.<.<.<.<.( ( ( 1.1.1.8.8.8.8.8.0.0.0.0.3.8.0.8.| f.[.~.oXh.9.8.8.9.h.~.~.~.Q.~.~.h.| 8.8.] $.NXNXkX+.9.0.3.5.3.3.8.9.8.8.8.8.8.8.8.8.8.8.8.8.8.8.8.8.8.r.0.3.2.y t <.7.r.8.8.8.0.0.0.8.8.8.8.8.8.8.8.8.8.8.8.8.8.8.8.8.8.8.8.8.8.8.8.8.8.8.8.8.8.8.8.",
"8.8.8.8.8.8.8.8.8.8.8.8.8.8.8.8.8.8.8.8.8.8.8.8.8.8.8.8.8.8.8.8.8.8.8.8.8.8.8.8.8.8.8.8.8.8.8.8.3.0.0.0.0.r.r.r.3.0.0.0.0.0.3.0.1.q.| 9.T.oX~.~.~..Xf.{ 9.r.1.0.8.8.T.oX^.^.(.Q..XR.t.{ 9.{ E oXzXOXE ) 3.<.7.4.5.3.{ | | | 0.0.8.8.8.8.8.8.9.9.9.9.8.8.8.8.8.8.8.8.8.8.8.8.8.8.8.8.8.8.8.8.8.8.8.8.8.8.8.8.8.0.3.3.1.( ( ( ( <.<.<.<.<.<.<.M M 4.4.<.<.<.<.<.<.( ( 1.1.5.3.3.3.0.0.8.8.8.8.8.8.8.8.8.8.8.8.8.8.8.8.8.8.8.8.8.8.8.8.8.8.8.8.8.8.8.8.8.8.8.8.8.8.r.r.r.r.0.3.3.3.0.0.8.| f.~.OX/.~.~..X'.q.9.q.8.8.8.8.k.#X.X~.~.~.~.~.~.~.~.~.Y.T.W.9.{ r.3.1.1./ [ BXsXZXMX!.[ C.Z.r.8.8.8.0.0.8.8.8.8.8.8.8.8.8.8.8.8.8.8.8.8.8.8.8.r.0.1.1.1.( ( ( ( ( ( <.<.j j ( j j ( ( Y ( 1.1.8.r.r.8.8.8.8.8.8.8.8.8.8.8.8.8.8.8.8.8.8.3.3.0.0.3.3.1.1.( ( j j j j j N <.<.<.<.<.<.4.4.<.<.<.<.4.<.<.<.<.<.<.<.<.<.<.<.<.( ( ( ( 1.1.3.8.8.8.8.w.0.7.7.0.3.8.0.{ | f.W.~.oXh.8.8.8.9.h.~.~.~.Q.~.~.h.8.0.0.} g.NXNXkX@.9.8.3.5.3.3.8.9.8.8.8.8.8.8.8.8.8.8.8.8.8.8.8.8.8.r.0.3.2.y r <.7.r.8.8.8.0.0.0.8.8.8.8.8.8.8.8.8.8.8.8.8.8.8.8.8.8.8.8.8.8.8.8.8.8.8.8.8.8.8.8.",
"8.8.8.8.8.8.8.8.8.8.8.8.8.8.8.8.8.8.8.8.8.8.8.8.8.8.8.8.8.8.8.8.8.8.8.8.8.8.8.8.8.8.8.8.8.8.8.0.8.3.0.0.0.0.r.r.0.0.0.0.0.0.0.0.1.q.{ | T.oX~.~.~..Xh.{ 8.r.1.8.8.8.T.oX^.~.(.Q..X'.T.{ e.| E oXzXOX] { 3.4.y.6.7.0.0.0.| | 8.8.8.8.8.8.8.8.8.8.8.8.8.9.8.8.8.8.8.8.8.8.8.8.8.8.8.8.8.8.8.8.8.8.8.8.8.8.8.8.8.0.r.3.2.1.( ( ( ( ( M M <.<.<.<.<.<.<.<.<.<.<.<.<.( ) 1.3.7.7.3.3.0.8.8.8.8.8.8.8.8.8.8.8.8.8.8.8.8.8.8.8.8.8.8.8.8.8.8.8.8.8.8.8.8.8.8.8.8.8.8.8.r.r.8.0.3.3.2.3.1.8.8.| k.~./.~.~.~..X'.q.9.q.8.8.8.8.k.#X.X~.~.~.~.~.~.~.~.~.~.W.T.q.9.t.r.1.8.)  .BXsXAXMX(.[ C.Z.r.8.8.8.0.0.8.8.8.8.8.8.8.8.8.8.8.8.8.8.8.8.8.8.8.0.0.0.0.3.1.1.( ( Y ( <.<.<.j ( ( ( ( ^ Y 1.1.8.8.8.8.8.8.8.8.8.8.8.8.8.8.8.8.8.8.8.8.8.8.8.3.8.0.0.0.3.5.1.1.( j j j j ( <.<.<.<.<.<.<.<.<.<.<.<.<.<.<.<.<.<.<.<.<.<.<.<.<.Y <.1.1.1.3.0.8.8.8.8.w.7.7.7.3.3.8.r.{ | f.W.~.oXh.8.8.8.9.h./.~.~.Q.~.~.h.8.r.8.} g.NXNXkX@.9.8.3.5.3.3.8.9.8.8.8.8.8.8.8.8.8.8.8.8.8.8.8.8.8.r.3.3.2.y r j 7.r.8.8.8.0.0.0.8.8.8.8.8.8.8.8.8.8.8.8.8.8.8.8.8.8.8.8.8.8.8.8.8.8.8.8.8.8.8.8.",
"8.8.8.8.8.8.8.8.8.8.8.8.8.8.8.8.8.8.8.8.8.8.8.8.8.8.8.8.8.8.8.8.8.8.8.8.8.8.8.8.8.8.8.8.8.8.8.8.8.3.3.0.0.0.0.0.0.0.0.0.0.0.3.0.3.0.{ | T.oX~.~.~..Xh.{ 8.r.1.8.8.8.T.oX^.^.(.Q..X'.T.9.e.0.E oXzXgX} 9.8.5.i.5.3.3.0.| { { 8.8.8.8.8.8.8.8.8.0.8.8.8.8.8.8.8.8.8.8.8.8.8.8.8.8.8.8.8.8.8.8.8.8.8.8.8.8.8.8.8.0.0.0.3.3.1.1.( ( s s s <.<.<.1.1.<.<.<.<.<.<.<.<.1.1.5.7.r.7.0.0.8.8.8.8.8.8.8.8.8.8.8.8.8.8.8.8.8.8.8.8.8.8.8.8.8.8.8.8.8.8.8.8.8.8.8.8.8.8.8.8.8.8.8.3.1.1.1.3.1.8.| } k.W.~.~.~.~..X'.q.8.q.8.8.8.8.q.#X.X~.~.~.~.~.~.~.~.~.~..XW.q.{ r.r.w.r.) g.BXvXAXvX6X[ C.Z.r.8.8.8.0.0.8.8.8.8.8.8.8.8.8.8.8.8.8.8.8.8.8.8.8.0.0.0.0.0.3.2.1.( ( ( <.( j j ( ( ( ( ( Y 1.1.8.8.8.8.8.8.8.8.8.8.8.8.8.8.8.8.8.8.8.8.8.8.8.8.8.0.0.0.0.3.3.5.1.) ( j j j <.<.<.<.<.<.<.<.<.<.<.<.<.<.<.<.<.M N <.<.<.<.<.<.1.( ) 1.3.0.r.8.8.8.8.8.0.0.3.0.3.8.0.{ | f.[.~.oXh.8.8.8.9.h././.~.Q.~.~.h.8.0.8.} U.NXkXkX@.9.0.3.7.3.0.8.8.8.8.8.8.8.8.8.8.8.8.8.8.8.8.8.8.8.0.3.3.3.y r s 7.w.8.8.8.0.3.3.8.8.8.8.8.8.8.8.8.8.8.8.8.8.8.8.8.8.8.8.8.8.8.8.8.8.8.8.8.8.8.8.",
"8.8.8.8.8.8.8.8.8.8.8.8.8.8.8.8.8.8.8.8.8.8.8.8.8.8.8.8.8.8.8.8.8.8.8.8.8.8.8.8.8.8.8.8.8.8.8.8.0.0.0.0.0.0.0.0.0.0.0.0.0.0.3.0.3.0.{ | T.oX~..X~..Xf.{ 8.8.3.0.8.8.T.#X^.^.(.Q..X'.T.9.e.9.] <XzXgX@.| 8.5.i.5.3.3.{ { { 8.8.8.8.8.8.8.8.0.8.0.8.8.8.8.8.8.8.8.8.8.8.8.8.8.8.8.8.8.8.8.8.8.8.8.8.8.8.8.8.8.8.8.3.0.0.7.3.1.1.( Y Y =.<.1.1.1.1.Y ( =.<.1.1.1.1.2.2.3.3.7.r.0.0.8.8.8.8.8.8.8.8.8.8.8.8.8.8.8.8.8.8.8.8.8.8.8.8.8.8.8.8.8.8.8.8.8.8.8.8.8.8.8.8.9.9.8.8.0.3.3.3.8.8.9.9.f.~.~.~.~.~..X'.q.8.q.8.8.8.8.q.#X~.~.~.~.~.~.~.~.~.~.~.oXW.e.{ 8.r.w.t.] U.BXsXAXvXgX] I.Z.r.8.8.8.0.0.8.8.8.8.8.8.8.8.8.8.8.8.8.8.8.8.8.8.8.8.0.0.0.0.r.3.2.1.1.( <.( ( ( ( ( ( ( ( ( 3.3.8.8.8.8.8.8.8.8.8.8.8.8.8.8.8.8.8.8.8.8.8.8.8.8.8.8.8.8.8.0.r.3.2.1.( ( ( ( <.<.<.<.<.<.<.<.<.<.<.<.<.<.<.B M M N N <.<.<.1.1.1.1.1.8.8.w.8.8.8.8.8.8.0.0.0.0.3.8.0.8.| f.[.~.oXh.8.8.8.9.h.W.~.~.Q.~./.h.8.0.{ } ~.NXkXkX@.9.0.3.7.3.0.8.9.8.8.8.8.8.8.8.8.8.8.8.8.8.8.8.8.8.0.3.1.3.s r s 7.w.8.8.8.0.0.3.8.8.8.8.8.8.8.8.8.8.8.8.8.8.8.8.8.8.8.8.8.8.8.8.8.8.8.8.8.8.8.8.",
"8.8.8.8.8.8.8.8.8.8.8.8.8.8.8.8.8.8.8.8.8.8.8.8.8.8.8.8.8.8.8.8.8.8.8.8.8.8.8.8.8.8.8.8.8.8.8.8.0.0.0.0.0.0.0.0.8.8.8.8.8.8.8.0.3.0.{ ] T.[.W..X'..Xf.{ 8.8.3.0.8.8.R.oX^.^.(.Q..X'.h.{ 9.| E OXzXgXf.| 8.5.F.5.3.1.8.{ 8.8.0.0.8.8.0.0.8.0.0.3.0.3.3.8.0.0.8.8.8.8.8.8.8.8.8.8.8.8.8.8.8.8.8.8.8.8.8.8.8.8.8.8.3.3.0.3.3.3.3.2.<.<.1.1.1.1.1.<.Y <.1.1.2.2.2.2.3.3.3.3.3.0.0.0.8.8.8.8.8.8.8.8.8.8.8.8.8.8.8.8.8.8.8.8.8.8.8.8.8.8.8.8.8.8.8.8.8.8.8.8.8.8.8.8.9.9.8.8.0.0.3.3.0.0.9.q.f.~.~.^.~.~..X'.q.8.r.8.8.8.8.q.oX/.~.~.^.^.~.~.~.~.~.~..XW.9.Q 8.8.8.r.{ R.BXsXAXvXhX] I.C.r.8.8.8.0.0.8.8.8.8.8.8.8.8.8.8.8.8.8.8.8.8.8.8.8.8.8.8.3.3.r.3.3.2.1.1.1.( ( ( ( ) 1.1.1.1.0.0.8.8.8.8.8.8.8.8.8.8.8.8.8.8.8.8.8.8.8.8.8.8.8.8.8.8.8.8.8.8.8.3.3.3.1.1.1.1.<.<.<.<.<.<.<.<.<.<.<.<.<.<.<.M N N N N <.<.<.<.( 1.1.8.8.8.8.8.8.8.8.8.8.0.0.0.8.3.8.0.9.| f.[.~.oXh.8.8.8.9.h.W.~.~.Q.~./.h.8.0.{ } ~.BXhXkX#.} 9.3.7.3.0.8.9.8.8.8.8.8.8.8.8.8.8.8.8.8.8.8.8.8.0.1.1.3.j r s 7.w.8.8.8.0.0.0.8.8.8.8.8.8.8.8.8.8.8.8.8.8.8.8.8.8.8.8.8.8.8.8.8.8.8.8.8.8.8.8.",
"8.8.8.8.8.8.8.8.8.8.8.8.8.8.8.8.8.8.8.8.8.8.8.8.8.8.8.8.8.8.8.8.8.8.8.8.8.8.8.8.8.8.8.8.8.8.8.8.8.8.8.8.8.3.3.3.8.8.8.8.8.8.8.8.1.q.{ { I.'.W.'.'.'.h.{ 8.8.3.8.8.8.T.oX^.^.(.Q..X'.T.{ 0.| E OXzXgX@.9.8.2.F.5.3.1.8.{ 9.r.0.0.8.8.0.0.0.3.3.3.7.3.3.3.0.0.8.8.8.8.8.8.8.8.8.8.8.8.8.8.8.8.8.8.8.8.8.8.8.8.8.8.0.0.3.3.3.3.r.r.3.2.2.1.1.( T Y =.1.1.1.3.5.7.3.0.3.3.3.3.0.0.0.8.8.8.8.8.8.8.8.8.8.8.8.8.8.8.8.8.8.8.8.8.8.8.8.8.8.8.8.8.8.8.8.8.8.8.8.8.8.8.8.8.8.8.8.8.3.3.3.8.8.9.9.f.~.~.~.~.~..X'.q.8.r.8.8.8.8.q.oX/.~.~.^.^.~.~.~.~.~.~..XW.e.{ 9.8.8.8.{ /.BXsXAXsXhX[ I.Z.r.8.8.8.0.0.8.8.8.8.8.8.8.8.8.8.8.8.8.8.8.8.r.8.8.8.8.8.1.3.3.0.3.3.3.2.2.1.( ( ( 1.1.1.1.1.0.0.8.8.8.8.8.8.8.8.8.8.8.8.8.8.8.8.8.8.8.8.8.8.8.8.8.8.8.8.8.8.8.8.8.3.0.3.1.1.<.<.<.<.<.<.<.<.<.<.<.<.<.<.<.<.N N N <.<.<.<.1.T 1.8.w.r.9.8.8.8.8.8.8.8.0.0.0.3.3.8.9.9.| f.[.~.oXh.8.8.8.9.h.~.~.~.Q.~./.h.8.8.8.} ~.BXhXhXg.} 9.3.7.3.8.8.9.8.8.8.8.8.8.8.8.8.8.8.8.8.8.8.8.8.0.1.1.3.j 7 s 7.w.8.8.8.0.0.0.8.8.8.8.8.8.8.8.8.8.8.8.8.8.8.8.8.8.8.8.8.8.8.8.8.8.8.8.8.8.8.8.",
"8.8.8.8.8.8.8.8.8.8.8.8.8.8.8.8.8.8.8.8.8.8.8.8.8.8.8.8.8.8.8.8.8.8.8.8.8.8.8.8.8.8.8.8.8.8.8.8.8.8.8.8.8.8.8.8.8.8.8.8.8.8.8.8.8.0.8.| t.oXoXR.#XT.9.{ 8.r.8.8.8.8.h.oX~.Q.^.^.W.'.9.{ e.{ } OXNXxXg.E 1.3.2.7.3.1.8.0.0.8.8.8.K A P 1.r.r.7.7.i.2.1.3.r.r.8.) 8.8.8.8.8.8.8.8.8.8.8.8.8.8.8.8.8.8.8.8.8.8.8.8.8.8.8.0.0.0.0.0.3.3.3.3.3.3.3.3.0.3.0.3.0.3.0.0.0.0.0.0.8.8.8.8.8.8.8.8.8.8.8.8.8.8.8.8.8.8.8.8.8.8.8.8.8.8.8.8.8.8.8.8.8.8.8.8.8.8.8.8.8.8.8.8.8.8.8.8.8.0.0.0.8.9.8.} R..X~.~.~.~..Xh.e.8.8.3.1.r.T e.oXR.~.~.~.~.~.~.~.~.~.~.~.#Xe.9.e.1.w.r.{ R.BXsXAXMXbX$.| V.r.8.e.e.8.0.8.8.8.8.8.8.8.8.8.8.8.8.8.8.8.8.0.0.0.0.0.0.0.0.0.0.0.3.3.3.7.7.5.5.5.5.3.3.3.3.8.8.8.8.8.8.8.8.8.8.8.8.8.8.8.8.8.8.8.8.8.8.8.8.8.8.8.8.8.8.8.8.8.8.8.8.8.8.8.3.<.<.<.<.1.1.1.1.Y Y Y <.<.<.<.<.<.<.<.<.<.( ( Y 3.8.8.8.8.9.9.8.8.8.8.8.8.0.r.r.0.0.8.r.9.| f.T.W.oXh.8.w.8.8.f.W.Q.~.~./.~.h.9.t.{ } OXkXmXmX@.9.8.0.7.3.8.8.9.8.8.8.8.8.8.8.8.8.8.8.8.8.8.8.8.8.0.0.3.2.a t t 7.w.w.w.8.8.1.1.8.8.8.8.8.8.8.8.8.8.8.8.8.8.8.8.8.8.8.8.8.8.8.8.8.8.8.8.8.8.8.8.",
"8.8.8.8.8.8.8.8.8.8.8.8.8.8.8.8.8.8.8.8.8.8.8.8.8.8.8.8.8.8.8.8.8.8.8.8.8.8.8.8.8.8.8.8.8.8.8.8.8.8.8.8.8.8.8.8.8.8.8.8.8.8.8.8.0.q.9.{ 9.`.[.I.#XI.9.8.8.r.w.8.8.8.h.oX~.Q.^.~.W.'.9.{ e.{ } OXzXhXg.E P U s <.3.1.{ 8.8.8.8.8.L L ) 3.r.7.5.5.<.s s 1.r.r.0.8.8.8.8.8.8.8.8.8.8.8.8.8.8.8.8.8.8.8.8.8.8.8.8.8.8.8.8.8.8.0.8.0.3.3.3.3.8.8.3.3.0.0.0.0.0.0.0.0.0.0.8.8.8.8.8.8.8.8.8.8.8.8.8.8.8.8.8.8.8.8.8.8.8.8.8.8.8.8.8.8.8.8.8.8.8.8.8.8.8.8.8.8.8.8.8.8.9.8.8.8.8.0.0.0.8.9.{ } R..X~.~.~.~..Xh.9.8.8.3.3.r.T q.#XW.~.~.~.~.~.~.~.~.~.~.~.#Xe.9.q.8.r.r.{ R.BXsXAXAXbX$.] V.r.8.e.e.8.0.8.8.8.8.8.8.8.8.8.8.8.8.8.8.8.8.0.0.0.0.0.0.0.0.3.0.r.0.0.3.w.7.3.5.3.5.3.3.3.3.8.8.8.8.8.8.8.8.8.8.8.8.8.8.8.8.8.8.8.8.8.8.8.8.8.8.8.8.8.8.8.8.8.8.8.8.8.8.8.0.3.2.2.4.1.1.<.Y Y Y Y Y Y Y =.<.<.M <.<.<.1.( ( 3.8.8.8.8.9.9.8.8.8.8.8.8.r.r.r.0.0.8.r.9.| f.T.W..Xh.8.8.8.9.h.W.~.~.~./.W.h.9.t.{ } OXmXmXmX@.9.8.8.7.8.8.8.9.8.8.8.8.8.8.8.8.8.8.8.8.8.8.8.8.r.0.0.3.2.a y t 2.5.w.r.8.8.3.3.8.8.8.8.8.8.8.8.8.8.8.8.8.8.8.8.8.8.8.8.8.8.8.8.8.8.8.8.8.8.8.8.",
"8.8.8.8.8.8.8.8.8.8.8.8.8.8.8.8.8.8.8.8.8.8.8.8.8.8.8.8.8.8.8.8.8.8.8.8.8.8.8.8.8.8.8.8.8.8.8.8.8.8.8.8.8.8.8.8.8.8.8.8.8.8.8.8.0.q.9.) | T.'.T.[.T.9.8.8.w.w.8.8.8.h.oX~.Q.^.^.W.'.e.{ e.| } OXzXbX^.E K p r s 5.1.8.{ 8.8.8.8.) ) ) r.r.5.4.<.a i t T 0.0.r.0.8.8.8.8.8.8.8.8.8.8.8.8.8.8.8.8.8.8.8.8.8.8.8.8.8.8.8.8.8.8.8.8.8.8.8.8.8.8.8.8.8.8.8.8.8.8.8.8.8.8.8.8.8.8.8.8.8.8.8.8.8.8.8.8.8.8.8.8.8.8.8.8.8.8.8.8.8.8.8.8.8.8.8.8.8.8.8.8.8.8.8.8.8.8.8.8.8.8.8.8.8.8.0.0.8.9.{ } R..X~.~.~.~..Xh.9.r.8.3.3.r.T e.#XR.~.~.~.~.~.~.~.~.~.~.R.oX9.9.q.8.r.r.{ R.BXsXAXvXbX$.] t.r.8.e.e.8.0.8.8.8.8.8.8.8.8.8.8.8.8.8.8.8.8.0.0.0.0.0.0.8.8.8.8.8.8.8.0.w.r.3.3.3.3.3.3.3.3.8.8.8.8.8.8.8.8.8.8.8.8.8.8.8.8.8.8.8.8.8.8.8.8.8.8.8.8.8.8.8.8.8.8.8.8.8.8.8.8.r.7.7.2.1.1.( ( Y Y Y ( T ( ( ( s s Y =.( 1.1.1.8.8.8.9.8.8.9.8.8.8.8.8.8.0.r.r.0.0.8.r.9.| f.T.W..Xh.9.8.8.9.h.~.~.Q.~./.W.h.9.r.{ } jXmXmXmX#.9.8.0.7.8.8.8.9.8.8.8.8.8.8.8.8.8.8.8.8.8.8.8.8.r.0.3.3.2.a i t 2.3.8.8.8.8.0.0.8.8.8.8.8.8.8.8.8.8.8.8.8.8.8.8.8.8.8.8.8.8.8.8.8.8.8.8.8.8.8.8.",
"8.8.8.8.8.8.8.8.8.8.8.8.8.8.8.8.8.8.8.8.8.8.8.8.8.8.8.8.8.8.8.8.8.8.8.8.8.8.8.8.8.8.8.8.8.8.8.8.8.8.8.8.8.8.8.8.8.8.8.8.8.8.8.8.8.r.r.{ | t.[.[.T.t.9.8.8.w.w.8.8.8.h.oX~.Q.^.~.W.'.e.{ e.| } OXbXbX(.[ R U p s 1.0.0.8.8.8.w.3.0.{ 1.r.7.<.c a a a p 1.0.0.0.8.8.8.8.8.8.8.8.8.8.8.8.8.8.8.8.8.8.8.8.8.8.8.8.8.8.8.8.8.8.8.8.8.8.8.8.8.8.8.8.8.8.8.8.8.8.8.8.8.8.8.8.8.8.8.8.8.8.8.8.8.8.8.8.8.8.8.8.8.8.8.8.8.8.8.8.8.8.8.8.8.8.8.8.8.8.8.8.8.8.8.8.8.8.8.8.8.8.8.8.8.8.8.0.8.8.9.{ } R..X~.~.~.~.W.h.9.8.8.3.3.8.P e.#XW.~.~.~.~.~.~.~.~.~.~.W.oX} 9.t.8.r.0.{ R.BXsXAXvXbXU.] q.8.8.e.e.8.0.8.8.8.8.8.8.8.8.8.8.8.8.8.8.8.8.0.0.0.0.0.0.8.8.8.8.8.8.8.8.w.w.0.3.3.3.0.0.0.0.8.8.8.8.8.8.8.8.8.8.8.8.8.8.8.8.8.8.8.8.8.8.8.8.8.8.8.8.8.8.8.8.8.8.8.8.8.8.8.8.0.3.0.3.0.3.3.3.1.1.1.1.) ) 1.1.Y =.1.1.1.1.3.3.8.8.8.9.8.8.8.8.8.8.8.8.8.3.r.0.0.0.8.r.9.| f.T.W.oXh.9.8.8.8.h./.~.Q.~.~.R.h.9.r.{ s.jXmXBXmX#.9.8.0.7.8.8.8.9.8.8.8.8.8.8.8.8.8.8.8.8.8.8.8.8.r.0.3.3.2.a y y 1.1.8.8.8.8.0.0.8.8.8.8.8.8.8.8.8.8.8.8.8.8.8.8.8.8.8.8.8.8.8.8.8.8.8.8.8.8.8.8.",
"8.8.8.8.8.8.8.8.8.8.8.8.8.8.8.8.8.8.8.8.8.8.8.8.8.8.8.8.8.8.8.8.8.8.8.8.8.8.8.8.8.8.8.8.8.8.8.8.8.8.8.8.8.8.8.8.8.8.8.8.8.8.8.8.8.0.r.{ { e.T.}.h.e.8.8.8.w.w.w.8.8.h.oX~.^.^.~.~.'.e.{ e.| } OXNXbX^.[ 8.8.1.Y 1.0.r.8.8.r.w.1.r.0.3.7.5.M a i x a a 1.7.0.8.8.8.8.8.8.8.8.8.8.8.8.8.8.8.8.8.8.8.8.8.8.8.8.8.8.8.8.8.8.8.8.8.8.8.8.8.8.8.8.8.8.8.8.8.8.8.8.8.8.8.8.8.8.8.8.8.8.8.8.8.8.8.8.8.8.8.8.8.8.8.8.8.8.8.8.8.8.8.8.8.8.8.8.8.8.8.8.8.8.8.8.8.8.8.8.8.8.8.8.8.8.8.8.8.8.8.9.{ } R..X~.~.~./.W.f.9.8.0.3.3.0.L t.oXW.~.~.~.~.~.~.~.~.~.~.W.W.{ { t.8.r.0.| R.BXsXAXvXBX~.] q.8.>.e.e.8.0.8.8.8.8.8.8.8.8.8.8.8.8.8.8.8.8.0.0.0.0.0.0.8.8.8.8.8.8.8.8.w.8.0.0.0.0.8.8.8.8.8.8.8.8.8.8.8.8.8.8.8.8.8.8.8.8.8.8.8.8.8.8.8.8.8.8.8.8.8.8.8.8.8.8.8.8.8.8.8.8.8.8.8.0.0.0.r.r.1.1.1.1.1.1.1.1.1.2.3.3.3.3.3.8.8.8.8.8.8.8.9.9.8.8.8.8.8.3.3.0.0.0.8.r.9.| f.W.~..Xf.9.8.8.9.I.oX~.Q.~.~.W.h.9.r.{ f.jXmXmXmXg.9.8.8.7.0.8.8.9.8.8.8.8.8.8.8.8.8.8.8.8.8.8.8.0.r.0.0.3.2.a t y 1.1.8.8.8.1.3.0.8.8.8.8.8.8.8.8.8.8.8.8.8.8.8.8.8.8.8.8.8.8.8.8.8.8.8.8.8.8.8.8.",
"8.8.8.8.8.8.8.8.8.8.8.8.8.8.8.8.8.8.8.8.8.8.8.8.8.8.8.8.8.8.8.8.8.8.8.8.8.8.8.8.8.8.8.8.8.8.8.8.8.8.8.8.8.8.8.8.8.8.8.8.8.8.8.8.8.8.r.8.) | 9.t.e.e.8.8.8.w.w.w.8.8.h.oX~.^.^.~.~.'.e.{ e.| } OXbXbX^.! 8.r.5.1.1.0.r.1.1.0.w.1.r.8.3.7.5.M i q i i a 1.3.0.0.0.8.8.8.8.8.8.8.8.8.8.8.8.8.8.8.8.8.8.8.8.8.8.8.8.8.8.8.8.8.8.8.8.8.8.8.8.w.w.8.8.8.8.8.8.8.8.8.8.8.8.8.8.8.8.8.8.8.8.8.8.8.8.8.8.8.8.8.8.8.8.8.8.8.8.8.8.8.8.8.8.8.8.8.8.8.8.8.8.8.8.8.8.8.8.8.8.8.8.8.8.8.8.8.8.8.9.{ } R..X^.~.~./.W.f.9.8.0.3.r.3.K t.#XW.~.~.~.~.~.~.~.~.~.~.W.T.L I r.0.r.0.| R.BXsXAXvXBX/.] q.8.>.e.e.8.0.8.8.8.8.8.8.8.8.8.8.8.8.8.8.8.8.0.0.0.0.0.0.8.8.8.8.8.8.8.8.w.8.0.0.0.0.r.r.0.0.8.8.8.8.8.8.8.8.8.8.8.8.8.8.8.8.8.8.8.8.8.8.8.8.8.8.8.8.8.8.8.8.8.8.8.8.8.8.8.8.8.r.8.0.8.0.8.0.8.8.8.8.8.8.8.8.r.r.0.0.8.8.8.8.8.8.8.8.9.8.8.8.8.8.8.8.8.3.3.3.0.0.8.r.9.| f.W.~..Xf.8.8.8.9.T.OX~.Q.Q.~.R.k.9.8.{ f.kXmXmXBXg.9.8.8.7.8.8.8.9.8.8.8.8.8.8.8.8.8.8.8.8.8.8.8.0.r.0.0.3.2.a t t Y 1.w.8.1.) ) 0.8.8.8.8.8.8.8.8.8.8.8.8.8.8.8.8.8.8.8.8.8.8.8.8.8.8.8.8.8.8.8.8.",
"8.8.8.8.8.8.8.8.8.8.8.8.8.8.8.8.8.8.8.8.8.8.8.8.8.8.8.8.8.8.8.8.8.8.8.8.8.8.8.8.8.8.8.8.8.8.8.8.8.8.8.8.8.8.8.8.8.8.8.8.8.8.8.8.8.8.0.0.8.{ | 9.e.9.8.8.8.w.w.w.w.8.h.oX~.^.^.^.~.'.e.{ e.| } OXbXBX(.} 8.r.r.2.3.r.8.L P 1.r.3.r.8.1.7.5.M a i i i a 4.3.0.0.0.8.8.8.8.8.8.8.8.8.8.8.8.8.8.8.8.8.8.8.8.8.8.8.8.8.8.8.8.8.8.8.8.8.8.8.8.w.8.8.8.8.8.8.8.8.8.8.8.8.8.8.8.8.8.8.8.8.8.8.8.8.8.8.8.8.8.8.8.8.8.8.8.8.8.8.8.8.8.8.8.8.8.8.8.8.8.8.8.8.8.8.8.8.8.8.8.8.8.8.8.8.8.8.8.8.9.{ } ~..X^.^.~.~.W.q.| 8.0.3.r.1.K t.-XW.~.~.~.~.~.~.~.~.~.~.'.T.K P 8.3.r.0.9.~.BXsXCXsXBXOX] 0.8.>.e.e.8.0.8.8.8.8.8.8.8.8.8.8.8.8.8.8.8.8.0.0.0.0.0.0.8.8.8.8.8.8.8.8.w.8.0.0.0.0.r.r.0.0.8.8.8.8.8.8.8.8.8.8.8.8.8.8.8.8.8.8.8.8.8.8.8.8.8.0.0.0.0.3.8.8.8.8.8.8.8.8.8.8.r.r.8.8.8.8.8.8.8.0.8.8.8.8.8.8.w.r.r.r.w.w.8.8.r.r.0.8.8.8.8.8.8.8.8.8.8.0.0.0.0.0.8.r.9.| f.W.~..Xh.8.8.8.e.T.oX~.Q.~.~.R.k.9.8.{ f.kXBXBXBXg.9.8.8.7.8.8.8.9.8.8.8.8.8.8.8.8.8.8.8.8.8.8.8.0.8.0.0.3.2.a t t Y 1.r.8.1.) ` 3.8.8.8.8.8.8.8.8.8.8.8.8.8.8.8.8.8.8.8.8.8.8.8.8.8.8.8.8.8.8.8.8.",
"8.8.8.8.8.8.8.8.8.8.8.8.8.8.8.8.8.8.8.8.8.8.8.8.8.8.8.8.8.8.8.8.8.8.8.8.8.8.8.8.8.8.8.8.8.8.8.8.8.8.8.8.8.8.8.8.8.8.8.8.8.8.8.8.8.8.8.r.e.e.9.9.9.9.8.8.8.w.w.w.w.8.h.oX~.^.^.^.~.[.e.{ 9.| } =XNXBXtX+.] 8.r.7.3.r.) t t ) r.0.r.8.0.r.7.1.a a a a =.5.r.0.8.8.0.0.8.8.8.8.8.8.8.8.8.8.8.8.8.8.8.8.8.8.8.8.8.8.8.8.8.8.8.8.8.8.8.8.8.8.w.8.8.8.8.8.8.8.8.8.8.8.8.8.8.8.8.8.8.8.8.8.8.8.8.8.8.8.8.8.8.8.8.8.8.8.8.8.8.8.8.8.8.8.8.8.8.8.8.8.8.8.8.8.8.8.8.8.8.8.8.8.8.8.8.8.8.8.8.8.{ } ~..X^.^.~./.T.t.| { 0.3.r.1.K t.-XW.~.~.~.~.~.~.~.~.~.W.'.T.S K 1.3.r.r. .Q.BXvXAXsXBXtXE 9.9.>.w.w.3.0.8.8.8.8.8.8.8.8.8.8.8.8.8.8.8.8.8.0.8.8.8.8.8.8.8.8.8.8.8.8.8.8.8.0.0.0.0.r.0.0.8.8.8.8.8.8.8.8.8.8.8.8.8.8.8.8.8.8.8.8.8.8.8.8.8.8.8.8.8.8.8.8.8.8.8.8.8.8.8.8.8.8.9.8.8.8.8.8.8.8.8.8.8.8.8.8.8.8.8.8.8.w.8.8.0.0.0.8.8.8.8.8.8.8.8.8.8.8.0.0.0.8.r.r.9.{ f.T.~..Xk.8.8.8.r.T.#X~.Q.^.~.T.f.9.9.{ g.kXBXMXBXv.} 9.0.3.0.8.9.9.8.8.8.8.8.8.8.8.8.8.8.8.8.8.8.8.8.8.0.3.2.a t t Y 1.r.8.1.T ) 1.8.8.8.8.8.8.8.8.8.8.8.8.8.8.8.8.8.8.8.8.8.8.8.8.8.8.8.8.8.8.8.8.",
"8.8.8.8.8.8.8.8.8.8.8.8.8.8.8.8.8.8.8.8.8.8.8.8.8.8.8.8.8.8.8.8.8.8.8.8.8.8.8.8.8.8.8.8.8.8.8.8.8.8.8.8.8.8.8.8.8.8.8.8.8.8.8.8.3.r.r.8.{ 9.9.9.e.{ ) 8.r.r.7.r.w.8.h..X^.~.^.~.~.oXq.{ q.] } (.bXBXhX%.E 9.t.0.3.1.s t r s 4.r.8.| 9.9.8.8.3.1.1.1.5.r.w.8.1.T P ` 0.q.0.8.8.9.8.9.8.9.8.9.8.8.8.8.8.8.8.8.8.8.8.8.8.8.8.8.8.8.8.8.8.8.8.8.8.8.8.8.8.8.8.8.8.8.8.8.8.8.8.8.8.8.8.8.8.8.8.8.8.8.8.8.8.8.8.8.8.8.8.8.8.8.8.8.8.8.8.8.8.8.8.8.8.8.8.8.8.8.8.8.8.8.8.8.8.w.w.w.w.8.8.q.9.s..XXX^.^.~.R.I.e.| { ) 3.r.K L T.[.W..X~.~.~.~.~.~.~./.W.E.T.T 2 U 3.7.8.} (.NXBXvXvXmXmX} } 9.r.r.r.5.2.r.8.8.8.0.0.r.r.r.r.w.w.w.5.5.w.8.8.8.8.8.8.8.8.8.8.8.8.8.8.8.8.8.8.8.8.8.8.8.8.8.8.8.8.8.8.8.8.8.8.8.8.8.8.8.8.8.8.8.8.8.8.8.8.8.8.8.8.8.8.8.8.8.8.8.8.8.8.8.8.8.8.8.8.8.8.8.8.8.8.8.8.8.8.8.8.8.8.8.8.8.8.8.8.8.8.8.8.8.8.8.8.8.9.8.8.8.8.8.8.r.8.r.t.9.{ e.'.~.W.q.8.r.8.8.T..X^.XX^.OX[.8.r.9.Q x.cXvXMXvX*.E ] 3.3.0.0.9.e.8.8.8.8.8.8.8.8.8.8.8.8.0.0.0.8.8.8.0.3.<.y i t s 3.w.8.8.P ^ r.0.8.8.8.8.8.8.8.8.8.8.8.8.8.8.8.8.8.8.8.8.8.8.8.8.8.8.8.8.8.8.8.",
"8.8.8.8.8.8.8.8.8.8.8.8.8.8.8.8.8.8.8.8.8.8.8.8.8.8.8.8.8.8.8.8.8.8.8.8.8.8.8.8.8.8.8.8.8.8.8.8.8.8.8.8.8.8.8.8.8.8.8.8.8.8.8.8.0.0.0.{ | q.h.I.h.e.8.8.r.7.7.7.5.8.h..X~.^.^.~.~.[.9.{ q.] [ (.bXBXhXQ.[ ] 0.0.2.1.s t r p <.3.8.{ 9.9.9.8.8.8.8.8.w.w.5.1.=.U U ) 3.0.0.8.0.0.8.8.8.8.8.8.8.8.8.8.8.8.8.8.8.8.8.8.8.8.8.8.8.8.8.8.8.8.8.8.8.8.8.8.8.8.8.8.8.8.8.8.8.8.8.8.8.8.8.8.8.8.8.8.8.8.8.8.8.8.8.8.8.8.8.8.8.8.8.8.8.8.8.8.8.8.8.8.8.8.8.8.8.8.8.8.8.8.8.w.w.w.w.w.w.0.8.r.9.9..X.X^.^.~.W.I.q.8.) ) 3.q.u L T.'..X.X.X~.~.~.~.~.~.~.W.'.T.) @ U 3.5.r.} (.mXmXMXMXMXcX#.@.9.0.0.7.7.7.8.8.8.8.8.8.8.8.1.3.1.3.3.5.w.w.8.8.8.8.8.8.8.8.8.8.8.8.8.8.8.8.8.8.8.8.8.8.8.8.8.8.8.8.8.8.8.8.8.8.8.8.8.8.8.8.8.8.8.8.8.8.8.8.8.8.8.8.8.8.8.8.8.8.8.8.8.8.8.8.8.8.8.8.8.8.8.8.8.8.8.8.8.8.8.8.8.8.8.8.8.8.8.8.8.8.8.8.8.8.8.8.8.8.8.8.8.8.8.8.0.1.8.r.9.E 9.'.~.W.e.8.r.0.8.T..X^.XXx.OX[.8.r.9.! ^.bXMXZXvX*.[ | 3.3.3.8.8.9.8.8.8.8.8.8.8.8.8.8.8.8.0.0.0.8.8.8.0.3.<.y i t s 5.w.8.3.T ^ r.8.8.8.8.8.8.8.8.8.8.8.8.8.8.8.8.8.8.8.8.8.8.8.8.8.8.8.8.8.8.8.8.",
"8.8.8.8.8.8.8.8.8.8.8.8.8.8.8.8.8.8.8.8.8.8.8.8.8.8.8.8.8.8.8.8.8.8.8.8.8.8.8.8.8.8.8.8.8.8.8.8.8.8.8.8.8.8.8.8.8.8.8.8.8.8.8.8.0.r.8.) 9.h.[.#X'.h.9.8.r.3.7.7.w.1.h..X~.~.^.~.~.[.9.{ 9.] } OXbXBXbX(.s.Q { 0.r.7.4.<.s =.2.r.1.1.8.8.8.8.8.3.r.r.r.5.<.Y p r s ( 2.0.3.3.8.r.8.8.8.8.8.8.8.8.8.8.8.8.8.8.8.8.8.8.8.8.8.8.8.8.8.8.8.8.8.8.8.8.8.8.8.8.8.8.8.8.8.8.8.8.8.8.8.8.8.8.8.8.8.8.8.8.8.8.8.8.8.8.8.8.8.8.8.8.8.8.8.8.8.8.8.8.8.8.8.8.8.8.8.8.8.8.8.8.8.8.8.8.0.3.3.3.0.r.{ 9.R..X~.~.~.R.f.9.| { 3.3.0.t P E.#X'..X.X~.~.~.~.~.~.~.W.'.T.{ @ K 1.5.r.} (.mXmXMXSXAXdX#.&.[ { 9.r.r.q.q.q.q.e.9.8.8.8.r.r.r.r.r.r.r.r.8.8.8.8.8.8.8.8.8.8.8.8.8.8.8.8.8.8.8.8.8.8.8.8.8.8.8.8.8.8.8.8.8.8.8.8.8.8.8.8.8.8.8.8.8.8.8.8.8.8.8.8.8.8.8.8.8.8.8.8.8.8.8.8.8.8.8.8.8.8.8.8.8.8.8.8.8.8.8.8.8.8.8.8.8.8.8.8.8.8.8.8.8.8.8.8.8.8.8.8.r.r.0.0.r.0.0.r.9.{ q.'.W.W.e.8.r.3.8.T..X^.XX^..X[.8.r.8.! ^.BXMXMXaX*.} 0.7.6.5.7.8.q.8.8.8.8.8.8.8.0.0.0.0.0.8.8.8.8.8.8.0.3.<.a y y s 5.r.r.3.Y Y 3.8.8.8.8.8.8.8.8.8.8.8.8.8.8.8.8.8.8.8.8.8.8.8.8.8.8.8.8.8.8.8.8.",
"8.8.8.8.8.8.8.8.8.8.8.8.8.8.8.8.8.8.8.8.8.8.8.8.8.8.8.8.8.8.8.8.8.8.8.8.8.8.8.8.8.8.8.8.8.8.8.8.8.8.8.8.8.8.8.8.8.8.8.8.8.8.8.8.8.8.8.{ 9.R.#X#X#Xh.9.8.8.3.3.r.r.1.t.#X~.~.^.~.~.[.9.{ 9.] } OXBXbXBXkX~.@.E 8.8.3.1.=.T -.1.1.8.0.0.0.0.3.3.3.7.7.7.5.<.s p r Y 1.3.r.3.3.8.r.8.8.8.8.8.8.8.8.w.5.w.w.w.w.w.w.5.5.w.w.w.w.w.w.8.8.8.8.8.8.8.8.8.8.8.8.8.8.8.8.8.8.8.8.8.8.8.8.8.8.8.8.8.8.8.8.8.8.8.8.8.8.8.8.8.8.8.8.8.8.8.8.8.8.8.8.8.8.8.8.8.8.8.8.8.8.8.8.8.8.8.0.3.3.3.3.0.r.{ 9.T.~.~.~.~.R.f.9.{ { 3.3.3.t P T.#X'..X.X~.~.~.~.~.~.~.~.'.'.{ @ K 1.5.r.} 6XBXMXsXAXAXdXz.v.@.} } 9.9.9.e.9.9.9.9.9.9.9.8.9.8.8.8.8.8.1.8.0.8.0.8.0.8.0.8.0.8.0.8.0.8.8.8.8.8.8.8.8.8.8.8.8.8.8.8.8.8.8.8.8.8.8.8.8.8.8.8.8.8.8.8.8.8.8.8.8.8.8.8.8.8.8.8.8.8.8.8.8.8.8.8.8.8.8.8.8.8.8.8.8.8.8.8.8.8.8.8.8.8.8.8.8.8.8.8.8.8.8.8.8.8.8.8.8.0.0.0.8.1.1.0.8.8.0.9.9.h.[.W.W.e.8.0.3.8.T..X^.XXx..X[.8.0.8.} XXBXMXMXyXg.[ 8.5.5.5.7.w.w.8.8.8.8.8.8.8.8.8.0.8.0.8.8.8.8.8.8.0.3.<.a y p s 2.r.r.3.Y s 3.8.8.8.8.8.8.8.8.r.r.r.r.8.8.8.8.8.8.8.8.8.8.8.8.8.8.8.8.8.8.8.8.",
"8.8.8.8.8.8.8.8.8.8.8.8.8.8.8.8.8.8.8.8.8.8.8.8.8.8.8.8.8.8.8.8.8.8.8.8.8.8.8.8.8.8.8.8.8.8.8.8.8.8.8.8.8.8.8.8.8.8.8.8.8.8.8.8.8.8.9.| k.T.#X~..Xh.9.9.8.8.0.r.7.( r.[./.~.~.~.~..X9.] 9.] } OXBXcXmXBXkX~.9.9.9.8.8.8.8.8.w.8.0.0.r.r.r.r.r.7.7.7.7.5.4.<.=.s 3.5.r.r.w.w.w.w.w.w.w.w.w.w.w.w.w.7.7.7.7.7.7.7.7.7.7.7.7.7.7.w.8.8.8.8.8.8.8.8.8.8.8.8.8.8.8.8.8.8.8.8.8.8.8.8.8.8.8.8.8.8.8.8.8.8.8.8.8.8.8.8.8.8.8.8.8.8.8.8.8.8.8.8.8.8.8.8.8.8.8.8.8.8.8.8.8.0.0.0.3.3.3.3.0.r.{ | T./.~.~..XR.k.} | 8.0.1.) 2 R T.#X.X~.~.~.~.~.~.~.~.~.~.'.'.{ 2 t 1.5.r.} rXBXMXsXfXAXMXmXyXrX^.x.d.s.! ! ! ! ! } } 9.9.9.9.9.9.8.8.8.r.0.3.0.3.0.0.0.0.0.3.0.3.0.3.0.0.8.8.8.8.8.8.8.8.8.8.8.8.8.8.8.8.8.8.8.8.8.8.8.8.8.8.8.8.8.8.8.8.8.8.8.8.8.8.8.8.8.8.8.8.8.8.8.8.8.8.8.8.8.8.8.8.8.8.8.8.8.8.8.8.8.8.8.8.8.8.8.8.8.8.8.8.8.8.8.8.0.0.0.0.3.3.1.) ) / / { | 9.h.W.~.W.9.8.0.3.8.T..X^.^.x..X'.8.0.8.9.OXBXmXmXhXl.E ) 2.5.7.7.w.w.8.0.0.0.0.0.0.0.8.8.8.8.8.8.8.8.8.0.3.3.<.y i p p 1.r.r.0.Y u 1.r.8.1.T T 1.8.r.8.8.8.8.w.w.w.w.8.8.8.8.8.8.8.8.8.8.8.8.8.8.8.8.",
"8.8.8.8.8.8.8.8.8.8.8.8.8.8.8.8.8.8.8.8.8.8.8.8.8.8.8.8.8.8.8.8.8.8.8.8.8.8.8.8.8.8.8.8.8.8.8.8.8.8.8.8.8.8.8.8.8.8.8.8.8.8.8.8.{ | | } f.W..XR..Xf.} { 9.8.8.r.7.Y 0.[./.~.~.~..X.Xe.{ 9.] } OXBXcXcXBXNXuX~.g.s.9.9.9.e.e.9.9.) ) 1.1.1.8.0.0.3.0.r.r.7.3.3.3.r.r.r.r.8.8.8.8.8.8.8.8.8.8.8.8.w.w.w.w.w.w.w.w.w.w.w.w.w.w.w.w.8.8.8.8.8.8.8.8.8.8.8.8.8.8.8.8.8.8.8.8.8.8.8.8.8.8.8.8.8.8.8.8.8.8.8.8.8.8.8.8.8.8.8.8.8.8.8.8.8.8.8.8.8.8.8.8.8.8.8.8.8.8.8.8.8.0.0.0.3.3.3.3.0.r.{ | T.~.R.~.OXR.s.} 8.8.0.1.) 2 R `.#X.X~..X~.~.~.~.~.~.~.~.'.'.{ t t 1.5.r.} ^.kXBXMXsXfXAXBXBXmXkXkXuXtXXXx.j.j.g.d.} } } } 9.9.9.9.9.e.r.0.3.0.3.8.0.8.0.0.3.0.3.0.3.0.0.8.8.8.8.8.8.8.8.8.8.8.8.8.8.8.8.8.8.8.8.8.8.8.8.8.8.8.8.8.8.8.8.8.8.8.8.8.8.8.8.8.8.8.8.8.8.8.8.8.8.8.8.8.8.8.8.8.8.8.8.8.8.8.8.8.8.8.8.8.8.8.8.8.8.8.8.8.8.8.8.0.0.3.3.0.0.0.0.{ | 9.q.q.f.R..X~.T.9.1.0.3.8.T..X^.^.x..X'.) 8.8.} OXBXbXcXcX^.! { 3.5.7.r.w.8.8.0.0.0.0.0.0.0.8.8.8.8.8.8.8.8.8.0.3.3.N y i p p <.r.r.3.Y u ) r.8.1.T T 1.8.w.8.8.8.8.8.w.8.8.8.8.8.8.8.8.8.8.8.8.8.8.8.8.8.8.",
"8.8.8.8.8.8.8.8.8.8.8.8.8.8.8.8.8.8.8.8.8.8.8.8.8.8.8.8.8.8.8.8.8.8.8.8.8.8.8.8.8.8.8.8.8.8.8.8.8.8.8.8.8.8.8.8.8.8.8.8.8.8.8.8.9.9.| 9.h.~..XR.~.h.9.9.8.8.8.3.7.Y 8.[.OX~.~.~..X.Xe.{ e.{ } OXMXvXvXMXBXmXiXtXg.d.s.s.s.s.o.! 9.9.9.9.| | 9.9.9.9.9.9.9.9.9.8.e.8.8.8.8.8.8.8.8.9.9.9.9.9.9.8.8.8.8.8.8.8.8.8.8.8.8.8.8.8.8.8.8.8.8.8.8.8.8.8.8.8.8.8.8.8.8.8.8.8.8.8.8.8.8.8.8.8.8.8.8.8.8.8.8.8.8.8.8.8.8.8.8.8.8.8.8.8.8.8.8.8.8.8.8.8.8.8.8.8.8.8.8.8.8.8.9.9.9.8.0.0.0.0.8.r.{ ] T.~.R.~.XXj.s.9.9.8.8.3.P 2 R '.#XR.~..X~.~.~.~.~.~.~.~.'.'.9.t t 1.2.r.| @.^.mXBXsXsXBXMXbXmXBXBXBXBXBXzXkXkXjXOX.X~.R.s.q.9.} | { { / 8.3.8.0.8.0.8.8.8.0.8.0.8.0.8.8.8.8.8.8.8.8.8.8.8.8.8.8.8.8.8.8.8.8.8.8.8.8.8.8.8.8.8.8.8.8.8.8.8.8.8.8.8.8.8.8.8.8.8.8.8.8.8.8.8.8.8.8.8.8.8.8.8.8.8.8.8.8.8.8.8.8.8.8.8.8.8.8.8.8.8.8.8.8.8.0.0.| ` { 0.t.A.A.I.T.R.T.R.~..XOX~.W.9.1.3.3.8.T..X^.^.x..X'.) 1.8.} tXNXcXvXbX6X@.9.8.8.w.w.w.8.8.0.3.0.3.3.0.0.8.8.w.w.w.w.w.8.8.0.3.5.N y y p t 1.r.r.3.s u ( 0.8.1.1.1.1.8.8.1.1.8.8.8.8.0.r.8.8.8.8.8.8.8.8.8.8.8.8.8.8.8.8.",
"8.8.8.8.8.8.8.8.8.8.8.8.8.8.8.8.8.8.8.8.8.8.8.8.8.8.8.8.8.8.8.8.8.8.8.8.8.8.8.8.8.8.8.8.8.8.8.8.8.8.8.8.8.8.8.8.8.8.8.8.8.8.8.8.9.9.| 9.h..XOX~..Xj.9.9.8.8.8.3.7.s ) [.OX~.~.~..X.Xe.8.e.{ } OXMXZXZXvXvXMXBXBXBXNXmXkXkXkXuXtXOXoXW.T.f.f.s.} ! ! ! ! ! Q Q E 9.} } } 9.9.9.9.9.9.9.9.9.9.9.9.9.9.8.9.8.9.8.9.8.9.8.9.9.9.9.8.8.8.8.8.8.8.8.8.8.8.8.8.8.8.8.8.8.8.8.8.8.8.8.8.8.8.8.8.8.8.8.8.8.8.8.8.8.8.8.8.8.8.8.8.8.8.8.8.8.8.8.8.8.8.8.8.8.8.8.8.8.8.8.8.9.9.9.9.8.8.8.8.8.9.{ } T.~.~.~.#XR.e.{ 8.r.0.3.Y @ R '.#XR.~..X~.~.~.~.~.~.~.~.'.'.9.t t <.4.7.{ E s.jXBXmXcXBXBXBXzXzXNXNXBXNXzXzXzXzXzXzXzXzXzXlX>X;X-X[.[.`.8.8.8.8.8.8.8.8.8.8.8.8.8.8.8.8.8.8.8.8.8.8.8.8.8.8.8.8.8.8.8.8.8.8.8.8.8.8.8.8.8.8.8.8.8.8.8.8.8.8.8.8.8.8.8.8.8.8.8.8.8.8.8.8.8.8.8.8.8.8.8.8.8.8.8.8.8.8.8.8.8.8.8.8.8.8.8.8.8.8.8.8.8.8.8.8.0.| { { 0.h.T.[.'..X.X~..X.X.X~.~.W.9.1.3.2.8.T..X^.^.x..X'.) 8.9.@.tXBXvXnXMX7Xz.g.9.{ 8.8.9.8.8.8.8.8.8.w.8.8.8.8.w.w.w.w.w.8.8.0.3.2.M y y p t <.r.r.3.s u ( 0.8.8.0.0.8.8.8.1.1.1.1.8.8.0.r.8.8.8.8.8.8.8.8.8.8.8.8.8.8.8.8.",
"8.8.8.8.8.8.8.8.8.8.8.8.8.8.8.8.8.8.8.8.8.8.8.8.0.r.0.0.0.0.0.0.8.8.8.8.8.8.8.8.8.8.8.8.8.8.8.8.8.8.8.8.8.8.8.8.8.8.8.8.8.8.8.8.9.9.| } h..X#X.X.Xh.} { 8.r.r.7.4.t 0.[./.~.g.~..X'.t.8.8.e.t.~.BXDXvXsXvXvXvXbXcXbXbXmXmXmXmXmXkXtXOXOXkXzXzXzXzXkXkXgXtXOXXX~.~.R.j.g.f.@.@.+.} } ! W ! W W E ] ] ] ] } ] } [ } } } } } } } 9.r.r.r.8.8.8.8.8.8.8.8.8.8.8.8.8.8.8.8.8.8.8.8.8.8.8.8.8.8.8.8.w.8.8.8.8.8.8.8.8.8.8.8.8.8.r.r.r.8.8.8.8.8.8.8.8.8.8.8.8.8.r.r.9.| | | 9.8.8.8.8.9.8.{ } 9.f.R..X.Xh.9.8.8.r.r.3.t 2 ) [.#X.X~.~.~.~.~.~.^.~.~.~..X[.t.t 2 <.7.2.` ]  .T.OXkXkXhXxXxXgXgXOXtXOXOX^.~.~.~..X.X~.W.R.R.T.I.T.T.T.T.e.q.q.e.e.w.9.8.w.e.9.9.8.8.8.8.8.8.8.8.8.8.8.8.8.8.8.8.8.8.8.8.8.8.8.8.8.8.8.8.8.8.8.8.8.8.8.8.8.0.0.0.0.r.r.r.0.0.0.0.0.0.0.r.0.0.0.0.r.0.r.r.8.8.8.8.8.8.8.8.8.8.8.8.8.8.8.8.8.8.8.8.8.8.8.8.r.{ { | t.T.T.R..X.X.X.XXXXX^.^.U.I.0.1.7.2.1.h..Xj.^.~.oXT.P ) ] U.(.VXqXDXDXvXBXhX^.d.! ! } 9.e.8.) ) 1.8.q.q.8.8.w.w.r.r.r.w.8.0.7.3.N y y a t U r.3.3.( 1 j r.8.8.r.r.8.1.8.K + @ T r.r.0.r.8.8.8.8.r.8.8.8.8.8.8.8.8.8.8.8.",
"8.8.8.8.8.8.8.8.8.8.8.8.8.8.8.8.8.8.8.8.8.8.8.8.8.8.8.8.8.8.8.8.8.8.8.8.8.8.8.8.8.8.8.8.8.8.8.8.8.8.8.8.8.8.8.8.8.8.8.8.8.8.8.8.8.8.9.9.h.'.#X'.T.h.9.| 8.r.r.5.<.r 0.]./.~.g.~.'.'.9.8.8.r.0.f.6XvXvXvXnXcXqXvXvXvXcXcXcXcXmXcX!.z.v.z.rXkXmXNXmXmXkXkXkXkXhXhXNXNXzXzXzXzXjXjXOXOXOXOX/.~.~.~.f.f.f.f. .} } } E E E E E E E E ) 8.1.8.8.8.8.8.8.8.8.8.8.8.8.8.8.8.8.8.8.8.8.8.8.8.8.8.8.8.8.8.8.8.8.8.8.8.8.8.8.8.8.8.8.8.8.8.8.8.8.8.8.8.8.8.8.8.8.8.8.8.8.8.| | } 9.8.9.9.9.9.9.9.9.s.h.R.#X'.t.8.8.8.r.7.2.t 2 8.[.oX~.~.~.~.~.~.~.^.^.^.~..X#Xt.t 2 <.7.2.2.` ) { } } +.[ [ [ [ ] [ [ W W } ! ! ! ! ! Q Q 9.9.9.9.9.9.9.9.8.8.8.8.8.8.8.8.8.9.9.9.8.8.8.8.8.8.8.8.8.8.8.8.8.8.8.8.8.8.8.8.8.8.8.8.8.8.8.8.8.8.8.8.8.8.8.8.8.8.8.8.8.8.8.8.8.8.8.8.8.8.8.8.8.8.8.8.8.8.8.8.8.8.8.8.8.8.8.8.8.8.8.8.8.8.8.8.8.8.8.8.8.8.8.8.9.| { 9.h.'..X.X.X.X.X^.^.^.^.^.~.I.9.1.3.1.1.t..X~.^.~.#XT.P ) ] g.gXNXnXeXwXnXvXbXhXtX^.d.[ E E { e.t.t.q.8.T 1.1.1.w.w.r.r.w.1.3.7.3.N y y a t s r.3.5.( 1 u r.1.1.r.t.r.8.8.T t K 1.r.r.8.r.r.8.8.8.r.8.8.8.8.8.8.8.8.8.8.8.",
"8.8.8.8.8.8.8.8.8.8.8.8.8.8.8.8.8.0.0.0.3.3.3.0.r.r.0.0.0.0.0.0.8.8.8.8.8.8.8.8.8.0.8.0.8.0.8.0.8.8.8.8.8.8.8.8.8.0.8.0.w.0.8.0.0.0.r.r.t.'.[.'.h.q.9.8.r.r.7.2.j r 0.E.~.~.g.~.'.'.8.T 8.8.) | *.7XMXBXMXVX7XcXbXbXbXbXBXBXBXmX^.z.v.x.rXkXBXBXNXNXBXBXBXBXBXNXNXzXzXzXzXzXzXzXzXzXzXzXzXzXzXzXlXlXlXjX;X=X=X=XOXOXOX/.R.R.R.T.A.A.t.r.r.0.8.8.8.8.8.8.8.8.8.8.8.8.8.8.8.8.8.8.8.8.8.8.8.8.8.8.w.w.8.8.8.8.8.8.8.8.8.8.8.8.8.8.8.8.8.0.r.r.r.r.8.8.8.8.8.0.8.r.9.9.9.9.8.8.8.8.8.8.8.9.9.k.h.T.t.8.1.3.3.3.5.1.t 2 8.}.#X~.~.^.~.~.~.^.^.^.^.~..X'.t.t 1 M 6.6.N.N.3.0.{ { ] { ] ' ' ' ] { } } 9.9.9.9.9.9.9.9.9.9.9.9.9.8.9.9.8.9.9.9.9.8.8.8.e.e.e.9.9.9.9.8.8.0.8.0.w.r.8.0.8.0.8.0.8.0.8.0.8.0.8.0.8.0.8.0.8.8.8.8.8.8.8.8.0.0.0.0.0.0.0.0.0.0.0.0.0.0.0.0.0.0.0.0.0.0.0.0.0.0.0.0.3.3.3.8.8.8.8.8.8.8.8.8.8.8.8.8.8.8.8.8.8.9.9.q.T.'.#XXXXX.X.X.XXXXX.X.X~.I.{ ) 3.1.1.t.#X^.^.^.#X`.P ) } $.(.NXBXqXeXZX0XvXMXBXBXkX(.~.f.9.9.9.9.9.9.8.r.r.r.8.r.r.5.3.8.1.3.5.j y q a i s r.3.3.( , u 3.1.1.r.r.r.3.1.1.T ) 0.r.0.3.r.w.8.8.w.r.8.8.8.8.8.8.8.8.8.8.8.",
"8.8.8.8.8.8.8.8.8.8.8.8.8.8.8.8.8.0.0.0.3.3.3.0.r.r.0.0.0.0.0.0.0.0.0.0.0.0.0.0.8.0.8.0.8.0.8.0.8.0.8.0.8.0.8.0.8.0.8.0.8.0.8.0.3.0.0.0.e.A.T.t.9.9.8.8.r.7.5.4.s 1 0.E.R.~.~.~..X'.8.Y 3.r.1.{ [ Q.OXgXgX!.*.!.gXgXgXgXgXuXtXtX^.x.g.x.^.OXuXjXtXrXrXtXrXrXrXrX^.XXOXOXOXOXOXOXOXOXOXOXOXOX/./.oXW.W.W.[.W.W.W.oXoXW.W.T.T.T.T.`.G.G.t.r.8.8.1.8.8.8.8.8.8.8.8.8.8.8.8.8.8.8.8.8.8.8.8.8.8.8.8.8.w.8.8.8.8.8.8.8.8.8.8.8.8.8.8.8.3.8.0.0.0.r.r.8.0.0.0.0.0.0.0.8.8.8.8.8.8.8.8.w.8.8.8.9.9.q.t.r.r.3.3.7.6.2.( t t r.[..X~.^.^.~.~.^.^.^.^.^.~..X'.t.K 1 s V N N 6.3.3.1.{ | 0.) ` ` ` 3.0.r.r.9.9.9.9.9.9.8.8.r.r.r.r.r.r.r.w.r.8.8.8.9.8.8.8.8.8.8.8.8.8.8.8.8.0.8.0.8.0.8.0.8.0.8.0.8.0.8.0.8.0.8.0.8.0.8.0.0.0.0.0.0.0.0.0.0.0.0.0.0.0.0.0.0.0.0.0.0.0.0.r.0.0.0.0.0.0.0.0.0.0.0.0.3.3.3.3.8.8.8.8.8.8.8.8.8.8.8.8.8.8.8.8.8.8.9.e.h.'.'..X.X.X.X.X.X.X.X~.T.q.{ 1.7.( ) T.#X~.^.~.oX].P P t.} $.(.bXnXvXwX9XsXvXMXBXBXNXzXjXOXf.! Q Q 9.e.q.r.8.8.r.r.5.3.3.1.3.2.j y q a i s 7.7.7.) , t 1.3.0.3.1.) 1.3.3.1.3.r.r.3.3.r.8.1.1.8.r.8.8.8.8.8.8.8.8.8.8.8.",
"8.8.8.8.8.8.8.8.8.8.8.8.8.8.8.8.8.0.0.0.3.3.3.3.3.3.3.3.3.3.3.3.3.3.3.3.3.3.3.3.3.3.3.3.1.1.3.3.3.3.3.3.3.3.3.3.3.3.3.3.3.3.3.3.5.3.3.1.8.r.r.8.r.8.8.3.4.<.c a y 1 q.E.~.~.~.~..X}.8.U 1.7.3.0.T q.q.f.f.} H E $.$.$.$.f.$.s.9.e.9.9.} s.k.k.s.s.s.@.@.+.+.+.+.d.s.s.s.s.s.9.9.} } } { { ] ] ] E E E E E { { { { { ] ] E E E E ) 1.1.1.8.8.8.8.8.8.8.8.8.8.8.8.8.8.8.8.8.8.8.8.8.8.8.8.8.8.8.8.8.8.8.8.8.8.8.8.8.8.8.8.8.8.8.8.1.1.1.1.3.3.3.3.3.3.3.3.3.1.1.1.3.3.3.3.0.r.r.r.a.r.r.r.r.0.r.r.r.7.5.6.6.6.<.j t u t.[.'.~.XX^.~.~.^.^.^.^.^.^..X.Xt.K 1 y a h N 6.6.7.3.) ) 1.1.1.2.2.3.3.7.3.1.1.1.1.1.1.3.3.3.3.3.3.3.8.8.3.8.8.8.8.0.0.0.0.8.8.8.8.8.8.8.8.3.3.3.3.3.3.3.3.1.1.1.1.3.3.3.3.3.3.3.3.3.3.3.3.3.3.3.3.3.3.3.3.3.3.3.3.3.3.3.3.3.3.3.3.3.3.3.3.r.r.r.r.r.r.r.r.0.0.0.0.0.0.3.0.8.8.8.8.8.8.8.8.8.8.8.8.8.8.8.8.8.8.8.r.q.t.f.h.f.f.f.k.k.q.q.t. .} { 0.7.( ) T.oX~.^.j.[.`.P u 8.8.| $.(.NXBXcXMXMXfXdXcXhXzXxXNXzXjX$X.Xj.9.Q { 8.) 1.3.r.r.r.3.0.3.2.j q 7 a i s 5.3.7.1., t ( 0.r.1.K t T 8.3.3.0.r.0.3.0.r.1.T T 8.8.8.8.r.8.8.8.8.8.8.8.8.",
"8.8.8.8.8.8.8.8.8.8.8.8.8.8.8.8.0.0.0.0.3.3.3.0.r.r.r.r.r.r.r.r.r.7.r.7.r.7.r.7.r.7.r.7.0.3.r.7.r.r.r.r.r.r.r.r.r.r.r.r.r.r.r.7.7.7.7.3.3.0.0.1.0.0.1.1.s a a 7 y t t.[.~.^.~.~..X}.w.p s 2.2.3.3.r.0.3.r.0.I ^ ] { { | 9.9.8.8.8.8.8.w.r.r.8.8.8.8.9.} } } 9.9.9.9.9.} } { Q Q 9.9.9.9.9.8.9.8.8.8.8.8.8.8.8.8.9.8.9.8.8.8.8.8.8.8.8.8.8.0.r.r.0.0.0.0.0.0.0.0.r.r.r.r.r.r.r.r.8.8.8.8.8.8.8.8.8.8.8.8.8.8.8.8.r.r.r.r.r.8.8.0.r.7.0.7.0.3.r.7.3.3.3.3.3.2.1.1.1.2.2.2.2.5.5.5.5.5.5.4.4.<.( ( j j j j j h a y t Y A.[.'.~.XX^.~.~.^.^.^.^.^.^..X.XT.T 1 7 q q M V 6.7.3.3.3.5.6.6.B.6.7.7.y.7.6.6.6.7.7.7.7.7.5.5.5.5.5.5.5.5.3.3.3.3.3.3.3.3.r.r.r.r.r.r.r.7.r.r.r.r.r.r.r.r.0.3.0.3.r.7.r.7.r.r.r.r.r.r.r.r.r.7.r.7.r.7.r.r.3.0.0.8.3.0.0.3.0.0.0.0.r.r.r.r.0.0.0.0.0.0.0.0.0.0.0.0.0.0.0.0.8.8.8.8.8.8.8.8.8.8.8.8.8.8.8.8.3.3.3.3.8.8.8.8.9.9.9.8.8.{ { | { { { 0.3.Y ( ]..X~.~.g.[.[.P p =.5.r.| $.(.bXmXMXMXMXMXmXNXzXzXNXNXNXNXNXzX=X#Xh.t.e.r.r.r.7.3.0.3.5.2.j 9 7 a t s 2.2.7.1., t Y 0.r.) t t T 8.1.3.3.0.8.3.0.r.) T T 8.8.8.8.r.8.8.8.8.8.8.8.8.",
"8.8.8.8.8.8.8.8.8.8.8.8.8.8.8.8.0.3.3.3.3.3.3.3.r.r.r.r.r.r.r.r.3.3.3.3.3.3.3.3.3.5.3.5.3.5.3.5.3.5.3.5.3.5.3.5.2.5.2.5.2.5.2.5.<.2.2.1.1.1.1.) 1.( Y s p a a a y t A.[.~.^.^.~..X}.w.p s j k j 6.y.4.4.7.3.) 1.1.3.3.3.7.7.7.7.7.7.7.7.y.7.7.7.5.3.3.0.r.r.r.r.q.t.q.q.e.e.q.w.q.r.r.r.r.r.r.r.w.w.w.5.w.3.8.3.w.5.w.w.w.w.w.0.t.r.r.r.r.0.8.8.8.8.8.8.8.8.8.8.8.8.8.8.8.8.8.8.8.8.8.8.8.8.8.8.8.8.8.8.8.8.8.8.8.8.8.8.8.8.8.8.0.3.3.5.1.5.1.1.1.1.1.1.1.1.1.1.j l j j j j m m s s s a a a y y y y 9 7 9 9 q 7 y Y A.[..X^.XX^.~.~.^.^.^.^.^.^..X.X`.1.p r q 9 7 i y s U U U s s j h h m c v c j j j j s m c c <.<.4.4.4.4.5.<.1.( ( <.1.<.1.1.5.2.5.2.1.2.1.5.5.5.2.5.2.5.2.5.3.5.3.5.3.5.3.5.3.3.3.3.3.3.3.3.3.3.3.3.3.3.3.3.3.0.3.3.3.3.3.3.r.0.r.r.r.r.r.r.3.3.3.3.3.3.3.3.3.3.3.3.3.3.3.0.8.8.8.8.8.8.8.8.8.8.8.8.8.8.8.0.5.5.3.3.3.3.1.8.8.0.3.3.3.3.3.` { { { 0.1.t T &XW.~.~.g.oX}.P p b v 6.1.| g.~.rXpXpXpXpXpXuX=XgX6XrX5XrXtXjXjX;X'.T.t.q.0.3.2.1.0.3.3.2.h 7 7 a p s 2.1.5.1., t Y 3.r.1.Y P 1.3.3.3.3.3.3.0.0.0.1.1.1.8.r.8.8.8.8.8.8.8.8.8.8.8.",
"3.3.3.3.3.3.3.3.3.3.0.3.0.3.3.3.3.3.7.3.7.3.7.3.1.1.1.1.1.1.<.1.( ( ( ( ( ( ( ( s s s s s s s s u u u u u u u u u u u u u u u u r y s p p u u t t p p t i a a M p K T.[.~.OX^..Xn.}.w.p t y y y q x i q a a y s y u s s s s s c M m c x x c c c s s s s s s s s U Y U U U Y Y Y =.Y Y Y =.Y =.=.<.<.<.<.<.1.<.<.<.<.<.<.<.<.<.1.Y Y ( ( ) 1.1.1.1.1.1.1.1.1.1.1.T Y T Y T Y T Y T ( =.1.1.1.=.=.) ) ) ) ) ) ) ) ( T T T T T T T Y j s s s u u u s s s u s y y y 9 9 9 9 q q q q q q a a a q q 9 y y y q y a a j t ( A.oXW.~.XX^..X.XXXXX^.^.XX.X~..X'.8.K p y y a a p t t t t t i y q q a a a a q q q q a i a a i i p p i i i p i y y y y y y y y y y y y y y u u u u u u u u u s s s s s s s s j j j j j j j j j j j j j j j j ( ( ( ( ( ( ( ( 1.1.1.1.1.1.1.1.2.2.2.2.2.2.2.2.3.3.3.3.3.3.5.7.3.0.0.0.0.0.0.0.0.0.8.8.8.8.8.3.5.5.6.7.5.5.5.5.3.3.5.5.5.5.3.1.| | 0.3.Y + T -X'.~..Xj.oX[.T u v i i 4.0.9.} s.o.o.o.o.! ! } } ! O.O.@.} } Q E 9.9.8.) 1.3.5.5.7.5.3.2.h 9 7 a p s 4.1.6.<., y ( 5.7.5.2.7.7.2.7.7.3.2.3.7.7.2.r.3.3.r.r.0.3.0.0.0.0.0.0.0.0.0.",
"N M k j j a s s p u u u u y y y a a a a a a a a 7 r r r i p p p i i i i i i i i r r r r r i r i r r t t y y y u y y t t t r r r t t t t t t t t 1 r r t t t u u 8.h.}..X.XXXXX.X.X'.t.P t r 1 , y y y y y r r r t t t t t t y y a q a a a a a a 7 7 7 i i i 7 7 i r r r i i i i i i i i i i i a 7 7 7 7 7 7 7 7 q q q q q q q q r < 1 r r r t i t t t t t t p i y y a a a a a a q q i q i q i i i r r r r i i r p p p p p p p p a a a a y a a a a a a a a a a a q 9 9 e e e 9 9 7 9 q q q e e a i t t t t t t t 2 ) T.#XoX~.~..XXXM.M.XXXXM.XX.X.X.X#X'.e.R 2 + p a a a a a a a a a a a a a a a a a q e e a a a a a p a a a a a a a a a a a a a y y y y y y y y a a a a a a a a i i i 7 i i i q q q q q q q q q 7 7 7 9 q q q a i i i i i i i i i i i i i i i i a a a a a a a a a a a p a a a a s s s s s s s s s s s s s s U s c j s s s s s s a a s s s M m j ( Y u t 2 t 8.}.'..XXX.X#X[.q.K s a i p s 2.7.r.w.w.w.w.5.7.7.3.8.8.8.8.8.8.r.r.r.r.r.7.7.7.7.7.6.6.M h a a a a q q a a a a q y M 4.2.5.6.6.5.2.5.2.2.2.2.4.4.4.4.4.4.4.<.<.<.<.j j j j ( ( ( ( ",
"7 7 7 7 7 < 7 7 r t y t t t y y t i p p i i i i p p p p p s s s i i i i i i t t r r r r r r r r 1 1 1 1 1 1 t t 1 1 t 1 t t t u U K K K K K U K ) ) ) ) 1.) 1.8.h..X#XXX.X.X.X.X+X.X'.q.8.0.1.) Y u s u u u u u t t t t t t t t r 7 r 7 i 7 i 7 i i i i i i r 7 p a p a p a p p p p p a p a p a a a a a a a q q a a a a a a a y y t t y y y u y y y p p p p p p y y y y y y a a a a a a x x x x p p p p p p p p p p p i p i p i i i i i r r r r i i i i i i i i r r r i i r r r r r r r i t y y s s s U P T T T | f.'.#XoX~.~.~.XXM.M.M.M.M..X.XXX.X.X'.R.q.{ T t i i i i i i i y y y y y y y y a a a a a a a a a y a a a a y a a y a a y y y y a a a a a a a a a a a a p a a a a a a a a a a a a e a a a e e e e e a a a a x x a a a a a a a a p p p p p p p p a a a a a a a a a a a a a a p a p t t t t t t t p p p p p p p p t r r r r r r r r 1 r r i i i i 1 1 2 4 K R 9.'.'.#X.XR..X#Xj.{ + i a a p a M 6.y.7.7.7.7.6.6.6.2.2.2.2.2.2.5.2.<.1.<.1.<.1.<.4.m h a q q q q q a a a a a a a a i t s s s s s p p y p y p t t t i y i i i r r r y y y y y y u u ",
"r r t t p u u u 2 2 r 2 t t t t t t t t t t t t t t t t t t K K 1.1.1.1.1.1.1.1.8.8.8.8.8.8.8.8.r.q.t.V.t.V.A.V.A.Z.A.Z.A.A.A.A.{.`.{.`.`.`.{.`.}.}.}.}.}.}. X X[.#X#X.Xm.m..XXX.XXX#X'.}.].].G.].`.].`.`.A.A.A.r.0.r.0.r.0.0.0.1.2.3.1.1.1.1.2.1.1.1.1.1.1.1.1.s s s s s s s s t t t t t t u u t t t t t t t t r r 1 2 r r r 2 2 2 2 2 2 2 t t t t t t p p p t U K L K U U U U U p U p U p U p U s U s U s U s 1.1.1.1.1.<.1.1.1.8.1.1.1.1.8.1.8.8.8.8.8.8.8.8.8.8.8.8.8.8.8.8.t.t.t.t.G.G.G.G.G.G.`.].].}.}.[.'.'.oXoX~.~.~.^.XXXXXXXXXXXX.X.XXX.X'.[.#X[.T.t.u u u u u u u u t t t t t t t t p t t t y y y y t t t t t t t t r r r r r r r r t r r r r r r r r i i i i i i i i i i i i i i i i i t i i i i i 7 r r i i t t t r r r r r r r r r r r r r r r r t t r i t i t i r i t i t t t t r r r r r r r r p p p p p p p t U K U K U K P Y P P T ( ) ) 1.) 1.1.1.r.e.t.h.'..XXX.XR.~.OX.XT.t s s p i i p s s p p t t i r r p p p t p p p t p t p t t t t t y a p a p p s a i i i i i i i r t t p u s u s u p p p p p p p p p u p p u u u u t t t 1 1 1 2 2 ",
"0.0.0.r.r.r.r.r.r.t.t.t.t.Z.A.A.T.T.T.T.T.T.T.T.}.}.}.}.#X}.#X X`.T.].E.].E.].].[.[.[.[.[.[.[.[.[.}.[.[.[.[.[.[.oX[.[.[.[.[.[.[.#X#X#X#X#X#X#X#X'.'.'.'.'.'.'.#X'.#XXX.X.X.X@X@Xx..X.X.X#X[.[.[.[.[.[.[.'.'.'.'.[.[.[.[.[.[.[.[.}.}.}.}.}.}.}.}.{.{.{.{.{.{.{.{.|.|.|.|.|.|.|.|. X|. X|. X%X*X*X X X X X|. X X|.|.].].].].|.|.}.[.[.}.}.}.[.[.[.}.}.}.}.}.|.}.}.'.'.'.'.'.'.'.'.#X#X#X#X#X#X#X#X{.`.`.`.`.`.`.`.`.`.`.`.{.`.`.{.'..X.X.X.X.X.X.X+X+X.X.X.X.X.X.X+X+X+X#X#X+X.X.X.X.X.X.X.X.X+X#X}.}.}.[.[.[.'.'..X~.~.~.~.~.^.^.^.^.^.^..X.X.X.X.XR.R.'.oXoX[.[.`.G.G.G.`.G.`.G.A.A.A.A.A.A.A.A.r.V.r.V.r.V.V.V.Z.V.Z.V.A.Z.A.Z.r.r.r.r.r.r.r.r.r.r.r.r.r.r.r.r.r.r.r.r.r.r.r.r.r.r.r.r.r.r.r.r.r.r.r.r.r.r.r.r.r.r.r.r.r.r.r.r.r.r.r.r.r.r.r.r.r.r.r.r.r.r.r.r.r.r.r.r.r.r.r.r.r.r.r.r.r.r.r.r.t.t.t.t.t.t.t.t.t.t.t.t.t.t.t.t.T.T.h.T.T.T.T.T.T.T.T.T.'.`.'.[. X X X[.}.[..X.X.X.X.X~.~..XOX#XG.1.r o r u t 1 u u u u u t t t 2 2 + + + + 2 2 2 2 2 2 2 2 2 2 2 1 r t t t t t u u u u u u u u t t t K K K t t t t t K K K K K K K U U U P P P ) ) ) ) ) ) ) ) ",
"'.'.'.'.'.[.[.[.'.[.#X#X#X#X#X#XoXoXoXoXoXOXoXoXW.~.~..X~..X.X~.oX/.oX/.oX/.oX/.oX~..X~..X~..X.X~.'..X.X.X.X.X.X.X.X.X'.~.R.R.R..X.X.X.X.X.X.X.X~.~.~.~.~.~..X.XR.W..X.X.XXXXX@X^.x.x.~.W.W.'.[.'..X.X.X.X.X.X.X.X.X.X.X.X.X.X.X.X.X.X.X.X.X.X.X#X#X#X#X#X#X#X#XT.T.T.T.T.T.T.T.'.[.'.[.'.[.'.'.'.'.'.R.'.'.R.R.W.W.'.'.'.'.'.'.R.R.R.R.R.'.'.'.'.'.'.'.'.'.'.'.@X@X@X@X@X@XOX@X.X.X.X.X.X.X.X.X#X#X#X#X#X#X#X#X[.[.[.[.[.[.[..X.XXXXXXX.X.X.X.X@XXXXXXXXX@X@XXXXXXXXXXXXXXX.XXX^.^.^.^.^.^.^..X'.'.'.'.R.R.R.R.~.~.Q.^.~.(.^.^.^.~.~.~.~.~.~.~.W.~.oXoXW.W.W./.oX[.[.[.oX[.oX[.oX[.oX[.oX[.oX[.[.}.[.[.[.}.[.}.[.[.[.[.[.[.[.[.[.[.}.[.[.[.[. X[.[.[.[.[.[.[.[. X X X X X X#X X X X X X X[. X X#X#X#X#X#X#X#X#X#X#X#X#X#X#X#X#X#X#X#X#X#X#X&X&X X X X X X X X X X X X X X X X X}.}.}.}.}.}.}.}.#X#X#X#X}.#X#X#X#X#X#X#X#X X#X[..X/././.oX/.OXOX~./.~./.~./.oXoX[.[.'.'.'..X.X~.^.XXXX^.^.^.^..X Xr.Y t P ( P t t t t t t u u u ) ) ) ) ) ) ) ) 0.0.0.0.0.0.0.0.{ { 9.0.0.0.0.| t.t.t.t.t.t.t.t.`.'.'.'.'.'.'.'.'.}.}.}.'.[.[.[.}.}.}.}.[. X[.[.[.[.].].].].E.E.",
".X.X.X.X~.~.~.~.j.j.R.R.R.R.~.R.R.R.R.R.R.~.~.~.~.~.~.~.~.~.~.~.~.~.~.~.~.~.~.~.~.~.~.~.~.~.~.~.XXXXXXXX@X@X@X@X.X.XXXXXXXOX@XOXXXXXXXXXXXXXXXXXXXXXXXXXXXXX@XOX~.W.~..XXX^.^.^.XX^.^.^.^.~.~.OXXXXXXXXXXXXX@X@X^.^.^.x.^.x.x.^.~.~.~.~.~.~.~.~.~.~.~.~.~.~.~.~.OXOXOXOXOXOXOXOX~.~.~.~./.~.~.~.~.~.~.~.~.~.~.^.~.~.~.~.~.~.~.~.^.^.^.^..X.X.X.X.X.X.X.X.X.XXX.Xx.x.x.x.x.x.x.x.XXXXXX.X.XXXXX.XR.R.~.R.R.R.R.R.~.~.~.~.~.W.~.~.^.^.^.^.^.^.^.^.^.^.^.^.^.^.^.^.^.^.^.^.^.~.~.~.^.^.^.^.^.^.^.XX.X.XXXXX@XOXOXOX^.^.^.^.(.(.).Q.~.~.~.~.~.~.~.~.~./.OX/.~.U.~./.R.T.T.T.R.R.R.R.R.R.R.R.R.R.R.R.R.R.R.R.R.R.R.R.T.R.T.T.T.T.T.T.R.R.R.R.R.R.R.R.W.W.R.R.R.R.R.R.W.W.W.W.W.R.W.W.W.W.W.~.W.W.W.W..X.X.X.X.X.X.X.X.X.X.X.X.X.X.X.X'.'.'.'.'.'.'.'.'.'.'.'.'.'.'.'.'.'.'.'.'.'.'.'.R.'.'.'.'.'.'..XR.R.R.R.R.j.j.R.R.R.R.R.R.T.R.R.~.~.~.~.~.~.~.~.~.~.~.~.^.^.^.~.~.W.'.R.~..X.X^.x.^.XXXX^.^.^.~.'.].].E.A.t.t.A.E.E.`.].].].]. X`.T.T.T.T.T.T.T.[.[.[.[.[.[.[.[.oXoXoXoXoXoXoXoX[.[.[.[.[.[.[.[.R.R.R.R.R.R.R.R.R.R.R.R.R.R.R.R.R.R.R.T.R.R.R.R.oXoXoX/.W.W.W.W.",
"^.^.^.^.~.~.~.~..X.X.X.X.X.X.X.XOX/./././.^.^.^.^.^.^.^.^.^.^.~.~.~.~.~.~.~.~.~.~.~.^.~.~.^.~.^.^.^.^.^.^.^.^.^.x.x.x.x.^.^.^.^.x.x.x.x.x.x.^.^.^.x.x.x.x.x.x.^.OXR.~./.^.^.^.^.XX^.^.^.^.^.~.XXx.x.x.x.x.x.x.x.XXXXXXXXXXXX^.^.^.^.^.^.^.^.^.^.^.^.^.^.^.^.^.^.x.~.~.~.Q.Q.Q.~.^.^.~.~.~.~.~.^.^.^.^.^.^.^.^.^.^.^.^.^.^.^.^.^.^.^.^.^.^.^.^.^.^.^.^.^.^.^.^.^././././././././.~.~.~.~..X'..X~.OXOXOXOXOXOXOXOX^.~.^.~.^.~.^.~.~.~.~.~.~.~.~.~.~.~.~.~.~.~.~.~.~.~.~.~.~.~.~.~.~.~.~.~.~.~.Q.Q.~.x.x.^.^.^.^.^.^.^.^.(.^.^.).Q.~.~.~.~.~.~.~.~.~.~.^.~.~.~.~.~.^.^.^.^.^.^.^.^.^.^.^.^.^.^.^.^.~.^.~.~.~.~.^.^.~.~.~.~.~.~.~.~./.(.^.~.^.^.(.(.~.~.~.~.~.~.~.~.~.~.~.~.~.~.~.~.~.~.^.^.~.~.~.~..X.XXXXXXXXXXXXX.X.X^..X.X.X.X~..X.X.X.X.X.X.X.X.X.X.X.X.X.X.X.X.X.XXX.X.X.X.X.XXX@X@X@X@X@X@XXXXXXXXXXXXXXXXX.X.X.X.X.X.X.X.X~.^.^.^.^.^.^.^.^.^.^.^.^.^.^.^.^.OX$XOX~.^..XXX^.^.^.^.^.^.^.^.^.R.[.-X-XoX[.[.#X'.'.'.[.[.[.[.[.[.[.[.[.[.[.[.[.[.[.[.[.[.[.[./.R.R.~.~.R.R.R.R.~.~.~.~.~.~.~.~.OX#X.X.XXX.XXXOX@XXX@X.X.X.X.X.XXXOX.X.X.X~.~.~.~.R.R.R.R.R.R.U.",
"^.^.^.^.~.~.~.~.W.W.R.~.~.~.~.R.W.W.R.~.~.~.^.^.^.^.^.~.~.~.~.~./.~.~.~.~.~.~.~.~.~.~.~.~.~.~.~.~.~.^.^.^.^.^.~.XX^.^.^.^.^.^.^.XXXXXXXXXXXX^.^.XXXX^.^.^.^.XX.XOXR.R.~..X~.^.OX^.x.x.^.XX^.^.XX^.^.^.^.^.^.^.^.^.^.^.^.^.^.^.^.^.~.^.~.^.~.^.~.^.^.^.^.^.^.^.^.^.^.^.^.^.^.^.^.^.^.^.^.~.~.^.^.^.^.^.^.^.^.^.^.^.^.^.^.^.^.^.^.^.^.^.^.^.^.^.^.^.^.^.^.^.^.^.~.~.R.R.R.Y.R.R.R.~.~.~.~.W.W.W.~.Q.Q.^.^.^.^.^.^.^.^.^.^.^.^.^.^.~.R.R.R.R.R.R.R.R.R.R.R.R.R.R.R././././././././.Y./.Y.Y.Y.Y.Y.Q.^.^.^.^.^.^.^.z.Q.!.^.^.Q.Q.!.^.~.~.~.~.~.~.~.~.~.Q.z.^.^.^.^.Q.z.z.z.z.z.z.Q.Q.^.^.^.^.^.^.^.^.^.^.Q.Q.Q.^.^.^.^.^.^.^.^.^.^.^.^.^.^.^.^.^.^.^.^.^.^.^.^.^.^.^.^.^.^.^.^.^.^.^.^.^.^.^.^.^.^.^.^.^.^.^.^.^.^.^.^.^.^.^.^.^.^.~.^.^.^.^.^.^.XX^.^.^.^.^.^.^.^.^.^.^.^.^.c.^.^.^.x.^.c.^.^.^.XX^.^.^.^.^.^.^.^.^.^.^.^.^.^.^.^.^.^.^.^.^.^.^.^.^.^.^.^.^.^.^.^.^.g.^.~.~.^.XXXXXXXX^.^.^.^.^.^.^.~.R.j.T.~./..XW.~.~..X~..X~..XW.~.~.~.W.~.W.~.~.~.W.~.W.~.R.~.~.~.~.~.~.~.~.~./.~.~.~.~.~.~.~.~.^.^.^.^.^.^.^.^.XX^.^.^.^.^.^.^..X.X~.~.~.^.^.~.~.~.~.~.~.~.~.~.",
"^.^.^.^.~.~.oXoXoXW.W.[.#X#X#X#X'.[.#XoX.X.XXXXXXX.XXX#X.XR.'.#X[.[.[.[.'.[.'.[.'.'..X'..X.X.X.X~.~.~.~.~.~.~.~.~.~.~.~.~.~.~.~.~.~.~.~.~.~.~.~.~.~.~.~.~.~.~.R.W.W.'.~..X~.~.~..X^.^.^.^.^.^.~.~.~.~.~.^.~.~.~.~.~.^.~.^.~.^.~.~.~.~.~.~.~.~.~.~.~.~.~.~.~.~.~.~.^.^.^.^.^.^.^.^.^.^.^.^.^.^.^.~.~.~.^.^.^.~.~.^.^.^.^.^.^.^.^.~.~.~.~.^.~.~.~.^.Q.^.^.^.^.^.~././.U.U.U.Y.Y.U.R.R.R.R.W.R.R.~.^.z.^.^.^.^.^.z.^.^.^.^.^.^.^.^.~.~.R.R.R.~.~.~.R./././.R.~.~.~.Y.Y././././././././././././.Y.~.^.^.^.^.^.^.^.^.^.Q.^.^.Q.~.^.^.~.^.^.^.^.^.^.^.^.^.^.^.^.^.^.^.^.^.^.^.^.^.^.^.^.^.^.^.^.^.^.^.^.^.^.^.^.^.^.^.^.^.^.^.^.^.^.^.^.^.^.^.^.^.^.^.^.^.^.^.^.^.^.^.^.^.^.^.^.^.^.^.^.^.^.^.^.^.^.^.~.~.~.Q.^.^.^.^.^.^.^.^.^.^.~.~.^.^.^.Q.^.^.^.^.^.^.^.^.^.^.^.^.^.^.^.c.^.c.^.^.c.c.c.c.^.^.^.^.^.c.c.c.^.^.^.^.^.^.^.^.^.^.^.^.^.^.^.^.^.^.^.^.^.^.^.^.^.^.^.^.^.^.^.^.^.^.~.~.^.^.^.^.^.^.^.^.~.~.^.~.^.~.~.~.~.~.~.~.~.~.~.~.~.~.^.~.^.~.^.~.^.~.^.~.^.~.^.~.^.~.^.^.^.^.^.^.^.^.^.^.^.^.^.^.^.^.^.^.~.~.~.^.^.^.^.^.^.^.^.^.~.~.~.~.^.^.^.^.^.^.^.~.^.^.~.^.",
"^.^.~.~.~.W.W.[.[.T.T.t.t.h.t.t.t.A.T.T.h.'.'..X.Xj.j.'.[.}.`.T.].].}.}.}.}.}.}.}.}.#X#X}.}.}.}.'.W.W.W.[.[.'.'.oXoXoXoX[.oXoXoX[.[.[.[.[.[.[.[.oX[.[.[.oXoXoXoX[.[.[.#X#X#X#X#XXXXXXXXXXXXXXX.XR.R.W.W.W.W.W.W.W.W.W.W.W.W.W.W.W.W.W.W.W.W.W.W.R.R.R.R.R.R.R.R.~.~.~.~.~.~.~.~.~.~.~.~.^.^.^.^.~.~.~.~.~.~.~.~.~.~.~.~.~.~.~.R.I.T.R.~.~.~.~.~.~.Q.Q.~.~.Q.Q.~.~.~.~.~././.~.~.OXOXOXOXOXOXOXOX^.x.^.^.^.^.^.^.^.^.^.^.^.^.^.^.~.~.~.~.~.~.~.~.~.~././.~.~.~./././././././././.~.~.~.~.~.~.Q.Q.^.^.XX^.XXXXXXOXOXOX(.(.(.(.(.(.OXOX^.^.^.^.^.^.^.^.^.^.^.^.^.^.^.^.^.^.^.^.^.^.^.^.^.^.^.^.^.^.^.~.^.~.^.^.^.^.^.~.^.~.^.~.^.~.^.~.^.~.^.~.^.~.^.~.^.^.^.^.^.^.l.Q.^.~.~.~.Q.Q.x.~.x.~.^.~.^.~./.~.Q.Q.~.^.^.^.!.^.^.^.~././.~.^.^.^.^.^.^.^.Q.^.^.^.^.^.^.^.^.^.^.^.^.^.^.^.^.^.^.^.^.^.^.^.^.x.z.z.z.z.z.z.z.^.^.^.^.^.^.^.^.^.^..X.X.X.X.X.X.X.X.X.X.X.X.X.X^.^.~.~.~.~.~.~.~.~.~.~.~.^.x.^.XX^.^.^.^.^.^.^.^.^.~.~.^.^.^.^.^.^.^.^.^.^.^.^.^.^.^.^.^.^.^.^.~.~.~.~.~.~.~.~.~.~.~.~.~.~.~.~.~.~.^.^.~.~.~.~..X.X.X.X.X.X.X.X.X.X.X.X.X~.~.~.^.^.^.^.^.^.^.^.",
"^.~.~.oX[.[.T.E.t.0.) ^ T T T ) ) 1.1.1.1.w.b.}.b.9.>.w.`.G.r.1.1.1.1.1.1.1.1.1.1.1.8.8.8.8.8.8.9.9.9.0.0.0.0.0.t.t.t.t.t.t.q.t.t.t.t.t.t.t.t.t.A.A.A.A.A.A.A.A.T.T.T.T.T.T.I.I.R.R.j.R.j.R.R.R.[.[.[.[.[.[.[.[.[.[.[.[.[.[.[.[.E.E.E.E.E.E.E.E.E.E.E.E.E.E.E.E.W.~.~.~.~.~.~.~.oXoXoXoXoXoXOXoXW.[.W.W.[.W.W.W.[.[.[.[.[.[.[.[.[.[.[.oXoX[.[.W.~.R.R.~.~.~.~.~.^.Q.^.^.^.^.^.^.x.x.x.x.x.x.x.x..X~..X.X~.~..X.X~.~.~.~.~.~.~.~.x.x.x.x.x.x.x.x.x.x.x.x.x.x.x.x.x.l.l.l.l.l.l.l.^.^.~.^.^.^.^.^.~.~.~.~.~.~.~.W.~.W.W.W.R.W.W.W.R.~.R.~.~.R.~.~.~.~.^.^.^.^.^.^.~.~.~..X~.~..XOX~.~.~.~.~.~.~.~.~.R.~.R.~.R.~.R.~.~.~.~.~.~.~.~.~.~.~.~.~.~.~.~.OXoXOXOXOXOXOXOX.XoXOXOXOXOX~./.~.~..XoXOXOXOXOX/./.R.~.~.~.^.~.Q.Q.^.~.~./.Y.R.~.^.^.~.Q.Q.^.^.~.~.~.~.~.~.~.~.^.^.^.^.^.^.^.^.^.^.^.^.^.^.^.^.^.^.^.^.XXXX^.^.^.^.^.^.^.^.^.^..X.X.X.X.X.X.X.X.X.X.X.X.X.X.X.X~.^.^.~.~.~..X.XOXOX#X#XXXOXXX.X~.~.~.~.~.~.~.~.~.~.~.~.~.~.~.~.^.^.^.^..X.X.X.X.X.X.X.X^.^.^.^.~.~.~.~.~.~.~.~.~.~.~.~.~.~.~.~..X.X.X.X.X.X.X.XR.R.R.R.R.R.R.R.R.T.R.T.R.R.R.R.~.~.^.^.^.^.^.^.",
"~.~.~.[.[.E.C.0.( ^ u u Y P T T ( s Y U Y 1.p. Xw.-.R -.r.r.1.s ( ( <.<.1.( ( ( T T T T T T T T P P ( ( ( ( P P P P P P P P P P ) ) ) ) ) ) ) ) ) ) ) ) ) ) ) ) 1.1.1.1.1.{ { { 8.8.8.8.8.8.8.8.{ ) { ) 8.8.{ 8.8.8.8.8.8.8.8.8.0.0.0.0.0.0.0.0.C.C.C.C.C.C.C.C.t.t.f.t.f.t.f.t.I.T.I.T.I.T.I.T.E.E.E.E.E.E.E.E.T.E.E.E.E.E.T.E.].].].].[.[.[.T.[.W.W.~.~.~.~.~.^.^.x.^.XXXXXXXXXX@X@X@XXXXXXXXX.X#X[.#X#X[.'.#X#X#X#X#X#X#X#X#X@X@X@X@X@X@X@X@X@X@X@X@X@X@X@X@X@XXXXXXXXXXXXXXXXXXXXXXXXXXXXX.X#X#X#X#X#X#X#X#X[.[.[.[.[.[.[.[.[..X.X.X.X.X.X.X#X#XXXXX#X#X#X#X'.oX[.[.oX[.[.#X'.'.'.'.'.'.'.'.[.[.[.[.[.[.[.[.T.'.T.T.'.T.'.T.'.'.'.'.'.'.'.'.'.'.'.'.'.'.'.'.'.'.'.'.'.'.'.'.T.T.'.'.'.[.[.[.W.Y.R.~.~.~.~.^.^.^.~.~.R.R.W.U.R.~.~.~.~.~.~.~.~.~.~.~.~.~.~.~.^..X.X~.^.~.^.~..X.X.X.X.X.X.X~.R.R.R.R.~.~.~.~.~.~.^.^.^.^.^.^..X.X.X.X.X.X.X.X.X.X.X.X.X.X.X.X~.^.~.~.oXoXoX[.W.'.'.'.'.'.'..X.X.X.X.X.X.X.X.XOXOXOXOXOX#X#XOX.X.X.X.XXXXXXXXX.X.XXXXX.X.X.X.X#X#X#XoX[.oX#X#X'.'.'.'.'.'.'.'.[.[.[.[.[.[.[.[.oXoXoX#XoXoXoXoX[.[.[.[.#X[.#XoX~.~.~.^.^.^.XXXX",
"^.~.W.'.T.t.) ( ^ ( ( <.4.4.1.1.2.<.( ( T 1.G. Xw.-.T 1.r.3.1.<.<.4.4.4.4.4.4.4.4.4.2.2.2.2.1.1.1.1.1.1.) ) ) ) ( ( ( ( ( ( ( ( ( ( ( ( ( ( ( ( Y Y Y Y Y Y Y Y T T T T ( ) ) T P P P P Y Y P P U s Y s Y Y Y Y Y Y Y Y Y Y Y Y ^ ^ ^ ^ ^ ^ ^ ^ ) ) ( ( ( ( ( ) ) ) ) ) ) ) ) ) T P ) ( T P T P ) ) ) ) ) ) ) ) ) ` ` ` 1.1.1.1.` ` ) 0.t.A.`.[.[.'..X.X.X~..X.XXX.Xj.g.j.j..X.X.X.X.X.X.X.X.X'.h.`.h.T.[.`.t.'.T.T.`.`.`.`.T.`.'.n.n.n.n.n.n.n.n.n.n.n.n.n.n.j.j.j.j.j.j.j.j.j.j.j.j.j.j.j.j.h.T.A.A.A.T.T.T.T.t.t.t.t.t.t.t.t.t.t.t.t.t.t.A.t.t.t.t.t.t.t.t.t.q.e.e.q.q.q.t.t.r.r.e.r.q.q.q.q.q.t.t.t.t.t.r.r.r.r.r.r.r.r.r.r.r.r.r.r.r.r.q.q.r.r.r.r.r.r.r.r.) { { 8.8.{ { { ) ) { { 8.8.8.0.T.I.T.W.~.~.~.^.^.~.~.R.T.R.W.W.~.~././.~.~.oX/.oX/././././././..X#X.X#XXX#X.X#X.X.X.X#X.X#X.X#X[.[.[.[.[.oXoXoX~..X.X.X.X.X^..X.X.X.X.X.X.X.X.X.X.X.X.X.X.X.X.XOXOXOXoXoX[.[.}.[.}.}.[.}.'.[.[.#X#X#X#X#X#X#XoX[.[.[.[.[.[.[.[.'.'.'.'.'.'.'.'.'.'.'.'.'.'.'.'.'.`.'.`.'.`.`.'.`.`.`.`.`.`.`.`.`.T.T.T.T.T.T.T.T.T.T.T.T.T.T.E.E.A.G.A.E.E.T.T.T..XXX.XXXXXXXXX",
".X.X'.T.q.) P s ( ( <.4.4.6.<.Y 2.j j ( Y T r. X8.1.T 1.1.1.( <.j j j j s j c j =.<.<.<.1.( <.( 1.<.1.<.1.<.1.<.1.( 1.( 1.( <.( <.1.1.( 1.( 1.( <.( <.( <.( <.<.1.1.1.<.1.1.1.1.1.=.1.=.<.1.1.1.1.1.4.1.4.1.2.1.4.1.2.1.2.1.2.1.( ( ( ( ( ( ( ( ( ( ( ( ( ( ( ( ( Y Y Y ( Y Y Y Y ( ( ( Y s Y Y Y Y Y Y Y Y Y Y ( ( ( ( ( ( ( ( ^ j Y Y ) 0.t.h.'.'..X.X.XXXXX.Xk.e.8.{ 8.8.8.8.Q T Q T >.-.>.-.1.8.T 1.`.r.T 0.8.1.8.1.1.1.8.8.T T T T T T T T T T T T T T T T T T T T T T T T 1.-.1.1.1.1.1.1.P ( P ( P P T T P P P P P P P P P P P P P P P P U K U P U P Y Y T T T T ( ( ( 1.T T T T T T T T U Y Y Y Y Y s s Y Y Y Y Y Y Y Y ( ( ( ( ( ( ( ( ( ( ( ( ( ( ( ( Y Y Y Y Y Y Y Y Y Y Y Y Y Y Y ( 0.q.I.W..X~..X^.XX~.~.~.W.W.[.[.oXW.W.W.[.oX'.W.[.W.oXW.[.W.[.[.[.[.[.[.[.[.[.[.'.'.'.'.'.'.'.`.}.].].].}.[.[.[.h.j.R..XXX.X.X.X.X~.~.~.~.~.~.~.~.~.~.~.~.~.~.~..X~.R.I.f.t.t.A.A.A.A.A.A.`.`.`.t.t.t.t.t.t.t.t.e.t.e.t.e.t.e.e.r.r.r.r.r.r.r.r.r.r.r.r.r.r.r.r.r.r.r.r.r.r.r.r.8.8.8.8.8.8.8.0.1.) 1.) 1.) 1.) ) ) ) ) ) ) ) ) ^ ^ ^ ( ( ) T I q.h..XXXXX.X.X.X",
".XXX.Xh.9.T T ( ( M M M M =.=.s j g j ( Y K 8.].8.) P P ( ^ j j <.<.<.<.<.<.<.<.<.<.4.1.4.1.1.1.j j M j c j c j M j M j M j M j <.<.<.<.<.<.<.<.<.<.<.<.<.<.<.<.=.=.=.=.B <.<.B <.<.4.4.4.4.<.<.s s =.j =.j <.j <.j <.j <.j <.M 4.4.4.4.4.4.4.4.4.4.4.4.4.4.4.4.<.M 4.M 4.M 4.M 4.2.2.2.4.2.4.4.4.4.4.4.4.4.<.<.4.4.4.4.4.4.4.4.2.1.1.( ( ) 1.8.b.'.XX.X.XXXXXj.T j s s ^ j Y s ( ( <.<.<.<.<.<.1.1.t Y G.r.t ( T Y T Y T Y T Y <.<.<.<.4.4.4.4.<.<.<.<.4.4.4.4.<.<.<.<.<.<.<.<.s s s j j j j j ) ) ( ( 1.1.( ( ( 1.1.1.1.1.1.1.1.) 1.( 1.) 1.) <.( <.( <.<.<.<.j =.<.<.<.<.<.<.<.<.<.<.<.<.<.<.4.4.4.4.4.4.4.4.M M M M M M M M <.<.<.<.<.<.<.<.<.<.<.<.<.<.<.<.<.( <.<.<.<.<.( <.<.( ( ( ( <.) I ] h.W..X.X.XXX.X^..X~.R.I.h.t.I.f.q.f.T.[.T.I.q.f.q.q.q.q.q.q.t.t.t.t.t.t.t.t.e.e.e.e.e.e.e.r.) ) ` / ) / { E 8.} f.'.+XXX.XXX~.~.~.~.~.~.~.~.~.~.~.~.~.~.~.~.~.T.f.} { / ) ) P P P P P P T P P P P P P P P P ( ( ( ( ( ( ( ( ^ ( Y ^ Y ^ Y ^ Y ^ Y ^ Y ^ Y Y T T T T T T T T T T T T T T T T s u Y u s u s P 1.) 1.) ( ) 1.1.( j ( ( ) ) ) / T 9.j..XXX.X.X.X",
"x..X.Xh.8.P ( 2.1.<.<.<.<.<.4.<.M j ( 2.1.( 0. Xt.1.P T ( ) ( j j M M j j M M M <.<.<.<.<.<.<.j <.4.4.4.4.<.<.<.4.4.4.4.4.4.4.4.<.<.<.<.<.<.<.<.<.<.<.<.B <.<.<.<.<.B <.B B B B B B B B <.<.<.<.<.<.<.<.<.<.<.<.<.<.<.<.<.<.<.<.M <.<.<.M M M M <.<.<.<.<.<.<.<.M M M M M M M B M M M M M M M M <.<.<.<.<.<.<.<.<.<.<.<.<.<.<.<.( ( ( ( 1.( T T h.'..X.X.X.Xx.h.Y j j N 2.2.N j N N M M M M M 4.<.2.u ( |.A.t ( 1.1.<.1.<.<.1.<.N M M M M M M M M M M M M M M M N M N M N M N M M M M V M V M 4.j j j j ( ( ( ( 1.1.1.1.<.1.<.1.<.<.<.<.M M M M j j j j j j j j M B <.<.<.4.4.4.4.4.4.4.4.4.4.4.<.M <.M <.M B M 4.M 4.4.4.M 4.M 4.M 4.M 4.M 4.M B M B M <.M <.M M N N <.<.M M j <.<.<.<.<.N N ( K T f.'..X.X.X^.x.^..X'.I.9./ I ) R I { t.`.T.T.R I I I I I I T P P P T T P P P P P P P P P P P P Y Y P P P P P L T 9.'.#XXXXX@X~.~.~.~.~.~.~.~.~.~.~.~.~.~.~.~.#XT.f.| ^ P ^ ( ^ ^ ( ( ( ( ( ( ( ( ( ( ( ( ( ( ( ( ( ( ( ( ( ( ( ( ( ( ( ( ( ( ( ( ( ( ( ( ( ( 1.<.<.<.<.<.<.1.<.<.<.<.<.<.<.1.1.1.1.1.1.1.1.1.<.<.( ( j j j j j j j <.( ( ( ( K T h.'.XX.X.XXX",
"~.U.[.T.) ( 1.( 1.5.u Y 2.=.<.<.M 4.<.<.( Y 1.|.Z.P Y 1.1.<.4.<.<.<.<.<.M <.<.<.<.<.<.<.<.<.<.<.4.4.M c 6.<.s 1.<.<.<.<.<.B B B <.<.<.<.<.<.<.<.<.<.<.<.<.<.<.<.<.<.<.<.<.<.<.<.<.<.<.<.<.<.<.<.<.<.<.<.<.<.<.<.<.<.<.<.<.<.<.<.<.<.<.<.<.<.<.<.<.<.<.<.<.<.<.<.s 1.<.s 4.<.j 4.<.<.<.N B M <.<.( ( ( ( <.<.<.<.<.<.<.1.=.1.1.1.^ ( <.j M 4.1.P t.#XW.~.~.~..X8.Y j j ( <.j M N N N <.<.<.<.<.<.<.( Y 3.].E.) P 1.<.<.<.<.<.<.<.<.M <.M <.M <.M <.M <.M <.M <.M <.M B M <.M <.M <.M <.M <.M <.<.<.<.<.<.<.<.<.<.<.<.<.<.<.<.<.<.<.<.<.<.<.<.<.<.<.<.<.<.<.<.<.<.<.<.<.<.<.<.<.<.<.<.<.<.<.<.<.<.<.<.<.<.<.<.<.<.<.<.<.<.<.<.<.<.<.<.<.<.<.<.<.<.<.<.<.<.<.<.<.<.B M M <.<.<.j j <.<.<.4.<.M M ( ( ) t.[.W.~.^.^.^.Q.$XE.E.H.) s 5.( 1.u G.`. X0.) ) ( ( ( <.<.<.1.1.<.<.<.1.1.1.1.1.1.1.1.<.<.1.=.1.1.1.1.<.<.( ) P ) T.#XOX.X^.~.~.~.~.~.~.~.~.~.~.~.~.^.^.^.~.'.T.9.I P ) ) s ( ( <.<.<.<.<.1.<.<.<.<.<.<.<.<.<.<.<.<.<.<.<.<.<.<.<.<.<.<.<.<.<.<.<.<.<.<.<.<.<.<.<.=.=.=.=.<.5.c c 6.5.<.=.<.6.<.<.<.4.4.4.4.c 4.6.m j 2.2.M <.1.<.<.M M <.1.1.P 9.[..X~..X^.",
"Q.U.W.A.1.( <.( 1.3.K P 1.Y <.<.B 4.<.<.1.Y 1.|.Z.( Y 1.<.<.4.<.<.4.4.4.B B <.B B B <.<.<.<.B B B 4.M c 4.<.Y 1.1.1.<.<.<.B <.B <.<.<.<.<.<.<.<.<.<.<.<.<.<.<.<.<.<.<.<.<.<.<.<.<.<.<.<.<.<.<.<.<.<.<.<.<.<.<.<.<.<.<.<.<.<.<.<.<.<.<.<.<.<.<.<.<.<.<.<.<.<.<.<.Y 1.( Y 1.1.s 1.<.<.<.<.<.<.<.<.( ( ( ( <.<.<.<.<.1.=.Y T T T K ^ ( ( j M 4.1.P t.oXR.~.~.~.'.8.T Y ( ( <.( M M <.<.<.<.<.<.<.<.<.( Y { ].T./ P 1.<.4.B B <.<.<.<.<.<.<.<.<.<.<.<.<.<.<.<.<.<.<.<.<.<.<.<.<.<.<.<.<.<.<.<.<.<.<.<.<.<.<.<.<.<.<.<.<.<.<.<.<.<.<.<.<.<.<.<.<.<.<.<.<.<.<.<.<.<.<.<.<.<.<.<.<.<.<.<.<.<.<.<.<.<.<.<.<.<.<.<.<.<.<.<.<.<.<.<.<.<.<.<.<.<.<.<.<.<.<.<.<.<.<.<.<.<.<.<.B <.<.1.<.<.( 1.1.1.4.<.B <.( ( ^ t.[.W.~.^.Q.~.~.OXT.V.Z.j j 4.<.1.u F.H.].0.( ( ( <.<.M B B <.<.<.<.<.<.<.<.<.<.<.<.<.<.<.<.1.1.1.<.<.<.<.<.1.Y ) T.#XOX^.^..X.X.X.X.X.X.X~..X.X.X.X.X.XXX~.[.A.{ I ( ( ( j <.N N M <.<.<.<.<.<.<.<.<.<.<.<.<.<.<.<.<.<.<.<.<.<.<.<.<.<.<.<.<.<.<.<.<.<.<.<.<.<.=.=.;.4.4.4.6.<.<.4.4.<.B <.B <.4.4.=.v B 4.4.4.4.M M V N j <.1.<.M <.M M <.1.Y r.[..X~.^.^.",
").U.W.A.1.( <.<.1.3.Y P 1.Y <.<.<.4.<.<.1.Y 1.H.Z.( Y 1.<.<.4.<.<.<.<.<.<.<.<.B B B <.<.<.<.<.B M 4.<.c <.<.Y 2.1.1.<.<.<.<.<.B <.<.<.<.<.<.<.<.<.<.<.<.<.<.<.<.<.<.<.<.<.<.<.<.<.<.<.<.<.<.<.<.<.<.<.<.<.<.<.<.<.<.<.<.<.<.<.<.<.<.<.<.<.<.<.<.<.<.<.<.<.<.<.<.Y 1.( Y 2.1.s <.<.<.<.<.<.<.<.<.( ( ( <.<.<.<.<.1.<.=.-.1.1.T P P ^ ( j M 2.1.P t.oXR.~.~..X'.8.Y ( ( ( ( ( <.M <.<.<.<.<.<.<.<.<.( P 0.].T./ P 1.<.<.B B <.<.<.<.<.<.<.<.<.<.<.<.<.<.<.<.<.<.<.<.<.<.<.<.<.<.<.<.<.<.<.<.<.<.<.<.<.<.<.<.<.<.<.<.<.<.<.<.<.<.<.<.<.<.<.<.<.<.<.<.<.<.<.<.<.<.<.<.<.<.<.<.<.<.<.<.<.<.<.<.<.<.<.<.<.<.<.<.<.<.<.<.<.<.<.<.<.<.<.<.<.<.<.<.<.<.<.<.<.<.<.<.<.<.<.<.<.1.1.1.( Y Y ( ( ( ( <.<.<.<.( ^ t.[.W.~.^.^.^.~./.9.) 1.j N <.<.1.u r.H.`.3.( ( ( <.<.M B B <.<.<.<.<.<.<.<.<.<.<.<.<.<.<.<.1.1.1.<.<.<.<.<.1.Y ) T.#X.X^.~..X.X.X.X.X.X~.~..X.X.X.X.X.X^.~.[.e.T P ` ( ( ( <.N N N <.<.<.<.<.<.<.<.<.<.<.<.<.<.<.<.<.<.<.<.<.<.<.<.<.<.<.<.<.<.<.<.<.<.<.<.4.<.=.<.4.6.4.v c <.4.B v 4.4.<.c <.6.6.;.v v 4.4.c c <.6.M M M <.=.s s M M M <.1.Y r.[..X~.^.^.",
").U.W.A.1.( <.( 1.r.P P 1.Y <.B <.4.<.<.1.Y 1.H.F.( Y 4.<.<.<.<.<.<.4.4.<.<.<.<.B B <.<.<.<.<.B c 6.<.c <.<.Y 2.1.1.<.<.<.<.<.B <.<.<.<.<.<.<.<.<.<.<.<.<.<.<.<.<.<.<.<.<.<.<.<.<.<.<.<.<.<.<.<.<.<.<.<.<.<.<.<.<.<.<.<.<.<.<.<.<.<.<.<.<.<.<.<.<.<.<.<.<.<.<.<.Y 1.Y Y 5.1.( <.<.<.<.<.<.<.<.<.<.<.<.<.<.<.<.<.<.( 1.8.t.t.t.r.( ^ j j 4.2.1.( t.oXR.~.~..X'.8.Y ( 1.( ( <.<.<.<.<.<.<.<.<.<.<.<.( Y 0.].T.{ T 1.<.<.B B <.<.<.<.<.<.<.<.<.<.<.<.<.<.<.<.<.<.<.<.<.<.<.<.<.<.<.<.<.<.<.<.<.<.<.<.<.<.<.<.<.<.<.<.<.<.<.<.<.<.<.<.<.<.<.<.<.<.<.<.<.<.<.<.<.<.<.<.<.<.<.<.<.<.<.<.<.<.<.<.<.<.<.<.<.<.<.<.<.<.<.<.<.<.<.<.<.<.<.<.<.<.<.<.<.<.<.<.<.<.<.<.<.<.<.<.<.1.1.( Y ( ( T ( ( s s <.4.1.( ( t.[.W.~.^.^.^.~.oX9.P ^ j 2.j 1.1.s 3.K.].1.( ( ( <.<.<.B B <.<.<.<.<.<.<.<.<.<.<.<.<.<.<.<.=.=.1.<.<.<.<.<.1.Y ) h.[..X^.^..X.X.X.X.X.X^..X.X.X.X.X.X.X^..X[.{ K P 1.^ ^ <.<.N N N <.<.<.<.<.<.<.<.<.<.<.<.<.<.<.<.<.<.<.<.<.<.<.<.<.<.<.<.<.<.<.<.<.<.<.<.6.<.=.<.6.4.a i r v 4.B v 4.4.M a c 4.6.4.B b b p r p M 4.j j 1.1.s p p c M N M 1.Y r.[..X~.^.^.",
").U.W.E.1.( <.( 1.Z.( P 1.Y 6.<.<.4.<.<.4.( 1.G.F.( Y 4.<.<.<.M <.<.<.<.<.<.<.<.<.<.<.<.<.<.<.<.c 6.<.a <.<.1.2.1.1.<.<.<.<.<.B <.<.<.<.<.<.<.<.<.<.<.<.<.<.<.<.<.<.<.<.<.<.<.<.<.<.<.<.<.<.<.<.<.<.<.<.<.<.<.<.<.<.<.<.<.<.<.<.<.<.<.<.<.<.<.<.<.<.<.<.<.<.<.<.( 1.s Y 5.2.( <.<.<.M M <.<.<.<.<.<.<.<.<.<.<.<.=.1.8.t.`.[.'.T.` ) ^ j 4.4.1.T t.oX~.Q.~.~.'.8.Y <.<.( ( 1.1.( <.<.<.<.<.<.<.<.<.( Y | ].T.{ T 1.<.4.B B <.<.<.<.<.<.<.<.<.<.<.<.<.<.<.<.<.<.<.<.<.<.<.<.<.<.<.<.<.<.<.<.<.<.<.<.<.<.<.<.<.<.<.<.<.<.<.<.<.<.<.<.<.<.<.<.<.<.<.<.<.<.<.<.<.<.<.<.<.<.<.<.<.<.<.<.<.<.<.<.<.<.<.<.<.<.<.<.<.<.<.<.<.<.<.<.<.<.<.<.<.<.<.<.<.<.<.<.<.<.<.<.<.<.<.<.<.1.( T ( ) 1.0.0.3.T Y 1.4.<.( ^ t.[.W.~.^.^.~.~.OX9.P ^ h N j 5.1.( 2.].H.1.( ( ( <.<.<.M M <.<.<.<.<.<.<.<.<.<.<.<.<.<.<.<.=.=.=.<.<.<.N <.1.Y ) h.[.~.^.^..X.X.X.X.X.X.X.X.X.X.X.X.X.X.X.X`.) K ( 1.( s 1.<.<.<.<.<.<.<.<.<.<.<.<.<.<.<.<.<.<.<.<.<.<.<.<.<.<.<.<.<.<.<.<.<.<.<.<.<.<.<.<.4.<.<.4.4.c 7 O 7 c 4.B M M x q % 7 i c 4.M i % % % i =.<.s s 1.<.Y s p M M M M 1.Y r.[..X~.^.^.",
").U.W.E.1.( 1.( 1.A.1.P 1.=.6.<.<.<.Y <.2.( 1.F.F.( Y 4.<.<.<.M <.<.<.<.<.<.B <.<.<.<.<.<.<.<.<.M 6.M p <.5.1.1.1.1.<.<.<.<.<.B <.<.<.<.<.<.<.<.<.<.<.<.<.<.<.<.<.<.<.<.<.<.<.<.<.<.<.<.<.<.<.<.<.<.<.<.<.<.<.<.<.<.<.<.<.<.<.<.<.<.<.<.<.<.<.<.<.<.<.<.<.<.<.<.<.1.s s 5.5.( <.<.<.M M <.<.<.B <.<.B B <.<.<.1.Y 1.q.`.[.oX~.W.A.3.( ( <.<.1.T t.oXR.Q.~.~.'.8.Y <.1.j ( 1.4.( <.<.<.<.<.<.<.<.<.( Y 0.[.T.{ ) 1.<.B B B <.<.<.<.<.<.<.<.<.<.<.<.<.<.<.<.<.<.<.<.<.<.<.<.<.<.<.<.<.<.<.<.<.<.<.<.<.<.<.<.<.<.<.<.<.<.<.<.<.<.<.<.<.<.<.<.<.<.<.<.<.<.<.<.<.<.<.<.<.<.<.<.<.<.<.<.<.<.<.<.<.<.<.<.<.<.<.<.<.<.<.<.<.<.<.<.<.<.<.<.<.<.<.<.<.<.<.<.<.<.<.<.<.<.<.Y ( ( T T ) 0.t.`.`.A.1.T 1.<.s ( ( t.[.W.~.^.^.~.~.OX9.( ) s N j 7.1.( ( |.G.` ( ( ( 1.<.<.<.<.<.<.<.<.<.<.<.<.<.<.<.<.<.<.<.<.=.=.<.<.<.<.N <.<.Y ) t.'.~.^.~..X.X.X.X.X.X.X.X.X.X.X.X.X.X.X[.t.) K ( ( ( ( <.<.<.<.<.<.<.<.<.<.<.<.<.<.<.<.<.<.<.<.<.<.<.<.<.<.<.<.<.<.<.<.<.<.<.<.<.<.<.<.<.4.4.4.4.<.b % X a B 6.6.M a 7 X X X 7 c 6.4.x % % 7 p =.<.Y U T 2.1.s M B 4.2.4.1.Y r.[..X~.^.^.",
").Q.W.E.1.( 1.1.1.G.1.( ) =.5.=.<.<.Y <.2.( ( Z.G.( Y 2.<.<.<.c <.<.<.<.B B <.<.<.<.B B <.<.<.<.B 6.c p <.7.2.1.1.1.<.<.<.<.<.B <.<.<.<.<.<.<.<.<.<.<.<.<.<.<.<.<.<.<.<.<.<.<.<.<.<.<.<.<.<.<.<.<.<.<.<.<.<.<.<.<.<.<.<.<.<.<.<.<.<.<.<.<.<.<.<.<.<.<.<.<.<.<.<.<.( s s 5.5.( ( <.<.<.<.<.<.B B <.<.B B <.<.<.1.U 1.t.'..X~.^.~.].q.( <.<.<.=.) t.oXR.Q.~.W.[.8.Y <.1.j ( 4.2.Y 1.<.<.<.<.<.<.<.<.( Y 0.[.T.{ ) =.<.B B B <.<.<.<.<.<.<.<.<.<.<.<.<.<.<.<.<.<.<.<.<.<.<.<.<.<.<.<.<.<.<.<.<.<.<.<.<.<.<.<.<.<.<.<.<.<.<.<.<.<.<.<.<.<.<.<.<.<.<.<.<.<.<.<.<.<.<.<.<.<.<.<.<.<.<.<.<.<.<.<.<.<.<.<.<.<.<.<.<.<.<.<.<.<.<.<.<.<.<.<.<.<.<.<.<.<.<.<.<.<.<.<.<.<.<.<.<.1.( T 8.A.[. X X`.8.( 1.4.Y ( ( t.[.W.~.^.^.^.~.oX9.) 1.j N j r.1.( Y K.Z.( ( ( 1.1.<.M M M <.<.<.<.<.<.<.<.<.<.<.<.<.<.<.<.1.1.<.<.<.M N <.<.Y ) t.'.~.~.~.~.~..X.X.X.X.X.X^.~..X.X.X.X.X'.) 1.( ( ( ( <.<.<.<.<.M <.<.<.<.<.<.<.<.<.<.<.<.<.<.<.<.<.<.<.<.<.<.<.<.<.<.<.<.<.<.<.<.<.<.<.<.<.4.4.4.<.c a i 4.B B V B a 7 % 6 7 q M 6.6.B a i p c 1.7.r.8.T 1.<.<.M <.M 4.<.1.Y r.[..X~.^.^.",
").Q.W.T.1.( 1.<.1.G.3.) 1.Y 5.=.<.<.=.<.2.( ( Z.G.( Y 2.<.<.<.c B <.<.<.<.B B B <.<.B B B <.<.<.B 6.s i <.7.2.Y 1.1.<.<.<.<.<.B <.<.<.<.<.<.<.<.<.<.<.<.<.<.<.<.<.<.<.<.<.<.<.<.<.<.<.<.<.<.<.<.<.<.<.<.<.<.<.<.<.<.<.<.<.<.<.<.<.<.<.<.<.<.<.<.<.<.<.<.<.<.<.<.1.( s s 5.5.( ( <.<.<.<.<.<.<.<.4.4.B B <.<.<.1.p 1.T.[.~.~.^.(.,XV.1.<.<.<.Y ) t.oXR.U.~.W.[.8.s 2.2.j ( 5.2.Y 1.1.<.<.<.<.<.<.<.( Y 0.[.T.{ ) =.<.B B B <.<.<.<.<.<.<.<.<.<.<.<.<.<.<.<.<.<.<.<.<.<.<.<.<.<.<.<.<.<.<.<.<.<.<.<.<.<.<.<.<.<.<.<.<.<.<.<.<.<.<.<.<.<.<.<.<.<.<.<.<.<.<.<.<.<.<.<.<.<.<.<.<.<.<.<.<.<.<.<.<.<.<.<.<.<.<.<.<.<.<.<.<.<.<.<.<.<.<.<.<.<.<.<.<.<.<.<.<.<.<.<.<.<.<.<.<.1.( ) 0.`.-X[.}.T.1.T 2.2.Y ( ( t.[.W.~.^.^.^.~.W.9.( 2.j N ^ r.1.( u H.r.Y ( ( 1.1.<.<.M <.<.<.<.<.<.<.<.<.<.<.<.<.<.<.<.<.1.<.<.<.<.M N N <.s P t.'.~.^.~.~.~.~.~..X.X.X^.^.~.~..X.X.X.X[.P 1.1.( Y ( 1.( <.<.<.M B <.<.<.<.<.<.<.<.<.<.<.<.<.<.<.<.<.<.<.<.<.<.<.<.<.<.<.<.<.<.<.<.<.<.<.<.4.4.4.B B 4.6.6.M m V V a q 7 X 7 q a M B B B b c c 1.G.|.G.-.Y <.<.M M m j j 1.Y r.}..X~.^.^.",
").Q.W.`.3.Y 1.1.u |.G.K 0.T <.<.<.<.4.4.<.Y 1.r.G.( Y 1.<.<.4.4.B B <.<.<.<.<.B B B B <.4.4.M s 6.B % o F.6.5.s 1.1.<.<.<.<.<.B <.<.<.<.<.<.<.<.<.<.<.<.<.<.<.<.<.<.<.<.<.<.<.<.<.<.<.<.<.<.<.<.<.<.<.<.<.<.<.<.<.<.<.<.<.<.<.<.<.<.<.<.<.<.<.<.<.<.<.<.<.<.<.<.1.( u s K.s ( ( <.<.<.<.<.<.<.<.4.4.4.4.<.<.<.<.( T t.oX~.^.(.~.T.].( Y 4.=.1.T T.[.~./.~.'.#X8.( j <.( ( 5.7.<.<.1.<.<.<.<.<.<.M s ( q.].[.9.P =.<.4.B B <.<.<.<.<.<.<.<.<.<.<.<.<.<.<.<.<.<.<.<.<.<.<.<.<.<.<.<.<.<.<.<.<.<.<.<.<.<.<.<.<.<.<.<.<.<.<.<.<.<.<.<.<.<.<.<.<.<.<.<.<.<.<.<.<.<.<.<.<.<.<.<.<.<.<.<.<.<.<.<.<.<.<.<.<.<.<.<.<.<.<.<.<.<.<.<.<.<.<.<.<.<.<.<.<.<.<.<.<.<.<.<.<.<.<.<.<.1.T I t.[.T.T.[.].8.U =.1.<.( P E.[.T..X^.^.^..XR.9.( ( N j Y G.( ( s Z.Z.s <.<.<.<.<.<.<.<.<.<.<.<.<.<.<.<.<.<.<.<.<.<.<.<.1.1.<.M B B N M j ( P | '.OX~.~..X.X.X.X^.^..X.X~.OXOXR.R.oXT.e.( ( 1.<.<.<.<.<.<.<.<.<.<.<.B <.<.<.<.<.<.<.<.<.<.<.<.<.<.<.<.<.<.<.<.<.<.<.<.<.<.<.<.<.<.<.<.<.<.<.4.4.B B B B M B 6.6.M a 7 X % 7 a m M M B 4.v <.s =.`. X{.t.Y 1.<.M B M 4.<.1.Y r.[..X~.^.^.",
").Q.W.T.3.Y 1.1.s |.].K 3.T <.<.<.<.<.4.<.Y 1.r.G.( Y 1.<.<.4.<.B B <.<.<.<.<.<.B B <.<.4.<.M M 4.c % 7 F.4.2.Y <.<.<.<.<.<.<.B <.<.<.<.<.<.<.<.<.<.<.<.<.<.<.<.<.<.<.<.<.<.<.<.<.<.<.<.<.<.<.<.<.<.<.<.<.<.<.<.<.<.<.<.<.<.<.<.<.<.<.<.<.<.<.<.<.<.<.<.<.<.<.<.1.( u Y H.s ( ( <.<.<.<.<.<.B <.4.4.4.<.<.<.<.<.( T t.oX~.^.(.^.T.].( Y 4.=.1.T T.oX~./.~.'.#X1.( j <.( ( 3.7.<.<.<.1.<.<.<.M M M s ( t.[.[.9.P =.<.4.B B <.<.<.<.<.<.<.<.<.<.<.<.<.<.<.<.<.<.<.<.<.<.<.<.<.<.<.<.<.<.<.<.<.<.<.<.<.<.<.<.<.<.<.<.<.<.<.<.<.<.<.<.<.<.<.<.<.<.<.<.<.<.<.<.<.<.<.<.<.<.<.<.<.<.<.<.<.<.<.<.<.<.<.<.<.<.<.<.<.<.<.<.<.<.<.<.<.<.<.<.<.<.<.<.<.<.<.<.<.<.<.<.<.<.<.=.=.1.T T T.-X[.I.[.T.8.T =.4.<.( P E.[.'..X^.^.^.~.R.9.) <.<.j ( G.) ( s Z.Z.Y <.<.<.<.<.<.<.<.<.<.<.<.<.<.<.<.<.<.<.<.<.<.<.<.1.1.<.M B B N N j ( ( { '.OX~.~..X.X.X.X^.^..X.X~..XOXR.W.oXI.0.( <.<.<.<.<.<.<.<.<.<.<.<.<.B B <.<.<.<.<.<.<.<.<.<.<.<.<.<.<.<.<.<.<.<.<.<.<.<.<.<.<.<.<.<.<.<.<.<.<.4.<.B B B B B B B M x a 7 a a m M B B M M B 4.=.1.G. X}.`.-.<.<.M B M M <.1.Y r.[.'.~.^.^.",
"!.Q./.'.8.Y 1.1.Y ].|.K 1.T <.4.<.<.<.4.( Y 1.0.G.( Y 4.<.<.6.<.<.<.<.<.<.<.<.<.M <.4.4.<.B <.4.c i o a L.<.1.<.<.<.<.<.<.<.<.B <.<.<.<.<.<.<.<.<.<.<.<.<.<.<.<.<.<.<.<.<.<.<.<.<.<.<.<.<.<.<.<.<.<.<.<.<.<.<.<.<.<.<.<.<.<.<.<.<.<.<.<.<.<.<.<.<.<.<.<.<.<.<.<.1.( u 1.H.s ( <.<.<.<.<.<.<.<.<.<.<.<.<.<.M <.<.( P t.oX~.Q.(.Q.T.].) Y 2.=.1.T T.oX~./.~.'.oX1.( j <.( ( 7.r.T =.1.1.<.<.<.M N M Y ( t.[.[.t.P =.<.B B B <.<.<.<.<.<.<.<.<.<.<.<.<.<.<.<.<.<.<.<.<.<.<.<.<.<.<.<.<.<.<.<.<.<.<.<.<.<.<.<.<.<.<.<.<.<.<.<.<.<.<.<.<.<.<.<.<.<.<.<.<.<.<.<.<.<.<.<.<.<.<.<.<.<.<.<.<.<.<.<.<.<.<.<.<.<.<.<.<.<.<.<.<.<.<.<.<.<.<.<.<.<.<.<.<.<.<.<.<.<.<.<.<.<.<.<.<.<.( ) T.#X[.I.T.T.8.T =.4.=.( P E.[.'..X~.^.^.~.R.9.) 1.<.j ( `.) ( s r.7.M <.<.<.<.<.<.( <.<.<.<.<.<.<.<.<.<.<.<.<.<.<.<.<.1.<.<.M B B N M j ) P { '.oX~.~..X.X.X.X.X.X.X.X~..X.XW.[.oXT./ ( <.<.<.<.<.<.<.<.<.<.<.<.<.M M <.<.<.<.<.<.<.<.<.<.<.<.<.<.<.<.<.<.<.<.<.<.<.<.<.<.<.<.<.<.<.<.4.4.<.4.<.<.<.B B B B B M M M m N N M 2.6.M M m s 4.<.1.t.{.}. X1.<.<.M <.M N <.1.Y r.[.'.~.^.^.",
"!.Q./.'.1.Y 1.1.T G.&XP T =.1.4.<.<.<.4.1.( ( 3.G.1.Y 4.<.<.4.<.<.<.<.<.<.<.<.<.M <.4.4.B B 4.4.a % X 6.L.s Y 1.<.<.<.<.<.<.<.B <.<.<.<.<.<.<.<.<.<.<.<.<.<.<.<.<.<.<.<.<.<.<.<.<.<.<.<.<.<.<.<.<.<.<.<.<.<.<.<.<.<.<.<.<.<.<.<.<.<.<.<.<.<.<.<.<.<.<.<.<.<.<.<.1.( u 7.F.Y ( <.<.<.<.<.<.<.<.<.<.<.<.<.<.N M <.( ( t.[.~.^.(.Q.T.].) T 2.=.1.T T.oX~./.~.W.oX1.( j <.( ( r.r.T =.1.1.<.<.M M N M Y ) t.].[.t.P =.<.B B B <.<.<.<.<.<.<.<.<.<.<.<.<.<.<.<.<.<.<.<.<.<.<.<.<.<.<.<.<.<.<.<.<.<.<.<.<.<.<.<.<.<.<.<.<.<.<.<.<.<.<.<.<.<.<.<.<.<.<.<.<.<.<.<.<.<.<.<.<.<.<.<.<.<.<.<.<.<.<.<.<.<.<.<.<.<.<.<.<.<.<.<.<.<.<.<.<.<.<.<.<.<.<.<.<.<.<.<.<.<.<.<.<.<.<.4.<.<.=.T t.[.T.W.T.t.1.T <.4.<.<.P `.[.'..X~.^.^..XR.9.) 1.4.j ( ].) ( Y 7.6.<.<.<.<.<.<.<.( <.<.<.<.<.<.<.<.<.<.<.<.<.<.<.<.<.1.<.<.M B B N N j ) ( { '.oX~.~..X.X.X.X.X.X.X.X.X.X~.W.oX[.t.I ( N N <.<.<.<.<.<.<.<.<.<.<.M M <.<.<.<.<.<.<.<.<.<.<.<.<.<.<.<.<.<.<.<.<.<.<.<.<.<.<.<.<.<.<.<.4.4.<.<.<.<.<.<.B B B B B B 4.4.4.<.M N M M M a a <.<.1.w.r.t.{.r.4.=.M 4.M N <.1.Y r.[.'.~.^.^.",
"!.Q.W.T.1.Y 1.1.T A.:X) T -.=.4.<.<.<.<.1.( ( 1.G.( Y 1.<.<.4.<.<.<.<.<.<.<.B <.M <.4.4.<.B <.4.i X o F.F.s s 1.1.1.<.<.<.<.<.B <.<.<.<.<.<.<.<.<.<.<.<.<.<.<.<.<.<.<.<.<.<.<.<.<.<.<.<.<.<.<.<.<.<.<.<.<.<.<.<.<.<.<.<.<.<.<.<.<.<.<.<.<.<.<.<.<.<.<.<.<.<.<.<.4.Y u F.Z.Y <.<.<.<.<.<.<.<.<.<.<.1.<.<.<.N N N ( ( t.[.~.^.^.Q.T.].T Y 1.=.1.T I./.~./.~.'.oX1.( j <.j ( Z.F.T -.=.1.<.<.M M N <.^ ) C. X Xt.T 1.<.4.B B <.<.<.<.<.<.<.<.<.<.<.<.<.<.<.<.<.<.<.<.<.<.<.<.<.<.<.<.<.<.<.<.<.<.<.<.<.<.<.<.<.<.<.<.<.<.<.<.<.<.<.<.<.<.<.<.<.<.<.<.<.<.<.<.<.<.<.<.<.<.<.<.<.<.<.<.<.<.<.<.<.<.<.<.<.<.<.<.<.<.<.<.<.<.<.<.<.<.<.<.<.<.<.<.<.<.<.<.<.<.<.<.<.<.<.4.B 4.=.T A. X'.oX[.e.) Y =.4.4.<.P `.}.'..X^.^.^..XR.9.) 1.M j ( *X` Y ( 5.<.<.<.<.<.<.<.<.( ( <.<.<.<.<.<.<.<.<.<.<.<.<.<.<.<.1.<.<.<.B B N N <.1.( { T.oX~.~.~..X.X.X.XXX^.^.XX^.R.'.oX[.9.P <.M M M <.<.<.<.<.<.<.<.<.<.N N <.<.<.<.<.<.<.<.<.<.<.<.<.<.<.<.<.<.<.<.<.<.<.<.<.<.<.<.<.<.<.<.4.4.<.<.4.4.<.<.<.4.4.4.4.4.4.4.<.<.M M M M m x a B <.1.8.1.Q r.G.2.s M 4.4.N <.1.Y r.[.'.~.^.^.",
"!.Q.W.T.3.Y 1.1.T r.>X8.P 1.=.4.<.<.<.<.1.( ( 1.G.1.Y 1.<.<.<.<.<.<.<.<.<.<.B B <.M B <.4.4.M s % % % K.7.s Y 1.1.1.<.<.<.<.<.B <.<.<.<.<.<.<.<.<.<.<.<.<.<.<.<.<.<.<.<.<.<.<.<.<.<.<.<.<.<.<.<.<.<.<.<.<.<.<.<.<.<.<.<.<.<.<.<.<.<.<.<.<.<.<.<.<.<.<.<.<.<.<.<.2.s p H.7.( <.1.<.<.<.<.<.<.<.<.<.1.1.<.<.N N j ( ^ t.[./.~.^.~.'.{.T T 1.=.-.T T./.~./.~.'.oX1.j N <.j ( Z.G.Y =.=.1.<.<.M B N <.( ) C. X Xt.T 1.<.4.B B <.<.<.<.<.<.<.<.<.<.<.<.<.<.<.<.<.<.<.<.<.<.<.<.<.<.<.<.<.<.<.<.<.<.<.<.<.<.<.<.<.<.<.<.<.<.<.<.<.<.<.<.<.<.<.<.<.<.<.<.<.<.<.<.<.<.<.<.<.<.<.<.<.<.<.<.<.<.<.<.<.<.<.<.<.<.<.<.<.<.<.<.<.<.<.<.<.<.<.<.<.<.<.<.<.<.<.<.<.<.<.<.<.<.<.v v 4.=.1.A.#X[.[.T.8.T =.<.4.4.<.Y `.}.'..X^.^.^..X'.9.) 1.M j ` &X` Y ( 4.s 4.<.<.<.<.<.( ( ( <.<.<.<.<.<.<.<.<.<.<.<.<.<.<.<.<.<.<.M B B N N N 1.P { T.oX~.~..X.X.X.X.X.X^.^.XX^.R.'.[.T.| P N M M M <.<.<.<.<.<.1.<.<.N M N <.<.<.<.<.<.<.<.<.<.<.<.<.<.<.<.<.<.<.<.<.<.<.<.<.<.<.<.<.<.<.<.<.<.=.<.4.4.<.4.4.4.6.4.4.4.4.<.<.1.<.4.4.M M M c 4.4.2.r.8.T 8.G.5.s M 6.4.M <.1.Y r.[.'.~.^.^.",
"!.Q.W.T.3.Y 1.1.T 0.lXr.P 1.=.<.4.B <.<.1.( ( ( H.1.Y 4.<.<.<.<.B B B <.<.<.<.B 4.M c B 4.4.s i % % i K.5.s <.1.1.1.<.<.<.<.<.B <.<.<.<.<.<.<.<.<.<.<.<.<.<.<.<.<.<.<.<.<.<.<.<.<.<.<.<.<.<.<.<.<.<.<.<.<.<.<.<.<.<.<.<.<.<.<.<.<.<.<.<.<.<.<.<.<.<.<.<.<.<.<.<.2.s t |.7.( <.<.<.<.<.<.<.B B <.1.( 1.<.N N N j ( ^ V. X[.~.~.~.'.}.T Y 1.=.-.T T.oX~./.W.'.#X1.j k 2.j ( G.J.Y -.=.=.<.<.M M N <.( ) t.].].t.T 1.<.<.B B <.<.<.<.<.<.<.<.<.<.<.<.<.<.<.<.<.<.<.<.<.<.<.<.<.<.<.<.<.<.<.<.<.<.<.<.<.<.<.<.<.<.<.<.<.<.<.<.<.<.<.<.<.<.<.<.<.<.<.<.<.<.<.<.<.<.<.<.<.<.<.<.<.<.<.<.<.<.<.<.<.<.<.<.<.<.<.<.<.<.<.<.<.<.<.<.<.<.<.<.<.<.<.<.<.<.<.<.<.<.<.<.<.<.<.B B 4.=.T t.[.T.T.0.T T =.4.V B <.Y `.[.'..X^.^.^..X'.9.( <.M j 1.:X) Y ( <.p 6.B M <.<.<.( ( ( <.<.<.<.<.<.<.<.<.<.<.<.<.<.<.<.<.<.<.M B M N N N 1.P ) T.[.~.~..X~..X.X.X.X^.^.XX^.~.[.E.C.] P N M M B <.4.<.<.<.<.<.<.<.N N N <.<.<.<.<.<.<.<.<.<.<.<.<.<.<.<.<.<.<.<.<.<.<.<.<.<.<.<.<.<.<.<.<.4.<.<.;.;.;.4.4.<.<.4.4.4.<.<.1.1.4.4.4.M M B 4.4.<.2.G.t.8.t.|.5.s M 6.4.M M 1.Y r.[..X~.XX^.",
"^.Q.~.'.8.Y 1.1.T 8.lXe.R 1.=.<.4.M M <.1.<.( ( H.1.Y 4.<.<.<.<.B B B <.<.<.<.<.<.c c B 6.4.a 7 % 7 a %X4.Y 1.( 1.1.<.<.<.<.<.<.<.<.<.<.<.<.<.<.<.<.<.<.<.<.<.<.<.<.<.<.<.<.<.<.<.<.<.<.<.<.<.<.<.<.<.<.<.<.<.<.<.<.<.<.<.<.<.<.<.<.<.<.<.<.<.<.<.<.<.<.<.<.<.<.2.u t %X5.( <.<.<.<.<.<.B B B <.1.1.<.<.N N N j ( ^ V.[.[.~.~.~.R.'.T T 1.=.1.T I.oX~./.~.'.#X) j N N s ( G.G.U =.1.1.<.<.B M N 4.( ) C.]. Xt.T 1.<.<.B B <.<.<.<.<.<.<.<.<.<.<.<.<.<.<.<.<.<.<.<.<.<.<.<.<.<.<.<.<.<.<.<.<.<.<.<.<.<.<.<.<.<.<.<.<.<.<.<.<.<.<.<.<.<.<.<.<.<.<.<.<.<.<.<.<.<.<.<.<.<.<.<.<.<.<.<.<.<.<.<.<.<.<.<.<.<.<.<.<.<.<.<.<.<.<.<.<.<.<.<.<.<.<.<.<.<.<.<.<.<.<.<.<.<.<.V V 4.s t 1.t.8.| T U Y <.6.B B <.Y `.[.'..X^.^.^..X'.8.( <.M j ) :X) u <.<.t 6.M <.<.<.<.<.( <.<.<.<.<.<.<.<.<.<.<.<.<.<.<.<.<.<.<.<.<.B M N N N 1.^ ) T.oX~..X.X~..X.X.X^..XXXXX~.~.[.T.t.) ^ N M M B 4.4.<.<.<.<.<.<.<.<.N N <.<.<.<.<.<.<.<.<.<.<.<.<.<.<.<.<.<.<.<.<.<.<.<.<.<.<.<.<.<.<.<.<.<.<.<.;.4.;.4.4.<.<.B B <.4.6.=.1.4.4.B m M B 6.<.s 1.G.`.h.'.|.7.s M 6.M m M 1.Y r.[..X~.XX^.",
"/.~.XX'.e.=.<.<.Y r.lX#XL P M N N N N N <.<.( j F.5.j j <.<.<.<.<.<.<.<.<.<.<.<.( 1.<.c B 4.x X 7 o 7.%X5.( 3.Y ( ( 1.<.<.<.4.4.4.4.4.4.<.<.<.<.<.<.<.<.<.M M j <.<.<.M j j j M <.<.<.<.<.<.<.<.<.<.<.<.<.<.<.<.<.<.<.<.<.<.<.<.<.<.<.<.<.<.<.<.<.<.<.M <.M <.<.1.# 1.G.r.1.s <.<.<.<.<.<.<.<.<.<.<.<.<.<.<.<.<.( ( t.[..X~.~.~.~.'.e.T <.<.=.T T.#X~.XX^..X#X) j N ( ( P A. XK ( ( ( ( M N M N 4.( ) 0.].[.t.P 1.<.4.B B <.<.1.<.<.<.<.<.<.<.<.<.<.<.<.<.<.<.<.<.<.<.<.<.<.<.<.<.<.<.<.<.<.<.<.<.<.<.<.<.<.<.<.<.<.<.<.<.<.<.<.<.<.<.<.<.<.<.<.<.<.<.<.<.<.<.<.<.<.<.<.<.<.<.<.<.<.<.<.<.<.<.<.<.<.<.<.<.<.<.<.<.<.<.<.<.<.<.<.<.<.<.<.<.<.<.<.<.<.<.<.<.<.<.<.m C M 4.1.) ( ) P ^ 1.4.4.B 4.4.1.Y `.[..XXX^.XX^.OX`.0.( <.4.( / -Xq.P 2.j k V M <.<.<.<.<.<.<.<.<.<.<.<.<.<.<.<.<.<.<.<.<.<.<.<.<.<.<.<.<.<.N m <.^ ( T.#X.X~..X'.~.~.~.~.~.~.~.~..X[.T.8.( ( <.<.<.<.<.<.<.<.<.<.<.<.<.<.<.<.<.<.<.<.<.<.<.<.<.<.<.<.<.<.<.<.<.<.<.<.<.<.<.<.<.<.<.<.<.<.<.<.<.<.<.<.4.4.4.4.<.<.4.4.<.<.<.<.<.<.<.<.<.<.<.M M 2.^ Y t.#XXX'.{.G.p s 6.M M M 4.Y e.}..X~.^.^.",
"/.R.XX.Xe.=.<.M s r.lX$XL P M C M N N N N M j j F.6.j j <.<.<.<.<.<.<.<.<.( ( ( ( <.<.<.B M i $ % o i.%X5.Y 1.Y ( ( 1.1.<.<.4.4.4.4.4.4.<.<.<.<.<.<.4.<.<.M j j ( ( j j j j <.<.<.<.<.<.<.<.<.<.<.<.<.<.<.<.<.<.<.<.<.<.<.<.<.<.<.<.<.<.<.<.<.<.<.<.M M M M M <.1.# 3.G.7.1.s <.<.<.<.<.<.<.<.<.<.<.<.<.<.<.<.<.1.T t.[..X~.~.~.~.'.9.P <.4.c T T.#X.XXX^..X#X{ j 2.( ( T A. XP ( ^ ( j N M <.<.4.( ) 0.].[.t.P 1.<.4.B 4.<.1.1.<.<.<.<.<.<.<.<.<.<.<.<.<.<.<.<.<.<.<.<.<.<.<.<.<.<.<.<.<.<.<.<.<.<.<.<.<.<.<.<.<.<.<.<.<.<.<.<.<.<.<.<.<.<.<.<.<.<.<.<.<.<.<.<.<.<.<.<.<.<.<.<.<.<.<.<.<.<.<.<.<.<.<.<.<.<.<.<.<.<.<.<.<.<.<.M B B <.<.<.<.<.<.<.<.<.<.<.<.<.<.M M N <.Y P P P Y j j M M <.4.4.<.Y `.[..XXXc.XX^.oX`.0.( ( <.( { -Xt.P _ j k N M <.<.<.<.<.<.M <.<.<.<.<.<.<.<.<.<.<.<.<.<.<.<.<.<.1.1.<.<.<.M M <.j ( T.#X.X.X.X.X~.~.~.~.~.~.~.~.[.[.A.) P ( <.<.<.<.<.<.<.<.<.<.<.<.<.<.<.<.<.<.<.<.<.<.<.<.<.<.<.<.<.<.<.<.<.<.<.<.<.<.<.<.<.<.<.<.<.<.<.<.<.<.<.<.4.4.4.<.<.4.4.4.<.<.<.<.<.M <.<.<.<.<.N 4.2.( ) T.#X.X.X}.t.2 7 h e C B 4.Y e.}..X~.XX^.",
"~.R.XX.Xe.=.<.N Y 0.lX$XQ T k C N N N N N M j j F.2.j <.<.<.<.<.<.M <.<.<.<.<.<.<.( <.4.B a 7 $ o r F.%X5.Y 1.( ( ( <.<.<.<.4.<.4.4.<.<.<.<.<.<.<.<.<.<.<.<.M j j j ( ( ( ( <.<.<.<.1.<.<.<.<.<.<.<.<.<.<.<.<.<.<.<.<.<.<.<.<.<.<.<.<.<.<.<.<.<.<.<.M M M M M <.=.+ 0.H.7.1.s <.<.<.<.<.<.<.<.<.<.<.<.<.<.<.<.<.1.T t.[..X~.~.~.~.'.9.P <.4.c T T.#X.XXX^..X#X1.j 2.( ( T A. XL ( ( ( j N N <.<.<.j ( 0.].[.A.P 1.<.4.B 4.<.1.1.<.<.<.<.<.<.<.<.<.<.<.<.<.<.<.<.<.<.<.<.<.<.<.<.<.<.<.<.<.<.<.<.<.<.<.<.<.<.<.<.<.<.<.<.<.<.<.<.<.<.<.<.<.<.<.<.<.<.<.<.<.<.<.<.<.<.<.<.<.<.<.<.<.<.B B <.<.<.<.<.<.<.<.<.<.<.<.<.<.<.<.<.<.M <.B B M M <.<.<.B <.<.<.<.<.<.<.<.M M j Y ( ) ) ) ` ( j j M 4.;.=.1.P `.[..XXXc.XX^.oX`.0.( ( <.( { ;XC.P _ j k N M <.<.<.<.<.<.M <.<.<.<.<.<.<.<.<.<.<.<.<.<.<.<.<.<.1.1.<.<.<.B M <.j ( h..X.X.X.X.X~.~.~.~.~.~.~.~.#X[.t.) P 1.<.<.<.<.<.<.<.<.<.<.<.<.<.<.<.<.<.<.<.<.<.<.<.<.<.<.<.<.<.<.<.<.<.<.<.<.<.<.<.<.<.<.<.<.<.<.<.<.<.<.<.<.4.4.<.<.<.<.4.4.4.4.<.<.B M <.<.4.<.<.M N j s ` `.#X^..X}.t.+ O 7 7 C V 4.Y e.}..X~.^.^.",
"~.R.XX.Xe.=.<.N ( 8.jX;X9.T k C N N N N N M j j D.2.<.<.<.<.<.<.<.M <.<.<.<.<.<.1.c <.4.c 7 $ $ o s K.|.5.s ( ( ( ( <.<.<.<.4.4.4.4.4.<.<.<.<.<.<.<.<.<.<.<.<.<.j j ( ( ( ( <.<.<.<.1.1.<.<.<.<.<.<.<.<.<.<.<.<.<.<.<.<.<.<.<.<.<.<.<.<.<.<.<.<.<.<.M M M M M <.U + r.].3.1.( <.M M <.<.<.<.<.<.<.<.<.<.<.<.<.<.1.T t.[..X~.~.~.~.'.9.P <.4.c T T.#X.XXX^..X#X1.( 2.j ( T A. XL ( ( ( j N N <.<.<.j ( 0.]. XZ.T 1.<.4.B 4.<.1.1.<.<.<.<.<.<.<.<.<.<.<.<.<.<.<.<.<.<.<.<.<.<.<.<.<.<.<.<.<.<.<.<.<.<.<.<.<.<.<.<.<.<.<.<.<.<.<.<.<.<.<.<.<.<.<.<.<.<.<.<.<.<.<.<.<.<.<.<.<.<.<.<.<.<.B B B <.<.<.<.<.<.<.<.<.<.<.<.<.<.<.<.<.<.<.B B M M <.<.<.B <.<.<.<.<.<.<.<.M k j ( 1.t.T.E.V.1.^ s c <.4.=.<.P `.[..XXXc.XX^.oX`.0.( ( <.( { ;XA.P ) j j N M <.<.<.<.<.M M <.<.<.<.<.<.<.<.<.<.<.<.<.<.<.<.<.<.1.<.<.<.<.B M 4.j ( h.'..X.X.X.X~.~.~.~.~.~.~..XoX`.9.T T 1.<.<.<.<.<.<.<.<.<.<.<.<.<.<.<.<.<.<.<.<.<.<.<.<.<.<.<.<.<.<.<.<.<.<.<.<.<.<.<.<.<.<.<.<.<.<.<.<.4.<.<.4.4.4.<.<.<.<.4.4.4.4.<.<.<.B <.<.4.4.<.M a y t ) '..X~.OX}.G.2 o 7 q M M 4.Y e.}..X~.~.^.",
"~.R..X.Xw.=.N N ( ) jXjXe.T j C N N N N <.<.j j 7.4.<.<.1.( ( <.B M B M <.<.<.<.<.M B B x $ . $ o <.|.|.5.Y ( ( ( ( <.<.<.4.4.4.<.<.<.<.<.<.<.<.<.<.<.<.<.<.<.<.( ( ( ( ( ( <.<.<.<.<.<.<.<.<.<.<.<.<.<.<.<.<.<.<.<.<.<.<.<.<.<.<.<.<.<.<.<.<.<.<.<.M M M M M <.p t G.|.2.1.<.<.M M <.<.<.<.<.<.<.<.<.<.<.<.<.<.1.T t.[..X~.~.Q.~.W.9.P <.4.c T T.oX.XXX^..X#X1.( 2.j ( T A.&XT ( ( ( j N N <.<.N j ( 0.]. XA.T =.<.<.B 4.<.<.<.<.<.<.<.<.<.<.<.<.<.<.<.<.<.<.<.<.<.<.<.<.<.<.<.<.<.<.<.<.<.<.<.<.<.<.<.<.<.<.<.<.<.<.<.<.<.<.<.<.<.<.<.<.<.<.<.<.<.<.<.<.<.<.<.<.<.<.<.<.<.<.<.<.<.<.<.<.<.<.<.<.<.<.<.<.<.j ( <.<.<.<.<.<.<.<.M N N N M M N M <.<.<.<.<.<.<.<.N j s ) r.T.[.[.].V.^ s <.<.=.c <.Y `.[..XXXc.XX^.oXT.0.( ( <.( | >XT.P ^ j j j M <.4.<.<.<.M M <.<.<.<.<.<.<.<.<.<.<.<.<.<.<.<.<.<.1.1.<.<.<.B M 4.j ( t.'..X.X.X.X~.~.~.~.~.~.~.oX#XT.{ P Y 1.<.<.<.<.<.<.<.<.<.<.<.<.<.<.<.<.<.<.<.<.<.<.<.<.<.<.<.<.<.<.<.<.<.<.<.<.<.<.<.<.<.<.<.<.<.<.<.<.<.<.<.<.<.<.<.<.<.<.<.<.<.<.<.<.<.M <.<.<.<.<.M a y t ) '..X^.@X'.{.Y y m h M B 4.Y e.}..X~.~.~.",
"~.R..X.X8.=.N N ( ) jXzXh.) j C N N N N <.<.j j 6.4.<.<.1.( ( <.B M B B <.<.<.<.4.B M x q $ . $ % 7.|.J.2.( ( ( ( j <.<.<.<.4.4.<.<.<.<.<.<.<.<.<.<.<.<.<.<.1.1.1.1.1.1.( ( <.<.<.<.<.<.<.<.<.<.<.<.<.<.<.<.<.<.<.<.<.<.<.<.<.<.<.<.<.<.<.<.<.<.<.<.M M M M M <.p t `.|.1.<.<.<.M M <.<.<.<.<.<.<.<.<.<.<.<.<.<.1.T t.[..X~.~.~.~.W.9.P <.4.c T T.oX.XXX^..X#X8.( 2.( P T T.&XT ) ( ( j N <.<.<.<.j ^ 0.E. XA.) =.<.<.B 4.<.<.<.<.<.<.<.<.<.<.<.<.<.<.<.<.<.<.<.<.<.<.<.<.<.<.<.<.<.<.<.<.<.<.<.<.<.<.<.<.<.<.<.<.<.<.<.<.<.<.<.<.<.<.<.<.<.<.<.<.<.<.<.<.<.<.<.<.<.<.<.<.<.<.<.<.<.<.<.<.<.<.M <.<.M M <.<.<.<.( <.<.<.<.<.<.<.N N N N N M N M <.<.<.<.<.<.<.<.<.j u ) t.[.oX[. XA.` ^ ( <.=.U 1.Y `.[..XXXc.XX^.oXT.0.( ( 4.( 9.lXE.K ^ j j j <.<.<.<.<.<.M M <.<.<.<.<.<.<.<.<.<.<.<.<.<.<.<.<.<.1.1.<.<.<.B N 4.s ^ t.'..X.X.X.X~.~.~.~.~.~.~.#X'.t.) T ( 1.<.<.<.<.<.<.<.<.<.<.<.<.<.<.<.<.<.<.<.<.<.<.<.<.<.<.<.<.<.<.<.<.<.<.<.<.<.<.<.<.<.<.<.<.<.<.<.<.<.<.<.<.<.<.<.<.<.<.<.<.<.<.<.<.<.M <.<.<.<.<.M N j u ` `.#X^..X'.}.1.( 2.M V m 4.Y e.}..X~.~.~.",
"/.R.XX.X8.T N N ( ) jXzXj.) j N N <.<.<.<.<.( j 5.4.<.1.<.( Y <.B B B B M M <.<.4.M m q 6 6 & $ r F.|.Z.1.( <.1.( j <.<.<.<.<.4.<.<.<.<.<.<.<.<.<.<.<.1.( ( ( ( 1.1.1.1.( ( ( ( <.<.<.<.<.<.<.<.<.<.<.<.<.<.<.<.<.<.<.<.<.<.<.<.<.<.<.<.<.<.<.<.<.<.M M M M M <.* t |.|.( ( 1.<.<.<.<.<.<.<.<.<.<.<.4.<.<.<.<.<.1.T t.[..X~.~.Q.~.W.9.P <.4.s T T.#X.XXX^..X#X8.( 2.( P T T.-XT ) ( ( ( <.<.<.<.<.j Y ` E. XA.) =.<.<.B 4.<.<.<.<.<.<.<.<.<.<.<.<.<.<.<.<.<.<.<.<.<.<.<.<.<.<.<.<.<.<.<.<.<.<.<.<.<.<.<.<.<.<.<.<.<.<.<.<.<.<.<.<.<.<.<.<.<.<.<.<.<.<.<.<.<.<.<.<.N N N N N M M <.<.<.<.<.<.<.<.<.<.<.<.<.<.<.<.( ( <.<.<.<.<.M M M M M N M N N N N N <.<.<.<.<.<.j Y { I.oX/.W.[.A.` ( Y ( 1.=.1.Y `.[..XXXc.XX^.oX`.0.( ( 4.( 9.lXT.K ^ ( N k <.<.4.4.<.<.B M <.<.<.<.<.<.<.<.<.<.<.<.<.<.<.<.<.M <.<.<.<.<.B N 4.s Y t.'..X.X.X~.~.~.~.~.~.~.R.[.T.r.1.( 1.<.<.<.<.<.<.<.<.<.<.<.<.<.<.<.<.<.<.<.<.<.<.<.<.<.<.<.<.<.<.<.<.<.<.<.<.<.<.<.<.<.<.<.<.<.<.<.<.<.<.<.<.<.<.<.<.<.<.<.<.<.<.<.<.<.<.M <.<.<.<.<.M 4.2.( ( T.#X.X.X'. X3.( 2.M V m 4.Y e.'..X~.~.~.",
"/.R..X'.8.T N N ( I ;XzXj.Q s N N <.<.<.<.<.( j 5.<.<.1.<.( Y <.B B B B M M <.<.M 4.m 0 $ 0 0 $ r G.|.r.1.1.<.<.j j M <.<.<.4.4.<.<.<.<.<.<.<.<.<.<.<.1.( ( ( ( 2.1.1.1.( ( Y Y <.<.<.<.<.<.<.<.<.<.<.<.<.<.<.<.<.<.<.<.<.<.<.<.<.<.<.<.<.<.<.<.<.<.M M M M M <.+ K  X|.( ( 1.<.<.<.<.<.<.<.<.<.<.<.4.<.<.<.<.<.1.( t.[..X~.~.~.~.W.9.Y <.4.s T T.#X.XXX^..X#X8.( 2.( P T T.-XT ) ( ( ( <.<.<.<.<.j Y ` E. XA.) <.<.<.B <.<.<.<.<.<.<.<.<.<.<.<.<.<.<.<.<.<.<.<.<.<.<.<.<.<.<.<.<.<.<.<.<.<.<.<.<.<.<.<.<.<.<.<.<.<.<.<.<.<.<.<.<.<.<.<.<.<.<.<.<.<.<.<.<.<.<.<.<.N N N N N M M <.<.<.<.<.<.<.<.<.<.<.<.<.<.<.<.<.<.<.<.<.<.<.<.<.M M M M M N N N N N N <.<.<.<.<.^ P 9.T.OX/.U.T.C.| ( Y ( 1.1.1.Y `.[..XXXc.XX^.oX`.0.( ( 4.( 9.lXT.K ^ ( N j <.<.4.4.<.<.B M <.<.<.<.<.<.<.<.<.<.<.<.<.<.<.<.<.M <.1.<.<.<.B M 4.s Y t.'..X.X.X~.~.~.~.~.~.~.R.'.T.8.1.1.4.<.<.<.<.<.<.<.<.<.<.<.<.<.<.<.<.<.<.<.<.<.<.<.<.<.<.<.<.<.<.<.<.<.<.<.<.<.<.<.<.<.<.<.<.<.<.<.<.<.<.<.<.<.<.<.<.<.<.<.<.<.<.<.<.<.<.M <.<.<.<.<.M M 2.^ P t.#XXX.X'. X1.Y M m V m 4.Y e.'..X~.~.~.",
"~.~..X'.t.1.j N ( K #XBX.XL ( N N <.<.<.<.<.<.<.5.4.1.Y Y Y Y <.B B B B <.<.M M m M M e 6 0 0 $ p `.&X0.Y ( ( j y N N j <.<.j <.<.<.<.<.<.<.<.<.1.<.Y ( 1.7.r.7.3.5.3.2.1.1.=.Y 4.<.<.<.<.<.<.<.<.<.<.<.<.<.<.<.<.<.<.<.<.<.<.<.<.<.<.<.<.<.<.<.M 4.4.B B M B s # -.|.G.1.( 4.<.<.<.<.<.<.<.<.<.<.<.<.<.<.<.<.<.1.T t.[..X~.~.~.~.oXe.P <.6.<.T t.#X.X^.XX.X.X8.( j s P L T.;XT ) ( ( ( <.<.<.<.<.j ^ ) A. XA.) 1.<.4.B 4.<.1.1.<.<.<.<.<.<.<.<.<.<.<.<.<.<.<.<.<.<.<.<.<.<.<.<.<.<.<.<.<.<.<.<.<.<.<.<.<.<.<.<.<.<.<.<.<.<.<.<.<.<.<.<.<.<.<.<.<.<.<.<.<.<.<.<.4.N N N <.<.<.<.j j ( <.<.1.1.1.2.5.5.5.5.5.5.5.1.1.( ( ( ( Y s M M <.M M M <.<.<.<.M M N N N j 1.u P t.oXOX~.~.~.W.| I ` 1.1.1.1.( {.[.x.@Xc.^.~.oXE.3.( <.4.Y q.zX'.P ( ( <.N <.<.4.4.<.<.M M <.<.<.<.<.<.<.<.<.<.<.<.<.<.<.<.<.<.1.1.<.<.<.M M N ( ^ 9.'.@X~..X~.~.~.~.~.~.~.oX'.t.) ) 2.4.<.<.<.<.<.<.<.<.<.<.<.<.<.<.<.<.<.<.<.<.<.<.<.<.<.<.<.<.<.<.<.<.<.<.<.<.<.<.<.<.<.<.<.<.<.<.<.<.<.<.<.<.<.<.<.<.<.<.<.<.<.<.<.<.<.<.M <.<.<.<.<.M M <.^ ) T..X^.@X.X}.r.Y <.N m M 4.Y e.[.~.~.~.~.",
"~.~..X.Xt.1.j N ( K #XBXXXE ( N <.<.<.<.<.<.<.<.1.<.<.Y =.1.1.4.B B <.<.<.<.M M m M M e 6 6 : $ t {. X0.P ( ( j y <.N j <.<.j <.<.<.<.<.<.<.<.<.1.1.( 1.3.r.r.r.3.3.3.3.1.1.1.=.<.<.<.<.<.<.<.<.<.<.<.<.<.<.<.<.<.<.<.<.<.<.<.<.<.<.<.<.<.<.<.<.M 4.M B B M M s # 1.|.G.1.( 4.<.<.<.<.<.<.<.<.<.<.<.<.<.<.<.<.<.1.T t.[..X~.~.~.~.oXe.P <.6.<.T t.#X^.^.XX.X.X8.( j ( ) L T.>X{ T ( ( ( j ( <.<.<.( ^ ) A. XA.) 1.<.4.B 4.<.1.1.<.<.<.<.<.<.<.<.<.<.<.<.<.<.<.<.<.<.<.<.<.<.<.<.<.<.<.<.<.<.<.<.<.<.<.<.<.<.<.<.<.<.<.<.<.<.<.<.<.<.<.<.<.<.<.<.<.<.<.<.<.<.<.<.4.<.N <.<.<.<.<.<.1.1.1.2.2.2.2.3.5.3.5.3.5.3.3.1.1.1.1.1.1.1.( <.<.<.<.<.M <.<.j j j M N N N j 1.P I t..X~.^.~.~.E.| P ` 1.=.1.1.( {.[.x.@X^.^.^.oXE.3.( <.<.Y e.zX'.P ^ ( <.<.<.<.<.4.<.<.M M <.<.<.<.<.<.<.<.<.<.<.<.<.<.<.<.<.<.1.1.<.<.<.M M N ( ^ 9.'.@X~.~.~.~.~.~.~.~..X.XR.e.T T <.<.M <.<.<.<.<.<.<.<.<.<.<.<.<.<.<.<.<.<.<.<.<.<.<.<.<.<.<.<.<.<.<.<.<.<.<.<.<.<.<.<.<.<.<.<.<.<.<.<.<.<.<.<.<.<.<.<.<.<.<.<.<.<.<.<.<.M <.<.<.4.<.N N <.^ ) T..X^.@X.X'.r.Y <.N m M 1.Y e.[.~.~.~.~.",
"~.~..X.Xt.( j N j K XXBX$XQ ( ( <.<.<.<.<.( <.( 1.<.<.<.=.1.1.<.<.<.<.<.<.<.<.M m M M a 0 6 6 % U }. X0.T ( ( M y N N j <.<.j <.<.<.<.<.<.<.1.1.1.( 1.1.3.0.0.0.3.3.3.3.3.1.1.1.=.<.<.1.4.<.<.<.<.<.<.<.<.<.<.<.<.<.<.<.<.<.<.<.<.<.<.<.<.<.<.<.M 4.M B M M m s + r.|.G.1.( 4.<.M <.<.<.<.<.<.<.<.<.<.<.<.<.<.<.1.T t.[..X~.~.~.~.oXe.Y <.6.<.T t.#X~.^.XX.X.X8.( j ( ) R `.>X9.T ( ( ( ( ( <.<.<.( ^ ) A. XA.) 1.4.4.B 4.<.1.1.<.<.<.<.<.<.<.<.<.<.<.<.<.<.<.<.<.<.<.<.<.<.<.<.<.<.<.<.<.<.<.<.<.<.<.<.<.<.<.<.<.<.<.<.<.<.<.<.<.<.<.<.<.<.<.<.<.<.<.<.<.<.<.<.4.<.<.<.( <.1.1.2.2.2.5.5.5.5.w.3.3.3.3.3.3.0.3.3.3.3.5.3.1.1.2.1.1.1.<.<.j ( j j j j M M <.<.j 1.Y T h..XXX^.^.~.W.9.T ) 1.1.1.1.( {.[.x.@X^.^.^..XE.3.( ( <.Y k.zX[.I ) ) <.<.<.<.4.4.<.M M M <.<.<.<.<.<.<.<.<.<.<.<.<.<.<.<.<.<.<.<.<.<.<.M M N ( ^ 8.'.XX~.~.~.~.~.~.~.~..X'.T.9.T U <.4.B <.<.<.<.<.<.<.<.<.<.<.<.<.<.<.<.<.<.<.<.<.<.<.<.<.<.<.<.<.<.<.<.<.<.<.<.<.<.<.<.<.<.<.<.<.<.<.<.<.<.<.<.<.<.<.<.<.<.<.<.<.<.<.<.<.M <.<.<.<.<.N N <.^ ) T..X^.@X.X'.q.T ( N m M 1.P e.[.~.~.~.~.",
"~.~.~.'.t.( j N j I .XBXjX9.P ( <.<.<.<.( <.<.<.4.1.1.<.Y Y Y =.<.<.<.1.<.( ( j j N M h q 6 6 % T [. X8.( 1.<.j a 2.N j <.<.j <.<.<.<.<.<.<.1.1.( 1.1.3.0.0.0.3.3.3.3.3.3.1.1.1.Y =.<.4.4.4.4.<.<.<.<.<.<.<.<.<.<.<.<.<.<.<.<.<.<.<.<.<.<.<.<.<.B 4.M B M M m t * t. Xr.1.( <.<.M <.<.M <.<.<.<.<.<.<.<.<.<.<.<.1.T t.[..X~.~.~.~.oXe.P <.6.<.T t.#X~.^.XX.X.X8.( j ( ) R `.>Xe.) ( ( ( <.<.<.<.<.( ^ ) A. XA.T <.4.4.B 4.<.<.1.<.<.<.<.<.<.<.<.<.<.<.<.<.<.<.<.<.<.<.<.<.<.<.<.<.<.<.<.<.<.<.<.<.<.<.<.<.<.<.<.<.<.<.<.<.<.<.<.<.<.<.<.<.<.<.<.<.<.<.<.<.<.<.<.<.<.<.<.<.1.2.2.7.5.w.w.w.w.w.r.0.0.0.0.0.0.0.0.0.0.0.0.3.3.3.3.1.1.2.1.1.<.( ( Y j j j <.<.M <.1.Y T h..XXX^.^.~.[.9.T ) 1.<.1.1.( {.'.x.@Xc.^.^..XE.3.( ( <.Y k.NX#XI ) ( ( <.<.<.4.4.<.M M M <.<.<.<.<.<.<.<.<.<.<.<.<.<.<.<.<.<.1.<.<.<.<.M M N ( ^ 9.'.@X~.~.~.~.~.~.~.~..X.Xh.8.T =.4.4.B <.<.<.<.<.<.<.<.<.<.<.<.<.<.<.<.<.<.<.<.<.<.<.<.<.<.<.<.<.<.<.<.<.<.<.<.<.<.<.<.<.<.<.<.<.<.<.<.<.<.<.<.<.<.<.<.<.<.<.<.<.<.<.<.<.M <.<.<.<.<.M N <.^ ) T..X^.XX.X'.q.( ( N m <.1.P e.[.~.~.~.~.",
"~.~.~..Xt.( j C g I ~.NXkXk.P ( <.<.<.<.<.<.<.<.1.1.1.<.<.1.Y 1.1.1.1.1.( ( ^ ^ ( ( N j q 6 6 X ) [.}.{ T 1.<.j a V V k 2.<.j ( <.<.<.<.<.<.( ( 1.1.3.0.r.0.8.8.8.8.8.8.3.3.2.2.=.=.<.<.4.<.4.<.<.<.<.<.<.<.<.<.<.<.<.<.<.<.<.<.<.<.<.<.<.<.<.<.<.4.M M M M s r t `.|.r.1.( ( <.<.<.<.M <.<.<.<.<.<.4.4.B <.<.<.1.T t.[..X~.~.Q.^..Xe.P M 4.<.T t.#X^.^.XX.X.X8.( j ( ) K T.lXe.) ( ( ( <.<.<.<.M <.^ ^ C. XE.T 1.<.<.B 4.<.<.<.<.<.<.<.<.<.<.<.<.<.<.<.<.<.<.<.<.<.<.<.<.<.<.<.<.<.<.<.<.<.<.<.<.<.<.<.<.<.<.<.<.<.<.<.<.<.<.<.<.<.<.<.<.<.<.<.<.<.<.<.<.<.<.<.j ( ( ( 1.1.3.0.8.w.8.w.8.w.w.w.8.0.0.0.r.r.r.r.0.0.0.8.8.8.8.8.3.3.1.1.1.1.( ( Y ( ( ( ( ( ( ( 1.Y ) h.XX.X^.^..X[.t.) ( 1.<.4.( ( `.[.~.@X^.^.~..XE.3.( ( 4.Y f.NX#XT ) ( <.<.<.<.<.<.<.M M M <.<.<.<.<.<.<.<.<.<.<.<.<.<.<.<.<.<.<.<.<.<.<.M M N ( ^ 9.'.XX~.~.~.~.~.^.~.^..X'.f.1.T <.4.B B <.<.<.<.<.<.<.<.<.<.<.<.<.<.<.<.<.<.<.<.<.<.<.<.<.<.<.<.<.<.<.<.<.<.<.<.<.<.<.<.<.<.<.<.<.<.<.<.<.<.<.<.<.<.<.<.<.<.<.<.<.<.<.<.<.M <.<.<.<.<.M M <.j ) T..X^.XX.X'.q.T ( N j <.1.P 9.'.~.~.~.~.",
"~.~.~..Xt.( h C g ^ j.NXNXh.P ( ( <.<.<.<.<.<.<.( ( 1.1.1.4.2.2.1.1.1.1.1.( ( ( ^ ( j j a 6 > , ) [.[.) P 1.<.j h 6.V j 2.<.^ ( <.<.<.<.<.<.( ( 1.1.0.r.0.8.8.8.8.8.8.8.3.3.3.2.1.1.<.<.<.<.4.4.<.<.<.<.<.<.<.<.<.<.<.<.<.<.<.<.<.<.<.<.<.<.<.<.4.4.M B M M a 7 t |.|.1.1.1.Y <.<.<.<.M <.<.<.<.<.<.<.4.B B <.<.1.T t.[..X~.~.~.^..Xe.P M 4.<.T t.#X^.^.XX.X.X8.Y j ( ) L T.lXt.I P ^ ( j j =.<.M <.^ P t. XE.T =.<.<.B 4.<.<.<.<.<.<.<.<.<.<.<.<.<.<.<.<.<.<.<.<.<.<.<.<.<.<.<.<.<.<.<.<.<.<.<.<.<.<.<.<.<.<.<.<.<.<.<.<.<.<.<.<.<.<.<.<.<.<.<.<.<.<.<.<.<.<.<.( ( 1.1.2.3.r.r.8.8.8.8.8.8.8.8.8.8.8.8.8.8.8.8.8.8.8.8.8.8.8.8.8.3.3.2.2.1.1.1.( ( ( ( ( ( ( ( 1.Y 8.T.XX.Xx.^..X[.t.) 1.1.<.4.( ( `.[.~.@X^.^.~..XE.3.( ( 4.T h.NX#XE ) ( ( 4.<.<.4.<.<.M M M <.<.<.<.<.<.<.<.<.<.<.<.<.<.<.<.<.<.<.<.<.<.<.M M N ( ^ 9.'.+X~.~.~.~.~.~.~..X.XR.9.T Y <.4.B B <.<.<.<.<.<.<.<.<.<.<.<.<.<.<.<.<.<.<.<.<.<.<.<.<.<.<.<.<.<.<.<.<.<.<.<.<.<.<.<.<.<.<.<.<.<.<.<.<.<.<.<.<.<.<.<.<.<.<.<.<.<.<.<.<.M <.<.<.<.<.N M <.j ) T..X^.XX.X.Xe.P ( <.j <.1.P 9.'.~.~.~.~.",
").).~..Xt.( h k ( ^ g.NXNXj.L 1.( <.<.<.<.<.<.<.1.1.2.2.2.5.7.7.3.3.3.3.3.` ` ) ^ ^ ( N h 6 > , { [.T.) P 1.M a h V 2.j 2.( ^ ( ( <.<.<.<.<.( ( 1.3.0.0.0.8.8.8.8.8.8.8.r.8.5.5.1.<.<.<.M B <.4.<.<.<.<.<.<.<.<.<.<.<.<.<.<.<.<.<.<.<.<.<.<.<.<.4.4.M M 4.4.a o * |.|.T ( 1.s <.<.<.<.<.<.<.<.<.<.<.<.<.<.B <.<.1.( t.[..X~.~.Q.^..Xe.Y <.6.<.T t.#X^.^.XX.X.X8.Y ( ( ) R T.lXT.T ( ( ( <.<.<.<.c <.( P q. XE.P =.<.<.B 4.<.<.<.<.<.<.<.<.<.<.<.<.<.<.<.<.<.<.<.<.<.<.<.<.<.<.<.<.<.<.<.<.<.<.<.<.<.<.<.<.<.<.<.<.<.<.<.<.<.<.<.<.<.<.<.<.<.<.<.<.<.<.<.<.<.<.<.<.1.2.5.r.r.0.8.8.8.8.8.8.8.8.8.8.8.8.8.8.8.8.8.8.8.8.8.8.8.8.8.8.8.8.3.3.3.3.5.1.1.1.1.1.( ( ( 1.( 8.'.+X.Xx.^..X#Xt.) 1.<.M 6.( ( `.[.~.@Xc.^.~..XE.3.( <.4.T h.BX$XE ) ( 1.4.<.<.<.<.<.M M M <.<.<.<.<.<.<.<.<.<.<.<.<.<.<.<.<.<.1.1.<.<.<.M M N ( ^ 9.'.@X~.~.~.~.~.~.~..X.XT.9.T =.6.4.B B <.<.<.<.<.<.<.<.<.<.<.<.<.<.<.<.<.<.<.<.<.<.<.<.<.<.<.<.<.<.<.<.<.<.<.<.<.<.<.<.<.<.<.<.<.<.<.<.<.<.<.<.<.<.<.<.<.<.<.<.<.<.<.<.<.M <.<.<.<.<.N M <.j ) T..X^.XX.X.Xe.T ( <.M <.1.P 9.[.~.~.~.Q.",
").Q.~..Xt.( j k ( ) f.kXNXj.I ` ( ( <.( <.( <.( 7.3.7.3.7.3.7.3.r.0.0.0.0.0.3.1.( ^ ( 2.h 6 > , 0.[.E.T P 1.j a h 2.2.j 1.( ^ ( ( j <.( <.( ( ( 2.3.r.r.8.8.8.r.8.8.8.w.w.r.8.5.2.4.1.Y s M <.4.<.<.<.<.<.<.<.<.<.<.<.<.<.<.<.<.<.<.<.<.<.<.<.<.4.4.M M 4.4.a o * |.H.Y ( 1.s <.<.N <.<.<.<.<.<.<.<.<.<.<.<.<.<.( ( t.[..X~.~.~.~..Xe.Y <.4.1.T h.#X^.XX.X.X.X9.( ( 1.8.L R.lXT.{ ) 1.1.1.4.2.2.Y 1.( P q. X`.P 1.<.<.<.<.<.<.<.<.<.<.<.<.<.<.<.<.<.<.<.<.<.<.<.<.<.<.<.<.<.<.<.<.<.<.<.<.<.<.<.<.<.<.<.<.<.<.<.<.<.<.<.<.<.<.<.<.<.<.<.<.<.<.<.<.<.<.<.<.<.<.1.1.2.3.r.r.r.8.8.8.8.8.8.8.8.8.8.8.8.8.8.8.8.8.8.8.8.8.8.8.8.8.8.8.8.8.8.8.r.r.r.3.3.1.1.1.( ( ( 1.( 8.'.XX.Xx.^..X#Xt.) ( <.M 6.<.^ `.[.~.XX^.^.^..XE.8.( 1.<.T g.BX$X{ ) ^ <.4.<.<.<.<.<.<.N N <.<.<.<.<.<.<.<.<.<.<.<.<.<.<.<.<.<.<.<.<.<.<.B M <.( T 9.'.#X~.~.~.~.~.~.~..X.X'.8.T 1.7.5.4.4.<.<.1.<.<.<.<.<.<.<.<.<.<.<.<.<.<.<.<.<.<.<.<.<.<.<.<.<.<.<.<.<.<.<.<.<.<.<.<.<.<.<.<.<.<.<.<.<.<.( 1.( 1.( 1.( 1.( 1.( <.( 1.<.<.<.<.<.<.<.<.N N <.j ) T.[.~..X.X.Xe.P ( N j N 1.Y r.[..X~.~.Q.",
"~.Q.~.OXT.` l k ( u j.zXjXjXE I ^ j ( ( 1.1.3.3.3.0.8.8.8.8.8.8.8.0.| 0.0.0.0.0.3.1.1.4.M 7 X O t.`.].P ) j 2., 6.1.1.1.1.1.( ( j k N ( ( ( ( 1.0.8.8.8.8.8.8.8.8.8.8.8.8.8.0.3.r.3.1.( s j j j N M 4.M M M <.<.<.<.4.4.B B <.<.<.<.<.<.B <.<.<.<.M 4.4.M 4.M o U |.r.Y 1.1.4.j j j j N N N M M j j j j j ( ( ( ( P t.[.W.R.~.~.~.#Xt.T ( 1.( T T.'.XX.X.X#XR.9.3.3.1.9.} .XzXoX] | { 3.3.7.r.r.2.1.1.) 0.`.`.T T =.<.4.4.B 4.B <.<.<.<.<.<.<.<.<.<.<.<.<.<.<.<.<.<.<.<.<.<.<.<.<.<.<.<.<.<.<.<.N N M M M M M M M M M M M <.<.<.j k j j j N <.<.j Y Y ( ( 1.2.3.0.8.8.8.8.8.8.8.8.8.8.8.8.8.8.8.8.8.8.8.8.8.8.8.8.8.8.8.8.8.8.8.8.8.8.8.8.8.8.8.8.8.8.8.1.1.) ) 1.P 8.[.oX~.^.^.~.#Xh./ ( 4.M M j ` `.'..XXXx.XX^..XT.) P ( <.P R.zXlX| K ) 2.M 4.<.<.<.<.<.<.N M M M M M M M M <.<.<.<.<.<.<.<.M M M B B B M M <.1.T P 8.'.#X.X~.~.~.~.^.^..X.Xh.q.8.) r.`.8.r.0.3.3.3.3.1.1.1.Y T ( ( 1.1.1.<.4.B M M M M B B B M M M B M M M N j ( ( ( ( j j ( ( ( ( ( ( ( ( 3.3.3.0.0.0.r.0.3.3.3.1.3.1.1.1.( ( <.<.<.M M j j ( Y ` E.[.W..X.X.Xq.P ( j h N j s 8.'..X~.~.~.",
"~.~.~..XI.` j k j t h.zXkXjX] ^ ( ( ( ) 1.1.3.3.0.0.8.8.8.8.8.8.| | 0.0.9.9.8.8.8.1.2.5.<.p % o G.{.].u ) ( j , 7.5.( ( ) ( <.( j k j ( ( ( 1.1.8.8.8.8.8.8.8.8.8.8.8.8.8.8.8.0.0.3.1.1.( ( ( j N N M M N M B M <.<.4.4.B B <.<.<.<.<.<.B <.<.<.B M 4.4.M 4.M o U |.r.Y 1.<.4.M j k j N N M M j j j j j j ( ( ) ) ) t.[.W.R.~.~..X#Xt.T ) ) T T h.'..X.X.X.XT.9.3.3.8.9.} ~.zXOX[ ] { 0.0.r.r.r.3.1.1.1.r.`.`.) T T <.<.B B B B <.<.<.<.<.<.<.<.<.<.<.<.<.<.<.<.<.<.<.<.<.<.<.<.<.<.<.<.<.<.<.<.N N N N N N M M M M <.<.<.<.<.<.j k j j j j ( ( ( ( ( 1.1.1.3.3.8.8.8.8.8.8.8.8.8.8.8.8.8.8.8.8.8.8.8.8.8.8.8.8.8.8.8.8.8.8.8.8.8.8.8.8.8.8.8.8.8.8.8.8.8.1.1.) 1.P 9.[.oX~.~.Q.~.OXh.T ( 4.M M j ) `.'.^.XXx.XX~.oXT.{ P ( 1.P j.zXjX} K ) <.M B <.<.<.<.( ( j M M <.<.M M 4.<.<.<.<.<.<.<.<.<.N N M M B B <.<.1.1.T P 8.`.#XW.~.Q.~.~.^.^..X.Xh.9.r.) t.{.9.9.8.0.8.8.3.1.1.1.1.1.( ( Y ( ( 1.M B B M B M B B B M B M B M B M j j ( ( ( j j j j ( ( ( 1.1.1.1.8.8.8.8.8.8.8.8.8.8.8.8.8.8.8.1.1.1.1.1.<.M j j ( ) P ) E.[.T.W.XX#Xt.( ( k h M ( Y w.'..X~.^.~.",
"~.~.~..Xh.) j j j u k.zXkXkX} / ( ) 1.1.5.3.3.3.0.3.8.8.8.8.8.8.| | { { 9.9.8.8.8.1.3.7.5.a r o G.}.A.u 2.( j , Z.5.T T ( ( ( j k j j j j ( 1.3.8.8.8.8.8.8.8.8.8.8.8.8.8.8.8.0.0.3.3.1.1.1.1.( N N N N N N <.<.<.<.<.<.B <.<.<.<.B <.<.<.<.<.B <.M 4.4.M 4.M o =.|.7.Y 1.<.4.M N N N N M M j j j j j j 2.2.1.1.1.) T.#X~.W.~.~..X#Xt.T ) ) T T h.'.XX.X.X.XT.9.3.3.8.9.} ~.zXOX[ ] { 0.0.r.r.r.3.1.8.8.0.`.`.) T T 1.=.B B B B <.<.<.<.<.<.<.<.<.<.<.<.<.<.<.<.<.<.<.<.<.<.<.<.<.<.<.<.<.<.<.<.N N N N M M M M 4.4.<.<.<.<.<.<.j j j j j ( ( ( 1.1.1.3.3.3.3.3.8.8.8.8.8.8.8.8.8.8.8.8.8.8.8.8.8.8.8.8.8.8.8.8.8.8.8.8.8.8.8.8.8.8.8.8.8.8.8.8.8.8.8.8.8.8.8.1.8.I 9.T.~.~.~.~.~.OXh.T ) 4.M M j ` ].'.^.XXx.XX~.oXT.{ ( 1.1.T ~.zXjX} P ) <.<.<.<.<.<.1.( ( ( ( <.<.<.<.<.<.<.<.<.<.<.<.<.<.<.M N M M <.<.<.<.=.1.1.T 8.`.[.W.~.Q.~.~.^.XX.X.Xh.9.r.1.t.].q.9.r.0.0.8.8.8.3.3.3.3.1.( Y Y ( 1.<.M B M M M B M B M M M B M B M ( ( ( ( ( j ( ( ^ ( ( 1.1.5.3.3.8.8.8.8.8.8.8.8.8.8.8.8.8.8.8.8.3.3.2.1.1.<.<.( ( ) P { T.[.T.~.XX#Xt.( <.N k N j Y 8.'..X~.^.~.",
"~.~.~..Xh.) j j j U s.zXkXkXg./ ) 1.5.3.3.3.3.3.3.8.8.8.8.8.8.8.{ | { { 9.9.8.8.8.3.7.7.5.<.i o G.].r.u 2.2.y , H.5.Y T ( ^ j <.N j j j ^ ( 1.0.8.8.8.8.8.8.8.8.8.8.8.8.8.8.8.0.0.3.3.3.5.5.1.1.M M M M <.<.<.<.<.<.<.<.B B <.<.<.B <.<.<.<.<.B <.M 4.4.M 4.M o =.|.5.s 1.<.4.M N N N j M j j j ( ( ( <.2.2.1.3.8.8.T.#X~.~.~.~.'.#Xt.I ) ` T T `.'.XX.X~.oXR.q.3.3.8.9.} ~.zXOX[ } | 0.0.r.r.r.0.3.0.8.r.`.].) 1.) 1.=.c B B 4.<.<.<.<.<.<.<.<.<.<.<.<.<.<.<.<.<.<.<.<.<.<.<.<.<.<.<.<.<.<.<.<.N N N N M M M <.M M <.<.<.<.<.( j j j ( ( <.1.1.1.2.3.0.0.3.8.3.8.8.8.8.8.8.8.8.8.8.8.8.8.8.8.8.8.8.8.8.8.8.8.8.8.8.8.8.8.8.8.8.8.8.8.8.8.8.8.8.8.8.8.8.8.8.8.8.0./ e.T.W.~./.~.~.OXh.T ( 1.N N ( ` ].'.^.XXx.^.~.oXT.{ P ( 1.R ^.NXlXf.) ` 1.<.5.5.5.5.3.2.5.5.( <.<.<.<.<.<.<.<.<.<.<.<.<.<.<.M M <.<.<.<.<.<.=.1.1.) 9.T.[.W.~.Q.~.~.^.XX.X.Xh.9.r.8.q. Xh.{ r.r.r.0.0.8.0.0.r.3.1.1.( ( ( ( <.<.<.<.<.<.<.<.<.<.<.<.<.<.<.<.( ( ( ) ( 1.1.1.( ( 1.1.2.3.r.r.8.8.8.8.8.8.8.8.8.8.8.8.8.8.8.8.0.3.3.5.2.4.4.1.1.1.) { `.[.W.~..X.Xq.( ( j k N <.Y r.'..X~.^.~.",
"~.~.~..Xh.) j k ( ) 9.mXmXkXI.I ` 5.3.3.7.3.3.0.8.8.8.8.8.8.8.8.8.| 8.8.9.9.8.8.8.3.r.7.5.<.t o G.|.1.u 2.2.< y K.3.Y ( 1.Y j <.N j j j ^ ( 3.r.8.8.8.8.8.8.8.8.8.8.8.8.8.8.8.0.3.3.3.7.3.3.5.1.M M <.M <.<.<.<.<.<.<.<.<.<.<.<.<.<.B B <.<.<.<.<.M 4.4.M 4.M o 1.|.2.s 4.<.<.<.<.N <.M <.<.<.( <.) 1.1.1.5.3.3.0.9.T.#X.X~.^.~.W.#Xh.T ) ) ) T T..X.X~.~./.R.q.3.0.8.q.! ~.NXOX[ } | 0.0.r.w.w.3.3.0.8.0.`.].8.1.1.1.=.=.B B B <.<.M M M M <.<.<.<.<.<.<.<.<.<.M M M <.<.<.<.<.<.<.M M M M <.<.N N N <.<.<.<.<.<.<.<.Y <.<.( ( ( ( ( <.1.1.1.5.3.3.0.0.0.8.8.1.8.8.8.8.8.8.8.8.8.8.8.8.8.8.8.8.8.8.8.8.8.8.8.8.8.8.8.8.8.8.8.8.8.8.8.8.8.8.8.8.8.8.8.8.8.8.8.8.8.{ t.W.R.~./.~.~.OXf.T ( 1.M N ) ) }.'.~.XXz.^.~.W.I.{ P ( 1.R ^.NXzXg.{ 1.5.2.7.7.r.r.r.r.3.7.<.<.<.<.<.<.<.<.<.<.<.<.<.<.<.<.( j <.<.<.<.<.<.=.2.8.8.9.T.'.W.~.).~.~.^.XX.X.X'.{ r.8.r.#XR.{ r.r.r.r.r.r.0.0.0.0.3.3.1.1.( Y ( ( <.( <.( <.( <.( <.( <.( <.( ( ( ( 1.1.1.2.3.1.1.3.3.3.0.0.0.8.8.8.8.8.8.8.8.8.8.8.8.8.8.8.8.8.8.3.3.7.5.5.5.1.1.) | T.oXR.~..X.Xe.P ( j k N <.P q.'..X~.^.~.",
"~.~.~..Xh./ j j ( ) ! mXmXNX~.I 3.3.3.3.3.0.0.0.8.8.8.8.8.8.8.8.8.| 8.8.9.8.8.8.w.r.r.7.7.4.s o t.|.) u 2.2., j K.5.s ( 1.j j N N j j j ( ( 3.r.8.8.8.8.8.8.8.8.8.8.8.8.8.8.8.8.3.0.0.7.7.3.3.5.<.<.1.<.<.<.<.<.<.<.<.<.<.<.<.<.<.<.<.<.<.<.<.<.<.M 4.4.M 4.M o 2.K.1.s 4.<.<.<.N <.M <.<.1.1.1.1.1.1.5.5.5.3.0.8.8.h.#X~.~.^.^.~.#Xh./ 1.0.) { T..X.X~.~.oXR.q.3.0.8.q.! ~.NX$X} } 9.r.0.0.w.w.3.3.0.8.8.`.].8.8.1.1.1.1.<.<.B <.<.M <.<.M <.<.<.<.<.M <.<.<.<.M M M M <.<.<.<.<.<.<.<.M M <.<.<.<.<.<.<.<.<.<.j Y Y <.<.1.1.( 1.1.1.1.5.3.3.3.0.8.8.8.8.8.8.8.8.8.8.8.8.8.8.8.8.8.8.8.8.8.8.8.8.8.8.8.8.8.8.8.8.8.8.8.8.8.8.8.8.8.8.8.8.8.8.8.8.8.8.8.8.8.8.8.8.{ T.[.R.~./.Q.~.OXf.T ( 1.M M 1.3.[.'.^.^.z.^.~.W.I.{ ( ) 2.T XXBXNXR.0.0.3.7.7.r.w.w.r.r.0.3.1.1.1.1.1.<.Y Y <.<.<.<.<.<.1.<.<.<.<.<.<.<.<.<.1.3.8.8.9.T.'.W.~.~.~.~.^.XX.X.X'.{ r.{ 9.-X#X{ 8.8.r.r.r.r.8.0.3.0.r.r.3.1.1.( ( ( ( ( ( ( ( ( ( ( ( ( ( ( ( ( ( ( 1.1.3.3.3.r.0.0.0.8.8.8.8.8.8.8.8.8.8.8.8.8.8.8.8.8.8.8.8.8.8.8.8.3.7.7.7.7.3.0.) 9.'.oX~.~..X.Xe.T ( j j <.1.T e.'..X~.^.~.",
"~.~.^..Xh./ j k ^ { ! mXBXNX(.E 0.3.3.3.3.0.0.0.8.8.8.8.8.8.8.8.8.0.8.8.8.8.8.8.8.w.0.3.7.7.Y r r.|.^ g _ _ O ( K.5.s 1.2.j j N j ( ( ( ( 1.3.r.8.8.8.8.8.8.8.8.8.8.8.8.8.8.8.8.3.0.0.0.0.0.3.3.1.1.1.1.1.1.<.( <.<.<.<.<.<.<.<.<.<.<.<.<.B B <.<.M 4.4.c 4.M o 2.K.1.s 2.<.<.<.<.M j Y <.1.2.2.3.3.3.3.3.3.8.8.8.{ h..X~.^.^.^.~.#XI.{ 9.q.8.9.'.'..X~.~.~.R.f.1.0.r.q.! x.NXjX} } | 0.0.8.w.w.3.3.0.1.{ E.].8.8.8.3.3.1.<.<.M <.<.<.<.<.<.<.<.<.<.M M M <.<.<.<.<.<.<.<.<.<.<.<.<.<.<.M <.<.<.<.<.<.<.<.<.<.<.Y Y =.1.1.2.2.1.2.2.3.3.3.3.3.0.0.8.8.8.8.8.8.8.8.8.8.8.8.8.8.8.8.8.8.8.8.8.8.8.8.8.8.8.8.8.8.8.8.8.8.8.8.8.8.8.8.8.8.8.8.8.8.8.8.8.8.8.8.8.8.8.8.0.T.oXR.~./.Q.~.OXh.T ) 4.<.<.1.8.}..X~.^.z.^.~.W.T.| / 3.0.{ rXBXNX~.9.8.3.r.w.w.w.w.8.8.0.3.3.5.2.2.1.1.=.Y <.<.1.<.1.1.1.1.1.1.1.4.4.2.5.5.4.r.w.8.9.T.'.W.~.~.~.~.^..X.X.X'.E 0.{ { -X#X} 8.8.8.8.8.0.0.8.3.3.0.r.0.3.3.1.1.1.) 1.1.1.1.1.1.) ) ) 1.1.1.1.1.1.3.3.3.0.0.0.8.8.8.8.8.8.8.8.8.8.8.8.8.8.8.8.8.8.8.8.8.8.8.8.8.8.8.8.w.7.r.r.8.r.8.9.'..X~.~..X.Xq.) 1.2.N 4.1.T t..X.X~.^.~.",
"~.~.^.XXh./ j j ^ ) ~ mXBXNXOXE 0.3.3.3.3.3.0.0.8.8.8.8.8.8.8.8.0.0.8.8.8.8.8.8.8.w.8.3.r.r.2.u 0.|.u j _ k O 2.K.1.s 1.5.( j N j ( ( ( ( 1.8.r.8.8.8.8.8.8.8.8.8.8.8.8.8.8.8.8.8.3.3.0.0.3.0.0.5.5.1.1.1.1.1.( <.<.<.<.<.<.<.<.B B <.<.<.<.<.<.<.M 4.4.M 4.M o 5.H.1.s 2.<.<.<.j <.Y Y <.1.3.0.0.0.0.0.0.8.8.8.9.Q h..X~.x.^.^.~.#XI.| 0.t.r.9.'.'..Xx.~.~.U.f.1.0.8.9.! x.NXjX} } 9.0.8.8.w.8.8.3.0.8.{ E.`.9.8.8.8.3.3.<.<.<.<.<.<.<.<.<.<.<.<.<.M M M <.<.<.<.<.<.<.<.<.<.<.<.<.<.<.<.<.<.<.<.<.<.<.<.<.1.1.=.1.1.1.2.2.5.3.r.r.0.0.3.8.1.1.r.w.8.8.8.8.8.r.8.8.8.8.8.8.8.8.8.8.8.8.8.8.8.8.8.8.8.8.8.8.8.8.8.8.8.8.8.8.8.8.8.8.8.8.8.8.8.8.8.8.8.8.8.8.8.8.8.9.'.oX~.~./.Q.~.#XI.{ 1.2.4.4.1.| }.oX~.OXz.^.~./.T.0.) 0.r.9.rXBXNX~.9.8.3.r.w.e.w.w.w.8.0.0.r.7.7.2.2.1.1.1.=.1.1.1.1.1.1.1.2.2.2.2.5.5.5.7.1.r.r.{ 9.I.[.~.~.~.~.~.^.^..X.X[.E 9.{ ] -X$X} 8.8.8.8.8.8.8.8.8.3.3.3.3.0.0.r.0.0.8.0.8.0.8.0.8.0.8.0.8.0.8.0.0.0.0.0.0.8.8.8.8.8.8.8.8.8.8.8.8.8.8.8.8.8.8.8.8.8.8.8.8.8.8.8.8.8.w.8.w.5.5.8.8.r.8.9.'..X~.^.XX#Xf.) 1.2.4.5.1.T e..X.X~.^.~.",
"/.Q.^..XT.0.( 2.3.P o.iXmXhXxX[ { 0.0.0.0.8.8.8.8.8.8.8.8.8.8.8.0.3.0.8.8.8.8.8.8.8.w.8.3.r.3.t r.H.) u 2.< O Z.K.1.Y ( ( j N j j ( ( ( 1.3.8.8.8.8.8.8.8.8.8.8.8.8.8.8.8.8.8.8.8.8.8.0.0.0.0.3.3.5.3.3.2.1.Y s 1.1.<.<.<.<.M c <.<.<.<.B B B B 4.4.M M 4.6.s r r.5.<.<.<.4.<.j <.<.<.1.1.w.w.r.8.0.0.0.8.8.8.8.9.9.j.XX^.^.^.^.^.oXh.| 0.0.{ 9.T..XXX~.~.~.R.f.8.1.9.} ! .XzXzX@.E t.9.1.r.w.8.r.8.r.8.{ t.`.r.8.8.8.8.w.5.5.5.<.<.<.<.<.<.<.<.<.<.<.<.<.<.<.<.<.<.<.<.<.<.<.<.s j j j <.<.<.<.s s Y ( ( 1.1.1.3.3.3.3.3.3.0.0.0.8.8.8.8.8.8.8.8.8.8.8.8.8.8.8.8.8.8.8.8.8.8.8.8.8.8.8.8.8.8.8.8.8.8.8.8.8.8.8.8.8.8.8.8.8.8.8.8.8.8.8.8.8.8.8.8.8.8.8.8.8.8.8.T 9.T.W./.~.~.~.~./.f.8.r.r.5.7.r.{ oXj.OX^.^.^./.W.I.0.{ 0.0.9.tXMXhXOXE r.r.3.w.w.w.w.8.8.8.0.0.3.r.7.0.3.0.3.1.1.1.1.1.1.1.1.7.7.7.7.7.7.7.7.r.8.r.9.{ h.oXW.~.~.~.~.^.^..X.X'.| 9.| ] OXjXf.9.8.8.8.8.8.8.8.8.8.0.0.0.0.0.0.0.0.8.0.8.0.8.0.8.0.8.0.8.0.8.0.8.8.8.8.8.8.8.8.8.8.8.8.8.8.8.8.8.8.8.8.8.8.8.8.8.8.8.8.8.8.8.8.8.8.w.8.w.w.w.8.8.8.8.k..X.X~..X.X.Xq.{ r.7.2.7.r.8.h.XX.X^.^.^.",
"/.~.^..XT.0.) 2.3.I @.mXmXbXzX$.{ 0.8.0.0.8.8.8.8.8.8.8.8.8.8.8.0.3.0.0.8.8.8.8.8.8.w.8.3.r.r.u V.G.) s 2.1 O Z.K.1.P 1.( ( N j ( ( ( ( 1.8.8.8.8.8.8.8.8.8.8.8.8.8.8.8.8.8.8.8.8.8.8.8.8.0.8.0.3.3.3.3.3.1.1.Y <.=.<.<.<.<.<.<.B <.<.<.<.B B B 4.4.M M 4.6.s r 7.2.<.j <.<.<.j <.<.1.2.1.w.w.w.8.8.8.8.8.8.8.8.9.9.j.XX^.^.^.^.^.oXh.| 0.0.{ | T..X.X~.^.~.~.f.8.1.9.} ! .XzXzXd.E q.9.1.r.w.8.w.8.r.8.8.t.`.e.| 8.8.8.8.5.5.2.1.<.1.<.1.<.1.<.<.<.( ( ( ( ( <.( M Y ( Y ( ( j s j Y j <.<.<.1.( ( ( 1.1.1.2.3.3.3.0.0.0.0.8.8.8.8.8.8.8.8.8.8.8.8.8.8.8.8.8.8.8.8.8.8.8.8.8.8.8.8.8.8.8.8.8.8.8.8.8.8.8.8.8.8.8.8.8.8.8.8.8.8.8.8.8.8.8.8.8.8.8.8.8.8.8.8.8.8.{ 9.T.W./.~.~.~.~./.f.9.r.r.5.7.0.{ oXj.OX^.^.~.~.Y.I.0.{ r.8.9.yXMXkXOXE e.r.3.w.w.w.8.8.8.9.8.8.0.r.r.0.0.0.0.3.3.3.3.3.3.3.3.r.0.w.7.7.7.7.7.r.8.r.9.{ h.oXW.~.~.~.^.^.^..X.X'.| 9.| ] OXkXg.9.8.8.8.8.8.8.8.8.8.8.0.0.0.3.0.8.8.8.8.8.8.8.8.8.8.8.8.8.8.8.8.8.8.8.8.8.8.8.8.8.8.8.8.8.8.8.8.8.8.8.8.8.8.8.8.8.8.8.8.8.8.8.8.8.8.w.w.w.w.w.8.8.8.8.k..X.X~.XX.X.Xq.{ r.7.2.r.r.8.h.XX.X^.^.^.",
"~.~.^..XR.0.) 2.0.{ #.dXMXbXNX%.| 8.8.8.8.8.8.8.8.8.8.8.8.8.8.8.8.3.8.8.8.8.8.8.8.8.8.8.1.r.0.t V.G.1.( 3.t 1 G.H.1.T 1.( j N j ( ( ( ) 1.8.8.8.8.8.8.8.8.8.8.8.8.8.8.8.8.8.8.8.8.8.8.8.8.8.8.8.8.3.8.0.0.3.1.1.Y Y Y <.<.1.4.4.B B <.<.<.<.<.<.4.4.B B 4.4.c i 7.2.<.j M <.<.j <.<.2.3.w.w.w.8.8.8.8.8.8.8.8.8.9.9.j.XX~.^.^.^.^./.f.| 0.0.{ | R..X.X~.^./.~.f.8.8.9.} ! .XkXzXg.E 9.9.1.r.w.8.w.8.r.8.8.t.T.9.| 9.9.9.8.8.8.5.2.2.2.2.2.2.2.2.1.<.1.<.1.<.1.<.<.<.<.<.=.( <.<.1.<.1.1.1.4.4.2.1.1.1.1.3.3.3.3.0.8.8.8.8.8.8.8.8.8.8.8.8.8.8.8.8.8.8.8.8.8.8.8.8.8.8.8.8.8.8.8.8.8.8.8.8.8.8.8.8.8.8.8.8.8.8.8.8.8.8.8.8.8.8.8.8.8.8.8.8.8.8.8.8.8.8.8.8.8.8.8.{ 9.R..X/.~.~.~.~./.f.{ r.r.5.7.0.| oXT.OX^.^./.~.Y.I.0.{ r.8.} yXMXkXOXE 9.r.0.w.w.8.8.8.9.9.8.8.8.8.8.8.8.8.8.8.8.8.8.8.8.0.0.8.8.8.0.w.w.w.w.r.8.r.9.{ f.oXW.~.~.^.^.^.~..X.X'.| | { E /.kXj.{ 8.8.8.r.8.8.8.8.8.8.8.8.8.3.3.8.8.8.8.8.8.8.8.8.8.8.8.8.8.8.8.8.8.8.8.8.8.8.8.8.8.8.8.8.8.8.8.8.8.8.8.8.8.8.8.8.8.8.8.8.8.8.8.8.8.8.8.w.w.w.8.8.9.8.k..X.X~.XX.X.Xq.{ r.7.2.r.w.8.h.XX.X^.^.^.",
"~.~.^..XR.0.` 1.0.| @.dXMXMXNXQ.| 8.8.8.8.8.8.8.8.8.8.8.8.8.8.8.8.0.8.8.8.8.8.8.8.8.8.8.8.r.0.t Z.A.1.1.5.u t H.G.) P 1.( j N j ( ( ( 1.8.0.8.8.8.8.8.8.8.8.0.0.8.8.8.8.8.8.8.8.8.8.8.8.8.8.8.8.8.8.8.0.r.0.3.3.1.1.<.Y <.1.<.4.<.B <.<.<.<.<.<.4.4.<.B 4.4.M t 5.4.M j j M j j <.1.3.5.w.w.e.8.8.8.8.8.8.8.8.8.8.9.j.#X~.~.^.^.^./.f.| 0.0.{ | R..X.X^.^./.~.f.8.8.9.} ! ^.kXzXg.E 9.9.8.r.w.w.w.8.r.8.8.t.T.9.| | 9.9.8.8.8.8.5.3.7.7.7.7.7.7.2.2.2.2.2.2.2.2.2.2.2.2.2.2.2.2.2.2.3.3.7.7.7.7.0.0.3.3.3.0.0.3.8.8.8.8.8.8.8.8.8.8.8.8.8.8.8.8.8.8.8.8.8.8.8.8.8.8.8.8.8.8.8.8.8.8.8.8.8.8.8.8.8.8.8.8.8.8.8.8.8.8.8.8.8.8.8.8.8.8.8.8.8.8.8.8.8.8.8.8.8.8.8.8.8.e.R..X~.~.~.~.R./.f.{ r.r.5.r.8.{ #Xj.OX^.^.~./.Y.I.0.{ 9.8.} yXMXkX=X] 9.0.0.8.w.8.8.8.8.8.8.8.8.8.8.8.8.8.8.8.8.8.8.8.8.8.8.8.8.8.8.w.w.w.0.0.8.r.9.{ f./.R.~.~.^.^.^.~..X'.'.{ | } E ~.zX~.{ 8.8.r.r.r.8.8.8.8.8.8.8.8.3.8.8.8.8.8.8.8.8.8.8.8.8.8.8.8.8.8.8.8.8.8.8.8.8.8.8.8.8.8.8.8.8.8.8.8.8.8.8.8.8.8.8.8.8.8.8.8.8.8.8.8.8.8.w.w.w.8.8.9.8.k..X.X~..X.X.Xq.{ r.7.2.r.w.8.h..X.X^.^.^.",
"~.~.^.XXR.0.` 3.` } &.yXMXMXbX(.} 8.8.w.8.8.8.8.8.8.8.8.8.8.8.8.w.r.8.8.8.8.8.8.8.8.8.8.8.r.r.K A.A.3.1.1.u Y |.G.T T 1.T Y N j 1.1.1.1.8.8.8.8.8.8.8.8.8.8.0.0.8.8.8.8.8.8.8.8.8.8.8.8.8.8.8.8.8.8.8.0.0.0.r.r.2.1.1.1.<.<.<.<.<.<.<.<.<.<.<.<.<.4.4.B 4.4.M p 4.<.M j M M <.j 1.1.3.w.w.w.w.8.8.8.8.8.8.8.8.8.8.8.h.XX^.^.~.~.^..Xf.| 0.0.{ | R..X.X^.^./.Q.g.8.8.9.} ! .XkXzXR.Q 9.9.8.r.w.w.w.8.r.8.8.t.T.9.} 9.9.9.8.0.8.8.r.r.0.0.r.r.r.r.0.3.3.3.3.3.3.3.3.3.3.3.3.3.3.3.7.r.r.r.r.r.r.r.0.0.0.3.0.8.8.8.8.8.8.8.8.8.8.8.8.8.8.8.8.8.8.8.8.8.8.8.8.8.8.8.8.8.8.8.8.8.8.8.8.8.8.8.8.8.8.8.8.8.8.8.8.8.8.8.8.8.8.8.8.8.8.8.8.8.8.8.8.8.8.8.8.8.8.8.8.8.8.8.8.k.R.oX~.~.~.~.~.W.f.8.r.r.5.r.8.{ #Xj.OX^.Q.)./.Y.I.0.{ 9.8.} iXMXkXgX] 0.0.0.8.8.8.8.8.8.8.8.8.8.8.8.8.8.8.8.8.8.8.8.8.8.8.8.8.8.8.8.8.8.8.8.8.8.r.9.} f.oXR.~.~.^.^.^.~..X'.T.{  . .E ^.NXtX{ 8.8.8.r.8.8.8.8.8.8.8.8.8.8.8.8.8.8.8.8.8.8.8.8.8.8.8.8.8.8.8.8.3.0.0.8.8.8.8.8.8.8.8.8.8.8.8.8.8.8.8.8.8.8.8.8.8.8.8.8.8.8.8.8.8.8.8.w.w.w.8.8.9.8.q..X.X~.XX.X'.q.{ r.0.3.r.w.,.j..X.X^.XX^.",
"~.~.^.XXR.0.` 3.) } O.5XMXvXbX(.} 8.8.8.8.8.8.8.8.8.8.8.8.8.8.8.r.r.8.8.8.8.8.8.8.8.8.8.8.r.r.K A.r.1.3.) t )  Xb.T T 8.1.Y <.( 5.1.1.3.8.8.8.8.8.8.8.8.8.8.3.3.8.8.8.8.8.8.8.8.8.8.8.8.8.8.8.8.8.8.8.8.8.0.r.r.3.3.2.4.1.1.<.<.<.<.<.<.<.4.<.<.<.4.4.B <.4.B s <.<.M M M <.<.<.2.2.3.w.w.e.e.8.8.8.8.8.8.8.8.8.8.8.h.#X~.~.~.~.~.oXf.| 0.0.{ | R..X.X^.~.(.Q.g.8.8.9.} ! .XkXzXOX] 9.9.8.r.w.w.w.8.r.8.8.t.T.9.9.} 9.9.8.8.8.8.r.r.r.0.r.r.r.r.8.0.8.0.8.0.8.8.8.0.8.0.8.0.8.0.8.3.8.0.8.0.8.0.0.0.3.3.8.8.8.8.8.8.8.8.8.8.8.8.8.8.8.8.8.8.8.8.8.8.8.8.8.8.8.8.8.8.8.8.8.8.8.8.8.8.8.8.8.8.8.8.8.8.8.8.8.8.8.8.8.8.8.8.8.8.8.8.8.8.8.8.8.8.8.8.8.8.8.8.8.8.8.8.9.k.'..X.X~.~.~.~./.f.8.r.r.5.r.8.] oXj.OX^.Q.)./.Y.I.0.{ 9.9.} hXBXkXjX} 0.0.0.8.8.8.8.8.8.0.0.8.8.8.8.8.8.8.8.8.8.8.8.8.8.8.8.8.8.8.8.8.8.8.8.8.8.9.9.} f.oX~.~.~.^.^.^.~..X'.[.{ } } H Q.BXjX9.8.8.8.8.8.8.8.8.8.8.8.8.8.8.8.8.8.8.8.8.8.8.8.8.8.8.8.8.8.8.8.3.3.0.0.8.8.8.8.8.8.8.8.8.8.8.8.8.8.8.8.8.8.8.8.8.8.8.8.8.8.8.8.8.8.8.8.w.w.w.8.8.9.8.q..X.X~.XX.X'.e.{ r.0.3.w.e.,.j..XXX^.XX^.",
"~.~.^.XXR.9.` 3.` q.O.8XAXvXcXgX} 8.8.w.8.8.8.8.8.8.8.8.8.8.8.8.0.r.8.8.8.8.8.8.9.8.8.8.8.r.r.K A.r.8.1.P 2 1.&X`.8.,.e.1.1.4.1.7.3.3.3.8.8.8.8.8.8.8.8.8.8.3.3.8.8.8.8.8.8.8.8.8.8.8.8.8.8.8.8.8.8.8.8.8.8.r.r.3.3.5.2.2.4.4.<.<.<.<.<.4.4.<.<.<.4.4.B <.4.B s j j j N N <.4.4.5.5.3.w.w.w.e.9.8.8.8.8.8.8.8.8.8.8.h.#X~.~.~.~.~.oXf.| 9.0.{ | R..X.X^.^.~.Q.g.8.8.9.} ! XXkXzXOX[ } 9.8.r.8.e.w.8.r.8.8.t.T.q.} 9.9.9.0.9.8.8.w.r.w.r.w.r.w.r.w.r.w.r.w.r.w.w.8.8.8.8.8.8.8.8.8.8.8.8.8.8.8.8.8.8.8.8.8.8.8.8.8.8.8.8.8.8.8.8.8.8.8.8.8.8.8.8.8.8.8.0.0.3.3.8.8.8.8.8.8.8.8.8.8.8.8.8.8.8.8.8.8.8.8.8.8.8.8.8.8.8.8.8.8.8.8.8.8.8.8.8.8.8.8.8.8.8.8.8.8.8.8.8.9.f.'.OX.X~.~.~.~.~.h.8.r.r.5.r.) E OXj.OX^.Q.)./.Y.I.| { 9.9.} cXBXkXjX} 0.0.0.0.8.8.8.8.8.0.0.8.8.8.8.8.8.8.8.8.8.8.8.8.8.8.8.8.8.8.8.8.8.8.8.8.8.8.9.{ f.oXR.~.~.^.^.^.~..X'.[.] } } H Q.NXkXk.e.8.8.8.8.8.8.8.8.8.8.8.8.8.8.8.w.w.w.w.w.w.w.w.w.w.w.w.w.w.8.3.3.0.0.0.0.8.8.8.8.8.8.8.8.8.8.8.8.8.8.8.8.8.8.8.8.8.8.8.8.8.8.8.8.8.8.w.w.w.8.8.8.8.q..X.X~.XX.XR.e.{ 0.0.3.w.e.,.j..XXX^.XX^.",
"~.~.^.XXR.9.1.3.) q.O.5XBXMXcXhX} 8.8.w.8.8.8.8.8.8.8.8.8.8.8.8.8.8.8.8.8.8.8.8.8.8.9.8.8.q.r.K A.0.1.1.K 2 8.-X{.8.8.t.8.1.5.5.r.0.3.8.8.8.8.8.8.8.8.8.8.8.8.8.8.8.8.8.8.8.8.8.8.8.8.8.8.8.8.8.8.8.8.8.8.8.8.r.3.3.3.3.7.5.2.4.<.<.<.<.<.<.<.<.<.4.4.<.<.4.<.s s j ( ( <.1.2.5.7.3.w.8.e.8.e.e.8.8.8.8.8.8.8.8.8.8.h.#X~.~.~.~.~.oXf.| 9.0.{ | I.~..X^.^.^.~.f.8.8.9.9.! .XkXzXOX! } 9.8.w.1.w.w.8.r.8.8.t.`.e.9.9.9.e.8.8.8.8.8.8.w.8.w.8.w.8.r.r.r.r.r.r.w.w.w.8.w.8.8.8.8.8.w.8.w.8.w.8.w.8.8.8.8.8.8.0.8.8.8.8.8.8.8.8.8.8.8.8.8.8.8.8.8.8.8.8.8.0.8.3.8.8.8.8.8.8.8.8.8.8.8.8.8.8.8.8.8.8.8.8.8.8.8.8.8.8.8.8.8.8.8.8.8.8.8.8.8.8.8.8.8.8.8.8.8.8.8.8.8.8.9.k.'.OX.X~.~.~.R.[.t.8.r.r.5.r.{ { oXg.(.^.Q.~./.Y.I.0.{ 9.9.} bXMXkXjX} 9.8.0.8.8.8.8.8.9.9.9.8.8.8.8.8.8.8.8.8.8.8.8.8.8.8.8.8.8.8.8.8.8.8.8.8.8.9.9.{ f.[.R.~.~.~.~.~.~.~..X'.] }  .H Q.NXNXf.t.8.8.8.8.8.8.8.8.8.8.8.8.8.0.8.w.w.8.w.8.w.8.w.8.w.8.w.8.w.8.0.0.0.0.8.8.8.8.8.8.8.8.8.8.8.8.8.8.8.8.8.8.8.8.8.8.8.8.8.8.8.8.8.8.8.8.w.5.w.8.8.8.8.q..X.X~.XX.XR.9.{ r.8.1.w.e.,.h..X.X^.XX^.",
"~.XX^.~..Xh.8.1.1.r.E ~.BXMXMXbXj.Q 9.9.8.q.8.8.8.8.8.8.8.8.8.8.8.8.8.8.8.8.8.8.8.8.8.8.8.8.1.P G.3.r.3.2 K G.}.t.q.8.8.8.r.0.3.8.8.8.8.8.8.8.8.8.8.8.8.8.8.8.8.8.8.8.8.8.8.8.8.8.8.8.8.8.8.8.8.8.8.8.8.8.8.8.8.8.8.8.8.8.0.0.3.5.5.4.1.1.( ( ( 1.( ( ( <.1.( Y t Y 1.1.1.3.3.3.0.0.8.8.8.8.8.8.8.0.8.8.8.8.8.8.8.8.h.#X.X~.~.~.~./.h.| r.r.8.9.h.OX~.~.~.~.oXq.8.r.8.9.} ~.NXkXtXd.! 9.9.r.r.3.r.0.1.r.8.8.`.r.8.8.8.w.w.w.w.w.w.w.w.w.w.5.w.5.w.5.w.w.w.5.w.w.8.8.8.8.8.8.8.8.8.8.8.8.8.8.8.8.8.8.8.8.8.8.8.8.8.8.8.8.8.8.8.8.8.8.8.8.8.8.8.8.8.8.8.8.8.8.8.8.8.8.8.8.8.8.8.8.8.8.8.8.8.8.8.8.8.8.8.8.8.8.8.8.8.8.8.8.8.8.8.8.8.8.8.8.8.8.8.8.8.8.8.8.8.8.8.8.9.f.R..X.X.X.X.X#Xh.8.8.r.8.w.8.P 8.[.R.Q.OXQ.^.~.#XT.9.9.9.| f.hXvXhXgXg.Q t.8.w.w.8.8.9.9.9.9.8.8.8.8.8.8.8.8.8.8.8.8.8.8.8.8.8.8.8.8.8.8.8.8.r.8.8.e.{ q.T.W.~.~.~././.~.^.^..Xk.{ 0.} U.BXbX^.} { 0.8.1.r.8.8.8.e.8.8.8.0.7.w.8.8.8.8.8.8.8.8.8.8.8.8.8.8.8.8.8.8.8.8.8.8.8.8.8.8.8.8.8.8.8.8.8.8.8.8.8.8.8.8.8.8.8.8.8.8.8.8.8.w.0.w.w.w.8.e.8.9.h..X^.^.~.#XR.q.9.8.r.r.8.8.{ f..X.X^.^.^.",
"^.~.~..X.Xh.>.8.8.r.{ ~.NXMXZXvXx.] 9.9.8.q.8.8.0.0.8.8.8.8.8.8.8.8.8.8.8.8.8.8.8.8.8.8.8.8.1.P G.5.0.1.@ K `.}.t.r.8.8.8.r.0.8.8.8.8.8.8.8.8.8.8.8.8.8.8.8.8.8.8.8.8.8.8.8.8.8.8.8.8.8.8.8.8.8.8.8.8.8.8.8.8.8.8.8.8.8.8.8.8.8.3.5.3.5.1.1.1.1.( ( ( ( ( ( Y Y u T 1.1.3.0.0.8.8.8.8.8.8.8.8.8.8.0.8.8.8.8.8.8.8.8.h.#X.X~.^.~.~./.h.9.r.r.8.9.h.OXQ.~.~.~.oXq.1.r.8.9.} ~.NXkXuX#.! 9.9.r.r.1.r.0.) r.8.8.`.r.8.8.8.r.w.w.w.w.w.w.w.w.w.w.w.w.w.w.w.w.w.w.w.8.8.8.8.8.8.8.8.8.8.8.8.8.8.8.8.8.8.8.8.8.8.8.8.8.8.8.8.8.8.8.8.8.8.8.8.8.8.8.8.8.8.8.8.8.8.8.8.8.8.8.8.8.8.8.8.8.8.8.8.8.8.8.8.8.8.8.8.8.8.8.8.8.8.8.8.8.8.8.8.8.8.8.8.8.8.8.8.8.8.8.8.8.8.8.8.8.{ q.j.~..X.X.X'.}.T.8.3.r.8.8.8.P 8.[.R.Q.(.!.^.~.#Xb.8.8.9.| $.hXvXcXyXg.Q t.8.8.w.8.8.9.9.9.9.8.8.8.8.8.8.8.8.8.8.8.8.8.8.8.8.8.8.8.8.8.8.8.8.r.8.8.r.{ 9.T.W..X~.Y.Y.Y.~.^.^.XXf.{ 0.{ I.BXbX^.} ] 0.8.3.r.8.w.w.e.e.8.8.3.3.8.8.8.8.8.8.8.8.8.8.8.8.8.8.8.8.8.8.8.8.8.8.8.8.8.8.8.8.8.8.8.8.8.8.8.8.8.8.8.8.8.8.8.8.8.8.8.8.8.8.w.w.w.w.w.8.w.8.9.h..X^.^.~.[.T.9.| 9.0.r.8.9.{ h..X.X~.XX^.",
"~.~.~..X.Xf.8.8.8.r.E ~.NXMXZXMX~.{ 9.9.8.r.8.w.w.0.w.8.8.8.8.8.8.8.8.8.8.8.8.8.8.8.8.8.8.8.8.T G.5.7.1.+ P `.}.t.w.8.8.8.r.8.3.8.8.8.8.8.8.8.8.8.8.8.8.8.8.8.8.8.8.8.8.8.8.8.8.8.8.8.8.8.8.8.8.8.8.8.8.8.8.8.8.8.8.8.8.8.8.8.8.0.3.3.3.3.3.3.2.1.1.1.1.1.1.1.( P 1.0.3.0.r.r.8.8.8.8.8.8.8.8.8.8.0.8.8.8.8.8.8.8.{ h.oX.X~.^.~.~./.h.9.8.r.8.9.h.OX~.~.~.~..Xq.1.r.8.9.} ~.NXkXjXd.! 9.9.r.r.1.r.0.{ r.8.{ `.r.8.8.8.8.8.w.w.8.8.8.8.8.8.8.8.8.8.8.8.8.8.8.8.8.8.8.8.8.8.8.8.8.8.8.8.8.8.8.8.8.8.8.8.8.8.8.8.8.8.8.8.8.8.8.8.8.8.8.8.8.8.8.8.8.8.8.8.8.8.8.8.8.8.8.8.8.8.8.8.8.8.8.8.8.8.8.8.8.8.8.8.8.8.8.8.8.8.8.8.8.8.8.8.8.8.8.8.8.8.8.8.8.8.8.8.8.8.8.8.8.{ q.R.OXXX.X.X.X[.A.8.3.r.8.8.8.U { [.R.Q.(.!.^.~.#Xb.8.8.9.| $.hXcXcXhXg.! t.8.8.w.w.8.8.9.9.9.8.8.8.8.8.8.8.8.8.8.8.8.8.8.8.8.8.8.8.8.8.8.8.8.r.8.8.r.{ 9.'..X.X~.W.Y.Y.~.^.^.XXk.{ 0.{ g.BXcXOX} ] 0.8.1.r.8.w.w.w.w.8.8.8.0.8.8.8.8.8.8.8.8.8.8.8.8.8.8.8.8.8.8.8.8.8.8.8.8.8.8.8.8.8.8.8.8.8.8.8.8.8.8.8.8.8.8.8.8.8.8.8.8.8.8.8.8.w.w.w.8.w.8.9.j..X.X.X~.oXI.9.| 9.0.9.8.9.{ h..X.X~.XX^.",
"Q.^.~..X.Xe.8.r.8.r.T R.NXbXvXMXOX{ 9.9.8.r.1.w.w.w.w.8.8.8.8.8.8.8.8.8.8.8.8.8.8.8.8.8.8.8.8.T G.3.3.P + T |.|.q.8.8.8.8.8.8.3.8.8.8.8.8.8.8.8.8.8.8.8.8.8.8.8.8.8.8.8.8.8.8.8.8.8.8.8.8.8.8.8.8.8.8.8.8.8.8.8.8.8.8.8.8.8.8.8.0.3.0.3.0.0.0.0.0.3.3.3.0.0.3.1.) 3.r.8.0.r.r.8.8.8.8.8.8.8.8.8.8.0.8.8.8.8.8.8.8.{ h.#X.X~.^.~.~./.h.9.8.r.8.9.h.OX~.~.~.~..Xq.T r.9.9.} x.NXkXkXg.! 9.9.r.r.3.r.0.{ e.{ { T.e.8.8.8.8.8.8.8.8.8.9.9.9.9.8.9.9.8.9.9.9.8.9.9.8.8.8.8.8.8.8.8.8.8.8.8.8.8.8.8.8.8.8.8.8.8.8.8.8.8.8.8.8.8.8.8.8.8.8.8.8.8.8.8.8.8.8.8.8.8.8.8.8.8.8.8.8.8.8.8.8.8.8.8.8.8.8.8.8.8.8.8.8.8.8.8.8.8.8.8.8.8.8.8.8.8.8.8.8.8.8.8.8.8.8.8.8.8.8.8.8.| f.W.#X.X~.j.j.[.t.8.3.r.8.8.8.K { [.R.Q.(.!.^.~.#Xb.8.8.9.| $.hXbXcXkXx.! t.8.8.w.w.w.8.8.8.8.8.8.8.8.8.8.8.8.8.8.8.8.8.8.8.8.8.8.8.8.8.8.8.8.r.8.8.r.{ 9.'..X.X~.W.Y.Y.~.^.^..Xk.{ r.] g.BXcXuXs.] | { 1.0.8.w.w.w.w.8.8.0.0.8.8.8.8.8.8.8.8.8.8.8.8.8.8.8.8.8.8.8.8.8.8.8.8.8.8.8.8.8.8.8.8.8.8.8.8.8.8.8.8.8.8.8.8.8.8.8.8.8.8.8.8.w.w.w.8.w.8.e.j..X.X.X~.[.h.| | 9.9.8.8.9.{ h..X.X~.XX^.",
"Q.~.~..X.Xe.-.r.8.r.I R.zXcXvXMXOX| 9.9.8.r.1.w.w.w.w.8.8.8.8.8.8.8.8.8.8.8.8.8.8.8.8.8.8.r.8.) Z.5.3.Y + 1.}.{.w.8.8.8.8.8.8.8.8.8.8.8.8.8.8.8.8.8.8.8.8.8.8.8.8.8.8.8.8.8.8.8.8.8.8.8.8.8.8.8.8.8.8.8.8.8.8.8.8.8.8.8.8.8.8.8.8.3.8.0.8.0.0.0.r.r.8.0.r.r.8.3.1.3.r.3.3.0.8.3.8.8.8.8.8.8.8.8.8.0.8.8.8.8.8.8.8.{ h..X.X~.^.~.~./.h.9.8.r.8.9.I.OX~.~.~.~..Xq.T r.9.9.[ R.NXkXkXg.} } 9.0.r.3.0.} { 9.| | T.e.| 9.9.9.9.8.8.9.9.9.| | | | 9.9.9.| | | 9.9.9.8.8.w.w.w.8.8.8.8.8.8.8.8.8.8.8.8.8.8.8.8.8.8.8.8.8.8.8.8.8.8.8.8.8.8.8.8.8.8.8.8.8.8.8.8.8.8.8.8.8.8.8.8.8.8.8.8.8.8.8.8.8.8.8.8.8.8.8.8.8.8.8.8.8.8.8.8.8.8.8.8.8.8.8.8.8.8.8.8.8.8.8.8.8.8.8.8.{ q.R.R.j.d.s.9.'.t.0.3.r.8.8.8.K ) [.R.Q.(.!.^.~.#Xb.8.8.9.| $.bXMXbXzX~.! e.8.0.w.w.w.8.8.8.8.8.8.8.8.8.8.8.8.w.8.8.8.8.8.8.8.8.8.8.8.w.w.w.w.r.8.8.8.{ 9.'..X.X~.W.Y.Y.~.^.^..Xh.8.0.{ s.BXcXkXg.[ 9.{ 0.r.8.8.8.8.8.8.8.3.3.8.8.8.8.8.8.8.8.8.8.8.8.8.8.8.8.8.8.8.8.8.8.8.8.8.8.8.8.8.8.8.8.8.8.8.8.8.8.8.8.8.8.8.8.8.8.8.8.8.8.8.8.w.w.w.8.w.9.e.j..X.X.X~.'.t.{ | 9.8.8.8.9.8.h.[..X~.XX^.",
"~.~.~.XX.X9.T r.8.0.I W.zXcXvXMX;X9.9.9.8.r.1.5.w.w.w.w.w.8.8.8.8.8.8.8.8.8.8.8.8.r.8.8.8.r.8.1.r.3.3.u @ 8. X`.8.8.8.8.8.8.8.8.8.8.8.8.8.8.8.8.8.8.8.8.8.8.8.8.8.8.8.8.8.8.8.8.8.8.8.8.8.8.8.8.8.8.8.8.8.8.8.8.8.8.8.8.8.8.8.8.8.8.8.8.8.8.8.8.8.8.8.8.8.8.8.1.1.3.0.3.1.3.8.3.8.8.8.8.8.8.8.8.8.0.8.8.8.8.8.8.8.{ h.#X.X~.^.~.~./.h.9.8.r.8.9.h.OX~.~.~.~..Xq.L 0.0.| [ U.zXkXzXl.} } 9.0.r.1.0.0.{ 9.| { T.e.9.8.9.8.8.8.8.9.9.{ 9.{ | | 9.| 9.| | { 9.| 9.8.8.w.w.w.8.8.w.w.8.8.8.8.w.w.8.8.8.8.8.8.8.8.8.8.8.8.8.8.8.8.8.8.8.8.8.8.8.8.8.8.8.8.8.8.8.8.8.8.8.8.8.8.8.8.8.8.8.8.8.8.8.8.8.8.8.8.8.8.8.8.8.8.8.8.8.8.8.8.8.8.8.8.8.8.8.8.8.8.8.8.8.8.8.8.8.8.| t.W.~.j.s.s.9.}.t.0.3.r.0.3.1.t ) [.~.Q.(.!.^.~.#Xb.8.9.9.| $.bXMXbXNX^.! e.8.0.7.7.7.3.0.8.8.8.8.8.8.w.8.8.8.w.8.8.8.8.8.8.8.8.8.8.8.w.w.w.8.r.8.8.9.{ 9.'..X.X^.~.Y.Y.~.^.^..Xh.8.r./ s.NXcXzXj.} 9.{ 0.0.3.8.8.8.8.8.8.0.0.8.8.8.8.8.8.8.8.8.8.8.8.8.8.8.8.8.8.8.8.8.8.8.8.8.8.8.8.8.8.8.8.8.8.8.8.8.8.8.8.8.8.8.8.8.8.8.8.8.8.8.8.w.w.w.8.w.8.e.j..X.X.X~.'.9.{ { 0.8.8.r.9.{ h.[..X~.XX^.",
"~.~.~.#X'.8.R r.0.0.I U.zXcXvXMXjX9.9.9.8.r.1.w.w.w.w.w.w.8.8.8.8.8.8.8.8.8.8.8.8.r.8.8.8.r.8.1.r.3.3.u @ r. Xt.8.8.8.8.8.8.8.8.8.8.8.8.8.8.8.8.8.8.8.8.8.8.8.8.8.8.8.8.8.8.8.8.8.8.8.8.8.8.8.8.8.8.8.8.8.8.8.8.8.8.8.8.8.8.8.8.8.8.8.8.8.8.8.8.8.8.8.8.8.8.8.1.1.3.0.3.1.0.0.8.8.8.8.8.8.8.8.8.8.0.8.8.8.8.8.8.9.9.h.#X.X~.^.~.~./.h.9.r.r.8.9.I.OX~.~.~.~..Xq.L 0.0.} [ g.zXkXNXQ.+.} { 9.r.1.0.0.{ 0.8.8.T.r.8.8.9.8.8.8.8.8.8.8.8.8.9.{ 9.8.9.8.8.{ 8.{ 8.8.8.8.8.8.8.8.8.8.8.8.8.8.w.8.8.8.8.8.8.8.8.8.8.8.8.8.8.8.8.8.8.8.8.8.8.8.8.8.8.8.8.8.8.8.8.8.8.8.8.8.8.8.8.8.8.8.8.8.8.8.8.8.8.8.8.8.8.8.8.8.8.8.8.8.8.8.8.8.8.8.8.8.8.8.8.8.8.8.8.8.8.8.8.8.8.8.9.T.'..X~.g.j.R.'.t.3.3.r.8.1.1.t ) [./.Q.(.!.^.~.#Xb.8.9.9.| $.mXMXbXBX~.! q.8.0.3.7.7.3.3.3.0.8.8.8.8.w.8.8.8.w.w.8.8.8.8.8.8.8.8.8.8.8.8.8.8.r.8.8.8.{ 9.'..X.X.X~.Y.Y.~.^.^..Xh.8.0./ $.NXcXNX~.} } { 0.0.3.8.8.8.8.8.8.8.0.8.8.8.8.8.8.8.8.8.8.8.8.8.8.8.8.8.8.8.8.8.8.8.8.8.8.8.8.8.8.8.8.8.8.8.8.8.8.8.8.8.8.8.8.8.8.8.8.8.8.8.8.w.w.w.8.8.8.e.j.XX.X.X~.'.9.{ { 0.8.1.r.9.{ h.[..X~.XX^.",
"~.~.~.#X'.Q R r.0.0.I U.zXcXvXMXzXq.| 9.8.r.1.w.w.w.w.w.w.w.8.8.8.8.8.8.8.8.8.8.8.r.8.8.8.r.8.1.3.5.3.u 2 t. Xt.8.8.8.8.8.8.8.8.8.8.8.8.8.8.8.8.8.8.8.8.8.8.8.8.8.8.8.8.8.8.8.8.8.8.8.8.8.8.8.8.8.8.8.8.8.8.8.8.8.8.8.8.8.8.8.8.r.r.r.8.8.8.8.8.8.8.8.8.8.8.8.8.1.3.r.3.3.0.r.0.8.8.8.8.8.8.8.8.8.0.8.8.8.8.8.8.9.9.h.#X.X~.^.~.~./.h.9.r.r.8.9.h.OX~.~.~.~..Xq.K 0.0.} [ U.zXkXNX^.+.} } | r.0.r.0.) q.8.1.G.r.8.8.8.0.w.w.w.8.8.0.0.0.0.0.0.0.0.0.0.0.0.0.0.0.8.8.8.8.8.8.8.8.8.8.8.8.w.w.8.8.8.8.8.8.8.8.8.8.8.8.8.8.8.8.8.8.8.8.8.8.8.8.8.8.8.8.8.8.8.8.8.8.8.8.8.8.8.8.8.8.8.8.8.8.8.8.8.8.8.8.8.8.8.8.8.8.8.8.8.8.8.8.8.8.8.8.8.8.8.8.8.8.8.8.8.8.8.8.8.8./ q.W..X~.j.'.#X`.t.3.3.r.3.1.1.t ) [./.Q.(.!.^.~.#Xb.8.8.8.| f.NXMXbXBXXX! 9.9.8.3.3.3.3.3.3.3.8.8.8.8.w.w.8.8.w.w.8.8.8.8.8.8.8.8.8.8.8.8.8.8.r.8.8.9.{ 9.'..X.X.X~.Y.Y.~.^.^.m.f.8.0./  .NXbXNX^.} } { 0.0.1.8.8.8.8.8.8.0.0.8.8.8.8.8.8.8.8.8.8.8.8.8.8.8.8.8.8.8.8.8.8.8.8.8.8.8.8.8.8.8.8.8.8.8.8.8.8.8.8.8.8.8.8.8.8.8.8.8.8.8.8.w.w.w.8.8.8.e.R..X.X.X~.T.9./ { 0.) 1.r.0.{ h.[..X~.XX^.",
"~.~.~..X#X9.@ 1.r.` ]  .zXcXMXMXjXT.} 9.q.8.8.r.w.8.8.8.8.8.8.8.8.8.8.8.8.8.8.8.8.8.8.8.8.8.8.8.3.1.Z.K @ t.|.t.8.8.8.8.8.8.8.8.8.8.8.8.8.8.8.8.8.8.8.8.8.8.8.8.8.8.8.8.8.8.8.8.8.8.8.8.8.8.8.8.8.8.8.8.8.8.8.8.8.8.8.8.8.8.8.8.8.8.8.8.8.8.8.8.8.8.8.8.8.8.8.8.0.3.3.0.0.0.8.8.8.8.8.8.8.8.8.8.8.0.8.8.8.8.8.8.8.8.h.#X.X~.^.~././.f.{ 8.8.8.8.R.OXU.~./.~.OXq.2 ` t.| E ~.zXkXNXkX^.$.[ ] 9.t.0.0.8.3.8.0.r.r.w.w.w.r.w.r.w.r.w.0.0.3.0.r.r.r.3.3.3.3.3.3.3.3.0.8.8.8.8.r.r.r.8.8.8.8.8.8.w.w.8.8.8.8.8.8.8.8.8.8.8.8.8.8.8.8.8.8.8.8.8.8.8.8.8.8.8.8.8.8.8.8.8.8.8.8.8.8.8.8.8.8.8.8.8.8.8.8.8.8.8.8.8.8.8.8.8.8.8.8.8.8.8.8.8.8.8.8.8.8.8.8.8.8.8.8.8.8.8.8.|  .T.#X.X.X.Xh.e.I 2 t 1.r.8.T + r.[.R.Q.!.!.^.~.#Xb.8.q.8.T g.mXvXMXkX^.@.} e.0.r.0.0.3.3.3.3.r.r.r.r.r.w.w.w.w.8.8.8.8.8.8.8.8.8.8.8.8.8.8.8.8.8.8.9.9.} h.#X.X.X~.Y.R.~.^.XX@Xf.1.0.)  .xXhXNXjXg.] 9.q.3.3.8.8.8.8.8.8.0.0.8.8.8.8.8.8.8.8.8.8.8.8.8.8.8.8.8.8.8.8.8.8.8.8.8.8.8.8.8.8.8.8.8.8.8.8.8.8.8.8.8.8.8.8.8.8.8.8.8.8.w.8.w.w.w.8.8.8.t.T.'.W.~.oXf.9.0.{ 8.0.0.0.r.{ t.[..X~.~.^.",
"~.~.~..X#Xe.@ 1.r.` {  .zXbXvXvXNX~.W E q.t.9.8.8.w.w.r.w.w.e.w.8.8.8.8.8.8.8.8.8.8.8.8.8.8.8.8.3.1.Z.u @ A.|.t.8.8.8.8.8.8.8.8.8.8.8.8.8.8.8.8.8.8.8.8.8.8.8.8.8.8.8.8.8.8.8.8.8.8.8.8.8.8.8.8.8.8.8.8.8.8.8.8.8.8.8.8.8.8.8.8.8.8.8.8.8.8.8.8.8.8.8.8.8.8.8.8.0.3.0.0.0.0.8.8.8.8.8.8.8.8.8.8.8.0.8.8.8.8.8.8.8.8.h.#X.X~.^.^.~./.f.{ 8.8.8.8.I.OXQ.~./.~.OXq.2 ) t.| E ~.zXkXBXNXkX^.$.[ ] | r.r.8.8.8.8.r.r.w.w.w.w.w.e.r.r.r.r.r.r.r.r.r.r.r.r.r.r.r.r.r.r.8.8.8.8.8.8.8.8.8.8.8.8.8.8.1.1.8.8.8.8.8.8.8.8.8.8.8.8.8.8.8.8.8.8.8.8.8.8.8.8.8.8.8.8.8.8.8.8.8.8.8.8.8.8.8.8.8.8.8.8.8.8.8.8.8.8.8.8.8.8.8.8.8.8.8.8.8.8.8.8.8.8.8.8.8.8.8.8.8.8.8.8.8.8.8.8.| | T.#X.X.X.XT.8.K 2 t 1.r.3.P + t.[.R.).^.^.^.~.#Xh.8.e.8.T g.mXMXBXmXtXg.} } | 8.8.0.r.r.r.r.8.8.8.8.8.8.8.8.8.8.8.8.8.8.8.8.8.8.8.8.8.8.8.8.8.8.8.9.9.} h.#X.X.X~.W.R.~.^.XX@Xf.1.r.)  .kXbXmXkXg.[ | 0.3.0.8.8.8.8.9.0.0.0.8.8.8.8.8.8.8.8.8.8.8.8.8.8.8.8.8.8.8.8.8.8.8.8.8.8.8.8.8.8.8.8.8.8.8.8.8.8.8.8.8.8.8.8.8.8.8.8.8.8.w.w.w.w.w.8.8.8.9.I.'.W.~.W.t.9.0.{ 0.0.3.0.r.) q.'..X~.~.^.",
"~.~./.'.#Xt.@ ) r.` |  .zXcXvXvXBX^.W W } q.e.q.8.8.w.8.8.8.8.8.8.8.8.8.8.8.8.8.8.8.8.8.8.8.8.8.3.1.r.K @ t.].r.8.8.8.8.8.8.8.8.8.8.8.8.8.8.8.8.8.8.8.8.8.8.8.8.8.8.8.8.8.8.8.8.8.8.8.8.8.8.8.8.8.8.8.8.8.8.8.8.8.8.8.8.8.8.8.8.8.8.8.8.8.8.8.8.8.8.8.8.8.8.8.8.0.3.0.0.0.0.8.8.8.8.8.8.8.8.8.8.8.0.8.8.8.8.8.8.8.{ h.#X.X~.^.^.~./.h.{ 8.8.8.8.h.OXQ.~.~.~.OXq.2 Y r.9.! ~.kXmXcXmXBXhXQ.@.W ] 9.9.8.8.8.q.t.t.8.8.w.8.w.w.w.r.8.3.3.3.8.3.8.3.r.0.8.3.1.3.1.1.r.r.r.r.q.q.q.q.q.r.r.r.r.8.8.8.8.8.8.8.8.8.8.8.8.8.8.8.8.8.8.8.8.8.8.8.8.8.8.8.8.8.8.8.8.8.8.8.8.8.8.8.8.8.8.8.8.8.8.8.8.8.8.8.8.8.8.8.8.8.8.8.8.8.8.8.8.8.8.8.8.8.8.8.8.8.8.8.8.8.8.8.8.8.8.8.| | I.oX.X.X.Xh.T K 2 u 2.r.1.U + t.[.R.).!.!.^.j.#Xf.8.e.8.{ g.BXvXbXBXhX^.@.W } } | 8.8.8.8.8.8.8.8.8.8.8.8.8.r.r.r.r.r.r.r.r.8.8.8.8.8.8.8.8.8.8.8.9.9.} h.#X.X.X.XW.Y.~.^.XX$Xe.P 3.0.{ gXBXBXkXx.! | 0.0.0.8.8.8.8.9.8.0.0.8.8.8.8.8.8.8.8.8.8.8.8.8.8.8.8.8.8.8.8.8.8.8.8.8.8.8.8.8.8.8.8.8.8.8.8.8.8.8.8.8.8.8.8.8.8.8.8.8.8.8.8.w.w.w.8.r.8.8.T.[.oX.XW.q.9.9.{ 8.0.3.3.r./ 9.'.'.~.~.~.",
"~.~./.W.#Xt.@ T r.1.0. .zXbXMXvXcXtX^.g.+.E ! q.8.8.8.8.8.8.8.8.8.8.8.8.8.8.8.8.8.8.8.8.8.8.8.8.3.1.r.U 2 G.{.r.8.8.8.8.8.8.8.8.8.8.8.8.8.8.8.8.8.8.8.8.8.8.8.8.8.8.8.8.8.8.8.8.8.8.8.8.8.8.8.8.8.8.8.8.8.8.8.8.8.8.8.8.8.8.8.8.8.8.8.8.8.8.8.8.8.8.8.8.8.8.8.8.0.3.0.0.0.0.8.8.8.8.8.8.8.8.8.8.8.0.8.8.8.8.8.8.8.{ h.#X.X~.^.^.~./.f.{ 8.r.8.9.h.OXQ.~.~.~.#Xt.t s 3.9.! g.kXmXaXMXBXbXhX!.l.g.} } } } { } 9.9.9.9.9.9.9.8.8.8.8.8.8.r.r.q.q.q.t.q.q.r.r.r.8.8.8.8.9.8.9.9.8.9.8.8.8.{ 8.{ 8.8.8.8.8.8.8.8.8.8.8.8.8.8.8.8.8.8.8.8.8.8.8.8.8.8.8.8.8.8.8.8.8.8.8.8.8.8.8.8.8.8.8.8.8.8.8.8.8.8.8.8.8.8.8.8.8.8.8.8.8.8.8.8.8.8.8.8.8.8.8.8.8.8.8.8.8.8.8.8.8.8.| | f.'..X.X.Xh.T K p Y 3.7.1.K + t.[.R.~.!.!.^.x..Xt.>.9.9.{ I.BXMXcXbXBXhX^.@.s.s.k.q.q.e.e.9.9.r.9.r.9.0.9.r.9.8.8.8.8.) Q Q 8.8.8.8.8.8.8.8.8.8.8.9.9.| h.oXXX.X.XW.W.~.^..X$Xe.u 1.0.{ OXBXMXmX^.[ { 0.0.0.0.8.8.9.8.8.8.0.8.8.8.8.8.8.8.8.8.8.8.8.8.8.8.8.8.8.8.8.8.8.8.8.8.8.8.8.8.8.8.8.8.8.8.8.8.8.8.8.8.8.8.8.8.8.8.8.8.8.8.8.w.w.w.8.r.8.9.T.#XoXW.I.9.0.{ { 0.0.0.1.q.T 9.'..X~.~.~.",
"~.~.oXR.#Xh.= T r.3.q.[ zXcXMXvXBXBXbXtXl.O.E Q 9.9.9.8.8.9.r.r.8.8.8.8.8.8.8.8.8.8.8.8.8.8.8.8.7.1.r.U t G.{.8.8.8.8.8.8.8.8.8.8.8.8.8.8.8.8.8.8.8.8.8.8.8.8.8.8.8.8.8.8.8.8.8.8.8.8.8.8.8.8.8.8.8.8.8.8.8.8.8.8.8.8.8.8.8.8.8.8.8.8.8.8.8.8.8.8.8.8.8.8.8.8.8.0.3.0.0.0.0.8.8.8.8.8.8.8.8.8.8.8.0.8.8.8.8.8.8.8.{ h..X~.~.^.^.~./.f.{ r.r.8.9.h.OXQ.~.~.~.#Xt.p p 1.9.} d.tXBXMXMXMXMXMXbXhXhXjXgXOXOX~.~.j.g.g.g.g.d.d.@.s.s.} } } } } { { { { ] { } 9.9.9.q.9.9.9.9.9.9.9.9.8.9.9.9.9.9.9.e.8.8.8.8.8.r.r.r.8.8.8.8.8.8.8.8.8.8.8.8.8.8.8.8.8.8.8.8.8.8.8.8.8.8.8.8.8.8.8.8.8.8.8.8.8.8.8.8.8.8.8.8.8.8.8.8.8.8.8.8.8.8.8.8.8.8.8.8.8.8.8.8.8.8.8.8.8.8.8.8.| ] f.W..X.X.Xh.{ ) Y 1.3.3.T t 2 t.[.R.~.^.!.^.~..Xe.-.q.r.| I.BXvXvXvXBXBXhX^.W W ! ! ! 9.9.9.9.9.9.9.9.9.9.9.9.9.9.9.9.9.9.9.8.8.8.8.8.8.8.8.w.8.8.9.8.} h.oXXX.X.XW.W.~.^..X$Xt.t ) 0.{ (.BXMXmXXX} ] 0.0.0.0.0.8.8.9.9.8.8.8.8.8.8.8.8.8.8.8.8.8.8.8.8.8.8.8.8.8.8.8.8.8.8.8.8.8.8.8.8.8.8.8.8.8.8.8.8.8.8.8.8.8.8.8.8.8.8.8.8.8.8.w.w.w.8.w.8.9.'.#XoXT.f.9.| { { 0.0.3.1.q.I { '.#X~.~.~.",
"~.~.oXR.#Xh.t Y r.3.0.} jXcXMXvXSXMXcXcXkXtX~.s.} { { ) { 8.0.r.8.8.8.8.8.8.8.8.8.8.8.8.8.8.8.8.7.1.r.Y t G.`.8.8.8.8.8.8.8.8.8.8.8.8.8.8.8.8.8.8.8.8.8.8.8.8.8.8.8.8.8.8.8.8.8.8.8.8.8.8.8.8.8.8.8.8.8.8.8.8.8.8.8.8.8.8.8.8.8.8.8.8.8.8.8.8.8.8.8.8.8.8.8.8.8.3.3.0.0.0.0.8.8.8.8.8.8.8.8.8.8.8.0.8.8.8.8.8.8.8.{ f..X~.~.^.^.~./.T.9.r.r.8.9.k.oXQ.~.~.~.#Xh.p i =.q.} @.5XMXSXvXvXvXvXnXvXcXBXBXNXNXNXNXNXmXhXyXyXuXrX6X5X^.~.g.j.g.g.$.@.@.@.+.+.} } W W W 9.9.9.| 9.| { | } | } | 9.| 9.9.8.8.8.8.1.8.8.8.8.8.8.8.8.8.8.8.8.8.8.8.8.8.8.8.8.8.8.8.8.8.8.8.8.8.8.8.8.8.8.8.8.8.8.8.8.8.8.8.8.8.8.8.8.8.8.8.8.8.8.8.8.8.8.8.8.8.8.8.8.8.8.8.8.8.8.8.8.8.8.8.| ] q.T.'..X.Xh.8.8.1.3.7.2.Y t 2 t.[.R.~.^.!.^.~..Xe.T 8.9.| g.BXvXvXvXMXBXbXhXv.g.g.d.s.s.! ! 9.| { { { { E { { | } | 9.9.q.e.9.8.8.8.8.8.8.8.w.8.8.9.8.} h..X.X.X.XW.W.~..X.X$Xh.t s 3.{ ~.BXmXBXtX@.] 0.0.3.0.0.8.8.8.8.8.8.8.8.8.8.8.8.8.8.8.8.8.8.8.8.8.8.8.8.8.8.8.8.8.8.8.8.8.8.8.8.8.8.8.8.8.8.8.8.8.8.8.8.8.8.8.8.8.8.8.8.8.8.w.w.w.8.8.8.r.T.}.T.f. .| { { { 0.0.3.1.0.P { [.#X~.~.~.",
"R.~.oXR.#X`.t U r.3.0.] OXhXMXvXvXvXaXMXBXBXzX;XR.h.q.{ { { { 0.8.8.8.8.8.8.8.8.8.8.8.8.8.8.8.0.7.1.r.Y K G.`.1.8.8.8.8.8.8.8.8.8.8.8.8.8.8.8.8.8.8.8.8.8.8.8.8.8.8.8.8.8.8.8.8.8.8.8.8.8.8.8.8.8.8.8.8.8.8.8.8.8.8.8.8.8.8.8.8.8.8.8.8.8.8.8.8.8.8.8.8.8.8.8.8.3.3.3.0.0.0.8.8.8.8.8.8.8.8.8.8.8.0.8.8.8.8.8.8.9.{ f.'.~.~.^.~.~./.T.9.r.r.8.8.k.oXQ.~.~.~.OXT.s r =.t.} ! !.MXvXvX0XwXvXvXvXvX7X9XqXvXcXcXvXvXBXBXBXBXBXMXMXmXNXNXNXNXzXzXkXkXkXgXgXtX(.(.^.~.g.f.k.q.9.} 9.} } ] { ] Q E Q E 8.8.8.1.1.1.8.8.8.8.8.8.8.8.8.8.8.8.8.8.8.8.8.8.8.8.8.8.8.8.8.8.8.8.8.8.8.8.8.8.8.8.8.8.8.8.8.8.8.8.8.8.8.8.8.8.8.8.8.8.8.8.8.8.8.8.8.8.8.8.8.8.8.8.8.8.8.8.8.8.| { q.R.R..X.Xh.9.0.3.3.7.2.Y t 2 A.[.~.~.^.!.^.~..X9.R 8.8.{ g.cXvXvXvXvXMXMXcXNXNXzXkXjXuX$X$XT.T.R.I.h.f.k.q.Q E Q E E E E E 9.8.8.8.8.8.8.8.r.8.8.9.8.| h.#X.X.X.XW.W.~..X.X+X}.p u ` { ~.mXmXBXuX@.] 0.3.3.0.0.8.8.8.9.{ 8.8.8.8.8.8.8.8.8.8.8.8.8.8.8.8.8.8.8.8.8.8.8.8.8.8.8.8.8.8.8.8.8.8.8.8.8.8.8.8.8.8.8.8.8.8.8.8.8.8.8.8.8.w.w.5.3.8.8.9.q.t.q.}  .| { { { 0.0.3.1.0.K { [.#X~.~.^.",
"~.~..XR.#X`.t U 7.3.0.I OXhXMXvXvXZXSXMXbXmXNXNXzXjXOXI.f.} } 9.9.8.8.8.8.8.8.8.8.8.8.8.8.8.8.0.r.) r.P U `.`.T 8.8.8.8.8.8.8.8.8.8.8.8.8.8.8.8.8.8.8.8.8.8.8.8.8.8.8.8.8.8.8.8.8.8.8.8.8.8.8.8.8.8.8.8.8.8.8.8.8.8.8.8.8.8.8.8.8.8.8.8.8.8.8.8.8.8.8.8.8.8.8.8.0.0.0.0.8.8.8.8.8.8.8.8.8.8.8.8.8.8.8.8.8.8.8.8.9.8.t.'.R.R..X~.W.[.T.9.r.r.8.8.k.oX~.~.~.~.OXT.s r Y r.9.! ^.mXcXMXBXBXBXMXMXMXBXBXBXBXBXMXbXbXbXbXbXbXbXbXbXBXNXzXNXNXNXNXNXNXzXzXNXNXNXNXNXNXzXlXlXlXlX>X>X>X-X-X#XoXoX[.W.'.T.t.q.q.r.r.q.q.8.8.8.8.8.8.9.9.8.8.8.8.8.8.8.8.8.8.8.8.8.8.8.8.8.0.8.0.8.0.8.0.8.0.8.0.8.0.8.8.8.8.8.8.8.8.8.8.8.8.8.8.8.8.8.8.8.8.8.8.8.8.8.8.8.8.8.8.8.8.8.0.0./ 0.T.`.[.[.A.0.3.3.7.7.1.Y t 2 A.oX~.~.^.Q.^.~.'.8.K 1.1.) f.hXvXMXvXcXbXbXhXkXkXkXkXkXkXzXzXzXzXlXlXlX;X;X=XOXoX/.W.T.f.f.f.9.9.8.8.8.8.8.8.r.r.8.9.| | h.#X.X.X.X~.~.~..X.X+X}.t t ` 0.W.kXcXBXhX#.} } { { 9.9.9.9.9.8.8.8.8.8.8.8.8.8.8.8.8.8.8.8.8.8.8.8.8.8.8.8.8.8.8.8.8.8.8.8.8.8.8.8.8.8.8.8.8.8.8.8.8.8.8.8.8.8.8.8.8.8.8.8.8.8.8.8.8.8.8.9.| { { 9.| | { 8.0.0.3.1.3.K T [.-X/.~.~.",
"!.^.^.~.#Xr.t <.2.2.r.8.Q s.uXSXvXvXvXvXvXvXmXmXbXMXBXmXyX8X*.&.! ! ,.9.9.9.9.9.9.9.8.0.0.0.0.0.r.9.e.T { T.9.9.8.9.8.9.8.9.9.8.8.0.0.0.3.3.3.3.3.3.3.3.3.3.3.8.8.9.9.9.9.9.9.9.9.9.9.9.9.9.9.8.8.8.8.8.8.8.8.8.8.8.8.8.8.8.8.9.9.9.9.9.9.9.9.9.9.9.9.9.9.9.9.9.0.9.0.9.9.9.9.9.9.9.9.9.9.9.9.9.8.8.8.8.8.8.8.8.{ 9.e.h.'.'.[.[.[.`.t.8.8.r.9.{ [ W./.U.~.~.Q.W.K u u Y ) 8.t.T.#XOXOXOX#X#X#XOXOX(.(./././././.(.OXOXOXOXOXOXOXOXOXOXOXOXOXOXOX.X~..X~..X~..XoX[.[.[.[.oX[.oX[.[.[.oX[.oX[.oX[. X X X}.'.`.`.T.t.t.e.e.e.0.9.9.8.8.8.8.8.8.8.9.8.8.8.8.8.8.8.8.8.1.8.3.8.) { ) 0.0.0.0.0.0.0.0.r.8.8.8.8.r.8.r.8.8.8.8.8.8.8.8.1.1.3.3.3.3.1.1.3.3.3.3.3.1.3.3.r.5.1.3.F.J.Z.3.1.<.<.<.M s t 1 t t.I.T.oX~./.~.f.T.r.t p M M 3.@.6XNXNXbXNXNXkXzXzXzXzXzXzXkXkXzXzXzXzXzXzXzXzXzXzXzXzXlXlXlXlX#X#X[.`.T.t.0.8.0.{ 9.t.| I 9.oX.X~.~.~.~..X.X.X'.}.P + 1.0.A.zXzXbXcXxX6X~.g.$.s.} Q E Q 8.9.8.8.0.0.0.0.0.0.0.8.8.8.8.8.8.8.8.8.8.9.8.9.8.8.8.8.r.9.r.9.r.9.r.8.8.8.8.8.8.8.8.8.8.8.8.8.8.8.8.8.8.8.8.8.8.8.r.q.q.q.q.e.e.e.e.{ 9.q.t.t.r.7.5.s t 8. X[.T.~.R.",
"z.5X^.~.#Xt.u s <.2.r.t.8.9.g.OXmXbXbXbXbXmXMXMXbXMXBXBXBXMXaXiXXX'.h.9.8.8.8.8.8.8.8.8.3.3.3.3.8.{ r.I T A.8.9.9.9.9.9.9.9.9.8.8.3.3.8.3.3.3.3.r.0.0.0.0.0.0.0.8.8.8.8.8.8.8.8.8.8.8.9.8.8.8.8.8.8.8.8.8.8.8.8.8.8.8.8.8.8.8.8.9.9.9.9.9.9.9.| 9.| 9.| 9.9.9.| 0.0.0.0.9.9.9.9.9.9.9.9.r.0.9.9.r.r.r.r.r.r.r.r.8.8.e.t.`.`.`.G.Z.r.0.) 8.r.| I } W.oXU.~.~.Q.R.K t t u j ( 1.7.3.8.8.8.8.8.8.9.{ { { { / / T T { { { { { E { { } } } } } } } } { { { { { { { { { { { { { { { { { { { | { { { { 8.8.8.{ { ) ) / 9.8.9.8.9.8.8.8.8.8.8.8.8.8.8.8.8.8.8.8.8.8.8.8.1.` ) ) 3.3.3.3.3.3.3.3.3.3.3.3.3.8.8.8.8.8.8.8.r.r.r.r.0.0.0.0.5.5.5.5.5.5.1.1.( ( ( ( ^ j ( j <.s p a m m a i i i i a a a a u K T.'.'.OXR./.~.#XoX) + % x V y.E g.OXOXOXjXlXjXjXgXjXgXgX=X=XOX^.^.^.~.~.~.~.~.g.g.s.s.f.$.@.9.9.9.| { { / T T 0.0.q.t.9.I 9.oX~.~.~.~..X.X.X.X'.[.T + T 1.3. XgXhXkXzXNXNXzXzX$X#X'.T.t.q.8.1.8.0.0.0.0.0.0.0.r.0.0.0.0.0.0.0.8.8.8.8.8.8.8.8.1.1.1.1.1.1.1.1.8.8.8.8.8.8.8.8.8.8.8.8.8.8.8.8.8.8.8.8.8.8.8.8.1.1.1.1.1.1.1.1.8.8.8.5.5.<.=.c p r 3.].[.R././.",
"z.(.~.R.[.G.Y r t s 1.7.8.8.9.h.jXkXkXkXkXkXkXkXkXkXjXjXjXjXjXjX;X-X|.G.r.8.r.0.0.0.7.7.7.7.7.7.r.1.r.) 1.A.0.1.0.0.0.0.0.0.0.0.8.8.8.8.8.8.8.8.8.8.8.8.8.8.8.8.8.8.8.8.8.8.8.8.8.8.8.8.8.8.8.8.3.3.3.3.8.8.8.8.r.r.r.r.r.r.r.0.8.8.8.8.8.8.8.8.8.8.8.8.8.8.8.8.0.0.8.8.8.8.8.8.0.0.0.0.0.0.0.0.1.3.3.3.8.8.8.3.1.1.3.0.r.r.r.3.3.1.` 1.r.r.{ S } W./.U.~.~.~.W.u y 7 y a a s j 1.1.1.1.1.1.1.1.1.1.3.1.3.1.3.3.r.0.r.0.0.0.r.0.8.8.8.8.8.8.8.8.8.8.8.8.8.8.8.1.1.1.3.3.3.3.3.1.2.1.5.1.5.1.5.5.3.5.5.5.3.3.3.7.1.1.2.5.2.5.3.5.7.7.7.7.7.7.7.7.7.7.7.7.7.7.7.7.1.1.2.5.5.3.7.7.5.5.5.5.5.5.5.5.7.7.7.7.7.7.7.7.1.1.1.1.1.1.<.<.s j j j j j j j p p y y i y y a a a q 7 7 7 7 7 q 7 7 7 7 a a i K `.[.#X#XR.~.~.#X[.8.2 r a q i I ] } ] E ] ] E E E E ] E ] E E } } } } 9.9.9.9.9.9.9.9.9.| | 8.9.r.r.r.r.0.0.0.0.0.r.r.) K 8.'..X~.~.~..X.X.X.X'.[.8.@ P 1.1.t.} [ $.g.I.W.T.'.:X-X&X&X&X|.G.G.2.2.2.2.2.2.2.2.2.2.2.2.2.2.5.5.7.7.7.7.5.5.7.7.7.r.r.r.r.r.r.r.r.r.r.r.r.r.r.r.r.r.r.r.r.r.r.r.r.r.r.r.r.r.r.r.r.r.r.r.r.r.r.r.7.3.7.2.4.<.v c r r 8.}.oX~.~.~.",
"Q.(./.T.}.].1.+ p r t s Y Y ) r.9.9.9.9.e.e.t.q.h.t.t.e.9.9.9.8.p.F.i.r.r.7.5.4.5.5.5.6.7.6.6.6.7.5.7.1.5.Z.3.3.5.3.7.3.7.3.7.7.r.w.w.w.w.w.w.w.w.8.w.8.w.8.w.8.7.7.7.7.7.7.7.7.7.7.7.7.7.7.7.7.7.7.7.7.7.7.7.7.7.7.7.5.7.7.7.7.5.3.3.3.3.3.3.3.3.1.3.1.3.1.3.1.3.3.3.3.3.3.3.3.5.1.5.1.5.1.5.3.3.3.3.5.3.3.3.3.5.2.2.5.3.3.2.1.3.3.3.0.r.0.T G q.'..XR.~.~.^.'.( e q q a q a a a a a a p p p p 7 , , , 7 r r r y y y y y t y y s s s s Y s s s Y Y Y Y Y s Y Y s j j j j j j j j j j j j j j j m m m m M M M M M M M M M M M N 4.M M M M N M M M N M N M N M M M M M M M <.<.4.<.<.<.<.<.M M M a a a a a a a a a a a a a a a a q q a a a a y y a a a q i q a a e e e q q q a a x a e q e e e p K '.'.#X#X~./.~.R.W.9.K p i % % Y / ) / 8.t.A.t.r.q.t.t.t.t.t.t.8.8.8.8.8.8.8.8.8.8.0.0.0.0.0.0.0.3.3.3.3.3.3.3.3.2.3.1.U K 1.}..X~.~.~..X.X.X.XR.#Xq.2 K T 1.1.{ ] { { / / ) ) 1.1.3.7.r.F.7.7.5.5.7.5.7.5.7.5.5.6.5.6.5.6.5.6.7.7.7.7.7.7.7.7.4.4.4.4.4.4.4.4.<.<.<.<.<.<.<.<.<.4.<.4.<.<.<.4.4.4.4.4.4.4.4.4.<.4.<.4.<.4.<.<.j l h y y q 7 i t p r.}.oX~.~.Q.",
"Q././.W.T.}.r.r =.p i i y i y u t t r t p u s u r t t p s s s s i a p a s j h j j m m m m m M M 2.j 2.j N N.N N N j N j N j N <.1.1.1.1.1.1.1.1.5.3.5.3.5.2.5.2.6.6.6.6.6.6.6.6.6.6.6.6.6.6.6.6.6.6.7.6.7.6.7.6.7.6.7.6.7.6.7.6.3.3.6.3.6.3.6.3.6.3.6.3.3.3.3.3.7.6.7.6.7.6.7.6.6.3.6.6.6.6.7.3.6.6.6.6.7.7.7.7.7.6.3.6.7.7.7.3.7.3.3.0.0.) K Z h.[..X~..X~.x.'.j e q q e q q q q q q q q q q q e e e a a a m m a a a x a a a a q q q q q q q q i q q q q q q q q q q q q q q q q q q q q q q q q q q q q 7 7 7 a q e e q q q q a a e e e e e e q q q q q q q q a a a a a a a a a a a a a a a a q q q q q q q q q q q q q q q q q a a a a a a a a a a a a a a a q q e q q e x m e q e e x x x p K '..XXX.X~.OX~.~..Xq.K t r p <.r t t t s ( ( s Y Y ( ( ( ( ( ( 1.1.1.1.1.1.1.<.<.<.<.<.<.<.4.4.Y Y Y Y s s s s ( Y Y U p P r.#X.X~.~.~..X.X.X.XR.#Xh.K @ t K Y t t t 2 t t p t t t t t p a a p i i p i p i p i i i i i i i i i 7 7 7 7 7 7 7 7 a a a a a a a a a a a a a a a a x a x a x a x a a a a a a a a a a a a a a a a a 9 9 9 9 9 q y i r t q.[..X^.^.^.",
"Q.~./.W.T. X`.T p p i p a q 9 9 a a x x x x x x q q e a x a a a q 7 7 7 7 9 e a q q e a a a a a a 7 a q a k q y q q e 9 e 9 q a p p p p p p p p s s s s p s s a a h h a h h h h h h h a h h h h m m m m m m m m m m m m m m m m N j j j ( j ( j ( j ( j j j j j <.2.<.<.<.<.<.<.2.2.<.2.<.2.2.2.2.1.1.2.1.1.1.1.1.1.<.<.2.5.2.2.5.1.1.` P L K L T.'..X~.@X.Xx.'.<.a 7 q e q q q x x x x h h x x q q q q q q e e q q q e q q q q e a a a a a a a x x x x x x x x a x x x x e e e e e e e a e e e e e e e e e q q e e e e q q q q q q q q q q q q q q q q q q q q a a a i q i q q a a a a a a i q m m m m m m n n e e e e e e e e a a a a a a a a a a a a i a a a a e e e q q e a e q q e e q q 7 T '.R.~..X~.XX^.~.#X'.9.P = * s ( Y s s u t 1 o r t t t p p t t r r r r r r r r i i p p p p p p r r r t t t t t r 1 * p K -.p.#X.X~.~.~..X.X.X.X.X#X'.E @ @ 2 2 u u u u s s s s s p i i i i i i a a a a a a a a s s s s s s s s a a a a a a a a a a a a a a a a a a a a a a a a a a a a a a a a a a a a a a a a a a a a a a a q < < 9 9 9 a a s r K t..X~.^.^.!.",
"/.U./.OXR.#X#Xt.= p t a a e e e q e e e e e e e m x x z z z e e x a e q q q e a a a a a a a a p a > q 7 q h 7 q 9 9 q q q q q 9 9 8 9 8 8 8 8 8 9 9 9 9 8 8 8 9 9 7 7 7 r r r 7 7 7 7 7 7 7 7 7 y a a a a a a a a a a a a a a y y y y y y y y y y y y y y y y y y y u y y y y y y y u y s p s u u u u u u u u u u u u u u u s u s u u u t K T t.'.'.'..XOXXXx..X3.s i i p p a a 7 7 7 7 q q 7 7 a e e e e e q q a a x x x x a a q q q q a a a a a q q q q a a a a a a a a q q q a a a a a a a a 7 7 7 7 7 7 7 7 a a a a a a a a a a a a a a a a y y a a a a a a p a a a a a s s s s s s s s s a 7 q q q 7 7 7 7 q a a a q q a a i i p p p p t i p p i i i p p p a a a a a a a i a a a i i a i r 8.#X~.~..X^.^.^.x.OX#X'.h.T t t r r r p p s s s p s s s s s s s s s s s s p p p i i p p r r r r r t t t t t p p U u K T 8.q.{.#X.X~.~.~..X.X.X.XOX'.R.h.9.{ T K t t r r r r r r p t r r p p s p + + + + + + + + + * + + + + + 1 r 7 r 7 r r r r t i t i t t t t r r r r r r r r r r r r r r r r t i t i i r i r r r t i t i i y < < < < 9 y t t P 8.T.#Xx.x.^.c.",
"(.U.~.OXj.XX$X'.-.U s p i 7 9 e x x x x x z x z a e q q q q e e q q a a a a a q i a a p a p a p a 7 a y a m 7 a a a a a a a a a e e e e e e e e d d d d d d d d y y y y y y y y y y y y p y p y s s a s a s a s p t p t p t p t t t t t p p p p p p p t t t t t p p p p p p p p t t t t t t t t t t 2 2 2 2 t t t 2 2 2 2 t t t 2 2 2 2 2 K e.#X'..X.X.X@XXXx.XXq.) t t U U u u p p p t u t t y t t p i i i i i i i a a a a i t p p p p p p p p p p p p p p p p p t p p p t r r p p p p p p p p t t t t t t t t 1 1 r r t t t p u u u u u u u u u u u u u u u u t t p p p u s s u u u u s u p u u u u u u u u y t t t t t t t t t t p p p p t t t r r r t t t p t t t u u u t r p t 2 t u s 1.1.h.$X.X~.XX^.^.x.^.OX~..X#X}.`. X|.|.|.`.`.G.`.|.G.`.`.`.`.`.`.G.G.G.G.G.G.G.G.G.G.G.G.G.G.G.G.G.G.A.A.Z.A.V.A.Z.A.Z.t.T.'.#X#X#X.X~.~.~..X.X.X.XXXg.R.#X#X#X}.t.r.r.r.G.G.G.G.G.r.r.r.r.q.t.q.r.r.r.r.0.r.0.r.0.r.0.r.0.0.0.0.0.r.0.r.0.r.0.r.0.3.3.3.3.3.3.3.3.3.3.3.3.3.3.3.3.3.1.3.1.3.1.3.1.1.` 1.` 1.` 1.` 1.1.1.1.1.1.1.1.^ ) ` ` 1.` ) ) q.h.#X$X~.x.^.z.",
"^.^.^.^.XX.X.X.Xn.8.U * r a a a a p p p p p p p p p p p p a p p i i i i i i p t r t p p p p p p t t t t t t t t t t r r r t t y q q q 9 q q q 9 7 7 7 9 q q q y 1 2 r t t t p t t t t t t t t t t t p t p t p t p t p t p t p p p t t t t t K K t t t t t K U U K K K K K K K K Y T T T T T T P ) ) ) ) ) ) 1.1.8.8.8.8.0.0.r.r.r.q.t.A.T.`.}.'.'..X.X.X.X.X.X.X.X'.'.'.'.'.'.}.`.`.`.`.`.`.`.`.G.G.G.G.G.G.G.G.G.A.G.A.G.A.G.A.G.G.G.G.G.G.G.G.G.G.G.G.G.G.G.G.p.t.p.G.t.t.t.t.G.G.G.G.G.G.G.G.T.T.`.T.`.T.`.T.`.T.`.T.T.T.T.T.T.T.T.T.T.T.T.T.T.T.A.T.T.T.T.A.].].].].].].].].].].].].].].].].`.`.`.`.`.`.`.`.`.`.`.`.`.`.E.E.T.T.T.T.T.T.A.A.A.A.T.T.T.T.T.A.A.A.A.A.A.A.A.A.A.A.A.A.E.E.].[.'..X.X.X^.^.^.^.^.^..X.X.X'.}.}.'.'.'.}.'.'.'.'.[.[.[.[.[.[.[.}.'.'.}.'.}.'.}.'.}.'.}.}.}.'.}.'.[.[.[.E.].E.[.[.[.[.'..X.X.X.X.X~.~.~.~..X.X.X.X.X.X.X.X.X'.'.'.'.}.}.}.'.'.'.[.'.'.'.'.'.'..X'.[.[.[.[.[.[.[.[.[.[.[.[.[.[.[.[.[.[.[.[.[.[.[.[.[.[.[.[.[.[.[.[.[.[.[.[.[.[.[.[.[.[.[.[.[.[.[.[.[.[.[.[.[.[.[.[.[.[.[.[.[.[.[.[.[.[.[.[.[.}.'.'.'..X.X.X.X.X^.^.",
"^.^.^.^.XXXXXX.X.Xh.Q U t p p r t t t t t t t t t t t t t t t t p s s s p p p t K K U U U R U U P U U U U U U U Y Y U U P T T T ( ( ( ( ( ( ( ( ( 1.1.1.1.1.1.1.8.8.8.8.8.0.8.0.r.r.r.r.r.r.r.r.q.q.q.q.q.q.q.q.t.t.p.t.t.t.t.t.t.t.t.t.b.`.`.`.{.{.{.{.{.{.}.}.{.{.{.{.{.{.{.{.}.{.}.}.}.}.{.}.}.[.}.}.#X#X#X#X}.'.'.[.}.}. X X}.].].[.}.[.[.'..X.X.X.X.X.X.X.X.X.X.X.X.X.X.X.X~.~.~.W.[.[.[.[.[.[.[.[.[.[.[.[.[.[.'.[.'.[.'.'.'.'.'.'.'.'.'.'.'.'.'.'.'.'.'.'.'.'.'.'.'.'.'.'.'.'.'.'.'.'.'.'.oXoX[.[.[.[.[.'.oX[.[.[.[.[.[.[.W.W.W.W.W.W.W.W.W.W.W.W.W.W.W.W.W.'.'.'.'.'.'.'.[.[.[.[.[.[.[.[.[.'..X'.~.W.~.'.W.W.W.W.W.W.W.W.[.[.[.[.[.[.[.[.[.[.[.[.[.[.[.[.W.[.W.W.W.W.W.W.W.W.W.W.E.W.W.[..X.X.X.X~.^.^.^.^.^..X.X.X.X'.'..X.X.X.X.X.X.X.X.X.X.X.X.X.X.X.X.X.X.X.X.X.X.X.X.X.X.X.X.X.X.X.X~.W.W.W.Y.Y.W.W.W.~.~.~.^.^.^.^.~.~.~.~..X.X.X.XXX.X.X.X.X.X.X.X.X.X.X.X.X.X.X.X.X.X^.^.~.^.^.~.~.W.~.W.~.W.~.W.~.W.~.W.~.W.W.W.~.~.~.~.~.~.~.~.~.~.~.~.~.~.~.~.~.~.~.~.~.~.~.~.~.~.~.~.~.~.~.~.~.~.~.~.~.~.~.~.~.~.~.~.~.~.~.~..X.X.X.X.X.X.X.X.X.X.X.X.X.X~.~.",
"^.^.^.^.^.XXXXXX$X$X'.`.`.`.G.G.`.T.`.T.T.T.`.T.`.T.`.T.`.T.`.`.`.G.`.`.`.`.`.`.{.'.'.'.'.'.'.'.}.}.{.{.{.{.{.{.}.}.}.}.}.}.}.}.#X#X#X#X#X#X#X#X.X}.+X#X+X#X#X#X'.'.'.'.}.'.'.}.'.'.}.}.}.'.'.'.}.}.#X}.}.}.}.}.#X#X}.}.#X#X#X#X'..X+X+X+X#X#X#X'.'.'.'.'.'.+X+X'.'.'.'.'.'.'.'.'.'.'.'.'.'.'.'.'.'.'..X'..X.X.X'.'.'.'.'..X.X'.[.[.[.[.'.'.'.R..X.X.X.X.X.X.XXX^.!.^.^.^.^.^.^.^.~.~.~.~./.~.~.~.~..X~..X~..X~..XOX.X.X.X.X.X.X~.~.^.~..X~..X~.^.~..X~..X~.^.~..X.XXX.X.X.X.X^..X~..X~..X~..X~.~.~.~.~.~.~.~.~.~.~.~.~.~.~.~.~.~.~.~.~.~.~.~.~.~.~.~.~.~.~.~.~.~.~.~.~.~.~.~.~.~.~.~.~.~.~.~.~.~.~.^.~.^.~.^.~.^.~.^.~.~.~.^.~.~./.~.~.~.~.~.~./././.~.~.~.~.~.~./././././././.~.~././././././.~.~.^.~.~.^.^.^.^.^.~.~.~..X'.~.^.^.^.^.^.^.^.^.^.^.^.^.^.^.^.^.^.^.^.^.^.^.^.^.^.^.^.^.^.^.^.^.~.~.~.~.~.~.~.~.~.~.^.~.^.^.!.^.^..X.X.X.XXXXXXXXXXX^.^..X.X.X.X.XXXXXXX^.^.^.^.^.^.^.^.^.^.^.^.~.~.~.~.~.~.~.~.~.~.~.~.~.~.~.~.~.^.^.^.^.^.^.^.^.^.^.^.^.^.Q.Q.^.^.^.^.Q.^.^.^.Q.Q.Q.^.^.^.^.^.^.^.^.^.^.^.^.^.^.^.^.^.^.^.^.^.^.XXXXXXXXXXXX.X.X^..X.X.X.X.X.X",
"c.^.^.^.^.^.^..X~..X.X.X.X[.#X#X#X#X#X#X#X#X#X#X#X#X#X#X#X#X#X#X}.}.#X#X#X#X#X#X#X#X+X+X+X+X+X+X#X#X#X#X#X#X#X#X#X[..X#X.X#X#X#X@X@XXX@XXXXXXXXX.XXXXXXXXXXXXX@X.X.X.X.X.X.X.X#X.X.X.X.X.X.X.X.X.X.X.X.X.X.X.X.X.X.X.X.X.X.X.X.X.Xm..X.X.X.X.X.X.X.X.X.X.X.XXXXX.X.X.X.X.X.X.X.X.X.X.X.X.X.X.X.X.X.X.X.X.X.X.X.X.X.X.X.XXXXXXXXXR.R.R.R.R.R.~.~..X.X.X.X.X.X.X^.!.!.!.!.!.^.^.^.^.^.^.^.^.^.^.^.^.^.^.^.^.Q.^.^.^.~.^.^.^.^.^.^.^.Q.^.Q.^.^.^.^.^.Q.^.^.^.^.^.Q.^.^.^.^.^.^.^.^.^.^.^.^.^.^.^.^.Q.Q.^.^.^.^.^.^.^.^.^.Q.Q.Q.^.^.Q.Q.^.Q.^.Q.^.Q.^.Q.^.Q.^.Q.^.^.~.~.~.~.~.~.~.~.~.~.~.~.~.~.~.~.^.^.^.^.^.^.^.^.^.^.^.^.^.^.^.^.Q.Q.Q.Q.Q.Q.Q.Q.Q.Q.Q.Q.Q.Q.Q.Q.~.~.~.~.~.~.~.~.~.~.~.~.~.Q.~.~.~.~.~.~.~.~.^.^.^.~.~.~.~.~.~.~.^.^.^.^.^.^.^.^.^.^.^.^.^.^.^.^.^.^.^.^.^.^.^.^.^.^.!.!.!.!.!.!.^.~.~.~.~.~.~.~.~.~.^.^.^.!.!.^.^..X.X.XXXXXXXXXXXXXXXXX.X.X.X^.^.^.^.^.^.^.^.^.c.!.^.!.^.!.!.^.^.~.~.~.~.~.~.~.~.~.~.~.~.~.~.~.^.!.^.!.^.^.^.^.^.^.^.^.^.^.^.^.^.^.^.^.^.^.^.^.^.^.^.^.^.^.^.^.^.^.^.^.^.^.^.^.^.^.^.^.^.^.^.^.c.M.M.M.XX^.XXXX.X.X.X.X.X.X.X.X",
"^.^.^.^.^.~.~.~.R.~.~.~.~.R.R.R.~.~.~.~.~.~.~.~.~.~.~.~.~.~.~.~..X.X.X.X'..X.X.Xx.j.j.j.x.x.x.m.~.~.~.~..X.X.X.X.XR.~.R.R.R.~.~.x.c.c.c.c.c.c.c.c.c.c.c.c.c.c.c.m..X.X.X.X.X.X.X.X.X.X.X.X.X.X.X~.~.~.~.~.~.~.~.~.~.~.~.~.~.~.~..X.X.X.X.X.X.X.XXX.X.X.X.X.X@X@XXX.XXX.X.X.X.X.X@X.X@X@XOXXXXXXX.X.X.X.X.X.X.X.X.X.X.X.XXX.XXXXX^.^.^.~.~..X.XXX~.~..X~.^.~.^.^.^.^.^.^.^.^.^.^.^.^.^.~.~.~.~.^.^.^.^.^.^.^.^.^.^.^.^.^.^.^.^.^.^.^.^.^.^.^.^.^.^.^.^.^.^.^.^.^.^.^.^.^.^.^.^.^.^.^.^.^.^.^.^.^.~.~.~.~.~.~.~.~.~.~.~.~.~.~.~.~.~.~.^.~.^.~.^.~.^.~.^.^.^.~.^.~.~.~.~.~.~.~.~.~.~.~.~.~.~.~.~.^.^.^.^.^.^.^.^.^.^.^.!.!.^.^.^.^.~.~.~.~.~.~.~.~.~.~.~.~.~.~.~.~.~.~.~.~.~.~.~.~.^.~.^.~.~.~.~.~.~.~.~.~.~.~.~.^.^.^.~.~.~.~.~.~.^.^.^.^.^.^.^.^.^.^.^.^.^.^.^.^.~.~.~.~.~.^.^.^.^.^.^.^.^.^.^.^.^.^.^.~.^.~.~.~.~.~.^.^.^.^.^.^.~..X.X.XXXXX^.^.^.^.^.^.^.^.^.^.^.^.^.^.^.^.^.^.^.^.^.^.^.^.^.^.^.~.^.~.^.~.^.~.^.~.^.~.^.~.^.~.^.^.^.^.^.^.^.^.^.^.^.^.^.^.^.^.^.^.^.^.^.^.^.^.^.^.^.^.^.^.^.^.^.^.^.^.^.^.^.^.^.^.^.^.^.^.^.^.^.^.^.^.^.^.^.^.^.^.~.~..X.X~..X",
"^.^.^.~.~.~.~.~./././.(./.~.^.^..X.X.X.X.X.X.X.X~.~..X.X~.~.~.~..X.X.X.X.X.X.X.X.X.X.X.XXXXXXXXX.X~.~.~..X.X~..XOX.X.X~.~.~..XXXXX^.^.^.^.^.^.^.^.^.^.^.^.^.^.XX^.^..X^..X^..X^.XXXX.X.X.XXXXXXX^.^.~.~.~.~.~.~.~.~.~.~.~.~.~.~.^.^.^.^.^.^.^.^.^.^.x.l.x.x.~.^.^.^.^.^.^.^.^.^.^.^.^.^.^.^.^.^.~.~.~.~.~.~.~.~.~.~.~.~.~.~.~.^.^.^.^.^.^.^.^.^.^.~.~.~.~.~.~.~.~.~.~.~.~.~.~.~.^.~.~.~.~.~.~.~.~.~.~.~.~.~.~.~.~.~.~.~.~.~.~.~.^.^.^.^.^.^.^.^.^.^.^.^.^.^.^.^.~.~.~.~.~.~.~.~.~.~.~.~.~.~.~.~.~.~.~.~.~.~.~.~.~.~.~.^.~.^.~.~.~.~.~.~.~.~.~.~.~.~.~.~.~.~.~.~.^.^.^.^.^.^.^.^.^.^.^.^.^.^.^.^.^.^.^.^.^.^.^.^.^.^.^.^.^.^.^.~.~.~.~.~.~.~.~.~.~.~.~.~.~.~.~.~.~.~.~.~.~.~.~.~.~.~.~.~.~.~.~.~.~.~.~.~.~.~.~.~.^.^.~.~.~.~.~.~.~.~.^.~.^.~.^.~.^.^.^.^.^.~.^.~.~.~.~.~.~.~.~.~.~.~.^.^.^.^.^.^.^.^.^.^.^.~.~.~.~.~.~.^.^.^.^.^..X.X.X.XXXXX^.^.^.^.^.^.^.^.^.^.^.^.^.^.^.^.^.XXXX.XXX.X.X.X.X.X^.~.^.~.^.~.~.~.^.~.^.~.^.~.^.~.^.~.^.~.^.~.^.~.^.~.^.~.^.~.^.~.^.~.^.~.^.~.^.~.^.~.^.~.^.~.^.~.^.^.^.^.^.^.^.~.^.~.^.~.^.~.^.^.^.^.^.^.^.^.^.^.^.^.~.~.~..X.X.X",
".X.X~.~.W.W.Y.Y.I.U.I.U.Q.Q.Q.Q.~.~.~.~.~.~.~.~.~.~.~.~.~.~.~.~.x.x.x.x.x.x.x.x.^.^.^.^.^.^.x.^.^.^.^.~.~.~.^.x.^.^.^.~.x.x.x.Q.Q.Q.Q.Q.Q.Q.Q.Q.Q.Q.Q.Q.U.U.U.U.^.^.XX^.XX^.XX^.^.^.^.^.^.^.^.^.^.~.~.~.Q.).).).~.~.~.~.~.~.~.~.Q.Q.Q.Q.Q.Q.Q.Q.^.^.^.^.^.^.^.^.^.^.^.^.^.^.^.^.^.^.^.^.^.^.^.~.^.^.^.~.~.~.~.~.^.^.^.^.XX^.^.^.^.!.!.^.^.^.^.^.^.^.^.^.~.~.~.~.~.~.~.~.~.~.~.~.~.~./.~.~.~.~.~.~.Q.~.~.~.Q.~.Q.~.Q.~.Q.~.Q.~.Q.~.~.~.~.~.~.~.~.~.~.~.~.~.~.~.~.~.U.R.R.R.U.~.R.R.U.R.U.R.R.R.R.R.W.~.~.~.~.W.R.R.R.W.W.W.R.W.R..X.X'.'.'.'.'.'..X.X'.'.'.'.R.~.XX^.^.^.^.^.^.^.^.^.^.^.^.^.^.^.~.~.~.~.~.~.~.~.~.~.~.~.~.~.~.~.~.Q.~.Q.~.~.~.Q.~.Q.~.~.~.~.~.~.~.~.~.~.~.~.~.~..X.X.X.X.X.X.X.X/.W.~.~.~.~.~.~.~.~.~.~.~.~.~.~.~.~.~.~.~.~.~.~.~.~.~.~.~.R.~.R.~.Y.~.~.~.~.~.~.~.~.~.~.^.^.^.^.XXXXXXXX.X.X.X.X.X.X.X.X.X.X.X.X.X.X.X.XXXXX^.^.c.c.c.^.^.^.^.^.^.^..X.X.X.X.X.X.X.X.X.X.X.X.X.X.X.X.X.X.X.X.X.X.X.X.X.X.X.X.X.X.X.X.X.X.X.X.X.X.X.X.X.X.X'..X.X.X'..X.X.X.X.X.X.X.X.X.X.X.X.X.X.X.X.X.X.X'..X.X.X.X.X.X.X.X.X~..X~.~.~.~.~.~.~.~.~.~.~..X.X.X.X",
"'.'.'.'.[.].E.E.*XW.W.R.~.~.~.~..X[.[.[.[.[.[.[.'.'.'.'.'.'.'..XOXOXOXOX#X#X#XOX.X.X.X.X~..XR.R..XOXOXoXoXoXOXOX.XoX.X~..X~..XW.W.W.W.W.W.W.W.W.W.Y.Y.Y.Y.Y.R.~.^.^.^.^.^.^.^.^.^.^.^.^.^.^.^.^.~.~.~.~.~.~.~.~.~.~.~.~.~.~.~.~.~.~.~.~.~.~.~.~.~.~.~.~.~.~.~.~.~.~.~.~.~.~.~.~.R.~.~.~.~.~.~.R.~..X.X~.~.R.R.R.R.R.R.R.R.R.R.~.~.^.^.^.~.~..X.X~.~..X.X.X.X~.'.[.[.W.W.W.W.W.W.W.W.W.W.W.W.[.[.W.W.'.'.W.W.W.W.oX[.[.[.[.[.[.[.[.[.[.[.[.[.[.[.[.[.[.[.[.[.[.W.W.W.W.W.W.[.[.[.W.W.W.W.W.W.W.W.'.'.'.'.'.'.'.'.W.'..X~..X.X.X.X.X.X.X.X.X.X.X.X'.'.'.'.'.'.'.'.XXXXXXXXXXXXXXXX.X.X.X.X.X.X.X.X~.W.W.W.W.W.W.'.W.W.W.W.W.W.W.W.W.W.W.'.'.'.W.W.W.W.W.W.'.'.'.'..X'.'.'.'.'.'.'.'.'.'.'.'.'.'.'.[.E.[.[.'.'..X.X~.~.~./.~./.~.~.W.[.'.W.'.[.'.[.'.W.'.W.'.T.'.T.W.E.[.[.W.W.W.W.W.W.'.'..X.X.X.X.X.X.X.X.X.X.X'.'.'.'..X.X.X.X.X.X.X.X.X.X.X.X.X.XXXXX.XXX.X.X.X.X.X.X.X.X.X.X.X.X.X.X.X.X.X.X.X.X.X.X.X.X.X.X.X.X.X.X.X.X.X.X'.[.[.[.[.[.[.[.[.[.[.[.[.[.[.[.[.[.[.[.[.[.[.[.[.[.[.[.[.#X[.[.[.}.'.}.}.}.}.}.}.'.'.'.'.'.'.'.}.[.[.[.[.W.[.[.[.'.'..X'..X'..X'.",
"r.r.r.r.r.r.0.0.0.0.0.0.0.0.r.r.r.r.r.r.r.r.r.r.r.r.r.r.r.r.r.r.q.q.q.q.q.q.q.q.t.t.t.t.t.t.t.t.t.t.t.t.t.t.t.t.t.t.t.t.t.t.t.t.A.A.A.T.T.T.T.T.`.E.E.[.oX#X#X.X~.~.~.~.^.XXXXXXXXv..XOX.X~.XX.X[.[.[.'..XOX#X.XXXXX.X.X.X[.#X#X[.}.}.}.}.}.}.}. X X X X X X X X}.}.}.}.}.}.}.}.}.}.}.}.}.}.}.}.].].].].}.}.}.}.].].].].}.}.}.}.}.}.}.}.}.}.}.}.].}.}. X}. X X X].].].].].]. X X].].].].].].].].}.}.}. X X}.}.}.}.}.}.}.}.}.}. X X}.}.}.}.}.}.}.}.}.}.}.}. X}. X[.[.[. X}. X X X}.}.}. X}.}.].].}.}.[.[.[.[.E.E.T.[.W.R.~.~.~.OX^.^.~.U.R.~.oX'.'.'.].}.].].|.}.#X#X#X#X#X#X#X#X#X[.#X[.#X[.#X}.}.}. X X X}.}.}.}. X X X X X X X].].}.}.}.}.].].}.].].].].].}.}.}.}.}.}.}.}.}.|.}.}.}.}. X}.}.}. X].]. X X X].].].].}.].}.].[.].].].|.].|.].|.].|.].|.].|.].|.]. X X X X].].].].].}.}.}.}.}.}.].}.}.}.}.}.}. X X|.|.|.|.|.|.|.|. X X[.[.[.[.}.}.[.'.'.'..X'.[.[.'..X[.'.[.oX/.~.~.^.^.XXXX~.~.W.[.}.[.}.}.|.{.`.G.G.G.`.E.E.A.A.A.A.A.A.A.A.A.A.t.Z.t.Z.t.Z.t.A.t.t.t.t.t.t.t.t.r.r.t.r.r.r.t.r.r.r.r.r.r.r.r.r.r.r.r.r.r.r.r.r.r.7.7.7.0.r.r.r.0.0.0.0.0.r.r.r.",
"<.<.<.<.<.<.<.<.<.<.<.<.<.<.1.1.<.<.Y Y <.<.<.<.1.1.<.<.<.<.1.1.1.1.1.1.1.1.1.1.1.1.1.1.1.1.1.1.1.1.1.1.1.1.1.1.1.1.1.1.1.1.1.1.1.2.1.1.1.1.1.1.3.1.1.8.q.h.'..X~.~.~.~..XXXXXXX@Xx..XXX.X'.T.} 9.0.9.9.q.T.'.[.k.k.e.e.q.e.q.q.r.r.r.r.r.r.r.r.3.3.0.0.0.0.0.0.3.3.3.3.3.3.3.3.3.3.3.3.3.3.3.3.3.3.3.3.0.0.0.0.3.3.3.3.0.0.0.3.3.3.3.3.3.3.3.3.3.3.0.0.0.0.3.0.0.0.0.0.0.0.r.r.3.3.3.3.3.3.3.3.1.1.3.3.3.3.3.3.3.3.3.3.3.3.3.1.3.3.1.1.3.3.3.3.3.3.3.3.3.3.1.1.{ { { 8.8.8.8.8.8.8.r.0.0.0.3.0.8.8.8.r.e.r.q.q.A.E.W.W.OX~.j.^.^.^.~.Q.~.oX[.T.[.}.].].`.G.G.G.t.t.t.t.t.t.t.t.q.q.q.q.q.q.q.q.r.0.r.r.r.r.r.r.8.0.3.3.3.3.0.3.3.3.0.0.0.0.3.3.0.0.3.3.3.3.0.0.0.0.0.0.0.0.0.0.0.0.0.0.0.0.0.3.0.0.0.0.0.0.3.0.3.3.3.3.3.3.3.3.3.0.0.0.0.0.0.0.3.0.0.0.0.0.0.8.3.3.3.3.3.3.3.3.3.3.3.3.3.3.3.3.r.r.r.r.r.r.r.r.r.r.r.r.r.r.r.r.r.q.r.q.r.r.q.q.`.`.`.{.`.`.`.{.h.h.h.T.T.[.W.~.^.^.^.!.^.^.~.W.[.A.t.0.8.0.5.2.1.1.1.1.) ) ) ) 1.1.1.1.1.` 1.1.) ) ) ) ) ) ) 1.1.1.1.1.1.1.1.1.1.1.1.1.1.1.1.1.<.<.<.<.<.<.<.<.=.=.<.<.<.<.( <.<.<.<.<.<.<.<.<.<.<.<.<.<.<.<.<.",
"Y Y Y Y Y Y Y Y Y Y Y Y Y Y Y Y Y Y Y Y Y Y Y Y Y Y Y Y Y Y Y Y <.<.<.<.<.=.( 1.Y Y Y Y Y Y Y Y Y Y Y Y Y Y Y Y Y Y Y Y Y Y Y Y j j Y Y T T T T ( Y s K T 9.T.[.oX/.~.^.^..X.XXX@X.X.X.X'.'.h.L L P P P T 9.`.}.T T R R T T T T P Y Y Y Y Y Y Y Y Y Y Y Y Y Y Y T T T T Y Y T T P P Y T T T T T T T T T T T T T T T T T T T T T T Y Y Y Y Y Y Y ( ( ( ( ( ( ( ( T T T T T T T T Y Y Y Y Y Y Y U U U U U Y U U U U U U U U U U Y U Y U U Y Y Y U U U U U U U U Y P P P Y P T T T T Y Y Y ( ( ( ) U P P P P ( ( ) | C.E.T.oXoXR.~.^.^.^.~.~.oXW.I.| { ) T T Y U U ) ) ) ) ) ) ) ) T T T T T T T T P Y Y Y Y Y Y Y T T T T T T T T Y T T T T T T T T T T T T T T T T T T T T T T T T T T ( ( ( T ( ( ( ( ( ( ( ( ( ( ( Y Y Y Y Y Y T T T T T T T T T T T T T T T T Y T Y Y T T T T Y T T T Y T Y Y U U Y Y Y Y Y Y T T Y Y T Y T P ( ( T P T T T T P P R T T T T T 8.8.8.9.t.T.E./.~.^.^.^.^.XX~.W.`.t.) P T ( 1.=.Y Y Y Y Y P P P ( ( ( ( ( ( ( ( Y Y Y Y Y Y Y Y Y Y Y Y Y Y Y Y ( <.( ( =.=.=.1.Y Y Y Y Y Y Y Y Y Y Y Y Y Y Y s ( j j j j j j j j j j j j j j j ",
"1.1.1.1.1.1.1.1.1.1.1.1.1.1.1.1.1.1.1.1.1.1.1.1.1.1.1.1.1.1.1.1.4.4.4.4.4.<.<.<.1.1.1.1.1.1.1.1.<.1.1.1.1.1.1.1.1.1.1.1.1.1.1.<.<.N <.<.1.1.1.1.1.<.( s Y ) 0.A.E.~.~.~.~.~..XXXXX.XXX.Xj.'.T.I ( ^ Y Y P 1.A.&XT T P T T Y Y Y Y Y T Y T Y T Y =.( 1.( =.( =.( 1.1.1.1.1.1.1.( 1.1.1.1.1.1.1.1.=.( =.( =.( =.( =.( =.( =.( =.T 1.1.1.1.1.1.1.1.<.( 1.( <.( <.( 1.( 1.( 1.1.1.1.1.( 1.( 1.( 1.( 1.( 1.( 1.( 1.( 1.( 1.1.1.( 1.( 1.( 1.( 1.( 1.( 1.( 1.1.1.( 1.( ^ ^ ( ( ( <.1.<.<.<.<.( ( ( ( ( ( ( ( ^ ^ ^ ( ^ ^ ` 0.t.[.oXW..X^.^.~.~.~.W.h.9.T T P T P T T Y Y ( Y ( Y ( Y ( ( ( ( ( ( ( ( ( Y ( T Y T Y T Y 1.1.1.1.1.1.1.1.=.( =.( =.( =.( =.T T T =.( =.( 1.( =.( T ( T ( 1.( 1.( 1.( 1.( ( ( ( ( ( ( ( ( ( ( ( ( ( ( ( ( ( ( =.( =.( =.T =.( =.( =.( =.( 1.1.1.1.1.1.1.1.1.1.1.1.1.1.1.1.T Y T Y T ( T ( Y Y Y Y Y Y U Y T ( T T T T T T T T T T T T T T T Y T ) 8.0.T.W.~.^.^.c.^.@X.X'.t.0.P Y T 1.<.1.<.<.1.1.1.( ( ( ( ( 1.( 1.( 1.( ( ( 1.( 1.( 1.1.1.1.1.1.1.1.1.1.1.1.1.1.<.<.4.4.1.1.1.1.1.1.1.1.1.1.1.1.1.1.1.1.<.<.<.<.<.<.<.<.<.<.<.<.<.<.<.<.",
"<.<.<.<.<.<.<.<.<.<.<.<.<.<.<.<.<.<.<.<.<.<.<.<.<.<.<.<.<.<.<.<.1.1.1.1.<.<.<.<.<.<.<.<.<.<.<.<.<.<.<.<.<.<.<.<.<.<.<.<.<.<.<.<.M M M M 4.<.<.<.( <.<.j j s j ) T.T.'..X.X.X^..X.X.X#Xj.9.h.h.) ) ( ( ( ( ( Z.%X1.1.1.<.<.<.<.<.1.1.<.1.<.1.<.1.=.<.=.<.=.<.=.<.<.1.<.1.<.1.<.1.<.1.<.1.<.1.<.1.=.<.=.<.=.=.=.=.=.<.=.<.=.=.=.=.4.1.<.<.1.1.<.<.<.<.<.<.<.<.<.<.1.1.1.1.=.1.<.1.<.1.<.1.<.1.<.1.<.1.<.1.1.1.<.1.<.1.<.1.<.1.<.1.<.1.<.1.1.1.1.1.<.1.<.1.<.1.<.<.<.N N N N N N N B N M N j j j j 1.1.1.<.( j ( ( u ^ ( { `.[.'..X~.^.~.~.R.h.| T ) ) ) 1.<.1.2.5.<.<.<.<.<.<.<.<.<.<.<.<.4.<.4.4.1.1.<.1.<.1.<.1.1.1.<.1.<.1.<.1.=.=.=.Y =.<.=.<.=.=.=.Y =.<.=.=.<.<.=.Y =.<.=.<.=.1.1.1.1.<.1.1.<.( <.( <.( <.( <.( ( ( ( ( <.<.<.<.=.<.=.Y =.=.=.<.=.<.=.<.=.<.1.1.<.1.<.1.<.1.<.1.<.1.<.1.<.1.<.1.<.1.<.1.<.1.1.1.=.<.=.1.1.1.1.1.1.1.1.1.1.1.4.2.2.2.2.2.2.2.-.T Y ( ) ) 0.I..X^.XXc.XXOX.XT.8.) Y Y 1.1.<.<.<.<.<.1.1.1.1.1.( ( <.( <.( <.( <.( <.( <.( <.<.<.<.<.<.<.<.<.<.1.<.<.1.<.<.<.<.<.<.<.<.<.<.<.<.1.1.1.1.<.<.<.<.<.<.<.<.<.<.<.<.<.<.<.<.<.<.<.<.",
"<.<.<.<.<.<.<.<.1.<.1.<.<.<.<.<.<.<.<.<.<.<.<.<.<.<.<.<.<.<.<.<.<.<.<.<.M M <.<.<.<.<.<.<.<.<.<.<.<.<.<.M M M M <.<.<.<.<.<.<.M M M M M M M N N j ( <.2.<.j j j 0.f.T.oX.X~..X.X.X.X#Xh.E { 9.) j j j 2.j s 5.K.<.<.<.<.M M M 4.<.<.<.<.<.<.=.<.=.<.=.<.=.<.=.<.=.<.<.<.<.<.<.<.<.<.<.<.<.<.=.<.<.<.<.<.<.<.<.<.<.<.<.<.<.<.<.<.M <.B M <.<.<.<.<.<.<.<.<.<.<.<.<.<.<.<.<.<.<.<.<.<.=.<.<.<.<.<.<.<.<.<.<.1.<.<.<.<.<.<.<.<.<.<.<.<.<.<.<.<.<.<.<.<.<.<.<.<.<.<.N k M M M m m m m m m N M j j j ^ ( j j j j j k ( ( Y ) T.'.R.'..X.X.X.XI.9.T P T Y Y =.=.=.=.=.4.<.4.<.4.<.4.<.N N M N M N M 4.<.<.<.<.<.<.<.<.<.<.<.<.<.<.<.<.<.<.<.<.<.<.<.<.<.<.<.1.<.<.<.<.<.<.<.<.<.<.<.<.<.<.<.<.<.4.<.<.<.<.<.<.<.<.<.<.<.<.<.<.<.<.<.<.<.<.<.<.<.<.<.1.<.<.<.<.<.<.<.<.<.<.=.<.<.<.=.<.<.<.<.<.<.<.=.<.<.<.<.<.<.<.<.<.<.<.<.<.<.<.<.1.<.<.1.1.1.<.<.<.M j M M j M j <.5.<.=.1.( P / q..X.XXXx.XX$X.Xq.) ( ( 1.<.<.<.<.<.<.<.<.<.j j j ( ( <.( <.<.<.( <.<.<.<.<.( <.<.<.<.<.<.M M M M <.<.M M <.<.<.<.<.<.<.<.<.<.<.<.<.<.<.<.<.<.<.<.<.<.<.<.<.<.<.<.<.<.<.<.<.<.<.<.",
"<.<.1.<.<.<.<.<.4.4.4.4.4.4.4.4.<.<.1.<.<.<.<.<.<.<.<.<.<.<.<.<.<.<.4.4.<.<.4.4.<.<.<.<.4.4.4.4.<.<.<.<.<.<.M M <.<.<.<.<.<.<.<.4.4.B M M M N <.<.<.<.<.<.N M j ) 9.T.[.oX.X.X.X.X.X.XT.T L ) ( j j 2.N.<.u <.F.4.N N B B B B B B M =.M =.M =.c <.<.<.<.<.<.<.<.<.<.<.<.<.<.<.<.<.<.<.<.4.<.<.<.4.<.4.<.4.<.4.<.4.<.4.<.4.<.4.<.<.B B B <.<.<.<.4.4.4.4.4.4.4.4.4.4.4.4.4.<.4.4.4.<.4.<.4.<.4.<.4.<.4.<.4.<.4.<.4.<.4.<.4.<.4.<.4.<.4.<.4.<.4.<.4.<.4.<.4.<.4.<.M M M M M M M m e a m N N <.j j ( ( ( ( j j j j <.<.Y ) `.}.'.'..X.X.X'.h.) P P 2.4.4.4.4.4.4.<.4.M M N M M M M M M M M B M B <.M M =.M =.M =.M 4.<.4.<.4.<.4.<.4.<.<.<.4.<.4.<.4.<.4.<.4.<.4.<.4.<.4.<.4.<.4.<.4.4.4.<.4.<.4.<.4.4.4.4.4.4.4.4.4.4.4.4.4.<.4.<.<.<.4.<.4.<.<.<.4.<.4.<.4.<.4.<.<.<.<.<.4.<.<.<.4.<.<.<.<.<.<.<.=.M =.M =.c =.B <.B <.B <.<.<.=.<.=.<.<.<.<.<.<.4.4.4.4.4.4.4.4.6.M M 4.( u ) q.'.XXXXm.XX@Xj.8.T 1.4.4.<.<.6.5.<.<.<.<.<.N N N 4.<.4.4.4.<.4.4.<.<.<.<.<.<.<.<.<.<.<.<.<.M M M 4.<.<.4.4.4.4.<.4.4.4.4.4.4.4.4.<.<.<.<.<.<.<.<.4.4.4.4.4.4.4.4.4.4.4.4.4.4.4.4.",
"<.<.<.<.<.<.<.<.<.<.<.<.<.<.<.<.<.<.<.<.<.<.<.<.<.<.<.<.<.<.<.<.M M <.<.<.<.<.<.<.<.<.<.<.<.4.4.M M M M M M M M M M M M M M M <.=.=.<.B B M M <.2.1.s s s N M N P | T.[.oX.X.X.X#XR.'.T.8.P ` 1.( 2.N.F.2.u j 7.4.4.M B B B B 4.4.4.4.4.4.4.4.4.4.4.<.4.4.4.4.4.<.<.<.4.<.<.<.<.<.<.<.<.4.<.<.<.<.B B B =.<.<.B <.B B B B B B B B B B B <.<.<.<.B B B B B B B B <.<.<.<.<.<.B B 4.4.4.4.4.4.4.4.4.<.<.<.<.<.<.<.<.<.<.<.<.<.<.4.4.<.<.<.<.<.<.<.<.<.<.<.<.<.4.4.M M M M M M M M 7 q a M 4.<.j ( 0.0.3.5.2.<.<.( j ( U 1.}.#X.XXX.X.X#X[.h.) P ( ( j c c v =.<.<.<.4.4.4.4.<.<.<.<.<.<.<.<.<.<.<.4.4.4.4.4.4.4.4.4.4.4.4.4.4.4.4.=.=.B B B B B B B B B B B B v v B B B B v v v B <.<.<.<.B <.B B B B M M M M B B M M M M M M M M B B B B =.B B B B B B B B B B v <.<.<.<.<.<.<.<.<.4.<.<.<.<.<.<.4.4.4.4.4.4.4.4.4.4.4.4.4.4.4.4.4.4.4.4.<.4.4.M B B N N M M M M <.c m 4.<.s ) t.'..XXX.X.X@Xj.Q s s <.<.=.<.5.7.<.<.<.<.N N N N M <.<.<.B <.B <.M M M M M M B B M M M M M M M M <.<.<.<.<.<.<.<.<.<.<.<.<.<.<.<.<.<.<.<.<.<.<.<.<.<.<.<.<.<.<.<.<.<.<.<.<.<.<.<.",
"<.<.<.<.<.<.<.<.<.<.<.<.<.<.<.<.<.<.<.<.<.<.<.<.<.<.<.<.<.<.<.<.B M M M M M M M M M M M M M M M M M M M M M M M M M M M B M M <.5.=.=.c 4.4.<.( P 1.r.3.s s 6.M ( I '.[.R.OX~.~.~.~.[.T.) ( 1.( ( Y 1.:Xt ( s <.<.<.4.4.4.4.4.4.4.4.4.4.4.4.B B 4.4.4.4.4.4.4.4.4.4.4.4.4.4.4.4.4.4.4.4.4.4.B B 4.4.4.4.4.4.4.4.4.4.4.4.4.4.B B 4.B B B B B B B B B B B B B B B 4.4.4.4.4.4.B B 4.4.4.4.4.4.B B 4.4.4.4.4.4.4.4.4.4.4.4.4.4.4.4.4.4.4.4.4.4.4.4.4.4.4.4.4.4.4.4.4.v 4.4.M B B q % q v 6.4.Y 1.A.}. X X].r.( s 1.s 2.G.`.'.+X@X.X.X.X'.[.T.) Y ( 4.j M 4.B 4.5.<.<.<.<.<.<.<.<.<.<.<.4.4.<.<.<.<.4.4.4.B 4.4.4.4.4.4.4.4.4.4.4.4.4.4.4.4.4.4.4.4.4.4.4.4.4.4.4.4.4.4.4.4.4.4.B B 4.4.B B B 4.4.4.<.B B B B B B B B B B B B B B B <.4.4.4.4.4.4.4.4.4.4.4.B B 4.4.4.4.4.4.4.4.B B 4.4.4.B B 4.4.4.4.4.4.4.4.4.B B 4.4.4.4.4.4.B 4.4.;.4.4.B B M M m M 2.N M <.<.c 4.B M N 2.( P t.[..X+XXX.X+X'.-.<.M <.<.4.s F.7.<.<.<.4.M M M M B B B B B B B B B B B B B B B M M M M M M M M M M M M M M M M <.<.<.<.<.<.<.<.<.<.<.<.<.<.<.<.<.<.<.<.<.<.<.<.<.<.<.<.<.<.<.<.<.",
"<.<.<.<.<.<.<.<.<.<.<.<.<.<.<.<.<.<.<.<.<.<.<.<.<.<.<.<.<.<.<.<.B M M M M M M M M M M M M M M M M M M M M M M M M M M M B B M <.:.-.=.=.<.<.( T t.`.}.b.1.<.6.M ( T '.[.R.OX~.~.~.~.[.T.) ( 1.<.( P 8.:Xt ( Y <.<.<.4.4.;.;.4.4.4.4.B 4.4.4.4.B 4.4.4.4.4.4.4.4.4.4.4.4.B B B B 4.4.B 4.4.4.4.B 4.4.4.4.4.4.4.4.4.4.4.4.4.4.B B 4.B B B B B B B B B B B B B B B 4.4.4.4.4.4.B B 4.4.B 4.4.4.4.B 4.4.4.4.B B 4.4.4.4.4.4.B B 4.4.4.4.4.4.4.4.4.4.4.4.B B 4.4.4.4.4.=.4.4.B B B i % 7 c 5.1.P 1.`.'.'.[.}.G.1.1.1.7.p.G.t.h..X.Xx..X.X.X[.T.) Y ( <.j N M v 4.5.<.<.<.<.<.=.<.=.<.=.<.4.4.=.<.<.<.4.4.4.4.B B 4.4.4.4.4.4.B B 4.4.4.4.4.4.B B 4.4.4.4.4.4.B B 4.4.4.4.4.4.4.4.4.B 4.4.4.4.4.4.4.4.<.B B B B B B B B B B B B B B B 4.4.4.4.4.4.4.4.4.4.4.4.B 4.4.4.4.4.B 4.4.4.4.B 4.4.4.4.4.4.4.4.4.4.4.4.4.4.B B 4.4.4.4.4.4.4.4.;.;.4.4.B B B M m M M M M 4.5.4.4.B M N 2.( P A.[..X+X.X.X+X'.-.1.m <.<.4.s J.r.Y <.<.4.M M M M M B B B B B B B B B B B B B B B M M M M M M M M M M M M M M M <.<.<.<.<.<.<.<.<.<.<.<.<.<.<.<.<.<.<.<.<.<.<.<.<.<.<.<.<.<.<.<.<.",
"<.<.<.<.<.<.<.<.<.<.<.<.<.<.<.<.<.<.<.<.<.<.<.<.<.<.<.<.<.<.<.<.<.<.B B <.<.<.<.<.<.<.<.<.<.<.<.<.<.<.<.<.<.<.<.<.<.<.<.<.<.<.4.:.:.=.<.<.( ( T }.'.#X'.1.1.4.M T T '.[.R.OX^.~.~.~.[.T.) ( 2.( 1.R r.>XT 1.T =.=.<.4.4.;.;.;.4.4.4.<.<.<.<.<.<.<.<.<.<.<.<.4.<.<.<.<.<.4.<.<.<.4.4.<.<.<.<.<.<.<.<.<.<.<.<.<.<.<.<.<.<.4.<.<.B B 4.<.<.<.<.<.<.<.<.<.<.<.<.<.<.<.<.<.<.4.<.<.<.4.4.<.<.<.<.B <.<.<.<.<.B <.<.<.<.<.<.<.B <.<.<.<.<.<.<.<.<.<.<.<.<.<.<.<.<.<.<.4.=.4.4.B 4.B i % r s <.1.T 8.'.~.~.'.'.{.q.3.1.5.w.8.T 9.n.XXx..X.X.X[.T.` Y ( N j N 4.v <.6.=.<.<.<.<.<.<.<.<.<.<.<.<.=.<.=.<.<.<.<.<.B <.<.<.<.<.<.<.B <.<.<.<.<.<.<.B <.<.<.<.<.<.<.B <.<.<.4.4.<.<.<.<.<.<.<.<.<.<.<.<.4.<.<.<.<.<.<.<.<.<.B <.<.<.<.<.<.<.<.<.<.<.<.<.<.<.<.<.<.<.4.<.<.<.4.4.<.<.<.<.<.<.<.<.<.<.<.<.4.<.<.<.<.<.4.<.<.<.<.<.<.<.<.4.<.4.;.;.4.4.4.B B M m N M j <.3.r.r.4.B 4.M <.( P t.}..XXXXX.X+X'.-.<.M <.M 4.s H.r.Y ( ( <.M M M M M <.B <.<.<.<.<.<.<.<.<.<.<.<.<.<.<.<.<.<.<.<.<.<.<.<.<.<.<.<.<.<.<.<.<.<.<.<.<.<.<.<.<.<.<.<.<.<.<.<.<.<.<.<.<.<.<.<.<.<.<.<.<.",
"<.<.<.<.<.<.<.<.<.<.<.<.<.<.<.<.<.<.<.<.<.<.<.<.<.<.<.<.<.<.<.<.<.<.<.B <.<.<.<.<.<.<.<.<.<.<.<.<.<.<.<.<.<.<.<.<.<.<.<.<.<.<.4.:.:.<.<.<.( ( I '.'.+Xn.>.Y M M T T }.[.R..X^.^.^.~.[.T.P ( 2.<.) R t.>X1.) T 1.1.<.<.;.;.;.;.;.4.4.<.4.<.<.<.<.<.<.<.<.<.<.<.<.<.<.<.<.<.<.<.<.<.<.<.4.4.<.<.<.<.<.<.<.<.<.<.<.<.<.<.<.4.<.<.<.<.4.<.4.<.<.<.<.<.<.<.<.<.<.<.<.<.<.<.<.<.<.<.<.4.4.<.<.<.<.B <.<.<.<.<.B <.<.<.<.<.<.<.B B <.<.<.<.<.<.B B <.<.<.<.<.<.<.B <.<.4.=.4.4.v 4.B q % % s 1.) T e.'.~.^.~..X[.`.8.=.=.Y U K 9.'.$X@X.X.X.X[.T.` Y ( j j N 4.c =.4.=.<.<.<.<.<.<.<.<.<.<.<.<.=.<.=.<.<.<.<.<.B B <.<.<.<.<.<.B B B <.<.<.<.<.B <.<.<.<.<.<.<.B B <.<.<.4.<.4.<.<.<.<.<.<.<.<.<.<.<.<.<.<.<.<.<.<.<.<.<.<.<.<.<.<.<.<.<.<.<.<.<.<.<.<.<.<.<.<.<.<.<.<.<.4.<.4.<.<.<.<.<.<.<.<.<.<.<.<.<.<.<.<.<.<.<.<.<.<.<.<.4.4.<.<.;.;.4.4.4.B M M N N j Y 1.r.`.`.1.=.4.<.1.) K t.[..XXXXX.X+X'.T ( M 4.( 1.Y ].V.P ( ( <.N M N M M <.<.<.<.<.<.<.<.<.<.<.<.<.<.<.<.<.<.<.<.<.<.<.<.<.<.<.<.<.<.<.<.<.<.<.<.<.<.<.<.<.<.<.<.<.<.<.<.<.<.<.<.<.<.<.<.<.<.<.<.<.<.<.",
"<.<.4.B B B <.<.<.<.B B B B <.<.<.<.4.B B B <.<.<.<.B B B B <.<.<.<.4.4.4.4.<.<.4.4.<.<.<.<.4.4.<.<.4.4.4.4.<.<.4.4.<.<.<.<.4.4.:.:.4.M j j ( ) '..XXX'.8.<.V M 1.T }.}.~..X^.^.^.~.'.t.T Y 4.<.) L T.>Xt.) ( <.1.<.=.<.;.;.;.;.<.<.<.<.<.<.<.<.<.<.<.<.<.<.<.<.<.<.<.<.<.<.<.<.<.<.<.<.<.<.<.<.<.<.<.<.<.<.<.<.<.<.<.<.<.<.<.<.<.<.<.<.<.<.<.<.<.<.<.<.<.<.<.<.<.<.<.<.<.<.<.<.<.<.<.<.<.<.<.<.<.<.<.<.<.<.<.<.<.<.<.<.<.<.<.<.<.<.<.<.<.<.<.<.<.<.<.<.<.<.<.<.4.=.4.4.B B B q % 7 s 1.) T e.#X^.^.^..X[.`.r.Y 5.3.) T 9.'.#X~..X~..X#XT.) Y ( j j 4.6.c =.<.=.<.<.1.1.1.<.<.<.<.<.1.1.1.<.<.<.<.<.<.<.<.<.<.<.<.<.<.<.<.<.<.<.<.<.<.<.<.<.<.<.<.<.<.<.<.<.<.<.<.<.<.<.<.<.<.<.<.<.<.<.<.<.<.<.<.<.<.<.<.<.<.<.<.<.<.<.<.<.<.<.<.<.<.<.<.<.<.<.<.<.<.<.<.<.<.<.<.<.<.<.<.<.<.<.<.<.<.<.<.<.<.<.<.<.<.<.<.<.<.<.<.<.<.<.<.<.<.<.4.4.4.4.4.B B M M <.Y T 1.G.}. X1.=.4.<.1.( K t.[..XXX.X'.#XR.T s M <.s 1.( |.A.P ( ( ) <.N N N <.<.<.<.<.<.<.<.<.<.<.<.<.<.<.<.<.<.4.4.4.4.<.<.4.4.<.<.<.<.4.4.<.<.4.4.B B <.<.<.<.B B B B <.<.<.<.4.4.4.4.<.<.<.<.4.4.4.<.<.4.",
"<.<.4.4.B B <.<.<.<.B 4.B B <.<.<.<.4.4.B B <.<.<.<.B 4.B B <.<.<.<.4.<.4.4.<.<.4.4.<.<.<.<.4.4.<.<.4.4.4.4.<.<.4.4.<.<.<.<.4.4.;.4.<.N k k ( ) oX.X@X.X8.Y M M 1.T }.+XR.XX^.^.^.~.'.t.P s 4.<.) S T.lXA.P ( ( 1.<.<.<.;.;.;.;.<.<.<.<.<.<.<.<.<.<.<.<.<.<.<.<.<.<.<.<.<.<.<.<.<.<.<.<.<.<.<.<.<.<.<.<.<.<.<.<.<.<.<.<.<.<.<.<.<.<.<.<.<.<.<.<.<.<.<.<.<.<.<.<.<.<.<.<.<.<.<.<.<.<.<.<.<.<.<.<.<.<.<.<.<.<.<.<.<.<.<.<.<.<.<.<.<.<.<.<.<.<.<.<.<.<.<.<.<.<.<.<.4.v 4.4.M B B q X 7 s 1.) ) t.[.^.!.^.~.[.`.0.s 2.1.( P r.'.oXR..X~..X#XT.) ^ ( j k 2.6.<.=.5.=.<.<.<.<.<.<.<.<.<.<.<.<.<.<.<.<.<.<.<.<.<.<.<.<.<.<.<.<.<.<.<.<.<.<.<.<.<.<.<.<.<.<.<.<.<.<.<.<.<.<.<.<.<.<.<.<.<.<.<.<.<.<.<.<.<.<.<.<.<.<.<.<.<.<.<.<.<.<.<.<.<.<.<.<.<.<.<.<.<.<.<.<.<.<.<.<.<.<.<.<.<.<.<.<.<.<.<.<.<.<.<.<.<.<.<.<.<.<.<.<.<.<.<.<.<.<.<.<.4.4.4.4.<.M M N <.( Y T 8.'.#X X1.=.2.( ) ( K t.#X.XXX.X'.#XR.T s j 1.s ) ) *XA.T ( ( ) ( N N N <.<.<.<.<.<.<.<.<.<.<.<.<.<.<.<.<.<.4.4.4.4.<.<.4.4.<.<.<.<.4.4.<.<.4.<.4.B <.<.<.<.B 4.B B <.<.<.<.4.<.4.4.<.<.<.<.4.4.<.<.<.<.",
"<.<.<.4.B 4.<.<.4.4.4.4.B <.<.<.<.<.<.4.B 4.<.<.4.4.4.4.B <.<.<.<.<.<.<.4.4.4.<.4.<.<.<.<.4.4.4.<.<.<.4.4.4.<.<.4.<.<.<.<.4.4.4.=.<.M C l l _ ` [.R..X.X8.s h m 1.T }..X~.XX^.^.^.~.'.t.T s 4.<.) A T.>X`.P ( j <.<.<.<.4.4.;.;.<.1.1.1.1.1.<.<.1.1.1.1.<.<.<.<.1.1.<.<.<.<.1.1.<.1.<.1.1.1.<.1.1.1.1.1.<.<.<.<.1.1.1.1.1.1.1.<.<.<.<.<.<.<.<.<.<.<.<.<.<.<.<.<.1.1.<.<.<.<.1.1.1.1.<.1.1.1.1.1.1.<.<.<.<.1.1.1.<.<.<.<.1.1.1.1.1.<.<.<.1.1.1.1.1.<.<.<.1.1.1.<.<.M B B M B C q X 7 a <.) ) 0.W.Q.!.^.~.T.E.0.s s s s P 0.].[.~.~.^..XoXT./ P ( ( j 3.6.<.<.2.1.<.N N M M M M N M M M M N N N M <.<.<.<.1.1.1.1.<.<.<.<.1.1.1.1.1.<.<.<.<.1.1.1.<.<.<.<.1.1.1.1.1.1.<.1.1.1.<.<.<.<.1.1.1.<.<.<.<.<.<.<.<.<.<.<.<.<.<.<.<.<.<.<.1.1.1.1.<.<.<.<.1.1.<.1.<.<.1.1.1.1.<.1.1.1.<.<.1.1.1.1.<.<.<.<.1.1.<.<.1.1.1.1.<.<.1.1.1.1.1.<.;.4.4.4.B <.<.<.<.( T 1.t.'.+X}.8.=.1.( ) ( K t.#X~..X.X'.#XT./ s M 1.s ) ` &XE.I ^ ( ( ( N N M <.<.<.<.<.<.<.<.<.<.<.<.<.<.<.<.<.<.<.<.4.4.<.<.4.<.<.<.<.4.4.4.<.<.<.<.4.B B <.<.4.4.4.B <.<.<.<.<.<.<.4.4.4.<.<.4.4.4.<.<.<.<.",
"<.<.<.<.4.4.<.<.4.4.<.4.B <.<.<.<.<.<.<.4.4.<.<.4.4.<.4.B <.<.<.<.<.<.<.4.4.<.<.4.4.<.<.4.4.4.4.<.<.<.<.4.4.<.<.4.4.<.<.4.4.4.4.<.4.M h l l _ 0.oX~.XX.Xr.( M V -.T }..X~.XX^.^.^.~.'.t.P s 4.<.` A '.lX].P ( j <.<.<.<.4.4.4.4.<.<.1.<.1.<.1.<.<.<.1.<.1.<.<.<.1.<.1.<.<.<.1.<.1.<.1.<.1.<.1.<.<.<.<.<.<.<.<.<.<.<.<.<.<.<.<.<.<.<.<.<.<.<.<.<.<.<.<.<.<.<.<.<.<.<.1.<.<.<.1.<.1.<.1.<.1.<.1.<.1.<.<.<.1.1.1.<.<.<.<.<.1.1.1.<.<.<.<.<.1.1.<.<.<.<.<.<.1.1.<.<.4.M B B M B B q > 6 a <.) ) 0.[.Q.!.~.R.T.E.r.( ( <.( ^ 0.E.oXoX~.^.~..XT./ ^ ( j ( 3.7.1.1.2.<.<.N N N M M M M M M M M N N N <.<.<.<.<.1.1.1.<.1.<.<.<.1.1.1.<.1.<.<.<.1.1.1.<.<.<.<.<.1.1.1.<.1.<.1.<.1.<.1.<.<.<.1.<.1.<.<.<.<.<.<.<.<.<.<.<.<.<.<.<.<.<.<.<.<.<.1.<.1.<.<.<.1.<.1.<.<.<.<.<.1.<.1.<.1.<.1.<.<.<.1.<.1.<.<.<.<.<.<.<.<.<.<.<.<.<.<.<.<.<.<.<.<.<.4.<.<.<.<.<.j ( ( 1.f.'.XX'.8.=.1.( 1.( K t.oX~..X~.R.#XT./ s <.<.u ) ) -XE.P ^ ( ) 1.<.N N <.<.<.<.<.<.<.<.<.<.<.<.<.<.<.<.<.<.<.<.4.4.<.<.4.4.<.<.4.4.4.4.<.<.<.<.4.B 4.<.4.4.4.4.B B <.<.<.<.<.<.4.4.4.<.4.4.4.4.<.<.<.<.",
"<.<.<.<.<.<.<.<.<.<.<.<.<.<.<.<.<.<.<.<.<.<.<.<.<.<.<.<.<.<.<.<.<.<.<.<.<.<.<.<.<.<.<.<.<.<.<.<.<.<.<.<.<.<.<.<.<.<.<.<.<.<.<.<.4.4.M M 2.j ( A.'..X+X'.8.<.M M ) T }..X~.XX^.XX~..X'.r.) 1.N j ( K .XzX;XI g N N <.;.;.4.<.4.<.<.<.<.<.<.<.<.<.<.<.<.<.<.<.<.<.<.<.<.<.<.<.<.<.<.<.<.<.<.<.<.<.<.<.4.<.4.<.<.<.<.<.<.<.4.<.<.<.<.<.<.<.<.<.<.<.<.<.<.<.<.<.<.<.<.<.<.<.<.<.<.<.<.<.<.<.<.<.<.<.<.<.<.<.<.<.<.<.<.<.<.<.<.<.<.<.<.<.<.<.<.<.<.<.<.<.<.<.<.<.<.B B B 4.v 4.4.c a X q M N ( ) A.#X~.^.~.~.#XT.8.( ( 1.^ ( A.[.~.~.).Q.^..Xh.) ^ j j ^ 0.|.P T M M M <.<.<.<.<.<.<.<.<.<.<.<.<.<.<.<.<.<.<.<.<.<.<.<.<.<.<.<.<.<.<.<.<.<.<.<.<.<.<.<.<.<.<.<.<.<.<.<.<.<.<.<.<.<.<.<.<.<.<.<.<.<.<.<.<.<.<.<.M <.<.M M M <.j j j j 4.<.( ( <.<.1.<.<.<.<.<.<.<.4.<.<.<.<.<.<.<.<.<.<.<.<.<.<.<.<.<.<.<.<.<.<.<.<.<.<.<.<.<.<.<.<.<.M M 4.4.4.<.<.<.<.( Y 1.`.'.~..Xe.Y ( 1.1.1.P t.[.R.~.~.~.#XT.T =.<.2.j I { >XE.^ j j <.1.=.M m <.<.<.<.<.<.<.<.<.<.<.<.<.<.<.<.<.<.<.<.<.<.<.<.<.<.<.<.<.<.<.<.<.<.<.<.4.4.4.4.<.<.4.4.<.<.<.<.<.<.<.<.<.<.<.<.<.<.<.<.<.<.<.<.",
"<.<.<.<.<.<.<.<.<.<.<.<.<.<.<.<.<.<.<.<.<.<.<.<.<.<.<.<.<.<.<.<.<.<.<.<.<.<.<.<.<.<.<.<.<.<.<.<.<.<.<.<.<.<.<.<.<.<.<.<.<.<.<.<.B 4.B 4.4.P ) h..X.X#X'.1.<.4.M T T }..X~.XX^.~.~..XT.r.) ( N j j K .XmXjXI g C N 4.;.;.4.<.<.<.<.<.<.<.<.<.<.<.<.<.<.<.<.<.<.<.<.<.<.<.<.<.<.<.<.<.<.<.<.<.<.<.<.<.4.4.B B B B <.<.B B 4.B <.<.<.<.<.<.<.<.<.<.<.<.<.<.<.<.<.<.<.<.<.<.<.<.<.<.<.<.<.<.<.<.<.<.<.<.<.<.<.<.<.<.<.<.<.<.<.<.<.<.B <.<.<.<.B B B B B <.<.<.<.B B B 4.4.=.4.4.v a X q M N ( 1.t.#X~.~.~.~.#XT.8.( ( 1.^ ( A.[.~.~.).Q.^.XXj.1.j j j j 0.}.R T M B M <.<.<.<.<.<.<.<.<.<.<.<.<.<.<.<.<.<.<.<.<.<.<.<.<.<.<.<.<.<.<.<.<.<.<.<.<.<.<.<.<.<.<.<.<.<.<.<.<.<.<.<.<.<.<.<.<.<.<.<.<.<.<.<.<.<.<.<.<.<.<.N N N N j j j N <.<.( <.<.<.<.<.<.<.<.<.<.<.4.4.<.<.<.<.<.<.<.<.<.<.<.<.<.<.<.<.<.<.<.B B B <.<.<.<.B B <.<.<.M M M <.<.4.4.<.<.4.( j ) `.'.~..Xe.Y ( 1.4.1.P t.[.U.~.~.~.#X`.T =.<.2.g I { lXE.^ j N <.-.=.M m <.<.<.<.<.<.<.<.<.<.<.<.<.<.<.<.<.<.<.<.<.<.<.<.<.<.<.<.<.<.<.<.<.<.<.<.4.4.4.<.<.4.4.4.<.<.<.<.<.<.<.<.<.<.<.<.<.<.<.<.<.<.<.<.",
"<.<.<.<.<.<.<.<.<.<.<.<.<.<.<.<.<.<.<.<.<.<.<.<.<.<.<.<.<.<.<.<.<.<.<.<.<.<.<.<.<.<.<.<.<.<.<.<.<.<.<.<.<.<.<.<.<.<.<.<.<.<.<.<.B B B 4.4.T ) T..X'.#X'.8.=.4.M T T }..X~.XX^.^.~..XT.9.( ( M k j K @XmXjXI g N N 4.;.;.4.<.<.<.<.<.<.<.<.<.<.<.<.<.<.<.<.<.<.<.<.<.<.<.<.<.<.<.<.<.<.<.<.<.<.<.<.4.4.4.<.<.B B <.<.<.<.4.4.<.<.<.<.<.<.<.<.<.<.<.<.<.<.4.4.<.<.<.<.<.<.<.<.<.<.<.<.<.<.<.<.<.<.<.<.<.<.<.<.<.<.<.<.<.<.<.<.<.<.B B <.<.<.<.<.<.B B <.<.<.<.<.B B 4.4.=.4.4.v a $ q M N ( 1.A.#X~.~.~.~.#XT.8.( ( 1.^ ( A.[.~.~.).Q.^.XXj.1.j j j j r. XT 1.B B M <.<.<.<.<.<.<.<.<.<.<.<.<.<.<.<.<.<.<.<.<.<.<.<.<.<.<.<.<.<.<.<.<.<.<.<.<.<.<.<.<.<.<.<.<.<.<.<.<.<.<.<.<.<.<.<.<.<.<.<.<.<.<.<.<.<.<.<.<.M M <.<.N N j j j j <.<.<.<.<.M <.<.<.<.<.<.<.<.<.4.<.<.<.<.<.<.<.<.<.<.<.<.<.<.<.<.<.<.<.<.B <.<.<.<.<.B <.<.<.<.M M M <.<.<.<.<.<.4.( j ) `.[.~..Xe.Y 1.<.4.1.T t.[.R.~.~.~.#X`.T =.<.2.g I } lX[.^ j N <.1.-.<.N <.<.<.<.<.<.<.<.<.<.<.<.<.<.<.<.<.<.<.<.<.<.<.<.<.<.<.<.<.<.<.<.<.<.<.<.4.4.<.<.<.<.4.4.4.4.<.<.<.<.<.<.<.<.<.<.<.<.<.<.<.<.<.<.",
"<.<.<.<.<.<.<.<.<.<.<.<.<.<.<.<.<.<.<.<.<.<.<.<.<.<.<.<.<.<.<.<.<.<.<.<.<.<.<.<.<.<.<.<.<.<.<.<.<.<.<.<.<.<.<.<.<.<.<.<.<.<.<.<.B B B <.4.( ) `..X'.XX'.8.=.4.M T T }..X~.XX^.~.~..XT.9.( <.M M N P $XmXjXE j C N 4.;.;.4.<.<.<.<.<.<.<.<.<.<.<.<.<.<.<.<.<.<.<.<.<.<.<.<.<.<.<.<.<.<.<.<.<.<.<.<.<.4.4.<.<.<.<.<.<.<.<.4.4.<.<.<.<.<.<.<.<.<.<.<.<.<.<.4.<.<.<.<.<.<.<.<.<.<.<.<.<.<.<.<.<.<.<.<.<.<.<.<.<.<.<.<.<.<.<.<.<.<.<.B B <.<.<.<.<.<.<.<.<.<.<.<.<.<.B 4.4.=.4.4.v a $ a N N ( 1.`.#X~.~.~.~.#XT.8.) ( 1.^ ( A.[.~.~.).Q.^.XXj.1.j j j ^ r.#X-.1.B B M <.<.<.<.<.<.<.<.<.<.<.<.<.<.<.<.<.<.<.<.<.<.<.<.<.<.<.<.<.<.<.<.<.<.<.<.<.<.<.<.<.<.<.<.<.<.<.<.<.<.<.<.<.<.<.<.<.<.<.<.<.<.<.<.<.<.<.<.<.<.<.<.<.<.M j j ( ( <.<.<.<.M M M <.<.<.<.<.<.<.4.4.<.<.<.<.<.<.<.<.<.<.<.<.<.<.<.<.<.<.<.<.<.<.<.<.<.<.<.<.<.<.<.M M M <.<.<.<.<.<.<.( j ) `.[.~..Xt.Y 1.<.<.1.T t.[.U.~.~.~.#X`.T =.<.2.g I } lX[.^ j N <.1.-.<.N <.<.<.<.<.<.<.<.<.<.<.<.<.<.<.<.<.<.<.<.<.<.<.<.<.<.<.<.<.<.<.<.4.<.<.4.4.4.<.<.<.<.4.4.4.4.<.<.<.<.<.<.<.<.<.<.<.<.<.<.<.<.<.<.",
"<.<.<.<.<.<.<.<.<.<.<.<.<.<.<.<.<.<.<.<.<.<.<.<.<.<.<.<.<.<.<.<.<.<.<.<.<.<.<.<.<.<.<.<.<.<.<.<.<.<.<.<.<.<.<.<.<.<.<.<.<.<.<.<.B 4.B <.1.( { '..X'.+X'.8.1.4.( -.T }..X~.XX^..X^.OXT.8.( <.4.M N T uXmXkX] ( k <.<.;.;.B <.1.1.<.<.<.<.<.<.<.<.<.<.<.<.<.<.<.<.<.<.<.<.<.<.<.<.<.<.<.<.<.<.<.<.<.<.<.<.<.<.<.<.B B B <.<.<.B B <.<.<.<.<.<.<.<.<.<.<.<.4.4.4.4.<.<.<.<.<.<.<.<.<.<.<.<.<.<.<.<.<.<.<.<.<.<.<.<.<.<.<.<.<.<.<.<.<.<.<.<.<.<.<.<.<.<.<.<.<.<.<.<.M 4.<.B 4.4.v a % a M N ( 3.`.#X~.~.~.~.#XT.8.( ( <.j ^ A.[.~.~.).Q.^.XXj.1.j j j ^ r.-X8.1.M V M <.<.<.<.<.<.<.<.<.<.<.<.<.<.<.<.<.<.<.<.<.<.<.<.<.<.<.<.<.<.<.<.<.<.<.<.<.<.<.<.<.<.<.<.<.<.<.<.<.<.<.<.<.<.<.<.<.<.<.<.<.<.<.<.<.<.<.<.<.<.<.<.<.( j j j ( ( j ( <.( s s M <.<.<.<.<.4.4.4.4.<.<.<.<.<.<.<.<.<.<.<.<.<.<.<.<.<.<.<.<.<.<.<.<.<.<.<.<.<.<.<.<.M M <.<.=.<.<.<.<.( s ) `.'.~..Xt.Y ) 1.<.1.T A.oX~.~.~.W.#X`.T =.<.2.g ^ } zXoX^ j N <.1.-.<.N <.<.<.<.<.<.<.<.<.<.<.<.<.<.<.<.<.<.<.<.<.<.<.<.<.<.<.<.<.<.<.<.<.<.<.<.<.<.<.<.<.<.<.<.<.<.<.<.<.<.<.<.<.<.<.<.<.<.<.<.<.<.<.<.",
"<.<.<.<.<.<.<.<.<.<.<.<.<.<.<.<.<.<.<.<.<.<.<.<.<.<.<.<.<.<.<.<.<.<.<.<.<.<.<.<.<.<.<.<.<.<.<.<.<.<.<.<.<.<.<.<.<.<.<.<.<.<.<.<.4.4.M <.1.( 8.'..X.X+X'.8.( 4.( -.T }..X~..X^..X^.OXT.8.T ( 4.N N ) uXmXkX] ( l <.<.;.;.B B 1.1.<.<.<.<.<.<.<.<.<.<.<.<.<.<.<.<.<.<.<.<.<.<.<.<.<.<.<.<.<.<.<.<.<.<.<.<.<.<.<.<.B B <.<.<.<.B M <.<.<.<.<.<.<.<.<.<.<.<.4.4.4.4.<.<.<.<.<.<.<.<.<.<.<.<.<.<.<.<.<.<.<.<.<.<.<.<.<.<.<.<.<.<.<.<.<.<.<.<.<.<.<.<.<.<.<.<.<.<.<.<.M M <.B 4.4.v a % a M j Y 0.`.[.~.~.~.~.#XT.8.( ( <.j ^ A.[.~.~.).Q.^.XXj.1.j j j P 9.;X8.1.M V <.<.<.<.<.<.<.<.<.<.<.<.<.<.<.<.<.<.<.<.<.<.<.<.<.<.<.<.<.<.<.<.<.<.<.<.<.<.<.<.<.<.<.<.<.<.<.<.<.<.<.<.<.<.<.<.<.<.<.<.<.<.<.<.<.<.<.<.<.<.<.<.( <.( <.<.<.( ( j ( <.( s s M 4.<.<.<.<.4.4.4.4.<.<.<.<.<.<.<.<.<.<.<.<.<.<.<.<.<.<.<.<.<.<.<.<.<.<.<.<.<.<.<.<.M M <.<.=.<.<.<.<.( s ) `.'.~..Xt.Y ( <.<.1.T T.oX~.~.~.~.#X`.P -.<.2.g ^  .zX-X( j N <.-.-.<.N <.<.<.<.<.<.<.<.<.<.<.<.<.<.<.<.<.<.<.<.<.<.<.<.<.<.<.<.<.<.<.<.<.<.<.<.<.<.<.<.<.<.<.<.<.<.<.<.<.<.<.<.<.<.<.<.<.<.<.<.<.<.<.<.",
"<.<.<.<.<.<.<.<.<.<.<.<.<.<.<.<.<.<.<.<.<.<.<.<.<.<.<.<.<.<.<.<.<.<.<.<.<.<.<.<.<.<.<.<.<.<.<.<.<.<.<.<.<.<.<.<.<.<.<.<.<.<.<.<.4.B M <.1.) 9.[..X.X+X'.8.T 4.( -.T }..X~.XX^..X~.OXR.8.T ( 4.N <.) uXMXkX[ _ l M =.;.;.B B 1.1.<.<.<.<.<.<.<.<.<.<.<.<.<.<.<.<.<.<.<.<.<.<.<.<.<.<.<.<.<.<.<.<.<.<.<.<.<.B <.<.<.<.<.<.<.<.B M <.<.<.<.<.<.<.<.<.<.<.<.<.<.4.<.<.<.<.<.<.<.<.<.<.<.<.<.<.<.<.<.<.<.<.<.<.<.<.<.<.<.<.<.<.<.<.<.<.<.<.<.<.<.M M M <.<.<.<.<.M M M M <.B <.4.c a % a M j T r.'..X~.~.~.~.#XT.8.( ( <.j ^ A.[.~.~.).Q.^.XXj.1.( k _ ^ 9.;X9.T j V <.<.<.<.<.<.<.<.<.<.<.<.<.<.<.<.<.<.<.<.<.<.<.<.<.<.<.<.<.<.<.<.<.<.<.<.<.<.<.<.<.<.<.<.<.<.<.<.<.<.<.<.<.<.<.<.<.<.<.<.<.<.<.<.<.<.<.<.<.<.<.<.( 1.1.5.5.1.) ( s <.<.<.s s M 4.<.<.<.<.4.4.4.4.<.<.<.<.<.<.<.<.<.<.<.<.<.<.<.<.<.<.<.<.<.<.<.<.<.<.<.<.<.<.<.<.M M <.<.4.;.<.<.<.( s ` `.'.x..Xt.Y ( <.<.1.T T.oX~.~.~.W.#X`.P <.<.2.g /  .zX=X( ( <.<.-.-.N M <.<.<.<.<.<.<.<.<.<.<.<.<.<.<.<.<.<.<.<.<.<.<.<.<.<.<.<.<.<.<.<.<.<.<.<.<.<.<.<.<.<.<.<.<.<.<.<.<.<.<.<.<.<.<.<.<.<.<.<.<.<.<.<.",
"<.<.<.<.<.<.<.<.<.<.<.<.<.<.<.<.<.<.<.<.<.<.<.<.<.<.<.<.<.<.<.<.<.<.<.<.<.<.<.<.<.<.<.<.<.<.<.<.<.<.<.<.<.<.<.<.<.<.<.<.<.<.<.<.<.B M <.1.) 9.[..X.XXX'.8.T <.( T T }..X~.XX^..X~.OXR.8.T ( 4.N <.) iXMXkX} _ l M =.;.;.B B <.1.<.<.<.<.<.<.<.<.<.<.<.<.<.<.<.<.<.<.<.<.<.<.<.<.<.<.<.<.<.<.<.<.B B <.<.<.B B B <.<.<.<.<.<.<.<.<.<.<.<.<.<.<.<.<.<.<.<.<.<.<.<.<.<.<.<.<.<.<.<.<.<.<.<.<.<.<.<.<.<.<.<.<.<.<.<.<.<.<.<.<.<.<.<.<.<.<.<.<.<.M M M <.<.<.<.<.<.N M M <.B <.4.c a X a N j T q.'..X~.~.~.~.#XT.8.( ( <.j ^ A.[.~.^.).Q.^.XXn.1.Y j _ P 9.;Xe.T j 2.<.<.<.<.<.<.<.<.<.<.<.<.<.<.<.<.<.<.<.<.<.<.<.<.<.<.<.<.<.<.<.<.<.<.<.<.<.<.<.<.<.<.<.<.<.<.<.<.<.<.<.<.<.<.<.<.<.<.<.<.<.<.<.<.<.<.<.<.<.<.<.<.( 1.5.3.3.5.1.) s <.<.<.s s M 4.<.<.<.<.<.4.<.<.<.<.<.<.<.<.<.<.<.<.<.<.<.<.<.<.<.<.<.<.<.<.<.<.<.<.<.<.<.<.<.<.M M <.<.4.;.<.<.<.( s ` `.'.x..XA.Y ( <.<.1.T T.oX~.~.~.~.[.T.P <.B 2.g / $.NX=X( ( <.<.-.-.N M <.<.<.<.<.<.<.<.<.<.<.<.<.<.<.<.<.<.<.<.<.<.<.<.<.<.<.<.<.<.<.<.<.<.<.<.<.<.<.<.<.<.<.<.<.<.<.<.<.<.<.<.<.<.<.<.<.<.<.<.<.<.<.<.",
"<.<.<.<.<.<.<.<.<.<.<.<.<.<.<.<.<.<.<.<.<.<.<.<.<.<.<.<.<.<.<.<.<.<.<.<.<.<.<.<.<.<.<.<.<.<.<.<.<.<.<.<.<.<.<.<.<.<.<.<.<.<.<.<.4.c <.1.Y ) A.[..X.XXX'.8.T <.<.T T }..X~.XX^..X~.#XI.{ ) <.M N j T kXMXkX .u k <.<.;.;.B M <.1.<.<.<.<.<.<.<.<.<.<.<.<.<.<.<.<.<.<.<.<.<.<.<.<.<.<.<.<.<.<.<.<.M M <.<.<.<.<.<.<.M M M <.<.<.<.<.<.<.<.<.<.<.<.<.<.<.<.<.<.<.4.<.<.<.<.<.<.<.<.<.<.<.<.<.<.<.<.<.<.<.<.<.<.<.<.<.<.<.<.<.<.<.<.M M <.<.<.<.<.M <.<.<.<.<.<.<.N M N <.<.4.<.v c 7 j N s P q.'..X/.~.~.~.#X'.T 1.1.<.j ) E.[.~.~.~.Q.^.XXb.1.Y N j ^ e.;X'.L ( M <.<.<.<.<.<.<.<.<.<.<.<.<.<.<.<.<.<.<.<.<.<.<.<.<.<.<.<.<.<.<.<.<.<.<.<.<.<.<.<.<.<.<.<.<.<.<.<.<.<.<.<.<.<.<.<.<.<.<.<.<.<.<.<.c <.4.<.( ( ( 1.3.3.3.3.3.3.3.3.1.<.j 4.s t 4.<.<.<.<.<.<.<.<.<.<.<.<.<.<.<.<.<.<.<.<.<.<.<.<.<.<.<.( <.<.1.1.1.<.<.<.1.<.<.<.<.m m <.<.4.<.=.c <.( Y 1.`.[.~..Xt.Y 1.<.<.1.T t.[.~.Q.~.OX[.t.T <.4.N g I R.kXjX) ( <.<.-.=.M N <.<.<.<.<.<.<.<.<.<.<.<.<.<.<.<.<.<.<.<.<.<.<.<.<.<.<.<.<.<.<.<.<.<.<.<.<.<.<.<.<.<.<.<.<.<.<.<.<.<.<.<.<.<.<.<.<.<.<.<.<.<.<.<.",
"<.<.<.<.<.<.<.<.<.<.<.<.<.<.<.<.<.<.<.<.<.<.<.<.<.<.<.<.<.<.<.<.<.<.<.<.<.<.<.<.<.<.<.<.<.<.<.<.<.<.<.<.<.<.<.<.<.<.<.<.<.<.<.<.4.s M 1.Y ) T.[..X.XXX'.8.T <.( T T }..X~.XX^.~.~.#XI.) ) <.M N ( { kXMXkX .g k ( <.;.;.B M <.<.<.<.<.<.<.<.<.<.<.<.<.<.<.<.<.<.<.<.<.<.<.<.<.<.<.<.<.<.<.<.<.<.M M <.<.<.<.<.<.M M <.<.<.<.<.<.<.<.<.<.<.<.<.<.<.<.<.<.<.<.4.4.<.<.<.<.<.<.<.<.<.<.<.<.<.<.<.<.<.<.<.<.<.<.<.<.<.<.<.<.<.<.<.<.M M <.<.<.<.M M N N <.<.<.<.M N M N <.<.4.<.v s 7 j <.s P t.'..X/.~.~.~.#X'.T 1.1.<.j ) E.[.~.~.~.~.^.XXb.1.Y N j ^ q.jX#XR ( N <.<.<.<.<.<.<.<.<.<.<.<.<.<.<.<.<.<.<.<.<.<.<.<.<.<.<.<.<.<.<.<.<.<.<.<.<.<.<.<.<.<.<.<.<.<.<.<.<.<.<.<.<.<.<.<.<.<.<.<.<.<.<.<.M <.<.<.( ( ( 1.3.3.3.3.3.3.0.3.1.4.j 4.s i 4.<.<.<.<.<.<.<.<.<.<.<.<.<.<.<.<.<.<.<.<.<.<.<.<.<.<.( ( ( <.<.<.<.( ( ( ( ( ( ( j m m B <.4.<.<.<.<.( Y 1.[.[.~..Xt.Y 1.1.<.1.T t.[.~.Q.~.oX[.t.T <.<.N g I ~.kXjX) ( <.<.-.=.M N <.<.<.<.<.<.<.<.<.<.<.<.<.<.<.<.<.<.<.<.<.<.<.<.<.<.<.<.<.<.<.<.<.<.<.<.<.<.<.<.<.<.<.<.<.<.<.<.<.<.<.<.<.<.<.<.<.<.<.<.<.<.<.<.",
"<.<.<.<.<.<.<.<.<.<.<.<.<.<.<.<.<.<.<.<.<.<.<.<.<.<.<.<.<.<.<.<.<.<.<.<.<.<.<.<.<.<.<.<.<.<.<.<.<.<.<.<.<.<.<.<.<.<.<.<.<.<.<.<.4.c <.1.Y ) T.[..X.XXX'.8.T 1.( T T }..X~.XX^.^.~.#Xh.) ) <.M N ^ { mXMXkX$.g k ( <.-.;.<.N ( ( <.<.<.<.<.<.<.<.<.<.<.<.<.<.<.<.<.<.<.<.<.<.<.<.<.<.<.<.<.<.<.<.<.<.<.<.<.<.<.<.<.<.<.<.<.<.<.M <.<.<.<.<.<.<.<.<.<.<.<.4.4.4.4.<.<.<.<.<.<.<.<.<.<.<.<.<.<.<.<.<.<.<.<.<.<.<.<.<.<.<.<.<.<.<.<.M <.<.<.<.<.M M <.<.N N <.<.<.N M N M <.<.<.c s 7 j <.s T t..X.X/.Q.~.~.#X'.T 1.( <.j ) E.[.~.~.~.~..XXXn.1.Y N j ^ q.lX#XR ( <.<.<.<.<.<.<.<.<.<.<.<.<.<.<.<.<.<.<.<.<.<.<.<.<.<.<.<.<.<.<.<.<.<.<.<.<.<.<.<.<.<.<.<.<.<.<.<.<.<.<.<.<.<.<.<.<.<.<.<.<.<.<.<.<.<.<.1.<.( ( 1.1.3.3.3.0.0.0.0.3.1.4.<.4.s r 4.<.<.<.<.<.<.<.4.4.<.<.<.<.<.<.<.<.<.<.<.<.<.<.<.<.<.( <.<.( <.<.<.<.<.1.1.<.<.<.<.m M B <.4.4.<.<.<.( Y 3.].[.R..Xt.Y ( <.<.1.T t.[.~.Q.~.OX[.t.T <.<.N u I ~.zXjX{ ( <.<.-.=.M N <.<.<.<.<.<.<.<.<.<.<.<.<.<.<.<.<.<.<.<.<.<.<.<.<.<.<.<.<.<.<.<.<.<.<.<.<.<.<.<.<.<.<.<.<.<.<.<.<.<.<.<.<.<.<.<.<.<.<.<.<.<.<.<.",
"<.<.<.<.<.<.<.<.<.<.<.<.<.<.<.<.<.<.<.<.<.<.<.<.<.<.<.<.<.<.<.<.<.<.<.<.<.<.<.<.<.<.<.<.<.<.<.<.<.<.<.<.<.<.<.<.<.<.<.<.<.<.<.<.4.M <.( Y ) T.[..X~.XXR.Q P 1.( T T }..X~.XX^.^.~.#XI.T ) <.M N Y { mXMXkX$.^ j ( <.-.<.<.N ( ( <.<.<.<.<.<.<.<.<.<.<.<.<.<.<.<.<.<.<.<.<.<.<.<.<.<.<.<.<.<.<.<.<.<.<.<.<.<.<.M <.<.<.<.<.<.<.M <.<.<.<.<.<.<.<.<.<.<.<.4.4.4.4.<.<.<.<.<.<.<.<.<.<.<.<.<.<.<.<.<.<.<.<.<.<.<.<.<.<.<.<.<.<.<.<.<.<.<.<.<.<.<.<.<.<.<.N <.<.<.N N M M <.<.<.c c 7 j <.s ) t..X.X~.Q.~.~.#X'.T ) ( <.( ` E.[.~.~.~.~..XXXn.1.Y <.( P 9.lX$XL ( <.<.<.<.<.<.<.<.<.<.<.<.<.<.<.<.<.<.<.<.<.<.<.<.<.<.<.<.<.<.<.<.<.<.<.<.<.<.<.<.<.<.<.<.<.<.<.<.<.<.<.<.<.<.<.<.<.<.<.<.<.<.<.<.<.<.<.<.( ( 1.1.3.3.3.0.0.0.0.0.3.5.2.<.4.s 7 4.<.<.<.<.<.<.<.4.4.<.<.<.<.<.<.<.<.<.<.<.<.<.<.<.<.<.<.<.<.( ( ( ( <.<.1.1.1.1.1.<.M m B <.<.4.<.<.<.( ^ 3.].[.R..Xt.Y ( <.<.1.T T.[.~.Q.~.OX[.t.T 4.<.N g E /.NXjX8.( =.<.-.=.M M <.<.<.<.<.<.<.<.<.<.<.<.<.<.<.<.<.<.<.<.<.<.<.<.<.<.<.<.<.<.<.<.<.<.<.<.<.<.<.<.<.<.<.<.<.<.<.<.<.<.<.<.<.<.<.<.<.<.<.<.<.<.<.<.",
"<.<.<.<.<.<.<.<.<.<.<.<.<.<.<.<.<.<.<.<.<.<.<.<.<.<.<.<.<.<.<.<.<.<.<.<.<.<.<.<.<.<.<.<.<.<.<.<.<.<.<.<.<.<.<.<.<.<.<.<.<.<.<.<.<.c <.1.P { T.[..X~..Xj.Q P 1.( T T }..X~.XX^.^.~.#Xh.T ( <.M <.Y { mXMXmXs.^ j ( 1.=.<.B N ( ( <.<.<.<.<.<.<.<.<.<.<.<.<.<.<.<.<.<.<.<.<.<.<.<.<.<.<.<.<.<.<.<.<.<.<.<.<.<.M M <.<.<.<.<.<.M M <.<.<.<.<.<.<.<.<.<.<.<.4.<.<.<.<.<.<.<.<.<.<.<.<.<.<.<.<.<.<.<.<.<.<.<.<.<.<.<.<.<.<.<.<.<.<.<.<.( j j ( ( ( ( ( ( ( j ( ( ( j N N M <.<.<.M c y M 1.Y ) h..X~.~.Q.~.~.#X'.R ( ( ( ( ` `.oX~.~.~.~..XXXn.-.Y <.( P 9.lX;XE ( <.<.<.<.<.<.<.<.<.<.<.<.<.<.<.<.<.<.<.<.<.<.<.<.<.<.<.<.<.<.<.<.<.<.<.<.<.<.<.<.<.<.<.<.<.<.<.<.<.<.<.<.<.<.<.<.<.<.<.<.<.<.<.<.<.<.( ( ( 1.1.3.3.3.0.0.0.8.8.8.0.5.5.<.2.p 7 <.<.<.<.<.<.<.<.4.4.<.<.<.<.<.<.<.<.<.<.<.<.<.<.<.<.<.( ( ( ( ( ( ( ( ( ( ( ( ( ( j N B B <.<.4.<.4.<.( ^ 3.[.[.~..Xt.Y ( ( <.1.T T.[.~.~.~.OX[.t.T 4.<.N g { OXNXkX9.1.=.<.-.=.M M <.<.<.<.<.<.<.<.<.<.<.<.<.<.<.<.<.<.<.<.<.<.<.<.<.<.<.<.<.<.<.<.<.<.<.<.<.<.<.<.<.<.<.<.<.<.<.<.<.<.<.<.<.<.<.<.<.<.<.<.<.<.<.<.",
"<.<.<.<.<.<.<.<.<.<.<.<.<.<.<.<.<.<.<.<.<.<.<.<.<.<.<.<.<.<.<.<.<.<.<.<.<.<.<.<.<.<.<.<.<.<.<.<.<.<.<.<.<.<.<.<.<.<.<.<.<.<.<.<.<.M 4.( K { T.'..X~..Xj.T P <.( T T }..X~.XX^.^.^.#Xh.T ( <.N <.Y 9.MXMXmXg.^ j ( 1.=.<.M N <.1.<.<.<.<.<.<.<.<.<.<.<.<.<.<.<.<.<.<.<.<.<.<.<.<.<.<.<.<.<.<.<.<.<.<.<.<.<.<.M M <.<.<.M <.<.M <.<.<.<.<.<.<.<.<.<.<.<.<.<.<.<.<.<.<.<.<.<.<.<.<.<.<.<.<.<.<.<.<.<.<.<.<.<.<.<.<.<.<.<.<.<.<.<.<.<.( j j ( ( ( ( ( ( ( j j ( ( j N j M <.<.<.M s y ( 1.Y ) I..X~.~.Q.~.~.#X`.R ( ( ( ( ` ].oX~.~.~.~..XXXn.-.Y <.( K } zXjXE ( <.<.<.<.<.<.<.<.<.<.<.<.<.<.<.<.<.<.<.<.<.<.<.<.<.<.<.<.<.<.<.<.<.<.<.<.<.<.<.<.<.<.<.<.<.<.<.<.<.<.<.<.<.<.<.<.<.<.<.<.<.<.<.<.<.<.( ( ( 1.5.3.3.0.0.0.0.8.8.8.0.3.6.<.2.t o <.4.<.<.<.<.<.<.4.4.<.<.<.<.<.<.<.<.<.<.<.<.<.<.<.<.<.( ( ( ( ) ( ( <.1.1.1.1.1.1.<.4.M <.<.<.<.<.<.<.<.^ 3.[.[.~..Xt.Y ( ( <.1.T T.[.~.~.~.OX[.t.T 4.B N g ] OXNXzXr.1.=.<.-.1.M M <.<.<.<.<.<.<.<.<.<.<.<.<.<.<.<.<.<.<.<.<.<.<.<.<.<.<.<.<.<.<.<.<.<.<.<.<.<.<.<.<.<.<.<.<.<.<.<.<.<.<.<.<.<.<.<.<.<.<.<.<.<.<.<.",
"<.<.<.<.<.<.<.<.<.<.<.<.<.<.<.<.<.<.<.<.<.<.<.<.<.<.<.<.<.<.<.<.<.<.<.<.<.<.<.<.<.<.<.<.<.<.<.<.<.<.<.<.<.<.<.<.<.<.<.<.<.<.<.<.<.<.4.( K 8.[.'.~.~..Xj.E P <.( T T }..X~.XX^.^.~.#Xh.T ( <.N 4.Y 9.BXMXmXg.^ j ( 1.=.<.M N <.1.<.<.<.<.<.<.<.<.<.<.<.<.<.<.<.<.<.<.<.<.<.<.<.<.<.<.<.<.<.<.<.<.M M M <.<.<.<.M <.M M M <.<.<.<.<.( <.<.<.<.<.<.<.<.<.<.<.<.<.<.<.<.<.<.<.<.<.<.<.<.<.<.<.<.<.<.<.<.<.<.<.<.<.<.<.<.<.<.<.<.<.<.<.( j j j j ( j j j ( <.j j ( j j j M <.<.<.<.s p <.1.Y ) T.XX~.~.Q.~.~.#X'.R ( ( 1.( 3.].oX~.~.~.~..XXXn.-.Y <.( K } zXjXQ ( <.<.<.<.<.<.<.<.<.<.<.<.<.<.<.<.<.<.<.<.<.<.<.<.<.<.<.<.<.<.<.<.<.<.<.<.<.<.<.<.<.<.<.<.<.<.<.<.<.<.<.<.<.<.<.<.<.<.<.<.<.<.<.<.<.<.j ( 1.5.7.3.3.0.0.0.8.9.9.9.8.3.6.1.2.t o <.4.<.<.<.<.<.<.4.4.<.<.<.<.<.<.<.<.<.<.<.<.<.<.<.<.Y ( ( 1.1.1.1.1.5.5.5.5.5.5.5.5.2.4.4.<.=.=.<.<.<.<.( 3.[.#X~..XA.Y ( ( <.1.T T.[.~.~.~.oX[.t.T 4.B k g ] OXBXzXe.1.=.=.-.1.N M <.<.<.<.<.<.<.<.<.<.<.<.<.<.<.<.<.<.<.<.<.<.<.<.<.<.<.<.<.<.<.<.<.<.<.<.<.<.<.<.<.<.<.<.<.<.<.<.<.<.<.<.<.<.<.<.<.<.<.<.<.<.<.<.",
"<.<.<.<.<.<.<.<.<.<.<.<.<.<.<.<.<.<.<.<.<.<.<.<.<.<.<.<.<.<.<.<.<.<.<.<.<.<.<.<.<.<.<.<.<.<.<.<.<.<.<.<.<.<.<.<.<.<.<.<.<.<.<.<.B M 4.( K 9.'..X.X~..Xh.T Y <.( ( T }..XR.XX^.XX~.#Xh.T ( <.N <.P 9.BXMXkXg./ j ( <.<.<.<.M <.<.<.<.<.<.<.<.<.<.<.<.<.<.<.<.<.<.<.<.<.<.<.<.<.<.<.<.<.<.<.<.<.<.<.( <.( <.( <.( <.( <.( <.( <.( <.( ( <.<.<.<.<.<.<.<.<.<.<.<.<.<.<.<.<.<.<.<.<.<.<.<.<.<.<.<.<.<.<.<.<.<.<.<.<.<.<.<.<.<.<.<.<.( ( ( ( ( ( ( ( ( ( <.<.( ( ( ( j j j <.<.<.<.j s <.1.Y ) T..X~.~.Q.~.R.#X`.P ( ( 1.( 3.[.#X~.~.~.~..XXXb.-.Y N ( K } zXjXQ P <.<.<.<.<.<.<.<.<.<.<.<.<.<.<.<.<.<.<.<.<.<.<.<.<.<.<.<.<.<.<.<.<.<.<.<.<.<.<.<.<.<.<.<.<.<.<.<.<.<.<.<.<.<.<.<.<.<.<.<.<.<.<.<.<.<.( ( 1.3.7.0.3.0.0.0.8.8.8.8.8.3.7.4.2.i o <.4.<.<.<.<.<.<.<.<.<.<.<.<.<.<.<.<.<.<.<.<.<.<.<.<.( ( ( 1.1.1.2.5.5.5.3.5.3.5.3.5.2.4.4.1.<.<.<.<.1.1.( 0.[.#X~..XA.Y <.<.<.1.( A.[.R.~.~.oX[.t.T 4.B k u ] OXBXNXq.1.Y <.<.<.N N <.<.<.<.<.<.<.<.<.<.<.<.<.<.<.<.<.<.<.<.<.<.<.<.<.<.<.<.<.<.1.1.<.( <.( <.( <.( <.( <.( <.( <.<.<.<.<.<.<.<.<.<.<.<.<.<.<.<.<.<.",
"<.<.<.<.<.<.<.B B B <.<.<.<.<.B <.<.<.<.<.<.<.<.<.<.<.<.<.<.<.<.<.<.<.<.<.<.<.<.<.<.<.<.<.<.<.<.4.4.4.4.4.4.<.B B <.<.N <.N <.M N N <.( L 9.[.'..X.X#XT.1.( 4.j ( P `.'.x.@X.X^..X#Xt.) ( ( M 1.K I.kXmXNX/.D _ j M 4.4.<.<.M k M <.<.<.<.<.<.<.<.<.<.<.<.<.<.<.M M M <.<.<.<.<.<.<.<.<.<.<.<.<.( Y ( ( ( ( 1.( 3.3.3.3.3.3.3.3.1.1.1.1.1.( ( ( Y Y Y ( ( ( 1.<.<.M M <.<.<.<.<.<.<.<.<.<.M M M 4.<.4.<.<.M M j M M <.<.<.<.<.<.Y Y T ( 1.2.3.3.r.7.3.3.2.1.1.1.j j ( <.1.1.<.<.( <.^ ^ 0.'.#X~.^.^.~..X}.t.( ( 2.^ ^ t.[.OX^.^./.~.~.XX'.0.( 2.( P 9.zXjXh.K ^ m m m m m M M M M <.<.4.<.<.c s <.<.<.<.<.<.<.<.<.<.<.<.<.<.<.<.<.<.<.<.<.<.<.<.<.<.<.<.<.<.<.<.<.<.<.<.B <.<.<.4.M 4.4.4.M M <.Y ) 1.3.0.0.3.8.8.8.8.8.8.8.8.8.r.3.7.6.i 7 c 6.B <.<.<.<.<.M M <.<.<.<.<.<.<.<.<.<.<.<.<.M M j Y ( 1.2.3.3.3.3.3.3.3.3.3.3.3.3.1.3.3.3.1.<.=.Y Y T T e.[.#XR..X`.T <.<.<.=.T `.'.W.R.R.[.}.t.=.B m 2.u } jXmXBXj.R 1.M M M M 4.<.<.<.<.<.<.M <.j M <.4.4.N <.M M j j j ( ( ( ( 5.5.3.3.0.r.r.r.r.3.3.3.3.3.2.2.( ( Y Y Y ( 1.1.<.<.<.<.<.<.<.<.<.<.<.<.<.N <.M ",
"<.<.<.<.<.<.<.B B B <.<.<.<.B B <.<.<.<.<.<.<.<.<.<.<.<.<.<.<.<.<.<.<.<.<.<.<.<.<.<.<.<.<.<.<.<.4.4.4.4.<.4.B B <.<.N N N N M N M M <.( P q.oX.X.X.X[.`.1.1.6.j ( ^ `.[..X@XXX.X~.'.e.P ( ( j 1.P T.zXmXNX/.D ( k M <.<.=.<.k h M M <.<.<.<.<.<.<.<.<.<.<.<.<.<.M M M M <.<.<.<.<.<.<.<.<.<.1.1.1.1.1.1.1.1.3.3.3.3.3.3.3.3.3.3.3.3.3.3.3.1.1.1.( ( ( ( ( ( ( ( <.M M <.<.<.<.<.<.4.<.<.<.M M M M M <.<.<.<.<.<.<.<.<.<.1.1.1.1.1.1.3.3.3.3.0.0.r.r.0.3.3.1.1.1.1.1.1.1.1.1.=.( j ( j ^ 8.T.#X~.^.^.~.'. XV.( ( 2.^ P t.[..X^.^./.W.~..XR.{ j k <.( e.zXjX'.L ( N M N N N N N M M M <.<.<.<.<.c <.<.<.<.<.<.<.<.<.<.<.<.<.<.<.<.<.<.<.<.<.<.<.<.<.<.<.<.<.<.<.<.<.<.<.<.B <.B <.M M M M M M M M 1.1.1.8.8.8.8.8.8.0.8.8.8.8.8.8.r.3.7.6.7 7 m 6.B <.<.<.1.<.N M <.<.4.<.<.<.<.<.<.<.M <.<.M M j T ) 1.3.3.0.3.3.3.3.3.3.3.3.3.0.8.8.8.0.5.1.1.( T T R 9.'..XR.[.`.T 1.<.<.=.T `.[.~.R.W.#X}.t.=.<.m 4.u } jXmXBXx.E <.C m V <.<.<.<.<.<.<.<.<.<.<.<.<.N <.N M j j j ( ( ( 1.1.1.5.3.3.0.8.r.r.r.0.0.0.3.3.3.3.3.1.1.1.) ( ( ( ( 1.<.<.<.<.<.4.4.<.<.<.<.N N N N ",
"B <.<.<.<.<.<.<.B <.<.<.<.<.B <.<.<.<.<.<.<.<.<.<.<.<.<.<.<.<.<.<.<.<.<.<.<.<.<.<.<.<.<.<.<.<.<.<.<.<.<.<.<.B B <.<.<.<.N N N N M M 4.( T t.oX~..X.X[.T.1.<.6.N ) ( `.#X.X@XXXXXj.'.r.P ( ( j 1.I W.zXmXmX/.D ( k M B =.=.<.j j j M M 4.<.<.<.M <.<.<.M <.<.<.<.M M <.<.<.<.<.<.<.<.1.1.<.<.<.2.3.3.0.0.0.0.0.0.3.3.3.3.3.3.3.3.0.0.0.0.0.3.3.3.1.1.1.( ( ( ( ( <.M <.<.<.<.<.<.<.<.<.<.<.<.<.<.j j ( ( <.<.1.1.( ( ( ( 1.1.1.1.r.r.r.0.0.0.0.0.0.0.0.0.3.3.3.2.5.2.2.1.1.1.<.( j j ^ P 9.T.#X^.^.^.~.'.].V.( ( 2.^ ( t.[..X^.^./.R.~..XI.) j j ( ( 9.zXjX.XR ) <.N N N N M N <.M M <.<.<.<.<.M <.<.<.<.<.<.<.<.<.<.<.<.<.<.<.<.<.<.<.<.<.<.<.<.<.<.<.<.<.<.<.<.<.<.<.<.<.<.B B 4.4.M M M M M <.1.1.8.8.0.8.8.8.8.0.8.8.8.8.8.0.r.8.7.4.7 7 m 4.<.<.<.<.1.<.M M <.4.4.4.<.<.<.<.<.<.<.<.<.<.<.( ( 1.1.3.0.0.0.0.0.0.0.0.0.0.3.3.8.8.w.r.r.w.2.2.T ) T | '.W.R..XA.T 1.<.<.=.T {.[.~.~.~.#X[.t.=.<.M <.P  .jXmXBXx.E <.C m V <.<.<.<.<.<.<.<.<.<.4.4.<.M <.M <.j <.( <.1.1.5.3.3.3.3.3.8.8.w.r.r.r.r.0.0.0.3.3.3.3.8.3.1.1.) T T 1.<.<.<.<.4.4.4.<.<.<.<.<.<.N N ",
"B <.<.<.<.<.<.<.<.<.<.<.<.<.<.<.<.<.<.<.<.<.<.<.<.<.<.<.<.<.<.<.<.<.<.<.<.<.<.<.<.<.<.<.<.<.<.<.<.<.<.<.<.<.B B <.<.<.<.<.N <.N M M <.( T h.#X~..X.X'.t.( ( 4.j ) ( `.#X.X@XXX.X.X[.t.( ( ( ( 1.I W.NXmXmX(.F _ j M 4.4.<.1.M j j M <.4.4.4.4.<.<.<.<.M <.<.<.<.M <.<.<.=.=.=.=.1.1.<.1.1.5.5.3.0.3.0.0.0.0.3.0.0.0.8.0.0.0.0.0.1.1.8.3.8.3.3.0.3.3.1.1.) ( Y Y <.<.<.<.<.<.<.<.<.<.<.<.<.<.<.<.( 1.( ( ( ( ( ( ( ( ( 1.1.1.3.3.0.0.0.0.3.3.3.3.0.0.0.0.0.0.0.3.3.3.3.3.1.1.1.1.( ( ^ ^ 9.W.OX^.^.~.~.'.].r.( ( 1.Y ) t.[.~.^.^./.~.^..XT.) g j j P 9.zXkX.XI ) ( M M M M M <.<.M M M <.M M M <.<.<.<.<.<.<.<.<.<.<.<.<.<.<.<.<.<.<.<.<.<.<.<.<.<.<.<.<.<.<.<.<.<.<.<.<.<.<.<.<.4.4.<.M B M B <.3.8.0.0.0.8.8.8.8.8.8.8.8.8.0.0.w.8.7.4.7 7 m B <.<.<.<.1.<.M M <.4.4.4.<.<.<.<.<.<.<.<.( <.<.1.1.1.3.3.0.0.0.0.0.0.0.0.0.0.3.8.8.8.w.r.r.r.7.3.1.) T | R.~.R.#XA.T 1.<.<.=.T `.[./.~.~.#X}.q.=.4.M <.P  .xXmXMX^.E <.C m V <.<.<.<.<.<.<.<.<.<.4.1.<.<.<.<.1.1.2.2.5.5.3.3.7.r.3.8.8.8.8.8.8.8.0.0.0.0.0.3.3.3.0.0.8.8.3.1.) T 1.1.<.<.<.1.4.4.<.<.<.<.<.<.<.N ",
"<.<.<.<.<.<.<.<.<.<.<.<.<.<.<.<.<.<.<.<.<.<.<.<.<.<.<.<.<.<.<.<.<.<.<.<.<.<.<.<.<.<.<.<.<.<.<.<.<.<.<.<.<.<.<.<.<.<.<.<.<.<.<.N N M ( ( T h.#X~..X.X'.t.T s <.s ( P T.'.~.@Xx.^..X[.t.) ( ( ( ` I ~.BXmXmXtX] ` 2.2.5.5.5.1.<.<.j j M <.<.<.<.<.( <.<.<.<.<.<.<.<.=.=.<.<.1.1.1.2.2.3.3.5.5.w.w.0.0.0.0.0.0.0.0.0.8.8.8.0.0.0.0.8.8.8.8.8.8.8.0.0.0.3.1.1.) ( Y <.<.<.<.<.<.<.<.<.<.<.<.<.<.<.<.( ( ( ( ( ( ( ( 1.1.1.1.3.3.3.3.3.3.3.3.3.3.3.3.3.0.0.0.0.0.0.0.3.3.0.8.w.8.3.2.1.) ( ) 9.W.OX^.^.~.~.'.}.r.( ( 1.Y ) t.[.~.^.^./.~.^..XR.| ^ ( ( T 9.kXkX@XQ ) 1.1.1.1.1.1.1.1.( ( <.<.<.<.( <.<.<.<.<.<.<.<.<.<.<.<.<.<.<.<.<.<.<.<.<.<.<.<.<.<.<.<.<.<.<.<.<.<.<.<.<.<.<.<.<.<.<.<.M <.<.<.1.r.0.0.0.0.8.8.8.8.8.8.8.8.8.8.8.w.8.7.<.7 7 M M <.<.<.<.1.<.M M <.4.<.<.<.<.<.<.<.<.<.<.( 1.1.1.2.3.3.0.0.0.0.0.0.0.3.3.0.0.0.8.8.8.8.8.r.r.7.3.3.8.{ 9.'..X~.#Xt.Y 1.<.<.=.T `.[./.~.~.oX'.q.=.4.M <.P  .zXmXMXXXE ) M C N <.1.<.N <.<.<.<.<.( <.=.<.<.1.4.2.7.7.7.3.3.3.0.0.0.8.8.8.8.8.8.9.8.0.0.0.0.0.0.3.3.3.3.0.0.0.3.1.1.1.<.=.=.=.<.<.<.<.<.<.<.<.M ( <.",
"<.<.<.<.<.<.<.<.<.<.<.<.<.<.<.<.<.<.<.<.<.<.<.<.<.<.<.<.<.<.<.<.<.<.<.<.<.<.<.<.<.<.<.<.<.<.<.<.<.B <.<.<.<.<.<.<.<.<.<.<.<.<.<.N j ( ( ) I.#X~..X~.'.t.T Y 1.j ( P T.'.x.@Xx.~..X[.t.( ^ ( ( ) L ~.BXmXMXuX[ 0.1.5.5.w.w.5.2.2.<.<.<.<.<.<.<.<.<.<.<.<.<.<.M <.=.=.=.1.=.1.1.1.3.3.5.w.w.w.w.r.r.r.r.r.r.r.0.0.0.0.0.0.0.0.0.r.8.8.8.8.8.8.r.r.r.0.8.3.1.1.1.) 1.<.1.<.1.<.( <.Y ( <.<.<.<.1.1.( Y ( 1.1.1.3.3.1.1.3.8.8.8.r.r.3.3.3.3.0.0.0.r.0.0.0.0.0.0.0.0.3.3.8.8.w.w.w.r.1.1.1./ q..XXX^.^.^.~.'.[.r.Y ( 1.Y ) A.[.~.^.^.~.~.^.XXR.| ^ ) 1.) s.mXmXuX} { 8.5.7.7.7.7.7.7.1.1.1.( <.<.( <.<.<.<.<.<.<.<.<.<.<.<.<.<.<.<.<.<.<.<.<.<.<.<.<.<.<.<.<.<.<.<.<.<.<.<.<.<.<.<.<.<.<.<.<.<.4.4.2.r.8.8.8.8.8.8.8.8.8.8.8.8.8.8.8.w.w.5.<.7 7 M M <.<.<.<.1.<.M M <.4.<.<.<.<.<.<.<.<.<.<.( 1.1.1.3.3.0.0.0.0.0.0.0.0.3.3.0.0.0.8.8.8.8.8.3.7.7.3.8.r.8.q.#XoX~.#Xt.Y =.1.<.1.1.}.[./.~.~.oX'.q.T 4.M <.P f.zXMXmXXXQ ) k C V <.1.<.N <.<.<.<.<.1.Y 1.1.1.1.3.w.r.r.r.r.r.0.0.0.8.8.8.8.8.8.8.8.8.8.0.0.0.0.0.3.3.3.3.3.0.0.0.0.0.1.1.1.=.=.Y =.<.<.<.<.<.<.<.<.( ",
"<.<.<.<.<.<.<.<.<.<.<.<.<.<.<.<.<.<.<.<.<.<.<.<.<.<.<.<.<.<.<.<.<.<.<.<.<.<.<.<.<.<.<.<.<.<.<.<.B B <.<.<.<.<.<.<.<.<.<.( ( ( ( N j ( ( ) I.#X~.~.~.'.t.T ( 5.1.( I `..Xx.@X^.^.R.[.t.) ) 1.( 8.L ^.BXMXMXyX[ | 3.5.r.a.e.w.3.2.2.1.<.<.j j <.<.( <.<.<.<.<.<.<.Y =.=.1.1.1.1.1.w.w.w.w.w.w.w.8.r.r.r.r.r.r.0.8.0.0.0.0.0.0.0.0.8.8.8.8.8.r.r.r.8.8.8.8.8.1.1.1.1.1.1.1.1.( ( ( ( Y Y <.1.1.1.1.( 1.1.1.3.3.0.r.8.8.8.8.8.8.8.8.8.8.8.8.8.0.0.0.0.0.0.0.0.r.8.0.3.3.8.8.w.w.w.r.3.0.1.{ k.oX@Xx.^.^.~.'.[.r.T ( ( P ) T.[.~.^.^.~.~.^.@X~.9.` 1.1.8.d.mXmXiXs.| 8.w.w.w.r.r.r.r.3.2.1.1.=.=.Y <.<.<.<.<.<.<.<.<.<.<.<.<.<.<.<.<.<.<.<.<.<.<.<.<.<.<.<.<.<.<.<.<.<.<.<.<.<.<.<.<.<.<.<.<.<.4.5.7.3.8.8.8.8.8.8.8.0.8.8.8.8.8.0.0.w.w.5.c 7 i M c 4.4.<.<.1.<.N N <.<.<.<.<.<.<.<.<.<.<.Y ( 1.1.1.r.0.r.8.8.8.0.0.8.8.8.8.8.8.8.8.8.8.8.8.5.w.7.3.8.r.9.t.#XoX~..Xt.U =.1.1.1.T }.[./.~.~..X'.q.T 4.m ( P f.zXMXmXrXQ ( k C V <.1.<.N M <.<.<.<.<.=.1.1.3.w.w.w.r.r.0.0.0.0.8.8.8.8.8.8.8.8.8.9.8.8.8.8.8.8.8.8.8.8.8.8.8.8.8.0.r.3.2.2.1.1.=.=.=.1.<.<.<.<.<.<.<.",
"<.<.<.<.<.<.<.<.<.<.<.<.<.<.<.<.<.<.<.<.<.<.<.<.<.<.<.<.<.<.<.<.<.<.<.<.<.<.<.<.<.<.<.<.<.<.<.<.B B B <.<.<.<.<.<.<.<.<.( ( ( ( <.j ( ) { R.#X~.~.R.'.h.) 1.r.7.) T '.#X~.@XXX.XR.[.t.) 1.1.3.q.E OXBXsXvXyX[ | 3.7.w.e.e.w.3.5.5.2.1.j s j <.<.<.( <.<.<.<.<.<.T T =.-.1.1.8.8.w.8.8.8.8.8.8.8.8.0.0.8.8.8.8.8.0.0.0.0.0.0.0.8.8.8.8.8.8.8.8.8.8.8.8.8.8.8.8.8.( 1.1.1.1.( T ( T Y T 1.=.1.1.1.3.3.0.0.0.0.0.0.8.8.8.8.8.8.8.8.8.8.8.8.8.8.8.8.r.r.r.0.0.8.8.8.8.8.8.8.w.w.w.8.r.r.0.{ f..X@Xx.^.^.~.'.[.t.T Y T P 1.T.[.~.^.^.~.~.XX@X.Xq.) 3.1.{ d.mXmXiX@.} 8.w.w.w.w.w.w.5.w.3.1.1.1.=.Y <.<.<.<.<.<.<.<.<.<.<.<.<.<.<.<.<.<.<.<.<.<.<.<.<.<.<.<.<.<.<.<.<.<.<.<.<.<.<.<.<.<.<.<.1.<.5.7.7.3.8.3.3.8.8.8.0.0.0.8.8.8.8.8.8.w.w.7.c 7 a M c 4.4.<.<.<.<.N N <.<.<.<.<.<.<.<.1.<.<.Y ( ( 1.2.r.r.r.8.8.8.0.0.8.8.8.8.8.8.8.8.r.r.w.8.w.w.7.r.8.8.9.t.#X.Xj.~.t.U T 1.1.1.T '.oX/.~.~.oX'.q.Y 6.M ) I g.zXMXMXrXQ ( k h 2.<.1.<.<.<.<.<.<.1.1.1.1.3.w.w.w.w.8.8.8.8.8.8.8.8.8.8.8.8.8.8.8.9.8.8.8.8.8.8.8.8.8.r.0.8.8.8.8.0.r.r.r.3.2.1.1.1.1.1.1.1.<.<.<.<.<.",
"1.1.1.<.<.<.<.<.<.<.<.<.<.<.<.1.<.<.<.<.<.<.<.<.<.<.<.<.<.<.<.<.<.<.<.<.<.<.<.<.<.<.<.<.<.<.<.<.<.<.<.<.<.<.<.<.4.1.( ( Y ( ( 1.<.2.3.0.e.T.~.~.~..X'.f.8.3.r.3.8.t.T..X.X^.^.~..X[.t.) 0.0.3.q.} uXMXMXMX7X@.| 3.3.w.e.e.w.8.3.7.5.5.1.1.( ( Y ( ( ( ( ( ( ( ( 1.1.1.1.3.8.8.w.8.8.w.w.8.8.8.8.8.8.8.8.8.8.8.8.8.8.8.8.8.8.8.8.8.8.8.8.8.8.8.8.8.8.8.8.8.8.8.8.3.3.8.3.0.3.0.3.0.3.0.7.0.3.0.0.0.8.8.8.8.8.8.8.8.8.8.8.8.8.8.8.8.8.8.8.8.8.8.8.8.8.8.8.8.8.8.8.8.8.8.8.w.w.w.8.0.0.1.9.R..X^.XXx.~.~.'.[.t.1.3.3.1.8.T.#X~.~.^.~.^.c.XX~.q.` 3.{ { d.MXmXiXg.Q 9.8.8.8.8.8.8.8.8.3.8.3.3.1.( Y <.<.<.4.4.4.<.<.<.<.<.<.<.<.<.<.<.<.<.<.<.<.<.<.<.<.<.<.<.<.<.<.s j <.<.4.1.<.Y s ( 1.2.7.7.7.7.0.8.8.8.0.8.8.8.8.8.8.8.8.8.8.8.1.r.5.s a q a 6.B <.<.<.<.<.N M M <.<.4.4.<.<.( 1.1.( 1.1.3.r.r.0.8.8.8.8.8.8.8.8.8.8.8.8.8.8.8.8.8.8.8.w.w.w.0.w.8.8.T..X.X~..Xt.P ) =.=.1.1.`.oX~.~.~.oX'.q.P <.4.1.I R.NXMXMXiX! ^ j C 6.1.1.1.<.<.1.1.1.1.1.3.8.8.8.8.8.8.8.8.8.8.8.8.8.8.8.8.8.8.8.8.8.8.8.8.8.8.8.8.8.8.8.8.8.8.8.8.8.8.8.0.0.0.3.3.3.3.2.( ( ( ( ( ( ( 1.",
"( ( ( ( <.<.<.<.<.<.<.<.<.<.<.<.<.<.<.<.<.<.<.<.<.<.<.<.<.<.<.<.<.<.<.<.<.<.<.<.<.<.<.<.<.<.<.<.<.<.<.<.<.<.<.<.<.<.( ( ( ( 1.1.1.5.3.8.q.W.~.~.~.oXW.k.9.8.r.0.8.e.R..X.X^.^.~.'.T.t.{ 0.0.1.e.! uXMXMXAXyX@. .3.3.w.e.e.e.8.3.3.5.2.2.2.1.1.1.1.1.1.1.1.1.1.1.1.1.1.3.8.8.8.w.8.8.8.w.8.8.8.8.8.8.8.8.8.8.8.8.8.8.8.8.8.8.8.8.8.8.8.8.8.8.8.8.8.8.8.8.8.8.8.8.8.3.3.3.0.0.0.0.0.0.r.r.0.0.0.0.8.8.8.8.8.8.8.8.8.8.8.8.8.8.8.8.8.8.8.8.8.8.8.8.8.8.8.8.8.8.8.8.8.8.8.8.e.e.e.8.8.r.8.9.R..X^.^.^.~.~.'.[.t.1.3.0.1.r.T.#X~.~.^.~.^.c.XX~.q.` 3.{ { d.MXmXmXg.! 9.8.8.8.8.8.8.w.8.8.8.8.3.3.1.1.<.<.<.<.<.<.<.<.<.<.<.<.<.<.<.<.<.<.<.<.<.<.<.<.<.<.<.<.<.<.<.<.M ( <.<.<.<.Y Y Y 1.2.3.r.r.w.3.8.8.8.8.0.0.8.8.8.8.8.8.8.8.8.8.1.r.5.s a q a 6.B <.<.<.<.<.N N M <.<.<.<.<.<.Y Y ( ( ( 1.3.3.r.8.8.8.8.8.8.8.8.8.8.8.8.8.8.8.8.8.8.8.8.w.w.w.0.w.{ 8.R..X.X^..Xt.P 1.=.=.1.1.`.oX~.Q.~.oX'.t.T <.<.( I R.BXMXMXiX! ( k M 2.Y T Y ( ( 1.1.2.3.r.8.8.8.8.8.8.8.8.8.8.8.8.8.8.8.8.8.8.8.8.8.8.8.8.8.8.8.8.8.8.8.8.8.8.8.8.8.8.8.8.8.0.0.3.3.3.3.3.1.1.1.1.1.( ( ( ",
"Y Y ( ( <.<.<.1.<.<.<.<.<.<.<.<.<.<.<.<.<.<.<.<.<.<.<.<.<.<.<.<.<.<.<.<.<.<.<.<.<.<.<.<.<.<.<.<.<.M <.<.<.<.<.<.( ( ( 1.1.1.1.1.1.1.3.8.t.T.~.~.~..XW.f.9.8.r.0.{ q.R..X.X^.^.~.~.T.t.{ 0.0.1.e.! uXMXfXAX7X$.{ 3.3.w.e.e.8.0.3.3.3.3.5.3.3.3.3.1.1.1.1.3.2.3.3.3.8.8.8.8.8.8.8.8.8.8.8.8.8.8.8.8.8.8.8.8.8.8.8.8.8.8.8.8.8.8.8.8.8.8.8.8.8.8.8.8.8.8.8.8.8.8.8.8.8.8.8.8.8.8.8.8.8.8.8.8.8.8.8.8.0.0.0.8.8.8.8.8.8.8.8.8.8.8.8.8.8.8.8.8.8.8.8.8.8.8.8.8.8.8.8.8.8.8.8.e.w.w.8.8.0.1.9.'..Xc.^.^.~.~.'.'.t.1.8.r.8.q.'.#X~.~.^.~.~.^.XX~.q.` 3.| ] d.MXdXmXl.[ 9.8.8.8.8.8.8.8.8.8.8.8.8.3.1.1.<.<.<.<.<.<.<.<.<.<.<.<.<.<.<.<.<.<.<.<.<.<.<.<.<.<.<.<.<.<.<.<.<.<.<.<.<.<.1.1.1.2.3.w.w.w.w.8.8.8.8.8.8.0.8.8.8.8.8.8.8.8.8.0.8.r.2.a a a a 6.v <.=.<.1.<.<.<.<.<.<.<.1.<.Y Y Y ( ) 1.1.3.3.3.8.8.8.8.8.8.8.8.8.8.8.8.8.8.8.8.8.8.8.8.w.w.w.0.8.{ 8.T..X.X^..Xt.T 1.1.1.1.) '.W.~.Q.Q./.'.t.-.<.<.( I ~.BXMXMXiX! P k M 4.U T T ( ( 1.3.0.r.r.8.8.8.8.8.8.8.8.8.8.8.8.8.8.8.8.8.8.8.8.8.8.8.8.8.8.8.8.8.8.8.8.8.8.8.8.8.8.8.8.8.8.8.0.3.3.3.3.3.3.3.1.1.( ( Y ",
"( ( ( ( ( ( <.<.<.<.<.<.<.( <.1.<.<.<.<.<.<.<.<.<.<.<.<.<.<.<.<.<.<.<.<.<.<.<.<.<.<.<.<.<.<.<.<.<.N <.<.<.<.<.<.s ( 1.1.3.3.3.3.1.3.1.9.f.W.oX~.~.~.W.f.9.8.0.0.{ q.T..X~.^.^.~.W.E.t.) 0.0.1.9.! uXMXfXAXyX$.{ ` 3.w.e.e.8.8.3.3.3.0.0.0.0.r.r.3.3.3.3.3.3.3.3.8.8.8.8.8.8.8.8.8.8.8.8.8.8.8.8.8.8.8.8.8.8.8.8.8.8.8.8.8.8.8.8.8.8.8.8.8.8.8.8.8.8.8.8.8.8.8.8.8.8.8.8.8.8.8.8.8.8.8.8.8.8.8.8.0.0.0.0.8.8.8.8.8.8.8.8.8.8.8.8.8.8.8.8.8.8.8.8.8.8.8.8.8.8.8.8.8.8.8.8.w.w.w.8.8.0.1.9.'..Xc.^.^.~.~.R.'.q.1.8.r.8.q.'.#X~.~.~..X~.^.XX~.9.` 3.` { d.MXdXmXQ.[ 9.8.8.8.8.8.8.8.8.8.8.8.8.0.8.3.<.<.<.<.<.<.<.<.<.<.<.<.<.<.<.<.<.<.<.<.<.<.<.<.<.<.<.<.<.<.<.<.<.<.<.<.<.1.1.1.5.5.5.r.w.w.w.8.8.8.8.8.8.8.8.8.8.0.0.8.8.8.8.0.8.r.1.s a a a 6.B =.=.<.1.<.<.<.4.<.<.<.<.<.Y Y ( ( 1.3.3.3.3.8.8.8.8.8.8.8.8.8.8.8.8.8.8.8.8.8.8.8.8.8.w.w.w.8.w.{ 9.T..X.X^..Xh.) 1.3.2.3.8.[.R.Q.Q.Q.~.W.h.1.<.<.( I ~.BXvXvXdX! P j k 2.P T 1.1.3.3.8.8.8.8.8.8.8.8.8.8.8.8.8.8.8.8.8.8.8.8.8.8.8.8.8.8.8.8.8.8.8.8.8.8.8.8.8.8.8.8.8.8.8.8.8.8.8.8.8.0.0.3.0.3.3.3.1.1.1.( ",
"1.1.1.1.( ( ( ( ( ( ( ( ( ( ( <.<.<.<.<.<.<.<.<.<.<.<.<.<.<.<.<.<.<.<.<.<.<.<.<.<.<.<.<.<.<.<.<.<.N N <.<.<.( ( Y ( 1.3.0.0.0.3.3.3.8.0.h.W.OX~.~.~.W.f.} 9.8.0.| q.T..X^.^.^.~.W.E.t.{ 0.0.8.9.} kXMXsXAXyX%.{ 3.3.w.e.e.8.0.3.0.8.8.8.8.8.8.8.8.8.8.8.8.8.8.8.0.0.0.0.8.8.8.8.8.8.8.8.8.8.8.8.8.8.8.8.8.8.8.8.8.8.8.8.8.8.8.8.8.8.8.8.8.8.8.8.8.8.8.8.8.0.0.8.8.8.8.8.8.8.8.8.8.8.8.8.8.8.8.8.0.0.0.0.0.0.0.0.8.8.8.8.8.8.8.8.8.8.8.8.8.8.8.8.8.8.8.8.8.8.8.8.8.8.8.8.e.e.w.8.3.0.8.9.'..Xc.^.^.~.~.R.'.t.8.8.r.8.t.'.#X~.~.~..X~.^.XXR.9.` 3.| } d.mXdXBX^.[ 9.8.8.8.8.8.8.8.8.8.8.8.8.8.8.w.4.4.<.<.<.<.<.<.<.<.<.<.<.<.<.<.<.<.<.<.<.<.<.<.<.<.<.<.<.<.<.<.<.( ( ( 1.1.1.1.r.r.r.r.w.8.8.8.8.8.8.8.8.8.8.8.8.8.0.8.8.8.8.0.w.r.<.p a a a 6.<.<.<.<.<.<.<.N 4.4.<.<.( <.( ( 1.1.3.0.r.0.0.8.8.8.8.8.8.8.8.8.8.8.8.8.8.8.8.8.8.8.8.8.w.w.w.8.w.8.9.T..X.X^..XT.) 8.0.5.r.8.[.R.Q.Q.Q.~.W.h.8.2.1.( I /.BXvXvXdX! P j j 2.) 8.8.0.0.8.8.8.8.8.8.8.8.8.8.8.8.8.8.8.8.8.8.8.8.8.8.8.8.8.8.8.8.8.8.8.8.8.8.8.8.8.8.8.8.8.8.8.8.8.8.8.8.8.8.8.8.0.3.3.3.3.3.3.3.3.",
"5.5.5.1.1.1.( ( ( ( ( ( ( ( ( <.<.<.<.<.<.<.<.<.<.<.<.<.<.<.<.<.<.<.<.<.<.<.<.<.<.<.<.<.<.<.<.<.<.N N N <.<.( ( 1.1.1.3.0.0.8.8.0.0.8.0.I./.OX~.~.~.W.f.} 9.8.8.| q.T..X^.^.^.~.W.E.q.{ 0.8.8.9.} kXMXsXAXcX%.] 0.3.w.e.e.9.0.3.0.8.8.8.8.8.8.8.8.8.8.8.8.8.8.8.0.0.0.0.8.8.8.8.8.8.8.8.8.8.8.8.8.8.8.8.8.8.8.8.8.8.8.8.8.8.8.8.8.8.8.8.8.8.8.8.8.8.8.0.0.0.0.8.8.8.8.8.8.8.8.8.8.8.8.8.8.8.8.8.0.0.0.0.0.0.0.0.8.8.8.8.8.8.8.8.8.8.8.8.8.8.8.8.8.8.8.8.8.8.8.8.8.8.8.8.e.e.w.8.3.0.1.9.'..X^.^.^.~.~.R.'.t.8.w.w.8.q.'.#X~.~.~..X~.^.XXR.9.` 3.| } d.mXmXBX^.[ 9.0.8.8.8.8.8.8.8.8.8.8.8.8.8.r.5.6.<.<.<.<.<.<.<.<.<.<.<.<.<.<.<.<.<.<.<.<.<.<.<.<.<.<.<.<.<.<.<.( 1.1.1.2.2.3.r.r.w.8.8.8.8.8.8.8.8.8.8.8.8.8.8.8.0.8.8.8.8.8.w.r.1.p a a x 6.4.4.<.=.=.<.N N 4.<.<.<.( <.( ( 3.3.0.0.r.r.w.w.8.8.8.8.8.8.8.8.8.8.8.8.8.8.8.8.8.8.8.8.w.w.w.8.w.8.9.T..X.X^..XT.8.r.r.r.r.8.[.R.~.).Q.~.W.h.8.7.1.1.{ (.BXvXvXmX+.) j N 6.1.8.8.8.8.8.8.8.8.8.8.8.8.8.8.8.8.8.8.8.8.8.8.8.8.8.8.8.8.8.8.8.8.8.8.8.8.8.8.8.8.8.8.8.8.8.8.8.8.8.8.8.8.8.0.0.0.0.3.3.3.3.3.0.0.3.",
"7.7.5.5.5.2.1.1.( ( ( ( ( ( ( <.<.<.<.<.<.<.<.<.<.<.<.<.<.<.<.<.<.<.<.<.<.<.<.<.<.<.<.<.<.<.<.<.<.N N N <.<.( ( 2.2.3.3.0.0.0.8.0.0.8.9.I.oX/.~.~.~.W.k.} 9.8.8.| q.T..X^.^.^.~.R.W.9.) | 0.) 9.} kXMXsXAXcXg.] 3.3.w.e.e.8.0.3.8.8.8.8.8.8.8.8.8.8.8.8.8.8.8.8.3.3.3.3.0.0.8.8.8.8.8.8.8.8.8.8.8.8.8.8.8.8.8.8.8.8.8.8.8.8.8.8.8.8.8.8.8.8.8.8.8.0.0.0.3.3.3.0.8.8.8.8.8.8.8.8.8.8.8.8.8.8.8.8.0.3.0.0.0.0.0.0.0.0.8.8.8.9.9.9.8.8.8.8.8.8.8.8.8.8.8.8.8.8.8.8.8.8.8.8.w.w.w.8.3.0.8.0.'..Xx.^.^.~.~.R.R.t.8.w.8.8.9.R.#X~.~.~..XR.~..XR.9.` 3.| } d.mXmXBX(.[ 8.3.0.0.0.0.8.8.8.8.8.8.8.8.8.8.5.6.6.<.<.<.<.4.<.<.<.<.<.<.<.<.<.<.<.<.<.<.<.<.<.<.<.<.<.<.<.<.j ( 1.5.5.7.3.3.r.8.8.8.8.8.8.8.8.8.8.8.8.8.8.8.8.8.8.8.8.8.8.8.w.r.=.t a a x 4.6.4.<.=.=.M j N j j j j <.<.1.1.r.r.0.0.0.8.r.r.8.8.8.8.8.8.8.8.8.8.8.8.8.8.8.8.8.8.8.8.w.w.w.8.w.8.9.R.XX.X^..XT.1.8.r.r.r.9.[.R.~.~.Q.~.R.h.8.r.2.3.| OXBXsXvXMX@.) _ 2.N.1.e.8.8.8.8.8.e.e.q.8.8.8.8.8.8.8.8.8.8.8.8.8.8.8.8.8.0.0.0.0.0.0.8.8.8.8.8.8.8.8.8.8.8.8.8.8.8.8.8.8.8.8.8.8.r.r.r.3.3.3.0.3.0.0.0.",
"3.7.7.7.3.3.3.3.( ( ( ( ( ( ( ( <.<.<.<.<.<.<.<.<.<.<.<.<.<.<.<.<.<.<.<.<.<.<.<.<.<.<.<.<.<.<.<.<.( <.( <.( ( ( r.7.0.0.0.0.8.8.r.0.8.9.I.OXOX~.~.~.R.k.9.9.8.8.| q.R..X^.^.^.~.W.T.9.) | 8.{ 9.} kXMXaXMXcXg.] 0.0.w.w.w.8.0.0.8.8.8.8.8.8.e.r.9.8.8.8.8.8.8.8.8.3.3.3.8.8.8.8.8.8.8.8.8.8.8.8.8.8.8.8.8.8.8.8.8.8.8.8.8.8.8.8.8.8.8.8.8.8.8.8.8.0.8.0.3.3.0.0.8.8.8.8.8.8.8.8.8.8.8.8.8.8.8.8.0.0.0.0.0.0.0.0.0.0.8.8.8.9.9.9.8.8.8.8.8.8.8.8.8.8.8.8.8.8.8.8.8.8.8.8.8.8.w.8.1.0.8.9.'.OX^.^.^.~.~.T.'.q.8.w.8.8.9.R.oX~.~.~.~.~.~.OXT.9.) 3.{ } d.kXmXBX(.[ 8.3.3.3.0.8.8.8.8.8.8.8.8.8.8.8.7.5.6.<.<.<.4.6.<.<.<.<.<.<.<.<.<.<.<.<.<.<.<.<.<.<.<.<.<.<.<.<.Y ( 1.3.7.r.r.r.8.8.8.8.8.8.8.8.8.8.8.8.8.0.8.8.8.8.8.8.8.8.8.8.w.r.=.t a a a 4.6.5.<.=.Y Y j j ( ( ( ( <.1.1.3.r.r.3.8.8.8.8.r.8.8.8.8.8.8.8.8.8.8.8.8.8.8.8.8.8.8.8.8.8.8.w.8.8.8.9.R.XX.X^..XI.) 8.0.8.r.| [.~.~.~.~.~.T.f.8.r.7.0. .tXBXaXvXBXd.{ 1.5.r.1.r.8.8.8.8.8.8.8.8.8.8.8.8.8.8.8.8.8.8.8.8.8.8.8.8.8.0.8.0.8.0.8.8.8.8.8.8.8.8.8.8.8.8.8.8.8.8.8.8.8.8.8.8.8.r.r.r.8.0.8.0.0.0.0.0.",
"8.8.8.8.8.8.8.8.8.8.8.8.8.8.8.0.1.1.1.( ( ( Y Y ( ( ( ( ( ( ( ( 1.1.<.1.<.1.1.1.<.<.<.<.<.( <.Y T T ) 1.1.1.3.8.8.8.8.8.8.8.8.8.8.r.{ } R.~.~.~.~.~.R.9.8.8.r.8.8.q.T..X.X^.^.~.oXI.9.{ 0.r.8.{ d.hXBXcXbXcXQ.E 9.w.w.w.w.w.8.8.8.8.8.8.8.8.8.8.8.8.8.8.8.8.8.8.8.8.8.8.8.8.8.8.8.8.8.8.8.8.8.8.8.8.8.8.8.8.8.8.8.8.8.8.8.8.8.8.8.8.8.8.8.8.8.8.8.8.8.8.8.8.8.8.8.8.8.8.8.8.8.8.8.8.8.8.8.8.8.8.8.8.8.8.8.8.8.8.8.8.8.8.8.8.8.8.8.8.8.8.8.8.8.8.8.8.8.8.8.8.8.8.8.0.8.8.8.8.8.8.8.8.9.h.T.W.~.~.~.~./.[.I.0.8.r.r.T e.'.~.~.^.^.~.~.~./.W.t.0.0.0.] s.kXBXbXhX&.8.3.3.0.0.0.8.8.8.8.8.8.8.8.0.w.r.7.5.5.<.<.<.<.4.4.M N N N N N M N N N N N <.<.<.<.<.<.<.<.=.=.0.0.0.8.8.8.8.8.8.8.8.8.8.8.8.8.8.8.8.8.8.8.8.8.8.8.8.8.8.8.8.8.7.7.c 7 a a a 4.7.7.8.1.1.T T Y ) ) 1.1.3.8.8.8.8.8.8.8.8.8.8.8.8.8.8.8.8.8.8.8.8.8.8.8.8.8.8.8.8.8.8.8.8.8.8.8.8.8.9.j..X~.^.~.q.8.8.0.9.{ q.W.~.^.^.~.OXT.9.8.0.3.0.} hXMXBXcXvXc.} 3.r.r.3.3.8.8.8.8.8.8.8.8.8.8.8.8.8.8.8.8.8.8.8.8.8.8.8.8.8.8.8.8.8.8.8.8.8.8.8.8.8.8.8.8.8.8.8.8.8.8.8.8.8.8.8.8.8.8.8.8.8.8.8.8.8.8.8.8.",
"8.8.8.8.8.8.8.8.8.8.8.8.8.8.8.8.1.1.1.1.1.( ( ( ( ( ( ( ( ( ( ( ( <.<.<.=.<.Y ( Y Y Y Y <.<.1.( 1.1.1.1.8.8.8.8.8.8.8.8.8.8.8.8.8.r.{ } R.~.~.~.~..XR.9.8.8.r.3.8.t.T..X.XXX^.~.OXI.9.{ r.r.8.} d.hXBXcXbXbXQ.E 9.8.w.w.w.w.w.8.8.8.8.8.8.8.8.8.8.8.8.8.8.8.8.8.8.8.8.8.8.8.8.8.8.8.8.8.8.8.8.8.8.8.8.8.8.8.8.8.8.8.8.8.8.8.8.8.8.8.8.8.8.8.8.8.8.8.8.8.8.8.8.8.8.8.8.8.8.8.8.8.8.8.8.8.8.8.8.8.8.8.8.8.8.8.8.8.8.8.8.8.8.8.8.8.8.8.8.8.8.8.8.8.8.8.8.8.8.8.8.8.8.8.8.0.8.8.8.8.8.9.9.h.T.W.~.~.~.~./.'.T.0.8.r.r.T e.'.~.~.^.^.~.~.~.oXT.t.r.8.9.{ s.jXNXbXcX#.| 3.3.0.0.0.8.8.8.8.8.8.8.0.7.7.r.7.5.5.1.<.1.<.<.<.N N M M M M N N N N N N <.<.Y Y <.1.1.1.1.1.8.8.8.8.8.8.8.8.8.8.8.8.8.8.8.8.8.8.8.8.8.8.8.8.8.8.8.8.8.8.8.8.7.7.s 7 q a h <.5.3.8.8.8.1.1.1.1.1.1.8.8.8.8.8.8.8.8.8.8.8.8.8.8.8.8.8.8.8.8.8.8.8.8.8.8.8.8.8.0.0.8.8.8.8.8.8.8.8.9.j..X~.^.~.q.8.8.0.9.] q.W.~.^.^.~.OXT.0.| 0.0.0.} cXvXBXcXvXc.} { e.9.3.3.8.8.8.8.8.8.8.8.8.8.8.8.8.8.8.8.8.8.8.8.8.8.8.8.8.8.8.8.8.8.8.8.8.8.8.8.8.8.8.8.8.8.8.8.8.8.8.8.8.8.8.8.8.8.8.8.8.8.8.8.8.8.8.8.",
"8.8.8.8.8.8.8.8.8.8.8.8.8.8.8.8.3.3.3.5.3.1.1.1.1.1.1.1.1.1.1.1.( ( ( ( ( ( ( ( ( ( ( 1.1.1.2.3.8.8.8.8.8.8.8.8.8.8.8.8.8.8.8.8.8.r.{ 9.W.OX~.~.~..XR.9.8.8.r.3.8.t.T..X.X.X^.~.OXI.e.{ r.r.8.} d.cXBXcXbXbX^.W 9.8.w.w.w.w.8.8.8.8.8.8.8.8.8.8.8.8.8.8.8.8.8.8.8.8.8.8.8.8.8.8.8.8.8.8.8.8.8.8.8.8.8.8.8.8.8.8.8.8.8.8.8.8.8.8.8.8.8.8.8.8.8.8.8.8.8.8.8.8.8.8.8.8.8.8.8.8.8.8.8.8.8.8.8.8.8.8.8.8.8.8.8.8.8.8.8.8.8.8.8.8.8.8.8.8.8.8.8.8.8.8.8.8.8.8.8.8.8.8.8.8.8.8.8.8.8.8.8.8.9.h.W.W.~.~.~.~.~.'.T.9.8.8.8.T e.'..X~.^.^.~.Q.~.oXT.t.0.8.9.{ f.lXNXbXcX#.| 3.3.0.0.0.8.8.8.8.8.8.8.0.7.7.5.5.w.5.5.1.<.<.<.<.<.N M M M M N j j j N <.<.1.Y ( ( 1.1.3.0.0.8.8.8.8.8.8.8.8.8.8.8.8.8.8.8.8.8.8.8.8.8.8.8.8.8.8.8.8.8.8.8.8.7.5.s 7 y a a 2.5.3.8.8.8.8.8.0.8.8.8.8.8.8.8.8.8.8.8.8.8.8.8.8.8.8.8.8.8.8.8.8.8.8.8.8.8.8.8.8.0.0.8.8.8.8.8.8.8.8.e.R..X~.^.~.q.8.8.0.| ] q.W.~.^.^.~.#XT.9.| 0.8.0.} mXvXbXcXMXc.} { e.9.3.3.8.8.8.8.8.8.8.8.8.8.8.8.8.8.8.8.8.8.8.8.8.8.8.8.8.8.8.8.8.8.8.8.8.8.8.8.8.8.8.8.8.8.8.8.8.8.8.8.8.8.8.8.8.8.8.8.8.8.8.8.8.8.8.8.",
"8.8.8.8.8.8.8.8.8.8.8.8.8.8.8.8.r.3.0.3.0.3.3.3.0.3.3.3.0.3.0.3.3.2.3.2.3.2.3.2.2.2.3.3.3.7.r.r.0.8.8.8.8.8.8.8.8.8.8.8.8.8.8.8.8.r.8.9.W.OX~.~.~..XR.9.8.8.r.3.8.t.T.'..X.X^.~.OXI.e.{ r.r.8.9.g.cXBXcXbXbX^.W 9.8.w.5.w.w.8.8.8.8.8.8.8.8.8.8.8.8.8.8.8.8.8.8.8.8.8.8.8.8.8.8.8.8.8.8.8.8.8.8.8.8.8.8.8.8.8.8.8.8.8.8.8.8.8.8.8.8.8.8.8.8.8.8.8.8.8.8.8.8.8.8.8.8.8.8.8.8.8.8.8.8.8.8.8.8.8.8.8.8.8.8.8.8.8.8.8.8.8.8.8.8.8.8.8.8.8.8.8.8.8.8.8.8.8.8.8.8.8.8.8.8.8.8.8.8.8.8.8.8.9.h.W./.~.~.~.~.~.'.T.9.8.8.8.T e.'..X^.^.^.~.Q.~.oXW.t.0.9.9.] f.zXNXbXmX*.| 3.3.0.0.8.8.8.8.8.8.8.8.0.w.w.5.5.w.w.w.5.<.<.<.<.<.<.<.<.M <.j j j ( ( ( ( 1.( 1.1.1.3.3.r.r.8.8.8.8.8.8.8.8.8.8.8.8.8.8.8.8.8.8.8.8.8.8.8.8.8.8.8.8.8.8.8.8.7.5.s 7 y 9 a 2.5.3.8.8.8.0.r.r.8.8.8.8.8.8.8.8.8.8.8.8.8.8.8.8.8.8.8.8.8.8.8.8.8.8.8.8.8.8.8.8.0.0.8.8.8.8.8.8.8.9.q.R..X~.^.~.q.8.{ 0.9.{ q.W.~.^.^.~.#XT.9.| r.8.0.@.bXvXbXcXMX2X} { e.8.3.3.8.8.8.8.8.8.8.8.8.8.8.8.8.8.8.8.8.8.8.8.8.8.8.8.8.8.8.8.8.8.8.8.8.8.8.8.8.8.8.8.8.8.8.8.8.8.8.8.8.8.8.8.8.8.8.8.8.8.8.8.8.8.8.8.",
"8.8.8.8.8.8.8.8.8.8.8.8.8.8.8.8.0.0.0.0.8.0.8.3.0.0.0.0.0.0.0.0.r.r.r.r.r.r.r.r.r.r.r.r.r.7.r.r.0.8.8.8.8.8.8.8.8.8.8.8.8.8.8.8.8.r.8.9.W.OX~.~.~..XR.9.8.8.r.3.8.t.I..X.XXX^.~.OXI.e.{ r.r.8.9.v.cXBXcXbXNX^.[ 9.8.w.5.w.w.8.8.8.8.8.8.8.8.8.8.8.8.8.8.8.8.8.8.8.8.8.8.8.8.8.8.8.8.8.8.8.8.8.8.8.8.8.8.8.8.8.8.8.8.8.8.8.8.8.8.8.8.8.8.8.8.8.8.8.8.8.8.8.8.8.8.8.8.8.8.8.8.8.8.8.8.8.8.8.8.8.8.8.8.8.8.8.8.8.8.8.8.8.8.8.8.8.8.8.8.8.8.8.8.8.8.8.8.8.8.8.8.8.8.8.8.0.8.0.0.8.8.8.{ 9.I.[./.~.~.~.~.~.'.T.9.8.8.8.T e.[..X^.^.^.^.Q.~./.W.t.0.9.9.{ f.zXNXbXMXl.} 0.0.0.0.8.8.8.8.8.8.8.8.0.w.w.1.w.w.w.w.5.1.1.1.1.1.<.<.j s j j ( ( ( ( ( ( ( 3.3.3.8.8.8.w.w.8.8.8.8.8.8.8.8.8.8.8.8.8.8.8.8.8.8.8.8.8.8.8.8.8.8.8.8.8.8.8.8.7.4.s y y 9 a 2.5.3.8.8.8.8.8.3.8.8.8.8.8.8.8.8.8.8.8.8.8.8.8.8.8.8.8.8.8.8.8.8.8.8.8.8.8.8.8.8.0.0.8.8.8.8.8.8.9.9.q.R..X~.^.~.q.8.{ 0.8.] q.W.~.^.^.~.OXW.9.| r.8.0.$.MXvXbXcXMX5X} { 9.8.3.3.8.8.8.8.8.8.8.8.8.8.8.8.8.8.8.8.8.8.8.8.8.8.8.8.8.8.8.8.8.8.8.8.8.8.8.8.8.8.8.8.8.8.8.8.8.8.8.8.8.8.8.8.8.8.8.8.8.8.8.8.8.8.8.8.",
"8.8.8.8.8.8.8.8.8.8.8.8.8.8.8.8.8.8.8.8.8.8.8.8.8.8.8.8.8.8.8.8.r.r.r.r.r.r.r.r.r.r.8.8.8.3.8.8.8.8.8.8.8.8.8.8.8.8.8.8.8.8.8.8.8.r.9.q..XOX~.~.~..XR.9.8.8.r.3.8.t.I..X.XXX^.~.OXI.e.{ r.r.8.9.l.cXBXcXBXNX(.} 9.8.w.7.w.w.8.8.8.8.8.8.8.8.8.8.8.8.8.8.8.8.8.8.8.8.8.8.8.8.8.8.8.8.8.8.8.8.8.8.8.8.8.8.8.8.8.8.8.8.8.8.8.8.8.8.8.8.8.8.8.8.8.8.8.8.8.8.8.8.8.8.8.8.8.8.8.8.8.8.8.8.8.8.8.8.8.8.8.8.8.8.8.8.8.8.8.8.8.8.8.8.8.8.8.8.8.8.8.8.8.8.8.8.8.8.8.8.8.8.8.8.0.8.0.8.8.8.8.{ e.I.oXoX~.~.~.~.~.W.T.9.8.8.8.T e.[..X~.^.^.^.Q.~./.W.f.9.9.9.{ f.zXNXcXMXz.} 0.0.0.r.8.8.8.8.8.8.8.8.8.w.w.8.w.w.w.w.w.8.3.3.2.2.1.1.=.Y Y ( ( 1.1.1.1.1.1.0.8.8.8.8.8.8.8.8.8.8.8.8.8.8.8.8.8.8.8.8.8.8.8.8.8.8.8.8.8.8.8.8.8.8.8.8.8.8.8.7.4.p y a 9 y 2.7.r.8.8.8.8.8.3.8.8.8.8.8.8.8.8.8.8.8.8.8.8.8.8.8.8.8.8.8.8.8.8.8.8.8.8.8.8.8.8.0.0.8.8.8.8.8.8.9.9.f.R..X~.^..Xq.8.{ 0.8.] q.W.~.^.^.~.OXW.9.| r.8.0.s.MXvXbXbXAX5X9.{ 9.9.0.3.8.8.8.8.8.8.8.8.8.8.8.8.8.8.8.8.8.8.8.8.8.8.8.8.8.8.8.8.8.8.8.8.8.8.8.8.8.8.8.8.8.8.8.8.8.8.8.8.8.8.8.8.8.8.8.8.8.8.8.8.8.8.8.8.",
"8.8.8.8.8.8.8.8.8.8.8.8.8.8.8.8.8.8.8.8.8.8.8.8.8.8.8.8.8.8.8.8.8.8.8.8.8.8.8.8.8.8.8.8.8.8.8.8.8.8.8.8.8.8.8.8.8.8.8.8.8.8.8.8.8.0.9.q..XOX~.~.~.~.R.9.8.8.r.3.8.t.I..X.XXX^.~.oXI.e.{ r.r.8.} z.cXMXcXBXBX(.} 9.8.w.7.w.8.8.8.8.8.8.8.8.8.8.8.8.8.8.8.8.8.8.8.8.8.8.8.8.8.8.8.8.8.8.8.8.8.8.8.8.8.8.8.8.8.8.8.8.8.8.8.8.8.8.8.8.8.8.8.8.8.8.8.8.8.8.8.8.8.8.8.8.8.8.8.8.8.8.8.8.8.8.8.8.8.8.8.8.8.8.8.8.8.8.8.8.8.8.8.8.8.8.8.8.8.8.8.8.8.8.8.8.8.8.8.8.8.8.8.8.8.8.8.8.8.8.8.8.9.e.R.oXoX~.~.~.~.~.'.T.9.8.8.1.T 9.[.OX~.~.Q.^.Q.~./.W.t.9.9.9.{ f.zXNXbXMX^.} 8.8.r.8.9.8.8.8.8.8.8.8.w.w.w.w.w.w.w.w.w.w.w.w.w.5.3.3.2.1.1.1.1.1.1.3.3.3.8.8.8.8.8.8.8.8.8.8.8.8.8.8.8.8.8.8.8.8.8.8.8.8.8.8.8.8.8.8.8.8.8.8.8.8.8.8.8.8.8.7.4.p y a 9 y 6.7.r.8.8.8.8.8.3.8.8.8.8.8.8.8.8.8.8.8.8.8.8.8.8.8.8.8.8.8.8.8.8.8.8.8.8.8.8.8.8.0.0.8.8.8.8.8.8.8.9.f.'..X~.^.OXq.8.8.0.8.] q.W.~.^.^.~.#XT.9.0.r.1.9.g.MXvXcXcXAX8X9.{ 9.9.0.0.8.8.8.8.8.8.8.8.8.8.8.8.8.8.8.8.8.8.8.8.8.8.8.8.8.8.8.8.8.8.8.8.8.8.8.8.8.8.8.8.8.8.8.8.8.8.8.8.8.8.8.8.8.8.8.8.8.8.8.8.8.8.8.8.",
"8.8.8.8.8.8.8.8.8.8.8.8.8.8.8.8.8.8.8.8.8.8.8.8.8.8.8.8.8.8.8.8.8.8.8.8.8.8.8.8.8.8.8.8.r.r.r.r.8.8.8.8.8.r.r.r.8.8.8.8.8.8.8.8.8.0.9.q..XOX~.~.~.~.R.9.8.8.r.3.8.t.I..X.XXX^.~.oXI.e.{ r.r.8.} z.mXMXcXMXBX(.} 9.8.7.7.7.8.8.8.8.8.8.8.8.8.8.8.8.8.8.8.8.8.8.8.8.8.8.8.8.8.8.8.8.8.8.8.8.8.8.8.8.8.8.8.8.8.8.8.8.8.8.8.8.8.8.8.8.8.8.8.8.8.8.8.8.8.8.8.8.8.8.8.8.8.8.8.8.8.8.8.8.8.8.8.8.8.8.8.8.8.8.8.8.8.8.8.8.8.8.8.8.8.8.8.8.8.8.8.8.8.8.8.8.8.8.8.8.8.8.8.8.8.8.8.8.8.8.8.8.9.e.R.oXoX~.~.~.~.~.W.T.9.8.8.1.R 9.[.OX~.^.Q.^.Q.~.oXW.t.e.9.9.{ f.zXNXbXBXc.} 8.8.8.8.9.8.8.8.8.8.8.8.w.5.w.w.w.w.w.w.w.w.r.w.w.w.r.w.w.w.3.3.3.3.0.0.r.r.r.8.8.8.8.8.8.8.8.8.8.8.8.8.8.8.8.8.8.8.8.8.8.8.8.8.8.8.8.8.8.8.8.8.8.8.8.8.8.8.8.7.4.y y a q y 6.5.3.8.8.8.0.r.r.8.8.8.8.8.8.8.8.8.8.8.8.8.8.8.8.8.8.8.8.8.8.8.8.8.8.8.8.8.8.8.8.0.0.8.8.8.8.8.8.8.9.h.'..X~.^.OXq.8.8.0.8.] q.W.~.^.^.~.#XT.9.8.r.1.9.g.BXvXcXbXAX8X9.{ e.9.0.0.8.8.8.8.8.8.8.8.8.8.8.8.8.8.8.8.8.8.8.8.8.8.8.8.8.8.8.8.8.8.8.8.8.8.8.8.8.8.8.8.8.8.8.8.8.8.8.8.8.8.8.8.8.8.8.8.8.8.8.8.8.8.8.8.",
"8.8.8.8.8.8.8.8.8.8.8.8.8.8.8.8.8.8.8.8.8.8.8.8.8.8.8.8.8.8.8.8.8.8.8.8.8.8.8.8.8.8.8.8.8.8.8.8.8.8.8.8.8.8.8.8.8.8.8.8.8.8.8.8.8.{ 9.h.W.~.~.~.~.OXT.} 9.r.r.r.0.0.R.#X^.XXOX~.oXI.9.{ 0.r.8.Q x.bXbXbXnXBXxXW } r.r.r.r.r.8.8.8.8.8.8.8.8.8.8.8.8.8.8.8.8.8.8.8.8.8.8.8.8.8.8.8.8.8.8.8.8.8.8.8.8.8.8.8.8.8.8.8.8.8.8.8.8.8.8.8.8.8.8.8.8.8.8.8.8.8.8.8.8.8.8.8.8.8.8.8.8.8.8.8.8.8.8.8.8.8.8.8.8.8.8.8.8.8.8.8.8.8.8.8.8.8.8.8.8.8.8.8.8.8.8.8.8.8.8.8.8.8.8.8.8.8.8.8.8.8.8.8.9.e.R.'.W.~.~.~.U.~.W.9.8.8.8.T K T.R.OX~.^.^.!.^.^.~.[.f.{ e.| } @.NXmXbXvXiX} 9.8.8.8.8.8.w.8.8.8.8.8.8.w.w.8.8.8.8.8.8.w.w.8.8.w.w.8.8.8.0.8.8.8.8.8.8.8.8.8.8.8.8.8.8.8.8.8.8.8.8.8.8.8.8.8.8.8.8.8.8.8.8.8.8.8.8.8.8.8.8.8.8.8.8.8.8.8.8.7.4.p y a 9 y 2.5.3.8.8.8.8.8.3.8.8.8.8.8.8.8.8.8.8.8.8.8.8.8.8.8.8.8.8.8.8.8.8.8.8.8.8.8.8.8.8.0.0.8.8.8.8.8.8.8.9.h..X.X~.x..X9.9.8.{ { | f.T.~.^.^.~..XI.| 8.8.r.{ ~.MXsXcXbXMXyX! { e.8.0.0.8.8.8.8.8.8.8.8.8.8.8.8.8.8.8.8.8.8.8.8.8.8.8.8.8.8.8.8.8.8.8.8.8.8.8.8.8.8.8.8.8.8.8.8.8.8.8.8.8.8.8.8.8.8.8.8.8.8.8.8.8.8.8.8.",
"8.8.8.8.8.8.8.8.8.8.8.8.8.8.8.8.8.8.8.8.8.8.8.8.8.8.8.8.8.8.8.8.8.8.8.8.8.8.8.8.8.8.8.8.8.8.8.8.8.8.8.8.8.8.8.8.8.8.8.8.8.8.8.8.8.{ 9.h.W.~.~.~.~.OXj.} 9.r.5.r.0.0.T.oX^.XXOX~.oXI.9.{ 0.r.8.Q ^.MXMXcXMXBXxX[ { r.r.2.T T ) r.8.8.8.8.8.8.8.8.8.8.8.8.8.8.8.8.8.8.8.8.8.8.8.8.8.8.8.8.8.8.8.8.8.8.8.8.8.8.8.8.8.8.8.8.8.8.8.8.8.8.8.8.8.8.8.8.8.8.8.8.8.8.8.8.8.8.8.8.8.8.8.8.8.8.8.8.8.8.8.8.8.8.8.8.8.8.8.8.8.8.8.8.8.8.8.8.8.8.8.8.8.8.8.8.8.8.8.8.8.8.8.8.8.8.8.8.8.8.8.8.8.9.e.R.[.W.~.~.~.U.~.T.9.8.r.8.T K `.R.#X~.^.^.!.^.^.~.[.f.{ 9.} } @.NXmXbXvXcX! 8.9.8.9.8.8.8.8.8.8.8.8.8.w.w.8.8.8.8.8.8.w.w.8.8.8.w.8.8.8.8.8.8.8.8.8.8.8.8.8.8.8.8.8.8.8.8.8.8.8.8.8.8.8.8.8.8.8.8.8.8.8.8.8.8.8.8.8.8.8.8.8.8.8.8.8.8.8.8.7.4.p y a 9 y 6.5.3.8.8.8.8.8.3.8.8.8.8.8.8.8.8.8.8.8.8.8.8.8.8.8.8.8.8.8.8.8.8.8.8.8.8.8.8.8.8.0.0.8.8.8.8.8.8.9.9.h..X.X~.~.~.9.8.8.{ { | f.R.x.^.^.~..XI.| 8.8.r.{ ~.MXsXcXMXMXyX! { e.8.0.0.8.8.8.8.8.8.8.8.8.8.8.8.8.8.8.8.8.8.8.8.8.8.8.8.8.8.8.8.8.8.8.8.8.8.8.8.8.8.8.8.8.8.8.8.8.8.8.8.8.8.8.8.8.8.8.8.8.8.8.8.8.8.8.8.",
"8.8.8.8.8.8.8.8.8.8.8.8.8.8.8.8.8.8.8.8.8.8.8.8.8.8.8.8.8.8.8.8.9.9.8.9.8.8.8.8.8.8.8.8.9.8.8.8.8.8.8.8.8.8.8.8.8.8.8.8.8.8.8.8.8.{ 9.h.W.~.~.~.~.OXj.} 9.r.5.r.0.0.R.#X~.XXXX~.OXI.9.{ r.r.8.Q rXBXMXvXvXbXxX@.] 8.3.Y r t ) t.8.8.8.8.8.8.8.8.8.8.8.8.8.8.8.8.8.8.8.8.8.8.8.8.8.8.8.8.8.8.8.8.8.8.8.8.8.8.8.8.8.8.8.8.8.8.8.8.8.8.8.8.8.8.8.8.8.8.8.8.8.8.8.8.8.8.8.8.8.8.8.8.8.8.8.8.8.8.8.8.8.8.8.8.8.8.8.8.8.8.8.8.8.8.8.8.8.8.8.8.8.8.8.8.8.8.8.8.8.8.8.8.0.8.8.8.8.0.0.8.9.9.e.R.[.W.~.~.~.U.~.W.9.8.r.8.T K `.R.OX~.^.^.!.^.^.~.[.f.8.9.} 9.@.NXmXbXvXcXs.e.9.8.8.8.8.8.8.8.8.8.8.w.w.w.8.8.8.8.8.8.8.8.8.8.8.8.8.8.8.8.8.8.8.8.8.8.8.8.8.8.8.8.8.8.8.8.8.8.8.8.8.8.8.8.8.8.8.8.8.8.8.8.8.8.8.8.8.8.8.8.8.8.8.8.8.8.8.8.7.4.p y a 9 y 2.5.3.8.8.8.8.8.0.8.8.8.8.8.8.8.8.8.8.8.8.8.8.8.8.8.8.8.8.8.8.8.8.8.8.8.8.8.8.8.8.0.0.8.8.8.8.8.8.8.9.h..X.X~.^.~.9.8.{ { { | f.W.~.^.^.~..XI.| 8.8.r.{ ~.MXsXcXMXMXdX} { e.8.0.0.8.8.8.8.8.8.8.8.8.8.8.8.8.8.8.8.8.8.8.8.8.8.8.8.8.8.8.8.8.8.8.8.8.8.8.8.8.8.8.8.8.8.8.8.8.8.8.8.8.8.8.8.8.8.8.8.8.8.8.8.8.8.8.8.",
"8.8.8.8.8.8.8.8.8.8.8.8.8.8.8.8.8.8.8.8.8.8.8.8.8.8.8.8.8.8.8.8.9.8.8.8.8.8.8.8.8.8.8.8.8.8.8.8.8.8.8.8.8.8.8.8.8.8.8.8.8.8.8.8.8.{ 9.h..X~.~.~.~.OXj.{ 8.r.5.0.0.0.I.#X^.XXXX~.oXI.9.{ r.r.8.} rXBXvXcXvXbXxX$.{ 0.3.s 2 2 ) t.8.8.8.8.8.8.8.8.8.8.8.8.8.8.8.8.8.8.8.8.8.8.8.8.8.8.8.8.8.8.8.8.8.8.8.8.8.8.8.8.8.8.8.8.8.8.8.8.8.8.8.8.8.8.8.8.8.8.8.8.8.8.8.8.8.8.8.8.8.8.8.8.8.8.8.8.8.8.8.8.8.8.8.8.8.8.8.8.8.8.8.8.8.8.8.8.8.8.8.8.8.8.8.8.8.8.8.8.8.8.8.8.0.0.8.8.8.8.8.8.8.9.e.R.[.W.~.~.~.U.~.W.9.8.r.8.P K '.R.OX~.^.^.Q.^.^.~..Xh.8.9.} 9.@.NXmXMXMXmXd.k.e.9.8.8.8.8.8.8.8.8.8.w.w.w.w.8.8.8.8.8.8.8.8.8.8.8.8.8.8.8.8.8.8.8.8.8.8.8.8.8.8.8.8.8.8.8.8.8.8.8.8.8.8.8.8.8.8.8.8.8.8.8.8.8.8.8.8.8.8.8.8.8.8.8.8.8.8.8.7.1.y y a 9 y 2.5.3.8.8.8.8.8.0.8.8.8.8.8.8.8.8.8.8.8.8.8.8.8.8.8.8.8.8.8.8.8.8.8.8.8.8.8.8.8.8.0.0.8.8.8.8.8.8.8.9.h..X.X~.^.~.9.{ { 0.{ ] f./.~.^.^.~..XI.| 8.8.r.{ ~.MXvXnXbXMXdXs.{ e.8.r.0.8.8.8.8.8.8.8.8.8.8.8.8.8.8.8.8.8.8.8.8.8.8.8.8.8.8.8.8.8.8.8.8.8.8.8.8.8.8.8.8.8.8.8.8.8.8.8.8.8.8.8.8.8.8.8.8.8.8.8.8.8.8.8.8.",
"8.8.8.8.8.8.8.8.8.8.8.8.8.8.8.8.8.8.8.8.8.8.8.8.8.8.8.8.8.8.8.8.8.8.8.8.8.8.8.8.8.8.8.8.8.8.8.8.8.8.8.8.8.8.8.8.8.8.8.8.8.8.8.8.r.8.9.h..X~.~.~.~.OXg.{ 9.r.3.0.8.9.T.#X~..XXX~..XI.9.{ r.q.8.} tXBXMXvXvXcXxX$.} 0.3.<.s Y ` 0.8.8.8.8.8.8.8.8.8.8.8.8.8.8.8.8.8.8.8.8.8.8.8.8.8.8.8.8.8.8.8.8.8.8.8.8.8.8.8.8.8.8.8.8.8.8.8.8.8.8.8.8.8.8.8.8.8.8.8.8.8.8.8.8.8.8.8.8.8.8.8.8.8.8.8.8.8.8.8.8.8.8.8.8.8.8.8.8.8.8.8.8.8.8.8.8.8.8.8.8.8.8.8.8.8.8.8.8.8.8.8.8.8.8.8.8.8.8.8.8.8.9.e.R.oX/.~.~.~.U.~.W.9.8.r.8.K K }.R..X^.^.^.Q.^.^.~..Xh.8.9.{ 9.@.NXmXMXMXmXd.k.9.8.9.8.8.8.8.0.0.0.8.8.w.8.8.8.8.8.8.8.8.8.8.8.8.8.8.8.8.8.8.8.8.8.8.8.8.8.8.8.0.0.0.0.8.8.8.8.8.8.8.8.8.8.8.8.8.8.8.8.8.8.8.8.8.8.8.8.8.8.8.8.8.8.8.8.8.8.7.<.t 7 a q y 2.5.3.8.8.8.8.8.0.8.8.8.8.8.8.8.8.8.8.8.8.8.8.8.8.8.8.8.8.8.8.8.8.8.8.8.8.8.8.8.8.0.0.8.8.8.8.8.8.8.q.R..X.X~.^.R.9.8.{ 0.{ / q.oX~.^.^.~..XI.| 8.8.q.{ ~.MXZXvXbXAXdXd.{ e.8.0.0.8.8.8.8.8.8.8.8.8.8.8.8.8.8.8.8.8.8.8.8.8.8.8.8.8.8.8.8.8.8.8.8.8.8.8.8.8.8.8.8.8.8.8.8.8.8.8.8.8.8.8.8.8.8.8.8.8.8.8.8.8.8.8.8.",
"8.8.8.8.8.8.8.8.8.8.8.8.8.8.8.8.8.8.8.8.8.8.8.8.8.8.8.8.8.8.8.8.8.8.8.8.8.8.8.8.8.8.8.8.8.8.8.8.8.8.8.8.8.8.8.8.8.8.8.8.8.8.8.8.r.9.e.I..X~.~.~.~.OXj.{ 9.r.3.0.8.9.T.#X~..XXX~..Xf.9.{ r.q.r.} tXBXMXnXnXcXxXI.} 0.2.2.2.2.8.8.8.8.8.8.8.8.8.8.8.8.8.8.8.8.8.8.8.8.8.8.8.8.8.8.8.8.8.8.8.8.8.8.8.8.8.8.8.8.8.8.8.8.8.8.8.8.8.8.8.8.8.8.8.8.8.8.8.8.8.8.8.8.8.8.8.8.8.8.8.8.8.8.8.8.8.8.8.8.8.8.8.8.8.8.8.8.8.8.8.8.8.8.8.8.8.8.8.8.8.8.8.8.8.8.8.8.8.8.8.8.8.8.8.8.8.8.8.8.8.8.8.9.q.R.oX/.~.~.~.U.~.W.9.8.r.8.K K [.R..X~.^.^.!.^.^.~..Xh.8.9.} 9.@.NXmXMXMXmXj.k.,.Q 8.8.r.r.8.0.0.0.8.8.w.8.8.8.8.8.8.8.8.8.8.8.8.8.8.8.8.8.8.8.8.8.8.8.8.8.8.0.0.0.0.0.0.0.8.8.8.8.8.8.8.8.8.8.8.8.8.8.8.8.8.8.8.8.8.8.8.8.8.8.8.8.8.8.8.8.2.<.t 7 a q a 6.5.3.8.8.8.0.8.0.8.8.8.8.8.8.8.8.8.8.8.8.8.8.8.8.8.8.8.8.8.8.8.8.8.8.8.8.8.8.8.8.0.0.8.8.8.8.8.8.e.h.'.'.~.~.^.R.9.8.8.0.{ I } /.~.^.^.~..XI.9.8.8.q.{ ~.AXZXvXMXAXMXg.{ e.8.r.3.8.8.8.8.8.8.8.8.8.8.8.8.8.8.8.8.8.8.8.8.8.8.8.8.8.8.8.8.8.8.8.8.8.8.8.8.8.8.8.8.8.8.8.8.8.8.8.8.8.8.8.8.8.8.8.8.8.8.8.8.8.8.8.8.",
"8.8.8.8.8.8.8.8.8.8.8.8.8.8.8.8.8.8.8.8.8.8.8.8.8.8.8.8.8.8.8.8.8.8.8.8.8.8.8.8.9.9.8.8.8.8.8.8.8.8.8.8.8.8.8.8.8.8.8.8.8.8.8.8.r.9.e.I..X~.~.~.g..Xj.Q 8.8.3.8.8.9.I.#X~..XXX~..Xf.9.{ r.q.r.} yXBXvXvXvXcXzX~.} 8.2.5.7.3.3.8.8.8.8.8.8.8.8.8.8.8.8.8.8.8.8.8.8.8.8.8.8.8.8.8.8.8.8.8.8.8.8.8.8.8.8.8.8.8.8.8.8.8.8.8.8.8.8.8.8.8.8.8.8.8.8.8.8.8.8.8.8.8.8.8.8.8.8.8.8.8.8.8.8.8.8.8.8.8.8.8.8.8.8.8.8.8.8.8.8.8.8.8.8.8.8.8.8.8.8.8.8.8.8.8.8.8.8.8.8.8.8.8.8.8.8.0.8.8.8.8.8.9.q.T.oX/.~.~.~.U.~.W.9.8.r.8.t K  XR..X~.XX^.!.^.^.~..Xh.8.9.{ 9.@.NXmXMXMXmXuX+Xh.9.8.8.w.r.8.0.0.0.w.8.w.8.8.0.0.0.3.0.8.8.8.8.8.8.8.8.8.8.8.8.8.8.8.8.0.0.0.0.0.0.0.0.0.0.8.8.8.8.8.8.8.8.8.8.8.8.8.8.8.8.8.8.8.8.8.8.8.8.8.8.8.8.8.8.8.8.2.<.i 7 a q y 6.5.3.8.8.8.8.8.0.8.8.8.8.8.8.8.8.8.8.8.8.8.8.8.8.8.8.8.8.8.8.8.8.8.8.8.8.8.8.8.8.0.0.8.8.8.8.8.8.t.'.[.'.~.~.^.R.9.8.8.r.{ I } /.~.^.^.~..XI.| 8.8.q.{ /.SXAXvXMXAXMXj.{ 9.8.r.3.8.8.8.8.8.8.8.8.8.8.8.8.8.8.8.8.8.8.8.8.8.8.8.8.8.8.8.8.8.8.8.8.8.8.8.8.8.8.8.8.8.8.8.8.8.8.8.8.8.8.8.8.8.8.8.8.8.8.8.8.8.8.8.8.",
"8.8.8.8.8.8.8.8.8.8.8.8.8.8.8.8.8.8.8.8.8.8.8.8.8.8.8.8.8.8.8.8.8.8.8.8.8.8.8.8.8.8.8.8.8.8.8.8.8.8.8.8.8.8.8.8.8.8.8.8.8.8.8.8.r.8.e.I.oX~.~.~.g..Xh.{ 8.w.3.3.3.8.T..X^.^.XX~.'.T.8.) 0.e.9.! yXBXvXvXcXcXbX(.W { 9.9.0.9.| 9.9.8.8.8.8.8.8.8.8.8.8.8.8.8.8.8.8.8.8.8.8.8.8.8.8.8.8.8.8.8.8.8.8.8.8.8.8.8.8.8.8.8.8.8.8.8.8.8.8.8.8.8.8.8.8.8.8.8.8.8.8.8.8.8.8.8.8.8.8.8.8.8.8.8.8.8.8.8.8.8.8.8.8.8.8.8.8.8.8.8.8.8.8.8.8.8.8.8.8.8.8.8.8.8.8.8.8.8.8.8.8.8.8.8.8.0.8.8.8.8.r.8.q.T.#X.X.X~.~.Q.~.W.9.8.r.1.t K #XR..X~.(.^.c.XX^..X.Xh.8.8.8.9.@.NXNXMXBXMXBXkXXXg.9.9.8.{ 8.8.8.8.w.8.w.8.0.3.0.3.0.3.0.0.0.0.8.8.8.8.8.8.8.8.8.8.8.8.8.8.8.8.0.0.0.0.0.0.8.8.8.8.8.8.8.8.8.8.8.8.8.w.8.8.8.8.8.8.8.8.8.8.8.8.8.8.8.8.8.0.6.M i 7 a q a 6.5.7.0.8.8.8.8.8.8.8.8.8.8.8.8.8.8.8.8.8.8.8.8.8.8.8.8.8.8.8.8.8.8.8.8.8.8.8.8.8.8.9.9.9.8.8.8.9.T.[.[.'.R.~.~.R.q.{ 8.t.8.P | W.R.~.^.~.oXT.9.8.8.q.{ OXBXvXMXMXAXMXg.} } { r.3.8.8.8.8.8.8.8.8.8.0.0.0.0.0.0.0.8.8.8.8.8.8.8.8.8.8.8.8.8.8.8.8.8.8.8.8.8.8.8.8.8.8.8.8.8.8.8.8.8.8.8.8.8.8.8.8.8.8.8.8.8.8.8.8.",
"e.w.e.w.e.8.w.8.w.w.w.w.e.8.e.w.8.8.8.8.r.r.8.8.8.8.8.8.8.8.8.8.8.8.8.8.8.8.8.8.8.8.8.8.8.8.8.8.r.0.0.0.0.r.0.0.8.8.8.8.8.8.8.8.8.>.9.R.#XOX~./.~.~.f.{ 1.r.r.5.1.P '.j.XX^.^.~.[.0.( ) r.9.@.@.iXmXMXcXvXMXvXaXyXrXc.%.&.W W W s.9.9.9.e.9.9.9.e.e.r.0.0.8.0.8.8.8.8.8.8.8.8.8.8.8.8.8.8.8.8.8.0.3.3.3.3.3.3.3.3.3.3.3.3.3.3.3.3.3.3.3.3.3.0.3.0.0.3.3.3.3.0.0.3.3.3.3.0.0.3.3.3.0.0.0.3.3.0.3.3.3.3.3.3.3.3.3.3.3.3.3.3.3.3.0.8.8.8.8.8.8.8.8.8.w.w.w.w.w.w.8.r.r.0.0.8.1.1.8.8.8.h.'.XX.Xm.XXc.5XXXj.9.) 1.1.+ 8.}..X~.^.^.^.M.@X.X.X}.b.w.r.r.9.f.jXNXMXvXvXcXmXmXmXuX^.d.} } { 8.8.q.r.8.8.3.3.5.3.5.r.r.r.7.3.5.3.7.3.7.3.0.0.8.0.8.3.3.0.0.0.0.3.0.0.0.0.w.w.w.w.w.w.w.w.w.w.w.w.w.w.w.w.w.w.w.w.w.w.w.w.w.w.w.w.w.w.w.7.6.h q a a q a 6.5.7.w.w.w.w.w.w.w.w.w.w.w.w.w.w.r.r.r.r.w.r.r.r.r.r.r.r.r.r.r.r.r.r.r.r.r.r.w.8.9.q.I.T.[.[.'.T.oXoX[.W.~.oX~.T.{ 9.8.t.1.+ 8.[.W./.R.~.oXh.8.r.T 9.d.^.mXMXcXMXMXbXtXg.] I ) q.3.3.3.3.r.r.3.2.3.5.1.1.1.5.5.7.7.w.w.w.w.w.w.w.w.w.w.w.w.w.w.7.r.7.7.7.7.7.7.7.7.7.7.7.7.7.7.7.7.0.w.0.w.0.w.3.r.r.r.r.r.r.r.r.",
"8.8.8.8.8.8.8.8.8.8.8.8.8.8.8.8.8.8.8.8.8.8.8.9.8.9.8.8.8.8.8.8.8.8.w.8.w.8.w.8.w.w.w.w.r.r.w.w.r.0.0.0.0.0.0.0.8.8.8.8.8.8.8.8.q.8.9.h..X~.~.~.U.W.h.8.1.r.7.<.<.K }.j.^.!.^.~.[.0.^ ) r.9.! O.yXmXBXMXvXMXSXSXAXMXMXcXyXtXOXOXd.s.9.} ! Q E E E E { { { 0.0.r.8.8.8.8.8.8.r.r.8.8.8.8.8.8.8.8.0.0.0.0.0.3.0.3.0.0.0.0.0.3.0.3.0.3.0.3.0.3.0.3.0.0.0.3.0.3.0.0.0.3.0.3.0.0.0.3.0.3.0.0.0.3.0.3.0.0.0.0.0.3.0.3.0.0.0.3.0.3.0.0.8.8.8.8.8.8.8.8.8.8.8.8.8.8.8.8.9.8.8.8.8.3.1.) 8.9.h..X$X@X@XpXc.5XXXR.e.0.2.1.+ 8.}..X~.^.^.^.M.@X+X}.}.p.8.w.8.{ f.gXBXBXvXZXvXvXMXMXbXhXtXrXd.@.! E E { 8.8.r.r.r.3.3.1.1.( 8.3.0.3.0.3.0.0.8.8.8.8.8.8.8.8.8.8.8.8.8.8.8.8.w.w.w.w.w.w.w.w.w.w.5.5.w.w.w.w.w.w.w.w.w.w.5.5.w.w.w.w.w.w.w.7.6.h 9 a a q s 6.7.7.w.w.w.w.w.w.w.w.w.w.w.w.w.w.r.r.r.r.r.r.r.r.r.r.r.r.w.w.w.w.w.w.w.w.w.w.r.8.h.I.R.~.oXoX~.W././.W.R.~.oXW.f.] 0.8.r.T + r. X[.W.R.Y.oXt.1.8.8.! @.OXBXMXcXBXvXcXkXtXU.} ] / t.r.w.8.8.8.3.1.0.3.3.3.3.3.1.5.7.w.w.w.w.w.w.w.w.w.5.5.w.w.w.w.r.7.7.7.r.7.r.7.r.7.r.7.r.7.r.r.3.3.3.3.3.3.3.3.3.3.3.3.3.8.8.3.",
"8.8.8.8.8.8.8.8.8.8.8.8.8.r.r.r.8.9.8.9.r.0.r.0.9.9.8.9.8.9.9.9.8.8.8.8.8.8.8.8.8.8.8.8.8.8.8.8.8.8.8.8.8.8.8.8.8.8.8.8.8.8.8.8.w.8.8.f.R.'.W.W.W.W.T.r.8.5.4.c s t `.R.^.!.^.~.[.3.s ( 0.e.} W #.5XmXmXcXaXcXvXvXMXMXBXBXNXkXjXjXjX$XOXXX.XR.T.9.} 9.} | { { { 9.8.8.8.8.8.r.r.8.8.8.8.8.8.8.8.8.8.8.8.8.8.8.8.8.8.8.8.8.8.8.8.8.8.8.8.8.8.8.8.8.8.8.8.8.8.8.8.8.8.8.8.8.8.8.8.8.8.8.8.8.8.8.8.8.8.8.8.8.8.8.8.8.8.8.8.8.8.8.8.8.8.8.8.8.8.8.8.8.8.8.8.8.8.8.8.9.0.0.0.0.0.0.0.{ | t.'..X.Xm.x.c.XX.Xh.r.3.1.Y + 8.}..X~.^.^.^.^.@X.X'.}.t.8.8.e.{ f.OXBXMXvX0XZXMXMXBXBXBXBXNXkXtX^.f.9.} } { 8.r.r.r.q.r.q.r.8.8.8.8.8.8.8.8.8.8.8.8.8.8.8.8.8.8.8.8.8.8.8.8.8.8.8.8.8.8.8.8.8.8.8.8.8.8.8.8.8.8.8.8.8.8.8.8.8.8.8.8.8.8.8.3.2.a 9 y y 7 s 5.7.7.w.w.w.w.w.8.8.8.8.8.8.8.8.8.w.w.w.w.w.w.w.w.8.8.8.8.8.8.8.8.8.8.8.8.8.8.w.e.T.R.~.~.R.~.R.R.~.~.~.R.~./.R.f.{ q.1.( p p t. X[./.R.~.[.e.T 1.r.{ [ OXNXbX9XSXsXvXMXcXtX^.%.@.! ! Q Q 9.q.f.h.{ { 9.0.0.0.8.8.8.8.8.8.8.8.8.8.8.8.8.8.8.8.8.8.w.r.w.r.w.r.w.r.w.r.w.r.w.r.w.w.8.8.8.8.8.8.8.8.8.8.8.8.8.8.8.8.",
"r.0.r.r.r.r.r.0.8.8.9.9.9.9.r.0.8.8.8.8.0.0.0.8.9.9.8.8.8.8.8.8.0.0.0.0.8.8.8.8.8.8.8.8.8.8.8.8.r.0.0.0.r.r.r.r.8.8.8.8.8.8.8.8.w.w.8.q.`.'.[.#X[.}.`.8.1.<.c i y 1 `.R.^.!.^.~.[.1.u ( r.t.9.[ W Q.zXBXBXBXMXMXbXBXBXBXNXNXzXzXNXNXzXzXzXzXlXlX;X;X=XoX[.W.I.T.e.r.8.8.8.8.8.8.8.8.8.8.8.8.8.8.8.8.9.8.8.8.8.8.8.8.9.8.8.8.8.8.8.8.8.8.8.8.8.8.8.8.8.8.8.8.8.8.8.8.8.8.8.8.8.8.8.8.8.8.8.8.8.8.8.8.9.8.8.8.8.8.9.8.8.8.8.8.8.8.8.8.8.8.8.8.8.8.8.8.8.8.8.8.8.9.{ { | 0.| 0.0.0.) | t.T.'.'.~..XXXXX'.A.r.5.j p + 8.}..X~.^.^.^.^.~..X.X[.e.T 8.9.{ +.^.cXMXZXvXsXvXcXcXcXmXmXmXNXNXjXjXOXR.s.} E T Q E 8.8.8.9.8.9.8.9.8.9.8.9.8.9.9.9.9.9.9.9.9.9.9.9.9.9.9.8.8.8.8.8.8.8.8.8.8.8.8.8.8.8.8.8.8.8.8.8.8.8.8.8.8.8.8.8.8.8.8.8.2.y 9 y y y s 5.7.3.0.8.8.8.8.8.8.8.8.8.8.8.8.8.8.8.8.8.8.8.8.8.8.8.8.8.8.8.8.8.8.9.8.8.8.8.t.t..X~.~.~.~.~.~.~.~./.~.~./.OX~.f.) Z.( s r r t.[.'.~.R.~.[.9.U Y 0.) { ~.zXbXaXvXDXDXZXMXMXmXmXkXXXXXx.j.d.s.! Q Q Q } } } 9.9.9.8.8.8.8.8.8.8.8.8.8.8.8.8.8.8.8.8.8.8.8.8.8.8.8.8.8.8.8.8.8.8.8.8.9.8.9.8.9.9.9.9.9.9.9.9.9.9.9.",
"0.| 0.` 3.` 3.` 3.| 0.| 3.` 3.3.1.1.` ` 3.3.1.) 0.0.0.0.0.0.0.0.3.3.3.0.0.0.0.0.r.r.r.r.r.r.r.r.r.r.r.r.r.r.r.r.r.r.r.r.r.r.r.r.5.5.w.w.t.`.`.}.`.A.r.=.s b a q 7 1 `.R.^.^.^.^.'.8.p s 7.r.r.9.L } ~.jXjXkXkXhXhXgXgXgXgX=X$X=XOXOXOXOXOXOX#X.X#X#X[.'.T.R.I.T.e.r.8.8.{ 8.8.8.8.8.8.8.8.8.8.9.9.9.9.9.9.9.9.9.9.9.9.9.9.9.9.9.9.9.9.9.9.9.9.9.9.9.9.9.9.9.9.9.9.9.9.9.9.9.9.9.9.9.9.9.9.9.9.9.9.9.9.9.9.9.9.9.9.9.9.9.9.9.9.9.8.0.0.0.0.0.0.0.1.1.{ ) 8.8.8.8.{ { ) ` ` ` ` ` ) ) 0.E.[.[.#X#X'.}.G.r.7.6.N y 2 8.'..X~.^.^.^.^.~.R.'.[.9.I { 9.Q ! l.yXBXSXSXSXBXBXBXBXBXBXNXNXNXNXNXNXzXjX$XR.h.k.9.{ { { } 9.9.9.9.9.9.9.} 9.9.9.9.9.9.9.9.9.9.9.9.9.9.9.9.9.9.9.9.9.9.9.9.9.9.9.9.9.9.9.9.9.9.9.9.9.9.9.9.9.9.9.9.9.9.9.8.2.y < y y 3 s 3.3.3.0.0.8.8.8.8.8.9.9.9.9.9.9.9.9.9.9.9.9.9.9.9.9.9.9.9.9.9.9.9.9.9.9.9.9.9.t.k.#XOXoX~.~./.OXOXOXOXOX~././.R.q.1.N.j p r r t.'..X~.~..X[.0.p u ( ` | q.=XNXbXvXvXvX0XsXsXvXMXBXMXmXmXiXtXXXx.g.j.g.f.s.} } 9.9.9.9.9.9.9.9.9.9.9.9.9.9.9.9.9.9.8.9.8.9.8.9.8.9.9.9.9.9.9.9.9.9.8.{ 8.{ 8.{ 8.{ 9.| 9.| 9.| 9.| ",
"3.3.3.3.3.3.3.3.3.0.0.0.3.3.3.3.3.3.3.3.3.3.3.3.1.1.1.1.1.1.1.1.5.5.5.5.5.5.5.5.1.1.1.1.1.1.1.1.4.4.<.4.<.4.<.4.<.<.<.<.<.<.<.<.c =.=.U T 1.1.1.3.T s p i i q q 7 1 `.R.^.c.^.^..X8.p s 4.5.5.3.0.{ |  .f.$.$.%.g.%.$.@.} } 9.9.k.s.9.9.9.9.9.} { { { { { { { / 8.8.8.8.8.8.r.r.0.0.0.0.0.0.0.8.8.8.8.8.8.8.8.8.8.8.8.8.8.8.8.8.8.8.8.8.8.8.8.8.8.8.8.8.8.8.8.8.8.8.8.8.8.8.8.8.8.8.8.8.8.8.8.8.8.8.8.8.8.8.8.8.9.8.8.8.8.8.8.8.0.3.0.3.0.3.0.3.3.3.3.3.3.3.3.3.0.0.0.3.3.3.3.3._ ` 3.V.C.q.0.t.8.3.1.N N N m p r 8.'..X~.~.~.^.~.~.R.oX[.9.P / e.} [ @.z.^.8X7XyXkXhXhXhXkXkXjXgXgXjXjXjXjX=X$X#X[.'.h.q.9.e.9.9.9.9.9.9.9.9.9.9.9.9.9.9.9.9.9.9.9.9.9.9.9.9.9.8.8.8.8.8.8.8.8.8.8.8.8.8.8.8.8.8.8.8.8.8.8.8.8.8.8.8.8.8.8.8.0.2.y < y y 3 s 3.5.3.3.3.0.0.0.0.8.8.8.8.8.8.8.8.9.9.9.9.8.8.9.8.8.8.8.8.8.8.8.9.8.8.8.9.8.8.e.e.T.I.T.I.T.T.T.W.T.T.R.I.T.W.f.| 2.N e a i r t.'..X.X~..X[.1.y y y _ _ ) W.zXNXbXvXvXvXvXvXvXvXMXmXmXBXBXBXBXNXzXuX$X.Xh.s.9.9.9.8.8.8.8.8.8.8.8.8.8.8.8.8.8.8.8.9.9.9.9.9.8.8.8.9.9.9.9.9.9.9.e.9.9.9.9.9.9.9.9.9.9.9.9.0.0.0.9.",
"2.2.2.2.2.2.2.2.2.2.2.2.2.2.2.2.<.<.2.2.<.<.<.<.j j j j j j j j j j j j j j j j a a a a a a a a p p a p a p a p a a a a a a a a q a i r r y p r s t i q e z z z q t ].W.~.z.^.^.#X9.t p c N N 2.F.Z.3.0.0.) { {  .9.9.| 8.8.r.r.9.9.9.9.8.8.8.8.r.r.r.0.0.8.1.1.3.2.3.3.3.7.7.r.3.3.3.3.3.3.3.3.8.8.8.8.8.8.8.8.8.8.8.8.8.8.8.8.8.8.8.8.8.8.8.8.8.8.8.8.8.8.8.8.8.8.8.8.8.8.8.8.8.8.8.8.8.8.8.8.8.8.8.8.8.8.8.8.8.8.8.8.8.8.8.0.5.5.5.5.5.2.5.5.5.2.5.2.5.2.5.5.5.1.1.2.2.2.j k N k j j s u u u p u a 7 q e e y r 8.'.XX~.~.^.^.^.^.R.oX[.| P / t.r.9.] } @.@.+.! +.+.} +.+.} } f.} [ [ [ [ [ ] 9.8.8.8.8.8.8.8.8.8.8.8.8.8.8.9.8.8.8.8.8.8.8.8.8.8.8.8.8.8.0.0.8.8.8.8.8.8.8.8.8.8.8.8.8.8.8.8.8.8.8.8.0.0.8.8.8.8.8.8.8.8.8.3.2.y 9 y y 9 j 2.3.5.5.3.5.3.3.3.0.8.8.8.8.8.8.8.8.8.8.8.8.8.8.8.8.8.8.8.8.8.8.8.8.8.8.8.8.8.8.8.8.8.9.8.9.8.9.8.r.r.0.8.0.r.8.( N l 8 a a r t.#X.X^.~.oX}.3.i y 9 h h g C.E.OXjXBXBXBXBXBXBXmXmXkXkXkXjXtXOX~.R.#X'.T.f.9.8.8.8.8.8.8.8.8.8.8.8.8.8.8.8.8.8.8.8.8.8.8.8.8.8.8.8.8.8.8.8.8.8.8.8.0.0.0.0.0.0.0.0.1.1.1.1.3.3.3.3.",
"h h h h h h h h y y y y y y y y y y y y y y y y q q q q q q q q q q q q q q q q q q q q q q q q q q q q q q q q q q q q q q q q q e a q q a a y a q e z m z z e q t ].W.~.z.^.^.$Xe.U i p a h C a a j 2.2.1.( 1.) ) 1.1.2.2.5.5.3.1.2.3.5.3.5.2.2.1.2.5.5.3.7.7.7.7.7.7.7.5.5.5.5.5.5.5.5.5.5.5.7.7.7.7.7.7.7.7.7.7.7.7.7.7.7.7.7.7.7.7.7.7.7.7.7.7.7.7.7.7.7.7.7.7.7.7.7.7.7.7.7.7.7.7.7.7.7.7.7.7.7.7.7.7.7.7.7.7.7.7.7.7.7.7.4.4.4.4.2.2.2.2.j j j j j j j j s a y y y 9 7 9 q 7 7 q q 9 y a t a q 0 8 q q y r 8.[.#X~.~.^.^.^.^.~.OX#X| K ) 3.0.0.0.0.0.8.9.9.9.8.{ { { 9.9.| | { | 0.0.0.8.1.3.r.r.r.r.0.3.0.3.0.3.0.3.0.3.3.3.3.3.3.3.3.3.3.3.3.3.3.7.7.5.7.5.7.5.7.5.7.5.7.5.7.5.7.5.7.7.7.5.7.5.7.5.5.5.7.5.7.5.7.5.7.5.V d 9 9 a q h 6.6.6.6.5.5.5.5.5.5.5.7.7.7.5.7.5.5.5.5.5.5.5.5.5.2.5.2.5.2.5.2.5.2.2.2.2.2.2.2.4.1.1.1.1.1.1.1.( ( ( Y s ( 1.1.s l f - h c p t.#X.X^.~.oX}.3.p q 9 e 7 y ) ) 9.oXR.~.~.^.~.g.g.g.g.s.$.} } } ] E { 1.1.3.3.7.7.7.7.5.7.5.7.5.7.5.7.5.7.5.7.5.7.7.5.5.7.5.7.5.7.5.2.2.2.2.2.2.2.2.( <.1.<.1.<.1.<.Y j Y j ( j ( j ",
"9 9 e e e e e 9 e e e e e e 9 9 e e w w e e e e e e e e w w w w w w w w w w e e w e e e w w w w w w w w w w w w e e e e e e w w e w w e e 9 e e q e e w z n n w 7 ) A.W.Q.^.^.XX$Xb.-.p p a 9 9 e e e e a a p t u p p p a a a a a p a p a p a a a a a a a a a a a a a a a a a a b b b b b b a a a a a a a a a a c c c c c c x x x x x x c c c c c c c c x c c c c c c c c c c c M M M M M M M M B B B B B B B B x x x x x x x x a a a a a a a a a a q q q a a e a a a a a e e e e e e e e e e a a a q q e q q i u t..X.X~.^.^.^.^.^..X.X'.h.T t 2.5.y.N.7.6.6.7.5.2.2.2.2.5.5.5.2.2.2.1.1.1.1.1.5.5.5.6.5.5.5.6.5.6.5.6.5.5.5.5.6.6.6.6.6.6.6.6.4.2.2.2.2.2.6.6.V V V V 4.V 4.V 4.V V V V V B V 4.V 4.V B V 4.V M M M M M M M m e e e q q q q q a a a a a a a a x x x x a a a a a a a a a a a a i a a a a a a a a a a a a a a a a y a a a a a y a a a a a a a q f d h a p =.t..X.X^.x.R.[.r.s a e q 9 q a j ( ` ) { { { / { ) / { { { { 3.3.1.5.1.2.2.2.M M B B M B B B M M M M M M M m x x x x a a i a a a i a a a a a a a a a y q a e a e a e q q q q y q q q ",
"q e q e e e e e q e q e q e e e e w e w q q q e q e e q e w e e w w w w w w e e w e e e w w w w q e e e e e q e e w e e e e e w e e w w e 9 9 9 q q w w w w w q , ) E.W.~.Q.^.XX.X}.b.5.p 7 9 a e z e e e a i i p p a a i i x x i e q i a a a a q q e e e e e e i i i i i i i i a i a i a i a i i q q q q q q q a a a a a a a a a a a a a a a a q q q q q q q q a a a a a a a a q q q q q q q q q q q q q q q q a a a a q q i i e e e e a a a a a a e e e e a a a a a q q e e e e w w w e e e q a a a a a q y t 8.`.#X.Xx.^.^.^.M.M.M..X'.e.R # a s m M C C m C x s s a s s s s s s s s s s s s a a a a a a a a a a a a a a a a q q q q q q q q 7 7 7 7 7 7 7 q q q q q q q q q q q q q q q q q q q q q q q q q e e e e e e e e e e e e q q q q q q q q q q q q e e e e e e e e q q q q q q e q e e e e e e e e e e e e e e e e q q q q e q q q e e e e e e e e 8 9 9 q r U t..X.XXX^.~.[.0.t 7 a e e a a p y y u u u u u u u u u u t t t t y y e e q q q q e w e e e e e e e e q q q q q q q q q q q q q e q q e e e e e e e e q q e e e e e e q q q q q q q q ",
"a e a e e e e e a e a e e e e e a e z e a e a e a e a e a e a e e e e e z z z z e e z z e e e e e d e d e e e d e e e d e d e d d d d d e e e e e e e e w q q q 1 8.[.oX~.Q.^.XXx.+X#X`.1.t r y a x x a a a a a a a a a x b b x x a x a a a a a a a a a a a a a a a a a a a a a a a a a a a p p a a a a a a a a a a a a a a a a a a a a a a a a a a a a a a a a a a a a a a a a a a a a a a a a a a a a a a a a a a a a a a a a a a a a a a a a a a a a x x x x a a a a a a a a a a a a a a a a i i 7 7 9 y s Y `.#XXX.Xx.^.XX^.M.M.M.+X.Xk.R @ p p a e e n n w e a a a a a a a a y y y y y y y a a a a a a a a a a x x x x x x x x x x x x x x a a x x a x a x x x x x x x x x x x x x x x x x x x x x x x x x e e e e e e e e e a a a a a a a a a a a a a a a a e x x a x a e e e e e e e e e e e e e e e e e e e e e e e e e e e e e e e e e e e e e e e e a 9 y a y t Y h.#X.X^.^.~.[.r.p r i q q a p a a y y y y y y y y y y y y y 9 q q 9 e e e w w w w w e e e e e e e e e e e e e e x a e e e e e e e e x z x z e e a e e e e e e e e e e e e e e e w e ",
"a a a a a q a q a a a a a q a q a a a q a q a a a a a a a a a a q q q q a q a a a q a q a q a q y q y q y q y q q q y q y q q q y y y 9 9 9 y y y y q q 7 7 7 i T f.[.OX~.Q.~.^.XX.X'.'.h.0.P 1 r i i i r t t t t t t r i i i i i i i i i i i i i i i i i i i i t t t t r r r p r r r r r r r r i i i i i i i i i i i i i i i i i i i i i i i i i i i i i i i i i i i i i i i i i i t t t t i i i i i i i i i i r r r i r r r r i t t t t t t t t t t t t t t t i i i i i i i i i i i i i i i i s t 1 , r ( r.`.[.#X@Xc.x.XX.X^.XXM.XX@X+Xn.9.T U p i 7 q e e q q 7 7 7 i 7 r i i i i i r r r r i i i i i a i a i 7 i i i i i q i 7 i i i i i i i i i q 7 q 7 7 i i q q i i i i i i i i i q q q i i i i q q a a q q i i i i i i i i i i i i i i i i i i i i i i a a a a a a i i q q q q q q i i q q q q q q q q q q q q q q q 7 7 7 q q 7 q 7 7 q q q q q q q y 1 1 t u T r.'.#X~.^.~.~.#XT.8.2.t i r r t t r r y y y y y y y y y y y y y y y e e e e e e e w e q i a a a a a a a a a a a a a a q q q q q q q q q q e e e q q q q q q q q q q q q q q q q q q q ",
"t t t t t t t t t t t t t t t t t t t t t t t t t t t t t t t t t t t r t t t t t t t t t t t t t t t r t t t t t t t t t t t t 1 1 1 1 t t t t t t r p t p p t b.'..X~.Q./.~.^.XXm.j.m.'.'.q.) 8.8.8.8.1.1.1.1.1.1.1.1.1.1.5.1.3.3.3.3.1.3.1.3.1.1.1.1.1.3.1.1.8.8.8.8.8.8.8.8.8.8.8.8.8.8.8.8.3.3.3.3.8.3.3.3.3.3.3.3.3.3.3.3.3.3.3.3.3.3.3.3.1.1.1.1.1.1.1.1.3.3.3.3.3.3.3.3.3.3.3.1.1.1.1.1.1.1.1.1.1.1.1.1.3.3.3.1.1.1.3.3.3.1.1.1.1.1.1.1.1.1.1.1.1.1.1.1.1.1.1.1.1.1.1.1.1.1.8.1.1.1.1.1.r.8.1.1.3.Z.].#X.XXXXXM.XX@X.Xx.XXXX.XXX@XXX'.b.T P t p s s p p p p p p t p t t t t t t p p p p t t t t t t t t t r t r t r t t t t t t t t t t r r r r t t t t r r r r r r r r t r r r r r t r r r r r r t r r r r r r r r r r p t t t t t t t t p p t p p p p p p p p p p p p p p p p p p p p p p p r r p p p p p p p t t t p r t t t t t t t t t t t t t t t 2 5 2 P r.{.#X#XQ.^.^.Q.OX[.`.{.r.1.T K t t t r t t t t t t t t p y p p u u u y t t t t y y p p p p p p p p p p p p p p p r r r t i t i i i t i t t t t t t t t t t t t t t t t r t t t t t t t ",
"0.0.0.0.0.0.0.0.0.0.0.0.0.0.0.0.0.0.0.0.0.0.0.0.0.0.0.0.0.0.0.0.0.0.0.0.0.0.0.0.0.0.0.0.0.0.0.0.0.0.0.0.0.0.0.0.0.0.0.0.0.0.0.0.0.0.0.0.0.0.0.r.0.8.w.r.r.q.t.t.+X@X.X~.Q././.Q.^.XX@X@X.X'.W.E.#X#X#X#X#X[.#X[.[.[.[.[.[.[.}.}.}.}.}.}.}.}.}.}.#X#X#X#X#X#X#X#X[.[.[.[.[.[.[.[.[.[.[.[.[.[.[.[.[.[.[.[.[.[.[.[.[.[.[.[.[.[.[.[.[.[.[.[.[.[.[.[.[.[.[.[.[.[.[.[.#XoX[.[.[.[.[.oX[.[.[.[.[.[.[.[.[.[.[.[.[.[.[.[.[.[.[.[.[.[.[.[.[.[.[.[.[.[.[.[.[.[.[.[.[.[.[.[.[.[.}.[.}.[.[.[.[.[.[.[.[.[.[.[.}.}.}.}. X[.'.W..XM.M.M.@X@X.X~.^.~.~.~..X#X#X#XI.h.t.q.t.r.r.r.q.e.q.q.q.q.q.q.q.q.q.q.q.r.q.q.e.e.e.e.e.e.e.e.t.t.t.t.t.t.t.t.t.t.t.t.t.t.t.t.t.t.t.t.t.t.t.t.t.t.t.t.t.t.t.t.t.t.t.t.t.t.t.t.t.t.t.t.t.t.t.t.q.q.q.q.q.q.q.e.q.e.q.e.q.e.q.e.r.r.r.r.r.r.r.r.r.q.q.q.q.q.q.e.q.e.e.e.q.q.q.q.q.q.q.q.q.q.q.q.q.q.q.q.q.q.q.q.r.e.q.e.t.t.q.r.q.t.q.e.q.e.q.e.t.9.0.t.}. X[.T.Q.(.Q.l.~.oX'.}.[.E.T.t.e.e.e.r.r.r.r.r.r.q.q.r.r.r.r.r.r.r.r.r.8.8.w.w.r.r.r.r.q.q.q.q.q.q.q.q.t.q.e.e.8.8.8.8.r.0.r.r.r.r.r.r.0.0.0.0.0.0.0.0.0.0.0.0.0.0.0.0.0.0.r.r.r.r.r.r.",
"[.[.[.}.[.[.[.[.[.[.[.[.[.[.[.[.[.[.[.[.[.W.[.W.[.W.[.E.[.[.[.[.W.W.W.W.W.W.W.].W.].].].W.W.W.].}. X}.}. X X X X}. X}.}.}.}. X[.[.[.[.[.[.[.[.}.}.#X#X#X#X#X#X#X@X@X.X~.Q.).).Q.^.XXpXXX~.~./.OX~.x.^.^.~.~.~.~.Q.U.R.R.R.R.R.R.~.~.~.~.~.~.~.~.^.^.^.^.^.^.^.~.~.R.R.R.R.R.R.R.R.R.R.R.R.R.U.U.Q.l.~.x.~.~.~.~.~.~.~.~.~.~.~.~.~.~.~.~.~.~.~.~.~.~.^.~.^.^.^.^.~.~.~.~.~.~.~.~.^.^.^.^.^.^.^.^.~.~.^.^.^.^.^.^.~.~.l.l.Q.Q.~.~.~.~.~.~.~.~.~.~.~.~.~.~.~.~.~.R.R.W.R.R.R.R.~.~.~.~.~.~.~.R.~.~..X#X[.[.[.'.R.j.XXM.M.XXXXXX.X.X~.~.~.~.~.~.~.~.OXOXOX#X#X.X#X#X#X#X#X#X#X#X#X#X#X#X#X#X#X#X#X#X#X#X#X#X#X#X#X#X.X.X.X.X.X.X.X.XXXXXXXXXXXXX.X.XXXXXXXXXXXXXXXXX.X.X.X.X.X.X.X.X.X.X.X.X.X.X.X.X.X.X.X.X.X.X.X.X#X#X#X#X#X#X#X#X#X#X#X#XoXoXoXoX#XoXoXoX[.[.[.oX#X#X#X#X#X#X#X#X#XXX.X#X#X#X#X#X#X#X#X#X#X#X#X#X#X#X#X#X#X#X#X#X#XOX#X#X#X#X#X#X#X#X#X#X#X#X#X#X$X#X#X[. X[.T.I.Q.(.!.l.^..X'.'././.Y.R.[.oX#X#X#X#X#X#X$X$X$X$X#X#X#X#X#X#X#X#X#X+X#X#X#X#X#X#X#X#X#X#X#X#X#X#X$X$X$X#X#X#X#X#X[.[.[.[.[.[.[.[.}.}.[.[.}.[.[.[.[.[.[.[.[.[.[.[.[.[.[.[.#X#X#X#X",
"W.W.W.W.W.W.W.W.W.W.W.W.W.W.W.W.R.R.R.R.R.R.R.R.R.R.R.R.R.R.R.R.R.R.Y.Y.Y.Y.R.R.R.Y.Y.Y.R.R.Y.Y.W.'.'.'.'.'.'.'.'.'.'.'.'.'.'.W.~.~.~.~..X.X.X.X.XXX.X.X.X.X.X.Xx.XX@X^.Q.).~.~.XX^.x.x.^.^.~.~.^.^.^.^.^.^.^.^.^.~.~.~.~.~.^.^.^.^.^.^.^.^.^.^.^.^.^.^.^.^.c.^.^.~.~.~.~.~.~.~.~.~.~.~.~.~.~.~.Q.!.^.^.^.^.^.!.!.(.^.(.!.^.!.!.^.^.^.^.^.^.^.^.^.^.^.^.^.^.^.^.^.^.^.^.^.^.^.^.^.^.^.^.^.^.^.^.Q.Q.^.^.^.^.^.Q.^.^.^.^.^.^.^.^.~.~.~.~.~.~.~.~.~.~.~.~.~.~.~.~.~.~.~.~.~.~.^.^.^.^.^.~.^.^.^.^..X.XR.T.T.W.OXOXXXXXXXXX^.x..XOX~./././.~.~.^.Q.l.^.^.^.~.~..XXX~.~.~.~.~..X.X.X.X.X.X.X.X.X.X.X~.~.^.~.^.~.^.~.^.~.^.~.^.~.^.~.^.^.^.^.^.^.^.^.^.^.^.^.^.^.^.^..X.X.X.X.X.X.XXXXXXX.X.X.X.X.X.X.X.X.X.X.XXX.X.X.X~.~.~.~.^.^.^.~.~.~.~.~.~.~.~.~.~.R.W.W.W.W.W.^.^.^.^.^.^.^.^.^.^.^.^.^.^.^.^.^.^.^.^.^.^.^.^.^.^.^.^.^.^.^.^.~.~.~.~.~.~.~.~.~.~.~.~.^.^.^.^.~.~..X.X.X'.OXOXQ.(.(.Q.^.XX.X.XQ.Q.U.Q.~.~.W.R..X.X.X.X.XXXXXXX.X.X.X.X.X.X.X.X.X.X^.^..X.XXXXX^.^.^..X^.^.^.^.^.^..X.X.X.X.X.X~.~..X.X.X.X.X.XW.W.~.~.W.W.W.W.~.~.~.~.~.~.~.~.~.~.~.~.~.~..X.X",
"/./.~.~.~.~.^.~.~.~.Q.Q.~.~.~.~.~.^.^.^.^.^.~.^.^.^.^.^.^.^.^.~.Q.Q.Q.Q.Q.Q.Q.Q.~.~.~.~.Q.Q.Q.Q.~.~.~.~.~.~.~.~.~.~.~.~.~.~.~.~.^.^.^.^.~..X.X.XXXXX.X^.^.^.^.~.^.XX@XXXXXc.x.^.^..X.X.X~.~.~.~.~..XXXXXXXrX5X^.^.^.~.~.~.~.~.^.z.!.^.Q.^.(.^.Q.^.^.^.^.c.c.c.c.^.~.~.~.~.~.^.~.^.^.^.~.^.~.^.^.^.^.^.^.^.^.^.^.^.^.^.^.^.^.^.^.XXXXXX^.^.^.~.~.~.~.~.~.~.~..X.X.X.X.X.X.X.XXX.X.X.XXXXXXXXXXXXXXXXXXX.X.X.X~.~.~.~.^.~.^.^.^.^.^.~.~.~.~.~.~.~.~.~.~.~.~.~.~.~.~.~.~.~.~.~.~.^.~.~.~.~.~.~.~.~.~.~.~.~.~.~.~.~.~.^.^.^.~.~.~.~.~.~.~.~.~.^.^.^.^.^.^.^.^.^.^.^.~.~.~.~.~.~.^..XXX.X.X~.~.~.~..X~.~.^.~.^.~.^.~.XX~.XX~.XX~.XX^.^.^.^.^.^.^.^.^.^.^.^.^.^.^.^.~.^.^.^.^.^.^.^.^.^.^.^.^.^.^.x.^.~.~..X.X.XXX.X.X.X~.~.OXXX^.c.^.^.^.^.^.^.^.^.^.^.^.^.^.^.^.^.^.^.^.^.^.^.^.^.^.^.^.^.^.^.^.^.^.^.^.^.^.^.^.^.^.^.^.^.^.^.^.^.^.^.~.^.~.^.~.^.~.^.~.~.~.~.~.~.^.^.^.^.^.XX^.^.^.^.^.^.^.^.^.^.^.~.~.~.~.~.~.~.~.~.~.^.^.^.^.^.^.~.~.~.~.~.~.~.~.~.^.^.^.^.^.^.^.^.^.^.^.^.^.^.^.^.^.^.^.^.^.^.^.^.^.^.^.^.^.^.^.^.^.^.^.^.^.^.~.Q.l.l.Q.^.^.^.^.^.^.^..X.X.X.X.X",
"Q.Q.~.~.~.Q.~.~.^.^.^.^.~.~.~.~.^.^.^.^.^.^.^.Q.x.z.^.z.x.z.x.z.^.~.~.~.~.~.~.~.~.~.~.~.~.~.~.~.~.~.~.~.~.~.~.~.^.^.^.^.~.~.~.^.!.!.~.^.~..X.X.X.X^..X^.^.^.^.^.~.^.XXXXM.M.M.m.x.~.R.W.~.~.~.~..X[..X^.c.c.c.c.^.^.~.~.~.~.^.^.^.^.^.Q.Q.~.~.~.^.^.XXXXXXXX@XXX^.Q.~.Q.~.Q.~.Q.^.^.^.~.~.(.~.^.^.^.^.^.^.^.^.^.^.^.^.^.^.^.^.^.^..X.X.X~.^.~.~.~.~.~.~..X.X.X.X.X.X.X.X.X.X.X.X.X.XXXXXXXXXXXXXXXXX.X.X.X.X.X.XoXoX~.~..X~.XX.X.X/.OX/.OX/.OX/.~.~.~.~.~.~.~.~..X~.~.~..X~..X~.~.~.~.~.~.~.~.~.OX/.OX/.OX/.OX/.OX/.OX/.OX/.OX/.~.~.~.~.~.~.~.~.~.~.~.~.~.~.~.~.^.^.~.~.~.~.~.~.~.~.~.~.~.~.~.~.~.~.~.~.~.~.~.~..X~..X~.~.~.~.~.~.~.~.~.~.~.~.~.~.~.~.~.~.~.~.~.~.~.~.~.^.^.^.^.^.^.^.^.^.^.^.^.~.~.~.^.XXXXXX.XOX~.~.~.~.^.^.^.^.^.^.^.^.^.^.^.x.^.x.^.x.^.x.^.^.^.^.^.^.^.^.^.^.^.^.^.^.^.^.^.^.^.^.^.^.^.^.^.^.^.^.^.^.^.^.^.^.^.~.^.~.~.^.^.^.^.^.^.^.Q.^.^.x.z.x.z.^.z.^.z.^.Q.^.^.^.^.^.Q.^.Q.~.Q.~.Q.~.Q.~.Q.~.Q.~.Q.~.Q.^.~.^.~.^.^.~.~.~.~.^.^.~.~.^.^.~.Q.~.Q.~.Q.~.Q.~.Q.~.Q.~.Q.~.Q.^.Q.^.Q.^.z.^.Q.^.Q.^.Q.^.Q.^.Q.(.^.^.^.^.Q.Q.Q.XXXXXXXX.X.X.X.X",
"Q.~.^.~.~.~.~.Q.^.^.~.~.~.~.~.~.XX^.XX^.XX~..X~..X~..X~..X~..X~.~.~.~.~.~.~.~.~.~.~.~.~.~.~.~.~.~.~.~.~.~.~.~.~.~.~.~.~.~.~.~.~.^.~.^.~.~.~..X.Xj.~..X.X~.~.~.^.~.~.x.c.M.M.M.M..X.X.X.XoXoX.XOXoX#X.X.XXXXXc.^.^.^.~.~.~.~.^.^.^.~.~.Q.U.~.~.~.~.~..X.XXXXXXXXXXX/..X/..X~..X/.~.~.~.~.~.~.~.~.~.~.~.^.~.~.~.~.~.~.~.~.~.~.~.^.x.x.^..X~.~.~.~.~.~.~.~..X.X.X.X.X.X.X.X.X.X.X.X.X.XXXXX.X.X.X.XXXXX.X~.~..X.X.XR.R.R.R.R.R.j.R.R.R.R.R.R.R.R.R.W.W.R.R.R.R.R.R.W.W.W.W.W.W.W.W.W.W.W.W.W.W.W.W.R.R.R.R.R.R.R.R.R.R.R.R.R.R.R.R..X~..X~..X~..X~..X~..X~..X~..X~.~.~.~.~.~.~.~.~.~.~.~.~.~.~.~.~.~.~..X~.~.~.~.~..X~.~.~.~.~.~.~.~.~.~.~.~.~.~.~.~.~.~.~.~.~.~.~.OX/.OX/..X/..X/.~.~.^.^.^.^.~..X~.~.~.^.XXXXXXXXXX~.W.~.~.^.^.^.XXXXXXXXXXXXXXXX.X.X.X.X.X.XXXXXXXXXXX^.XXXXXXXX^.^.^.^.^.^.^.^.^.^.^.^.^.^.^.^.^.^.^.^.^.^.^.^.^.~.~.~.^.^.^.^.OXOXOXOXXX^.XXXXXX^.XX^.XX^.XX^.XX^.XX^.XXXXXX(..X/..X/..X/..X/..X/..X/..X/..X~..X/..X/..X/..X/..X/..X/..X/..X/..X/..X/..X/..X~..X/..X~..X/..X/..X~.XX^.XX^.XX^..X~..X~..X~.XX^.~.~.~.~.^.^.^.~.XXXX.X^..X.X.X.X",
"/.~.~.~.~.~.~.~.~.~.~.W.W.W.W.W.R.R.~.R.~.R.~.R.~.~.~.~.~.W.~.~.~.W.~.W.~.W.~.W..X.X.X'..X.XoXoX~.W.~.W.R.W.~.W..XoX.XoX.XoX.X/.~.~././.oX.X.X.X.X.X.XoXoX/.~.~.oX.X~.^.XXXXXX.X.X.X'.[.'..X.X.X[.[..X.XXXXXXXXX^.^.~.~.~.~.^.^.~.~..X~.R.R.W.[.W.'.'..X.X.X.X.XR.W.R.W.R.R.R.W..X.X~.~.~..X~.'.#X#X#X#X#X#X#X#X.X.X.X.X.X.X.X.X.X.X~.^.~..X~.~.~.~.~.~..X.X.X.X.X.X.X.X.X.X.X.X.X.XXXXX.X.X.X.XXX.X.X.X.X.XoXoXoX#X#X#X#X#X#X#X#X#X#X#X#X#X#X#XoXoXoXoX#X#X#X#XoXoXoXoXoXoXoXoX#X#X#X#X#X#X#X#X#X#X#X#X#X#X#X#XoXoXoXoXoXoXoXoX#X#X.X#X.X.X.X#X#X#X#X#X#X#X#X#X.X.X.X.X.X.X.X.X.X.X.X.X.X.X.X.X.X.X.X.X.X.X.X.X.X.X.X.X.X#X.XoX.X.X.X.X.X.X.X.X.X.X.X.X.XoX.XoXW.W.W.W.R.R.R.R..X.X.X.X.X.X~.~.~.~.~.^.XXXXXXXX^.~.W.W.W.~.^.~.~.'..X'..X'..X'..X'..X'..X'..X~.~.~.~.~.~.~.~.~..X.X.X.X.X.X.X~.^.~.^.~..X.X.X~.~.~.~.~.~.~.~.~.~.R.~.R.~.R.~.R.~.~.~.~.~.~.~.~.~.~.~.~.~.~.~.~.~.~.~.~.~.~.~.~.R.W.R.W.~.W.R.W.R.W.R.W.R.W.R.R.R.W.R.W.R.W.R.W.R.W.R.W.R.W.R.W.R.W.R.W.R.W.R.R.R.W.R.R.R.W.R.R.R.R.~.R.~.R.~.R.~.R.~.R.~.R.~.W.j.R.~.R.~.~..X.X~.~.~.^..X.XXXXX",
"OX~.~.~.~..X.X.XoXoX[.[.[.[.[.[.[.[.'.'.[.[.[.[.[.[.#X[.#X[.oX[.#X[.#XoX#XoX#XoXoXoX#X[.#X[.#X[.[.[.[.[.[.[.[.[.'.[.'.[.'.[.'.[.T.W.T.T.'.'.'.'.}.'.'.T.T.[.[.oX[..X.XXXXXXXXXm..X'.T.T.T.'.'.'.'.'.'..X.X^.XXXX.X~.~.~.~.~.^.~.~..XoXoXoX[.[.}.[.[.[.[.#X.X.X.X[.[.[.[.[.[.[.[.#X[.#XoXoXoXoXoX[.[.[.[.[.[.[.[.'.'.'.'.'.'.'.'.OXXX.X~.~.~.~.~.~.~.~.~..X.X.X.X.X.X.X.X.X.X.X.X.X.X.X.X.X.X.X.X^.~.~.~..X[.'.[.T.T.T.T.T.T.h.T.h.A.A.A.T.T.T.T.t.t.t.t.t.t.t.t.t.A.t.t.t.t.h.t.T.h.T.T.T.T.T.T.T.T.T.T.T.T.T.T.T.T.T.T.T.T.T.T.T.T.I.I.h.T.T.T.T.T.R.T.R.T.R.T.'.'.'.'.'.'.'.'.'.'.'.'.'.'.R.T.'.'.'.'.'.'.'.'.[.[.[.[.[.[.[.[.#XoX#X[.#X[.#XoX[.[.[.[.#X[.#XoX[.[.[.[.[.[.[.[.[.[.#X#X.X[..X[.W..X.X.XM.M.M.^.~.~.[.oXoXoX.XR.'.[.'.[.'.[.'.[.'.'.'.[.'.[.'.'.'.[..X[..X[..X[..X[..X#X#X#XoX[..X#X#X#X#X#X.XoX#X[.#X[.#X#X#X#X[.[.[.[.[.[.[.[.[.[.#X[.oX[.oX#X#X#X#X#X#X#X#X#X.X#X.XoX.X[.#X[.[.[.[.[.[.[.[.[.[.[.[.[.[.[.[.[.[.[.[.[.[.[.[.[.[.[.[.[.[.[.[.[.'.[.[.[.[.[.[.[.'.[.'.[.[.[.[.[.[.[.[.[.[.[.'.[.'.'.'.'.[.[.[.[.'.#X#X'.R.'.'.R..X.X.X.X.X.X.XXX",
".X~.j.~..X#X#X[.T.T.T.T.T.T.`.`.`.`.`.`.`.`.`.`.`.`.`.`.`.`.`.`.t.t.t.t.t.t.t.t.t.t.t.t.t.e.e.e.e.r.e.r.e.r.e.r.e.r.e.r.e.r.e.0.{ { { { { 8.8.8.8.8.8.) 8.t.A.E.T.'.#X@XXX.X.X.X.X'.[.[.[.[.#X#X}.[.#X#X.XXX.X^.~.~.'.W.~.~.~.~..X'.'.}. X].`.`.`.`.`.`.`.`.'.'.`.`.`.`.`.`.`.`.t.t.t.A.T.A.T.A.t.t.t.t.t.t.t.t.r.r.r.r.r.r.r.e..X.X.X.X~.~.~./.~.~.~.~..X.X.X.X.X.X.X.X.X.X.X.X.X.X.X.X.X.X.X.X~.~.~.~.W.T.I.t.I I T T T T T T P P P P L L L L L L L L L L L L T T T T T P T T L L L L P P P P T T T T T T T P T T T T T T T T 8.8.{ { 8.) 8.8.8.8.8.8.8.8.8.8.8.8.8.8.8.8.8.8.8.8.8.8.8.8.8.8.e.r.e.r.e.r.q.r.q.q.q.q.q.q.q.q.t.t.t.t.t.t.t.t.t.t.t.A.T.A.T.A.`.`.`.`.`.`.`.`.T.T.`.`.'.'.[.[.'..X.X.XM.M.M.^..XOXoX[.T.'.R.T.`.{.{.{.{.{.{.`.{.{.{.{.{.{.{.{.}.}.}.}.}.}.}.}.`.`.`.`.'.'.'.'.`.`.`.`.`.`.`.`.}.}.}.}.}.}.}.}.}.}.}.}.}.}.}.}.}.[.'.].'.`.}.}.}.}.}.}.}.}.}.}.}.}.'.}.'.}.}.}.`.`.'.`.'.`.`.`.'.`.`.`.`.`.'.`.`.`.`.`.`.`.`.`.`.`.`.`.`.`.`.`.`.`.`.`.`.`.'.`.`.`.`.`.`.`.`.`.`.`.'.'.`.`.`.`.`.`.`.`.`.`.`.`.`.{.`.h.`.}.#X'.[.#XXXXXXX.X.X.X",
".X~.~.'..X[.'.T.8.8.8.1.3.3.3.3.) ) ) T ) ) ) ) ) T T T T T T T T ( T ) T ) T ) P P T T T T T T P P P P P P P P P P P P P P P P Y P P P Y Y Y Y P U U P P ( ` 1.t.T..XXX.Xx.^..XoX[.[.T.E.`.`.`.A.E.'..XXXXXXX.X'.W.[.[..X.X.X.X'.t.0.e.t.r.0.0.0.0.0.8.8.8.8.8.1.1.1.1.) ) 1.1.) ) ) ) ) ) ) ) ( ( ( ( ( ( ( ( T T T T T T T T k.R..X.X~.~.~.^.~.~.~.~..X.X.X.X.X.X.X.XXXXXXXXX.X.X.X.X.X.X.X.X~.~.~.W.I.q.| / / ) ) ) ) ) 1.1.) ( ( ( ( ( ( ( 1.1.1.) ) ) ( ( 1.1.1.1.1.1.1.1.) ) 1.) 1.1.1.1.( ( ( ( ( ( ( ( 1.1.1.1.) ) 1.1.T P T P T T T T T T T T T T T P P P P Y P P P P P P P Y P Y P U T T T T T T T T T ) T ( T ) T ) T T T T T T P T 1.1.1.1.1.1.1.1.) ) ) ) ) ) ) ) 8.8.0.r.q.q.t.t.'.'..X.XXXXXc.^..XoXT.t.9.0.0.8.T ) ) ) ) T T ) 1.) ) 1.) 1.1.1.1.1.1.1.1.1.1.1.r.r.r.r.r.r.r.r.r.r.r.r.r.r.r.r.t.t.t.t.t.t.t.t.t.t.t.t.t.t.t.t.1.1.1.1.1.1.1.1.1.1.1.1.1.1.1.1.1.1.1.1.1.1.1.1.) ) ) ) ) ) ) ) ) ) ) ) ) ) ) ) ) ) ) ) ) ) ) ) ) ) ) ) ) ) ) ) ) ) 1.1.1.1.1.1.1.1.1.) 1.1.1.1.1.1.1.1.) ) 1.1.) ) 1.1.1.1.1.1.3.w.1.1.t.}. X`.T.R.'.XXXX.X^.^.",
".X.X.X.X#X`.t.8.T ( T ( 1.1.<.=.1.( 1.T 1.( 1.( 1.( 1.( 1.( 1.( 1.( 1.( 1.( 1.( ( ( 1.1.1.1.2.1.1.1.1.1.1.1.1.1.1.1.1.( 1.( 1.1.( ( ( ( ( ( 1.1.1.1.1.( ( ( ( ^ ) t.'.XX~.x.^.OXW.T.A.q.0.1.8.8.T ) 9.h.R.'..X'.'.[.[.[.'..X.X.X`.8.L P ( ( Y Y ( ( ( ( =.=.=.=.1.( 1.( 1.( 1.( 1.1.1.1.1.1.1.1.1.( <.( <.( <.( <.( <.( <.( <.( { f..X#X~.R.~.~.~.~.~.~..X.X.X.X.X.X.X.XXXXXXXXX.X.X.X.X.X.X.X.X~.~.~.W.f.{ I A ) ) ) ( 1.1.1.1.1.1.1.1.1.1.1.1.1.( <.( ( ( <.( Y ( Y ( Y ( Y ( <.( <.( <.( <.( <.( 1.( 1.( <.( 1.1.1.1.1.1.1.1.1.1.1.1.1.1.1.1.1.( 1.1.1.( 1.( 1.( 1.1.1.( 1.1.1.1.1.1.1.1.1.( 1.( 1.( 1.( 1.( 1.1.1.( 1.( 1.( 1.1.1.1.1.( 1.( =.T 1.( 1.( 1.1.( ( ( ( ( ( T ( Y Y T P T T T T }.'..X.XXXM.M.XX.X'.f./ L P P K T ( 1.( 1.T T ( 1.( 1.( 1.( 1.( =.T =.T =.T =.T Y Y T T T T =.T Y Y Y Y T T T P Y Y Y Y T Y Y Y T T T T T T T T 1.1.1.1.1.( 1.) =.T 1.( 1.( 1.( 1.) 1.( 1.) 1.1.( ( ( ( ( ( ( ( ( ( ( ( ( ( ( ( ( ( ( ( ( ( ( ( ( ( T T ( ( ( ( ( ( 1.( 1.( 1.( 1.( 1.( 1.( 1.( 1.( 1.( 1.( 1.( 1.( 1.( 1.( 1.1.1.1.=.U 1.G.p.8.8.q.h.'..XXXXX.X",
"x..X#X'.q.T T ) 1.( 1.4.=.<.5.<.<.<.<.<.<.<.<.<.<.<.<.<.<.<.<.<.<.<.<.<.<.<.<.<.<.<.<.<.<.<.<.<.<.<.<.<.<.<.<.<.<.<.<.<.<.<.<.<.M j j <.1.1.( 1.Y ( 1.( <.<.j j P e.'..X.X.X~.~.'.E.0.P ( ) T T P ) r.h.'.#X'.h.9.9.9.| q.'.XX.X}.r.T T 1.( ( 1.<.<.<.<.<.<.1.1.<.<.<.<.<.<.<.<.<.<.<.<.<.<.<.<.<.<.M <.<.<.<.<.4.<.4.<.4.<.<.1.R k.'.W.W.OX~.~.^.l.x..X.Xj.j..X.X.X.X.X.XXXXXXXXXXX.X.XR.R.'.#XR.W.T.f.{ / ^ P ` ) ( Y ( 1.<.<.<.<.<.<.<.<.<.<.<.<.<.<.<.<.<.<.<.<.<.<.<.<.<.<.<.<.<.<.<.<.<.<.<.<.<.<.<.<.<.<.<.<.<.<.<.<.<.<.<.<.<.<.<.<.<.<.<.<.<.<.<.<.<.<.<.<.<.<.<.<.<.<.<.<.<.<.<.<.<.<.<.<.<.<.<.<.<.<.<.<.<.<.<.<.<.<.<.<.<.<.<.<.<.<.<.<.<.<.<.<.<.<.<.( <.( <.( 1.( 2.( s s T ( =.P T 9.'.OXx.c.XX^..XoX9.L ( 1.( <.<.<.<.<.<.<.<.<.<.<.<.<.<.<.<.<.<.1.<.<.<.1.1.1.1.<.1.<.1.1.<.1.1.1.<.<.<.1.1.1.1.1.<.<.<.1.1.1.1.1.<.1.1.1.<.<.1.<.1.<.1.1.<.1.1.( 1.( <.1.1.<.<.<.1.1.1.1.1.<.( ( <.1.1.( ( ( <.s <.( s 1.5.s ( ( ( ( <.1.1.( 5.1.<.( 1.( ( <.<.<.<.<.<.<.<.<.<.<.<.<.<.<.<.<.<.<.<.<.<.<.<.<.<.<.<.<.<.<.<.1.<.<.=.=.5.r.3.P K 9.'.#XXX.X.XXX",
".X.X.Xh.9.T ( 1.2.<.4.4.c <.6.M <.<.<.<.<.<.<.<.<.<.<.<.<.<.<.<.<.<.<.<.<.<.<.<.<.<.<.<.<.<.<.<.<.<.<.<.<.<.<.<.<.<.<.<.<.<.<.<.4.N M <.( Y Y ( Y ( Y <.<.N N j P e.'.#X.X^.~.~.'.[.0.P ( 1.Y 1.( ) ) r.{.#X}.T.T / / I { j..XR.|.r.T Y 1.( j <.<.<.<.M M <.<.<.<.<.<.<.<.<.<.<.<.<.<.<.<.<.<.<.N N M N M N N N M M M M N N N 1.L q.W.W.W..X~.~.^.^.^.~.j.@.} j..X.X.X.X.X.XXXXXXXx.~.XX#X[.[.[.W.[.E.t./ ^ ) ( ) ( ( ( <.<.<.<.<.<.<.<.<.<.<.<.<.<.<.<.<.<.<.<.M <.<.<.<.<.<.<.M M <.<.<.<.<.<.<.<.<.<.<.<.M <.M M M <.<.<.<.<.<.<.<.<.<.<.<.<.<.<.<.<.<.<.<.<.<.<.<.<.<.<.<.<.<.<.<.<.<.<.<.<.<.<.<.<.<.<.<.<.<.<.<.<.<.<.<.<.<.<.<.<.<.<.<.<.<.<.<.<.<.<.<.<.<.<.<.<.<.<.<.<.s Y Y Y 1.1.<.Y P { R.XXx.c.XX^..XoXe.P ( 1.<.<.<.<.<.<.<.<.<.<.<.<.<.<.<.<.<.<.<.<.<.<.<.<.<.<.<.<.<.<.<.<.<.<.<.<.<.<.<.<.<.<.<.<.<.<.<.<.<.<.1.1.<.<.<.<.<.<.<.<.<.<.<.<.<.<.<.<.<.<.<.<.<.<.<.<.<.<.<.<.<.<.( ( <.<.<.<.<.<.s s <.<.s <.4.( <.<.( ( <.<.<.<.5.<.j <.<.( <.<.<.<.<.<.<.<.<.<.<.<.<.<.<.<.<.<.<.<.<.<.<.<.<.<.<.<.<.<.<.<.<.<.4.5.4.=.=.2.1.T 8.t.}.#X.X.X.XXX",
".X.Xh.9.T P ( 5.5.M <.4.B <.6.B <.M <.M <.M <.M <.M <.M <.M <.<.<.<.<.<.<.<.<.<.<.<.<.<.<.<.<.<.<.<.<.<.<.<.<.<.<.<.<.<.<.<.<.<.4.M M c Y ( 1.1.( Y Y ( <.M M <.( t.[.#X.X^.~.~.[.[.0.P ( 1.Y <.1.( P ) t.}.|.A.L ) T I { h.XX'.}.r.T ( 1.<.j <.<.M N N M B <.<.<.<.<.<.<.<.<.<.<.<.<.<.<.<.<.<.B B B B B B B M m M B M M M M <.L 9.T.T.W..X~.~.~.^..X^.g.W ! f..X.X.X.X.XXXXXXXXXx.x.XX#X[.T.T.T.[.`.e.) P ( ) 1.j ( 2.2.<.( 4.<.<.<.<.<.<.<.<.<.B <.<.<.<.<.<.B B <.<.<.<.<.<.B M B <.<.<.<.<.<.<.<.<.<.<.<.<.B B <.<.<.<.<.<.<.<.<.<.<.<.<.<.<.<.<.B <.<.<.<.<.<.<.<.<.<.<.<.<.<.<.<.<.<.<.<.<.B <.B <.<.<.<.<.<.<.<.<.<.<.<.<.<.<.<.<.<.<.<.<.<.<.<.<.<.<.<.<.<.<.<.<.<.<.<.s <.<.1.1.<.=.( ( ) h..X.XXXXX^..X'.r.P ( 4.M 4.<.M <.M <.B <.M <.M <.M <.M <.<.<.<.<.<.<.<.<.B <.<.<.B <.B <.<.<.<.<.B <.B <.<.<.<.<.B <.<.<.<.<.<.<.<.<.<.B <.<.<.<.<.<.<.<.<.<.<.<.<.<.<.<.<.<.<.<.<.<.<.<.<.j <.<.<.<.<.<.<.y j 4.<.s j <.<.<.<.<.M <.<.<.4.6.<.j <.<.j M <.<.<.<.<.<.<.<.<.<.<.<.<.<.<.<.<.<.M <.M <.M <.M <.M <.M <.M <.<.4.5.4.=.s Y =.( A.A.T.'..X.X.X.X",
".X'.h.{ R P 1.5.7.<.M 4.B <.6.<.<.M M M M M M M M M M M M M M M <.<.<.<.<.<.<.<.<.<.<.<.<.<.<.<.<.<.<.<.<.<.<.<.<.<.<.<.<.<.<.<.M M M M 1.3.Z.G.0.1.Y Y <.M M <.( t.'.#X.X^.^.~.W.].0.Y ( 4.=.<.1.( Y P 8.A.].G.( ` ) T 9.R.#X.X Xr.T ( 1.<.j <.M M N N M M <.<.<.<.<.<.<.<.<.<.4.<.<.B <.<.<.<.B B B <.<.<.<.<.M 4.4.4.B 4.<.Y L 9.T.[.W.~.~.~.^.^.^.~.j.d.f.j..X.X.X.X.XXXXXXX@X.X~..XR.f.9.| t.`.`.r.) P ( ) ( s ( 6.5.( s 4.<.B <.<.<.<.<.<.<.<.<.<.<.<.<.<.B B <.<.<.<.<.<.B B B B <.<.<.<.<.<.<.<.<.<.<.<.<.<.<.<.<.<.<.<.<.<.<.<.<.<.<.<.<.B <.<.<.<.<.<.<.<.<.<.<.<.<.<.<.<.<.<.<.<.<.<.<.B B B <.<.<.<.<.<.<.<.<.<.<.<.<.<.<.<.<.<.<.<.<.<.<.<.<.<.<.<.<.<.<.<.<.<.<.<.<.<.1.1.1.1.Y Y ( ^ r.'..XXXXXx.XX'.9.P 1.4.B 4.M M M M M B M M M M M M M M M M <.<.<.<.<.<.<.<.<.<.B B B B <.<.<.<.B B B B <.<.<.<.<.B <.<.<.<.<.<.<.<.<.<.<.<.<.<.<.<.<.<.<.<.<.<.<.<.<.<.<.<.<.B B B <.<.<.<.<.<.<.j <.<.<.M r <.4.M j j <.5.4.<.<.M <.j <.6.2.<.j <.<.j M 4.<.<.<.<.<.<.<.<.<.<.<.<.<.<.<.<.M M M M M M M M M M M M M M M <.=.-.-.=.=.1.( T r.0.e.h.'..X.X.X",
"'.'.I.{ T ( 1.2.F.N M 4.B <.4.4.<.B B B B B B B B B B B B B B B <.<.<.4.4.4.<.<.<.<.<.4.4.4.<.<.<.<.<.<.4.4.<.<.<.<.4.4.<.<.<.<.B M <.<.2.G.|.|.G.8.) 1.4.<.M <.T t.'..X.X^.^.~.R.T.0.Y 1.4.B <.s <.1.Y P 3.A.].( ) ( P { h.'.'. Xr.T ( 1.( j <.M N N N N N <.<.<.<.<.<.4.4.<.<.<.<.<.<.<.<.<.<.<.<.<.<.<.<.<.<.s 4.4.M M <.<.Y P | T.[.W.~.~.^.^.^.x.~..X~..X.X.X.X.X.X.XXXXXXX@X@X.XR.k.] { { 8.t.A.0.( ( ( ( j j 4.7.5.( ( 4.<.<.<.<.<.<.<.<.<.<.<.<.<.<.<.<.<.<.<.<.<.<.<.<.<.<.<.<.<.<.<.<.<.<.<.<.<.<.<.<.<.<.<.<.<.<.<.<.<.<.<.<.<.<.<.<.<.<.<.<.<.<.<.<.<.<.<.<.<.<.<.<.<.<.<.<.<.<.<.<.<.<.<.<.<.<.<.<.<.<.<.<.<.<.<.<.<.<.<.<.4.4.<.<.<.<.<.<.<.<.<.<.M M M <.<.<.<.<.1.<.Y Y 1.1.<.s ( s 0.'..XXXXXx.XX'.8.T 4.4.M 6.M N N N M N N N N N N N N N N M <.4.<.<.<.<.<.4.<.<.<.<.<.<.<.4.<.<.<.<.4.4.<.<.<.<.4.4.<.<.<.<.4.4.<.<.<.<.4.4.<.<.<.<.<.<.<.4.<.<.<.4.4.4.<.<.<.<.<.<.4.4.4.<.<.<.<.j <.4.<.s r 2.2.j <.j <.N.2.<.<.<.<.j 4.7.5.<.( <.<.M M <.<.<.<.<.<.4.4.4.<.<.<.4.4.4.<.<.B B B B B B B B B B B B B B B <.1.=.=.2.r.r.2.Y 1.P ) t.'..X.X.X",
"'.'.T.{ I ) ) j L.<.M 4.<.=.4.4.<.B B B B B B B B B B B B B B <.<.<.<.<.<.4.<.4.<.<.<.<.<.4.<.4.<.<.<.<.4.4.<.<.<.<.4.4.<.<.<.<.v 4.<.Y 1.G.|.{.|.r.1.1.<.<.c 1.T t.'..X.X^.^.~.W.T.0.P <.4.<.<.s <.5.( U ( r.G.) 1.( U ) h.'.'. Xr.T ( 1.( Y <.<.M N N N N <.<.<.<.<.<.4.4.<.<.<.<.4.4.<.<.<.<.<.<.1.<.<.<.<.<.Y 1.1.s s 4.4.Y P { T.[.W.~.^.^.^.^.x.~..X#X.X'..X.X.X.X.XXXXXXXXX@XOX'.k.{ { r.8.r.r.1.( ( ( ( j 1.7.7.1.( ( 1.<.<.<.<.<.<.<.<.<.<.<.<.<.<.<.<.<.<.<.<.<.<.<.<.<.<.<.<.<.<.<.<.<.<.<.<.<.<.<.<.<.<.<.<.<.<.<.<.<.<.<.<.<.<.<.<.<.<.<.<.<.<.<.<.<.<.<.<.<.<.<.<.<.<.<.<.<.<.<.<.<.<.<.<.<.<.<.<.<.<.<.<.<.<.<.<.<.<.<.<.4.4.<.<.<.<.4.4.<.<.<.<.<.M M <.<.<.<.<.s s Y Y <.1.1.<.N j 0.[..X^.XX^.XXR.8.T 4.B M 6.M N N N M M N N N N N N N N N <.<.4.<.<.<.<.<.4.<.<.<.<.<.<.4.4.<.<.<.<.4.4.<.<.<.<.4.4.<.<.<.<.4.4.<.<.<.<.<.4.<.<.<.<.<.<.4.4.<.<.<.<.<.4.<.4.<.<.<.<.<.<.4.<.M <.<.j <.4.j r y 6.2.s <.<.<.F.2.<.M <.<.j 2.F.5.<.<.<.<.( M <.<.<.<.<.<.<.4.4.<.<.<.<.<.4.<.4.<.B B B B B B B B B B B B B B <.1.P U r.K.H.7.Y 1.P ) h.#X.X.Xm.",
"W.[.T.{ P ) ) j K.<.c 4.=.=.4.4.<.<.<.<.<.<.<.<.<.<.<.<.<.<.<.<.<.<.<.<.<.<.<.<.<.<.<.<.<.<.<.<.<.<.<.<.<.<.<.<.<.<.<.<.<.<.<.<.v 6.<.Y -.p.{.{.}.q.T ) 1.=.v 4.T e.'..X.X^.^.^.~.T.8.Y <.4.B <.a 2.6.1.Y Y 1.7.1.5.( P ) h..X'. Xt.T ) 1.( Y <.<.<.N N <.<.<.<.<.<.<.<.<.<.<.<.<.<.<.<.<.<.<.<.1.1.=.<.1.<.1.1.5.7.5.=.s <.1.Y P ) T.[.W.R.~.^.^.^.^.~..X.X.X'..X.X.X.X.XXXXXXX.XXXXX#XI.9.| r.t.r.7.( ( ( 1.( s 6.Z.5.Y ( 1.1.<.<.<.<.<.<.<.<.<.<.<.<.<.<.<.<.<.<.<.<.<.<.<.<.<.<.<.<.<.<.<.<.<.<.<.<.<.<.<.<.<.<.<.<.<.<.<.<.<.<.<.<.<.<.<.<.<.<.<.<.<.<.<.<.<.<.<.<.<.<.<.<.<.<.<.<.<.<.<.<.<.<.<.<.<.<.<.<.<.<.<.<.<.<.<.<.<.<.<.<.<.<.<.<.<.<.<.<.<.<.<.<.<.<.<.<.1.1.<.<.s 4.r.r.2.1.1.4.N j 0. X#X~.^.^.#XR.8.T 6.B B u.M <.<.<.<.<.<.<.<.<.<.<.<.<.<.<.<.<.<.<.<.<.<.<.<.<.<.<.<.<.<.<.<.<.<.<.<.<.<.<.<.<.<.<.<.<.<.<.<.<.<.<.<.<.<.<.<.<.<.<.<.<.<.<.<.<.<.<.<.<.<.<.<.<.<.<.<.<.<.<.Y 1.4.<.1.1.s o s F.2.s 4.1.<.F.4.( ( 1.<.( 5.H.5.1.( <.1.( ( 1.<.<.<.<.<.<.<.<.<.<.<.<.<.<.<.<.<.<.<.<.<.<.<.<.<.<.<.<.<.<.<.<.1.P P r.%X|.r.^ 1.P ) T.[..X.X.X",
"~.[.T./ P ^ ) s K.1.s <.=.=.4.4.<.<.<.<.<.<.<.<.<.<.<.<.<.<.<.<.<.<.<.<.<.<.<.<.<.<.<.<.<.<.<.<.<.<.<.<.<.<.<.<.<.<.<.<.<.<.<.<.c 4.4.Y 1.G.}.}.[.9.R T 1.<.M 4.P e.'..X.X^.^.~.R.T.8.Y <.4.B <.j 2.7.1.( ( 1.<.( 1.^ u ) t.'.'.#Xt.T ) 1.( j <.<.<.<.<.<.<.<.<.<.<.<.<.<.<.<.<.<.<.<.<.<.<.<.<.1.1.<.<.<.<.1.1.G.H.G.1.T 1.<.Y K ) T.[.[.~.^.^.x.^.XX~.~..X.X#X.X.X.X.X.X.X.X.X.X.X.X#XT.q.| { {.G.7.Y s ( <.( s r.G.1.U ( 1.<.<.<.<.<.<.<.<.<.<.<.<.<.<.<.<.<.<.<.<.<.<.<.<.<.<.<.<.<.<.<.<.<.<.<.<.<.<.<.<.<.<.<.<.<.<.<.<.<.<.<.<.<.<.<.<.<.<.<.<.<.<.<.<.<.<.<.<.<.<.<.<.<.<.<.<.<.<.<.<.<.<.<.<.<.<.<.<.<.<.<.<.<.<.<.<.<.<.<.<.<.<.<.<.<.<.<.<.<.<.<.<.<.<.<.<.<.<.<.( ( ( r.|.|.r.T T 1.N k r.[..X~.^.^.#XT.8.( 4.B M 6.<.<.<.<.<.<.<.<.<.<.<.<.<.<.<.<.<.<.<.<.<.<.<.<.<.<.<.<.<.<.<.<.<.<.<.<.<.<.<.<.<.<.<.<.<.<.<.<.<.<.<.<.<.<.<.<.<.<.<.<.<.<.<.<.<.<.<.<.<.<.<.<.<.<.<.<.<.<.<.<.s 1.4.M <.4.s O 1.F.2.y 4.4.( H.4.Y Y 1.1.( 3.H.3.1.<.<.1.( <.<.<.<.<.<.<.<.<.<.<.<.<.<.<.<.<.<.<.<.<.<.<.<.<.<.<.<.<.<.<.<.<.<.2.P T A. X].0.) ( K T t.'.'..XOX",
"~.W.`.) ) s 1.s %X8.L 8.Y 6.c B <.<.<.<.<.<.<.<.<.<.<.<.<.<.<.<.<.<.<.<.<.<.<.<.<.<.<.<.<.<.<.<.<.<.<.<.<.<.<.<.<.<.<.<.<.<.<.<.M B 4.<.P t.[.'.'.T.T T <.s 6.M Y t.}.#X.X^.^.~.W.[.) ^ 1.M 4.B N j p.w.U <.N N 1.( ) j g 0.[..X#Xt.) P ( N N M <.<.<.<.<.<.<.<.<.<.<.<.<.<.<.<.<.<.<.<.<.<.<.<.1.( <.<.<.<.1.( A.]. Xt.K ) 5.s T ) T.#X'.~.XX^.rXXX^.^..X.X.XR.R.~..XOX#X~.j.OXXX.X'..X#X#X.X'.#X8.1.5.j ( 2.u t &Xt.P Y ( 6.s <.<.<.<.<.<.<.<.<.<.<.<.<.<.<.<.<.<.<.<.<.<.<.<.<.<.<.<.<.<.<.<.<.<.<.<.<.<.<.<.<.<.<.<.<.<.<.<.<.<.<.<.<.<.<.<.<.<.<.<.<.<.<.<.<.<.<.<.<.<.<.<.<.<.<.<.<.<.<.<.<.<.<.<.<.<.<.<.<.<.<.<.<.<.<.<.<.<.<.<.<.<.<.<.<.<.<.<.<.<.<.<.B B M M N j ( s r.`.}.}.{.8.P 1.<.j 0.[.~.^.^.^..X}.) 1.j 6.1.Z.( ( ( ( <.<.<.<.<.<.<.<.<.<.<.<.<.<.<.<.<.<.<.<.<.<.<.<.<.<.<.<.<.<.<.<.<.<.<.<.<.<.<.<.<.<.<.<.<.<.<.<.<.<.<.<.<.<.<.<.<.<.<.<.<.B <.<.<.<.B B B B <.<.<.<.B <.1.1.j h V a o o i.y.M h V j 1.G.s s <.1.Y 1.G.`.T ) ( 1.<.<.<.<.<.<.<.<.<.<.<.<.<.<.<.<.<.<.<.<.<.<.<.<.<.<.<.<.<.<.<.<.<.<.<.<.<.( P A.'.T.`.T ( ( ( 0.}.#X~.^.",
"~.R.T.) 1.s 1.Y *X0.I 8.Y 2.m V B <.<.<.<.<.<.<.<.<.<.<.<.<.<.<.<.<.<.<.<.<.<.<.<.<.<.<.<.<.<.<.<.<.<.<.<.<.<.<.<.<.<.<.<.<.<.<.M M 4.( P t.[.'.'.T.T T ( s 6.M Y t.}.#X.X~.~.~.W.[.) ^ 1.M 4.B k j p.w.Y <.M N 1.( ) j g 3.[..X#Xt.) ^ ( N N M B <.<.<.<.<.<.<.<.<.<.<.<.<.<.<.<.<.<.<.<.<.<.<.( ( <.<.<.<.1.( A.E.[.C.) ) 2.=.1.T t.'.j.j.XXXX^.^.XXXXXX#X#X#X.XOX/.~.W.f.} f.R.R.'..XXXXXXX.X}.8.1.) j j _ u )  Xt.R =.<.6.m <.<.<.<.<.<.<.<.<.<.<.<.<.<.<.<.<.<.<.<.<.<.<.<.<.<.<.<.<.<.<.<.<.<.<.<.<.<.<.<.<.<.<.<.<.<.<.<.<.<.<.<.<.<.<.<.<.<.<.<.<.<.<.<.<.<.<.<.<.<.<.<.<.<.<.<.<.<.<.<.<.<.<.<.<.<.<.<.<.<.<.<.<.<.<.<.<.<.<.<.<.<.<.<.<.<.<.<.<.<.<.<.B B M N N j ( Y t.`.'.'.'.9.R ) <.j r.[.^.c.^.^..X}.) 1.j 5.( V.( ( ( ( <.<.<.<.<.4.<.<.<.<.<.<.<.<.<.<.<.<.<.<.<.<.<.<.<.<.<.<.<.<.<.<.<.<.<.<.<.<.<.<.<.<.<.<.<.<.<.<.<.<.<.<.<.<.<.<.<.<.<.<.B <.<.<.<.B B B B B <.<.<.<.B <.( 1.h l C q % * J.y.M h M j 1.G.s s 1.1.U 1.`.{.T T ) ( <.<.B B <.<.<.<.<.<.<.<.<.<.<.<.<.<.<.<.<.<.<.<.<.<.<.<.<.<.<.<.<.<.<.<.M j P A.'.T.T.T ) ( ( r.}.#X^.^.",
"~.R.`.) 1.j 1.Y  XA.I { Y 4.M V B <.<.<.<.<.<.<.<.<.<.<.<.<.<.<.<.<.<.<.<.<.<.<.<.<.<.<.<.<.<.<.<.<.<.<.<.<.<.<.<.<.<.<.<.<.<.<.M N 4.( P t.[.W.'.T.T T ( s 6.M Y t.}.#X.X~.~.~.W.[.) ^ 1.M 4.<.k j p.w.Y <.M N 1.( ) ( g 3.'..X#Xt.) ^ ( N N M B <.<.<.<.<.<.<.<.<.<.<.<.<.<.<.<.<.<.<.<.<.<.<.( ( <.<.<.<.1.( E.E.].T.r.) 1.1.Y U 1.t.9.s.j.~.^.^..X.X'.T.'.[..X#XoXW.R.s.! 9.j.R..X.X.XXXXX.X}.8.T ( j j ) P `.[.8.R 1.1.4.m <.<.<.<.<.<.<.<.<.<.<.<.<.<.<.<.<.<.<.<.<.<.<.<.<.<.<.<.<.<.<.<.<.<.<.<.<.<.<.<.<.<.<.<.<.<.<.<.<.<.<.<.<.<.<.<.<.<.<.<.<.<.<.<.<.<.<.<.<.<.<.<.<.<.<.<.<.<.<.<.<.<.<.<.<.<.<.<.<.<.<.<.<.<.<.<.<.<.<.<.<.<.<.<.<.<.<.<.<.<.<.<.B B B N N j ( ( T.}.'.'.[.h.T T <.j r.[.^.c.^.^..X{.1.4.( 5.( A.( ( ( ( <.<.<.<.4.4.<.<.<.<.<.<.<.<.<.<.<.<.<.<.<.<.<.<.<.<.<.<.<.<.<.<.<.<.<.<.<.<.<.<.<.<.<.<.<.<.<.<.<.<.<.<.<.<.<.<.<.<.<.<.B B <.<.<.<.<.B B B <.<.<.<.B <.Y <.M l m 7 o * {.i.M M M j 0.`.Y j 1.1.K 8.`.].T T ) ( <.<.B B <.<.<.<.<.<.<.<.<.<.<.<.<.<.<.<.<.<.<.<.<.<.<.<.<.<.<.<.<.<.<.<.<.<.P A.'.T.'./ ) ( ( r.}.#X^.^.",
"~.R.`.) 1.j 1.s ].[.I ) Y <.M V B <.<.<.<.<.<.<.<.<.<.<.<.<.<.<.<.<.<.<.<.<.<.<.<.<.<.<.<.<.<.<.<.<.<.<.<.<.<.<.<.<.<.<.<.<.<.<.M M 4.( R t.[.'.'.R.T T ( s 6.M Y t.}.#X.X~.~.~.W.[.) ^ 1.M 4.<.j ( G.e.T <.M M 1.Y 1.( g ` '..X#Xt.) ^ ( N M M B <.<.;.<.<.<.<.<.<.<.<.<.<.<.<.<.<.<.<.<.<.<.<.( ( <.<.<.<.1.( E.E.E.].A.1.Y 4.s 1 u ) T Q k.j.~.~..XR.k.9.e.t.R.OXoX~..Xj.f.g.R..X#X#X.XR.R.'.t.T Y ^ j g ^ ( -X`.Q T 1.1.B M <.<.<.<.<.<.<.<.<.<.<.<.<.<.<.<.<.<.<.<.<.<.<.<.<.<.<.<.<.<.<.<.<.<.<.<.<.<.<.<.<.<.<.<.<.<.<.<.<.<.<.<.<.<.<.<.<.<.<.<.<.<.<.<.<.<.<.<.<.<.<.<.<.<.<.<.<.<.<.<.<.<.<.<.<.<.<.<.<.<.<.<.<.<.<.<.<.<.<.<.<.<.<.<.<.<.<.<.<.<.<.<.<.B B N M j ( 1.`.[.'.'.#XT.{ T <.j r.[.^.c.^.^..X`.( 4.Y 1.( H.( ( ( ( <.<.<.<.4.4.<.<.<.<.<.<.<.<.<.<.<.<.<.<.<.<.<.<.<.<.<.<.<.<.<.<.<.<.<.<.<.<.<.<.<.<.<.<.<.<.<.<.<.<.<.<.<.<.<.<.<.<.<.<.<.<.<.<.<.<.<.<.<.<.<.<.<.<.B <.s <.C m d > o s |.i.M M h j r.G.s M 1.( U 0.].`.T T ) ( <.<.B B <.<.<.<.<.<.<.<.<.<.<.<.<.<.<.<.<.<.<.<.<.<.<.<.<.<.<.<.<.<.<.<.<.<.P T.'.W.'./ ) ( ( r.}.#X^.^.",
"~.R.T.) 1.s 1.s ].-XR T P <.B B B <.<.<.<.<.<.<.<.<.<.<.<.<.<.<.<.<.<.<.<.<.<.<.<.<.<.<.<.<.<.<.<.<.<.<.<.<.<.<.<.<.<.<.<.<.<.<.M M 4.( R q.[.W.[.R.E T ( s 6.M Y q.'.[..X~.~.~.W.[.) ^ 1.M 4.<.j ( `.t.T <.M N 1.Y <.( g ` R.XX#Xt.) ^ ( N N M B 4.4.;.<.<.<.<.<.<.<.<.<.<.<.<.<.<.<.<.<.<.<.<.( ( <.<.<.<.<.( A.[.E.[.].3.s 5.j < u ` ) { k.T.R./.oXT.9./ / | f.~.OX~.#X.XR..X.X.X#X.Xj.f.k.e.T Y s ( ( g u 3.>Xt.T T 1.1.c B <.<.<.<.<.<.<.<.<.<.<.<.<.<.<.<.<.<.<.<.<.<.<.<.<.<.<.<.<.<.<.<.<.<.<.<.<.<.<.<.<.<.<.<.<.<.<.<.<.<.<.<.<.<.<.<.<.<.<.<.<.<.<.<.<.<.<.<.<.<.<.<.<.<.<.<.<.<.<.<.<.<.<.<.<.<.<.<.<.<.<.<.<.<.<.<.<.<.<.<.<.<.<.<.<.<.<.<.<.<.<.<.<.<.M 4.<.j ( r.}.#X'..X#X'.8.T <.s 0.[.~.^.^.~.'.`.T 4.s 1.) ].^ ( ( ( <.<.<.<.<.<.<.<.<.<.<.<.<.<.<.<.<.<.<.<.<.<.<.<.<.<.<.<.<.<.<.<.<.<.<.<.<.<.<.<.<.<.<.<.<.<.<.<.<.<.<.<.<.<.<.<.<.<.<.<.<.<.<.<.<.<.<.<.<.<.<.<.<.<.<.<.( 4.N m e X % 5. X5.N M h ( A.`.Y <.1.( T t.].G.T ) 1.( <.M B B <.<.<.<.<.<.<.<.<.<.<.<.<.<.<.<.<.<.<.<.<.<.<.<.<.<.<.<.<.<.<.<.<.<.P T.[.W.'./ ) ( ( r.}.#X~.^.",
"~.R.T.( 1.s 1.s E.>XL T ( <.B B B <.<.<.<.<.<.<.<.<.<.<.<.<.<.<.<.<.<.<.<.<.<.<.<.<.<.<.<.<.<.<.<.<.<.<.<.<.<.<.<.<.<.<.<.<.<.<.4.M 4.T R q.[.W.#X'.Q T ( s 6.c Y q.'.[..X~.~.~.W.[.) ^ 1.M 4.<.j 1.{.t.T 1.M N 1.Y <.2.j ) T.XX#Xt.T ^ ( N N M B 4.4.4.<.<.<.<.<.<.<.<.<.<.<.<.<.<.<.<.<.<.<.<.( ( <.<.<.<.<.T A.[.W.E. Xr.s 5.2.y ( Z.Z.t.T.oXR./.oXT.9.{ { 9.9.W.~.~.OX.XR..X.X.X.X'.h.k.} Q K Y j ( 1.u ( G.:X{ T T -.2.=.<.<.<.<.<.<.<.<.<.<.<.<.<.<.<.<.<.<.<.<.<.<.<.<.<.<.<.<.<.<.<.<.<.<.<.<.<.<.<.<.<.<.<.<.<.<.<.<.<.<.<.<.<.<.<.<.<.<.<.<.<.<.<.<.<.<.<.<.<.<.<.<.<.<.<.<.<.<.<.<.<.<.<.<.<.<.<.<.<.<.<.<.<.<.<.<.<.<.<.<.<.<.<.<.<.<.<.<.<.<.<.<.<.4.=.<.<.<.^ ` t.[.#X.Xx.#X'.9.T <.s 0.[.~.^.^.~.'.`.Y 4.s 1.) ].^ ( ( ( <.<.<.<.<.<.<.<.<.<.<.<.<.<.<.<.<.<.<.<.<.<.<.<.<.<.<.<.<.<.<.<.<.<.<.<.<.<.<.<.<.<.<.<.<.<.<.<.<.<.<.<.<.<.<.<.<.<.<.<.<.<.<.<.<.<.<.<.<.<.<.<.<.<.<.<.4.4.C d 9 X r i. X2.M N h <.G.G.( <.1.( 1.G.|.Z.T ) 1.1.<.M B B <.<.<.<.<.<.<.<.<.<.<.<.<.<.<.<.<.<.<.<.<.<.<.<.<.<.<.<.<.<.<.<.4.<.P E.[.W.'./ ) ( ( r.}.#X^.^.",
"~.R.T.) 1.s 1.Y A.>XE / 1.<.B M B <.<.<.<.<.<.<.<.<.<.<.<.<.<.<.<.<.<.<.<.<.<.<.<.<.<.<.<.<.<.<.<.<.<.<.<.<.<.<.<.<.<.<.<.<.<.<.<.<.<.T R t.[.'.[.'.Q T ( Y 6.=.T q.'.[..X~.~.~.W.[.) Y 1.M 4.<.j ) {.t.T 1.M N 4.Y <.2.h ( h.XX#Xt.T Y j N N M B 4.<.<.<.<.<.<.<.<.<.<.<.<.<.<.<.<.<.<.<.<.<.<.( ( <.<.<.<.<.) t.oXW.I. Xr.U 4.2.j 2.K.].E.[.oXW./..XT.q.| { 9.} R.~.R..X.XR.~..X.X.X'.R.h.k.8.u ( j ( ) u ) :X XL T 1.Y 1.=.<.<.<.<.<.<.<.<.<.<.<.<.<.<.<.<.<.<.<.<.<.<.<.<.<.<.<.<.<.<.<.<.<.<.<.<.<.<.<.<.<.<.<.<.<.<.<.<.<.<.<.<.<.<.<.<.<.<.<.<.<.<.<.<.<.<.<.<.<.<.<.<.<.<.<.<.<.<.<.<.<.<.<.<.<.<.<.<.<.<.<.<.<.<.<.<.<.<.<.<.<.<.<.<.<.<.<.<.<.<.<.<.<.6.=.M 4.<.Y 1.T.'.$X.Xx.XX'.9.T 1.s 0.[.~.^.^.~.'.G.Y 5.s ( ) %X^ ( ( ( <.<.<.<.<.<.<.<.<.<.<.<.<.<.<.<.<.<.<.<.<.<.<.<.<.<.<.<.<.<.<.<.<.<.<.<.<.<.<.<.<.<.<.<.<.<.<.<.<.<.<.<.<.<.<.<.<.<.<.<.B <.<.<.<.<.B B B <.<.<.<.<.<.<.4.M h w 6 X p {. X=.j 2.y 1.`.G.( ( ( ( 3.|.|.0.) ( 1.<.<.M B B <.<.<.<.<.<.<.<.<.<.<.<.<.<.<.<.<.<.<.<.<.<.<.<.<.<.<.<.<.<.<.<.<.<.) E.[.W.'./ ( ( ( 0.}.#X~.^.",
"~.R.T.) 1.s 1.Y t.lXE T 1.<.B M <.<.<.<.<.<.<.<.<.<.<.<.<.<.<.<.<.<.<.<.<.<.<.<.<.<.<.<.<.<.<.<.<.<.<.<.<.<.<.<.<.<.<.<.<.<.<.<.<.<.<.T R t.[.'.#X'.{ T ( Y 5.=.T q.}.[..X~.~.~.W.[.) Y 1.M 4.<.j ) }.b.T 1.M N 4.Y <.2.h ( h.+X#Xt.) ^ ( N N M B <.<.<.<.<.<.<.<.<.<.<.<.<.<.<.<.<.<.<.<.<.<.<.( ( <.<.<.<.<.) e.-XW.f.}.t.U 4.<.u 1.]. XT.'..X~.~..Xj.k.} { { ! T.W.R..XOX~..X.X.X.X.X#X'.h.t.u 2.( ^ ) K r.lX`.A 1.1.U 1.=.4.<.<.<.<.<.<.<.<.<.<.<.<.<.<.<.<.<.<.<.<.<.<.<.<.<.<.<.<.<.<.<.<.<.<.<.<.<.<.<.<.<.<.<.<.<.<.<.<.<.<.<.<.<.<.<.<.<.<.<.<.<.<.<.<.<.<.<.<.<.<.<.<.<.<.<.<.<.<.<.<.<.<.<.<.<.<.<.<.<.<.<.<.<.<.<.<.<.<.<.<.<.<.<.<.<.<.<.<.<.<.<.<.6.=.M 4.1.Y { T..X$X.Xx.XX'.9.T 1.s 0.[.~.^.^.~.'.G.Y 5.s ( ) *X( ( ( ( <.<.<.<.<.<.<.<.<.<.<.<.<.<.<.<.<.<.<.<.<.<.<.<.<.<.<.<.<.<.<.<.<.<.<.<.<.<.<.<.<.<.<.<.<.<.<.<.<.<.<.<.<.<.<.<.<.<.<.<.B <.<.<.<.<.<.B B <.<.<.<.<.<.<.6.B w 8 >   p {. XP s 2.y 1.].A.1.( ( ( 7.%X|.1.( ( 1.<.<.M B B <.<.<.<.<.<.<.<.<.<.<.<.<.<.<.<.<.<.<.<.<.<.<.<.<.<.<.<.<.<.<.<.<.<.) E.[.W.'./ ) ( ( 0.}.#X^.^.",
"Q./.T.8.Y ( ( Y 8.lXq.R 1.u 6.M <.<.<.<.<.<.<.<.<.<.<.<.<.<.<.<.<.<.<.<.<.<.<.<.<.<.<.<.<.<.<.<.<.<.<.<.<.<.<.<.<.<.<.<.<.<.<.<.<.=.1.( T t.[.T.oXT.9.T 1.2.6.<.Y t.}.[.~.~.~.~.W.[.) Y 1.c <.M 2.u -X}.K 1.M M s 1.( j k j 8.#X'.T.1.P <.N m M B <.<.<.<.<.<.<.<.<.<.<.<.<.<.<.<.<.<.<.<.<.<.<.( ( <.<.B <.1.P t.T.W.[.}.t.-.=.( ( 3.`. X'.'..X^.^..X.X.X.X'.'.'.~.~.~.^.^.^..X.XXX.X'.'.'.T.r.1.y j ) K )  XlXT T T ) 1.1.<.<.<.<.<.<.<.<.<.<.<.<.<.<.<.<.<.<.<.<.<.<.<.<.<.<.<.<.<.<.<.<.<.<.<.<.<.<.<.<.<.<.<.<.<.<.<.<.<.<.<.<.<.<.<.<.<.<.<.<.<.<.<.<.<.<.<.<.<.<.<.<.<.<.<.<.<.<.<.<.<.<.<.<.<.<.<.<.<.<.<.<.<.<.<.<.<.<.<.<.<.<.<.<.<.<.<.<.<.<.<.<.<.<.<.=.<.4.( P 9.'..X.X.X.XXX.Xq.T ) Y r.[.~.^.^.~.[.`.Y 4.( ( T :X5.u 2.<.j 4.<.4.<.<.<.<.<.<.<.<.<.<.<.<.<.<.<.<.<.<.<.<.<.<.<.<.<.<.<.<.<.<.<.<.<.<.<.<.<.<.<.<.<.<.<.<.<.<.<.<.<.<.<.<.<.<.<.<.B B <.<.<.<.B B 4.<.4.4.<.M M <.y.q 6 w - X 1.{.{.T Y j s 5.`.t.Y 4.Y s Z.%XA.( ( ( ( ( <.<.B B <.<.<.<.<.<.<.<.<.<.<.<.<.<.<.<.<.<.<.<.<.<.<.<.<.<.<.<.<.<.<.<.M <.) E.[.W.'./ P ( Y 3.}.#X^.^.",
"~.~.T.0.Y ( ( P 8.lXh.L 1.s 6.M <.<.<.<.<.<.<.<.<.<.<.<.<.<.<.<.<.<.<.<.<.<.<.<.<.<.<.<.<.<.<.<.<.<.<.<.<.<.<.<.<.<.<.<.<.<.<.<.4.c 1.T T t.}.[.[.T.8.T ( 1.<.<.Y t.}.[.~.~.~.~.W.[.^ Y 1.c <.<.2.u -X}.K 1.N M s 1.j j C j 8.#X'.T.8.P <.N m M B <.<.<.<.<.<.<.<.<.<.<.<.<.<.<.<.<.<.<.<.<.<.<.( ( <.<.B <.1.T t.T.W.[.}.t.-.=.( Y 1.`.}.'.~.XX^.^.XXXXXX.X.X.X.X~.~.~.^.^.^..X.XXXXX'.'.[.T.8.1.a ( ) K 0.:X>XT T T ( 1.<.<.<.<.<.<.<.<.<.<.<.<.<.<.<.<.<.<.<.<.<.<.<.<.<.<.<.<.<.<.<.<.<.<.<.<.<.<.<.<.<.<.<.<.<.<.<.<.<.<.<.<.<.<.<.<.<.<.<.<.<.<.<.<.<.<.<.<.<.<.<.<.<.<.<.<.<.<.<.<.<.<.<.<.<.<.<.<.<.<.<.<.<.<.<.<.<.<.<.<.<.<.<.<.<.<.<.<.<.<.<.<.<.<.<.<.c <.1.( P 9.'..X.X.X.XXX'.q.T ( Y r.[.~.^.^.~.[.`.s 2.( ( T :X3.u 2.<.j 4.<.4.<.<.<.<.<.<.<.<.<.<.<.<.<.<.<.<.<.<.<.<.<.<.<.<.<.<.<.<.<.<.<.<.<.<.<.<.<.<.<.<.<.<.<.<.<.<.<.<.<.<.<.<.<.<.<.<.B B <.<.<.<.B B <.<.<.<.B M B 4.6.q 6 8 $ X 1.}.{.T Y j j 3.`.t.Y 4.Y s Z.%XZ.^ ( ( ( ( <.<.B B <.<.<.<.<.<.<.<.<.<.<.<.<.<.<.<.<.<.<.<.<.<.<.<.<.<.<.<.<.<.<.<.M <.) E.[.W.'./ P ( Y 3.}.#X~.^.",
"^./.T.8.Y ( ( P 9.lXR.E 1.s B M 4.<.<.<.<.<.<.<.<.<.<.<.<.<.<.<.<.<.<.<.<.<.<.<.<.<.<.<.<.<.<.<.<.<.<.<.<.<.<.<.<.<.<.<.<.<.<.<.4.c <.( P r.}. X[.A.8.T Y <.<.<.Y t.}.[.~..X~.~.W.[.^ Y 1.s <.M ) u :X}.K 1.N M s 1.M j C j 8.#X'.T.{ P <.N m M B <.<.<.<.<.<.<.<.<.<.<.<.<.<.<.<.<.<.<.<.<.<.<.( ( <.<.B <.1.) T.[.W.W.#Xb.-.=.( ( 8.T.#X.X^.XX^.^.XXXXXX.X.X.X.X~.~.~..X.X.X.X.X.X.X'.[.[.t.` <.j 1.) K '.lX[.T ) ( ( <.<.<.<.<.<.<.<.<.<.<.<.<.<.<.<.<.<.<.<.<.<.<.<.<.<.<.<.<.<.<.<.<.<.<.<.<.<.<.<.<.<.<.<.<.<.<.<.<.<.<.<.<.<.<.<.<.<.<.<.<.<.<.<.<.<.<.<.<.<.<.<.<.<.<.<.<.<.<.<.<.<.<.<.<.<.<.<.<.<.<.<.<.<.<.<.<.<.<.<.<.<.<.<.<.<.<.<.<.<.<.<.<.<.<.<.<.M <.<.( P r.'..X.X.X.X.X'.t.T ( Y 0.[.~.^.^.~.}.G.s 1.( Y T :X3.u <.<.j 4.<.<.<.<.<.<.<.<.<.<.<.<.<.<.<.<.<.<.<.<.<.<.<.<.<.<.<.<.<.<.<.<.<.<.<.<.<.<.<.<.<.<.<.<.<.<.<.<.<.<.<.<.<.<.<.<.<.<.<.<.<.<.<.<.B <.<.<.B M B <.<.<.c 0 0 8 . 7 5. X{.>.T ( j 7.].t.U 4.( ( F.K.r.^ ( ( ( ( <.<.B B <.<.<.<.<.<.<.<.<.<.<.<.<.<.<.<.<.<.<.<.<.<.<.<.<.<.<.<.<.<.<.<.<.<.) E.[.W.'./ T ( Y 3.}..X~.^.",
"^./.T.0.( ( 1.T 9.lX#XQ 1.Y B M 4.<.<.<.<.<.<.<.<.<.<.<.<.<.<.<.<.<.<.<.<.<.<.<.<.<.<.<.<.<.<.<.<.<.<.<.<.<.<.<.<.<.<.<.<.<.<.<.4.M <.( U 1.].*X XA.0.) ( 1.4.4.Y t.}.[.~..X~.~.W.[.^ Y 1.s <.M ( P ;X#XL 1.N M ( 1.M N C j 8.}.'.T.1.P <.N j M B <.<.<.<.<.<.<.<.<.<.<.<.<.<.<.<.<.<.<.<.<.<.<.( ( <.<.B <.1.) T.[.~.W.#X`.-.Y ( P 1.T.#X.X.XXX^.c.M.M.M.XX.X.X.X~.~.^..X.X.X.XXX.X.X.X#X'.e.( <.j 1.T L ;XzXq.T ( ( ( <.N B <.<.<.<.<.<.<.<.<.<.<.<.<.<.<.<.<.<.<.<.<.<.<.<.<.<.<.<.<.<.<.<.<.<.<.<.<.<.<.<.<.<.<.<.<.<.<.<.<.<.<.<.<.<.<.<.<.<.<.<.<.<.<.<.<.<.<.<.<.<.<.<.<.<.<.<.<.<.<.<.<.<.<.<.<.<.<.<.<.<.<.<.<.<.<.<.<.<.<.<.<.<.<.<.<.<.<.<.<.<.<.<.<.<.M <.( ( ) e.[..X.X.X.X.X'.t.( ( Y 0.[.~.^.~.~.}.G.s 1.( ( T :X0.u <.( j 4.<.<.<.<.<.<.<.<.<.<.<.<.<.<.<.<.<.<.<.<.<.<.<.<.<.<.<.<.<.<.<.<.<.<.<.<.<.<.<.<.<.<.<.<.<.<.<.<.<.<.<.<.<.<.<.<.<.<.<.<.<.<.<.<.<.<.<.<.M M M 4.4.B i 0 0 ; . 7 r. X`.T ( ( j Z.].t.U 1.( 1.F.H.5.^ ( ( ( ( <.<.B B <.<.<.<.<.<.<.<.<.<.<.<.<.<.<.<.<.<.<.<.<.<.<.<.<.<.<.<.<.<.<.<.<.<.) E.[.W.'./ T ( Y 3.}.oX~.^.",
"^.OXT.9.( ( 1.T { lX;X{ 1.1.B B 4.<.<.<.<.<.<.<.<.<.<.<.<.<.<.<.<.<.<.<.<.<.<.<.<.<.<.<.<.<.<.<.<.<.<.<.<.<.<.<.<.<.<.<.<.<.<.<.4.s <.( s ` A.].E.Z.1.( ( <.4.4.Y t.}.[.~..X~.~.T.].^ Y 1.c <.M ( P ;X#XL 1.M M <.<.M N N j 8.'.'.T.1.Y <.N j M B 4.<.<.<.<.<.<.<.<.<.<.<.<.<.<.<.<.<.<.<.<.<.<.( ( <.<.B <.1.) T.[.W.W.#X}.w.Y 1.Y ) t.[..X.XXXc.c.M.M.XX.X.X.X.XW.~.~..X.XXX.XXX~..X.X[.T.| P j j 1.T 9.lXlXE T ( ( j N N M B <.<.<.<.<.<.<.<.<.<.<.<.<.<.<.<.<.<.<.<.<.<.<.<.<.<.<.<.<.<.<.<.<.<.<.<.<.<.<.<.<.<.<.<.<.<.<.<.<.<.<.<.<.<.<.<.<.<.<.<.<.<.<.<.<.<.<.<.<.<.<.<.<.<.<.<.<.<.<.<.<.<.<.<.<.<.<.<.<.<.<.<.<.<.<.<.<.<.<.<.<.<.<.<.<.<.<.<.<.<.<.<.N N N ( ^ ) t.[..X.X^..XoX[.t.( 1.Y r.[.~.^.~.W.}.G.s 1.( T ) >XZ.u ( ( j 2.M <.4.4.<.<.<.<.<.<.<.<.<.<.<.<.<.<.<.<.<.<.<.<.<.<.<.<.<.<.<.<.<.<.<.<.<.<.<.<.<.<.<.<.<.<.<.<.<.<.<.<.<.<.<.<.<.<.<.<.<.<.<.<.<.<.M 4.<.M M 4.B c & & 0 ; . a G. Xb.Q ( ( ( Z.|.q.Y 1.( 1.F.Z.2.j ( ( ( ( <.<.<.B <.<.<.<.<.<.<.<.<.<.<.<.<.<.<.<.<.<.<.<.<.<.<.<.<.<.<.<.<.<.<.<.<.<.) E.[.W.'.T T ( Y 3.}.#X^.^.",
"^.OXT.9.( ( 1.T T lX;X{ 1.2.c B <.<.<.<.<.<.<.<.<.<.<.<.<.<.<.<.<.<.<.<.<.<.<.<.<.<.<.<.<.<.<.<.<.<.<.<.<.<.<.<.<.<.<.<.<.<.<.<.4.j M <.Y ( q.Z.0.` ( Y j j M <.Y t.}.[.~..X~.~.T.].^ Y 1.c <.M j P >X#XP 1.j N <.4.M N N j 1.'.'.T.1.Y <.N j M B 4.<.<.<.<.<.<.<.<.<.<.<.<.<.<.<.<.<.<.<.<.<.<.( ( <.<.<.<.1.) h.oX~.R.#X}.e.Y 1.j ( t.[..X.XXX^.^.M.M..X.X.X.X.X~.~.~..X.XXXXX.X.X.X#X[.t.{ P j ( ) { '.zX$XL T ( ( j M M M M <.<.<.<.<.<.<.<.<.<.<.<.<.<.<.<.<.<.<.<.<.<.<.<.<.<.<.<.<.<.<.<.<.<.<.<.<.<.<.<.<.<.<.<.<.<.<.<.<.<.<.<.<.<.<.<.<.<.<.<.<.<.<.<.<.<.<.<.<.<.<.<.<.<.<.<.<.<.<.<.<.<.<.<.<.<.<.<.<.<.<.<.<.<.<.<.<.<.<.<.<.<.<.<.<.<.<.<.<.<.<.<.M N N j s ) t.[..X.X^..XoX[.t.( ( Y e.[.~.^.~.W.}.G.s <.( P T >XV.g ( ( j 4.M <.<.<.<.<.<.<.<.<.<.<.<.<.<.<.<.<.<.<.<.<.<.<.<.<.<.<.<.<.<.<.<.<.<.<.<.<.<.<.<.<.<.<.<.<.<.<.<.<.<.<.<.<.<.<.<.<.<.<.<.<.<.<.<.<.M 4.4.M B 4.M i $ 0 0 ; ; M |.}.h.Q ( ^ ( H. Xr.T 1.( 2.Z.7.( ( ( ( ( ( <.<.4.B <.<.<.<.<.<.<.<.<.<.<.<.<.<.<.<.<.<.<.<.<.<.<.<.<.<.<.<.<.<.<.<.M <.) E.[.W.'.T P ( Y 3.}.#X^.^.",
"^.OXW.r.( 1.1.T R >XlX{ T 2.c B <.<.<.<.<.<.<.<.<.<.<.<.<.<.<.<.<.<.<.<.<.<.<.<.<.<.<.<.<.<.<.<.<.<.<.<.<.<.<.<.<.<.<.<.<.<.<.<.6.s M 1.( ^ ` ` ) ^ ^ ^ j M M 4.Y t.[.[..X.X~.~.T.].) Y 1.c 4.M ^ P lX#XR 1.j N <.4.j N V j -.b.'.T.1.P <.N j M B 4.4.<.<.<.<.<.<.<.<.<.<.<.<.<.<.<.<.<.<.<.<.<.( ( <.<.B <.1.T h.oX~.R.#X}.e.Y 1.s ( Z.}.'..X^.^.^.XXXX.X.X.X.X.X~.~.~..X.XXX.X.X.XXX#X'.0./ ( j 1.T 9.jXzXj.~ T ( j k M M M M <.<.<.<.<.<.<.<.<.<.<.<.<.<.<.<.<.<.<.<.<.<.<.<.<.<.<.<.<.<.<.<.<.<.<.<.<.<.<.<.<.<.<.<.<.<.<.<.<.<.<.<.<.<.<.<.<.<.<.<.<.<.<.<.<.<.<.<.<.<.<.<.<.<.<.<.<.<.<.<.<.<.<.<.<.<.<.<.<.<.<.<.<.<.<.<.<.<.<.<.<.<.<.<.<.<.<.<.<.<.<.<.N N N j g ` A.[..X.X^..XoX[.t.( ( Y e.[.~.^.~.W.}.G.s <.( P ) >XZ.g ( j j 4.M <.<.<.<.<.<.<.<.<.<.<.<.<.<.<.<.<.<.<.<.<.<.<.<.<.<.<.<.<.<.<.<.<.<.<.<.<.<.<.<.<.<.<.<.<.<.<.<.<.<.<.<.<.<.<.<.<.<.<.<.<.B B <.B M 4.4.B 4.6.c 7 & 0 0 ; 6 6. X}.f.E P ^ ( H. X8.( 1.( 1.Z.5.j _ j j ( ( <.<.<.<.<.<.<.<.<.<.<.<.<.<.<.<.<.<.<.<.<.<.<.<.<.<.<.<.<.<.<.<.<.<.<.<.M <.P E.[.W.'.T P ( Y 3.}.#X^.^.",
"^.OX'.0.( 1.1.T L lXlX{ T 3.s 4.<.<.<.<.<.<.<.<.<.<.<.<.<.<.<.<.<.<.<.<.<.<.<.<.<.<.<.<.<.<.<.<.<.<.<.<.<.<.<.<.<.<.<.<.<.<.<.<.6.s M 2.( j ^ ^ ( ^ ^ ( ( 1.4.4.Y t.[..X^.XXXX~.W.[.) Y 1.j 4.j P I lX$XT ) j N 1.<.j N V j T b.'.`.1.Y <.N j M B 4.4.<.<.<.<.<.<.<.<.<.<.<.<.<.<.<.<.<.<.<.<.<.( ( <.<.B <.1.T h.oX~.R.#X#Xe.R 1.j ( r.}.'..X^.^.^..X.X.X.X.X.X.X~.~.~.^.^.^..X^..XXX#X`.8.) ( j 5.R k.NXNXk.T ( ( j j N N M M <.<.<.<.<.<.<.<.<.<.<.<.<.<.<.<.<.<.<.<.<.<.<.<.<.<.<.<.<.<.<.<.<.<.<.<.<.<.<.<.<.<.<.<.<.<.<.<.<.<.<.<.<.<.<.<.<.<.<.<.<.<.<.<.<.<.<.<.<.<.<.<.<.<.<.<.<.<.<.<.<.<.<.<.<.<.<.<.<.<.<.<.<.<.<.<.<.<.<.<.<.<.<.<.<.<.<.<.<.<.<.<.N N V j u ) A.oX.X.X^..XoX[.t.( ) Y r.[.~.^.~.~.}.G.s <.Y T ) >XA.P ( ^ s 2.M M <.<.<.<.<.<.<.<.<.<.<.<.<.<.<.<.<.<.<.<.<.<.<.<.<.<.<.<.<.<.<.<.<.<.<.<.<.<.<.<.<.<.<.<.<.<.<.<.<.<.<.<.<.<.<.<.B <.<.<.<.M <.M c 4.4.B 4.6.c % & 0 0 . 6 r.#X'.e.T ( ( ) H. X8.1.1.Y 2.N.2.j 2.j j N <.<.<.<.<.<.<.<.<.<.<.<.<.<.<.<.<.<.<.<.<.<.<.<.<.<.<.<.<.<.<.<.<.<.<.<.<.M ( ( E.[.W.'.T P ( Y 3.}.#X^.^.",
"^.~.[.0.( <.s 1.L $XzX'.L P <.m <.<.<.<.<.<.<.<.<.<.<.<.<.M M M 4.4.4.<.<.<.M M <.<.4.4.4.4.<.<.<.<.<.<.<.<.<.<.<.<.<.<.<.<.<.<.<.M N M V N ( 1.1.T T 1.3.7.7.r.{ h.'..X^.XXXX.X#XT.P ( <.j 2.j P I jXjX{ ^ 2.N =.-.1.<.j j 8.e.}.}.) ( 4.m M M B <.<.<.<.<.M M N N <.M <.N <.N <.N <.M <.N M M ( ( j M N <.1.T h.~./.~..X#Xh.P j j ( 0.[.#X~..X^.~.~.~.~.~..X.X.XW.R.R.~.~.^.^.x.x..X'.p.2.<.N _ 1 Q jXmXzXT ` j k ( ( 1.1.<.M 4.4.<.<.<.<.<.M M M M M M M M M M M M <.M <.<.4.M M M <.<.<.<.<.<.<.<.<.4.4.4.<.<.<.<.4.4.<.<.<.<.<.<.<.<.<.<.<.<.<.<.<.<.<.<.<.<.<.<.<.<.<.<.<.<.<.<.<.<.<.<.<.<.<.<.<.<.<.<.<.<.<.<.<.<.<.<.<.<.<.<.<.<.<.<.<.<.<.<.<.<.<.<.<.M N 2.j u ) T.W.~.^.^..X#X[.r.^ ( ^ 0.[./.Q.~.R.}.t.( ( 1.P 0.>X`.L P 1.( <.m 6.4.4.4.<.<.<.<.<.<.<.<.<.<.<.<.<.<.<.<.<.<.<.<.<.<.<.<.<.<.<.<.<.<.<.<.<.<.<.<.<.<.<.<.<.<.<.<.<.<.<.<.<.<.<.<.<.B B <.4.<.<.<.<.4.j j 4.M a 7 7 $ : - 6 t  X'.'.8.Y 1.1.8.}.*X^ ( <.<.4.4.<.<.M <.<.<.<.<.<.<.<.<.<.B B B B B B <.<.<.<.<.<.<.<.4.N <.<.M M M M <.<.<.<.<.<.<.<.( ( / T.[.W.'.) ( ( 4.( }.T.~.^.",
"XX~.}.0.j <.s 1.L $XzX.XE P <.k <.<.<.<.<.<.<.<.<.<.<.<.M M M M N N 4.4.<.<.B <.<.<.4.4.<.4.<.<.<.<.<.<.<.<.<.<.<.<.<.<.<.<.<.<.<.j N M M m M 4.=.Y T -.8.r.3.3.{ h..X.X^.XXXX.X#XT.P ( <.j 2.( P E jXjX{ ^ <.( -.-.1.1.j j 8.e.}.}.T ( 4.m M M M <.<.<.<.<.M M N M M M N N N N N M M N N N N j ( j j N N <.1.T h.~./.~.~.OXf.P j j ( 0.}.#X~..X~.~.~.~..X.X@XXX.X/./.~.~.~.^.^.x..X.X'.p.<.B V k 4 f.kXmXuXI ( k k ( ) -.-.<.<.M M M M <.<.<.<.M M M <.<.<.<.<.M <.<.<.4.<.4.4.M M M <.<.<.<.<.<.<.<.<.4.<.4.4.<.<.<.4.4.<.<.<.<.<.<.<.<.<.<.<.<.<.<.<.<.<.<.<.<.<.<.<.<.<.<.<.<.<.<.<.<.<.<.<.<.<.<.<.<.<.<.<.<.<.<.<.<.<.<.<.<.<.<.<.<.<.<.<.<.<.<.<.<.<.<.<.N j <.j u ) T.W.~.^.^..X#X[.r.Y ( g 0.[.~.^.~.R. Xt.( ( 1.P 0.>X'.R T ) ( N m 6.B 4.4.<.<.<.<.<.<.<.<.<.<.<.<.<.<.<.<.<.<.<.<.<.<.<.<.<.<.<.<.<.<.<.<.<.<.<.<.<.<.<.<.<.<.<.<.<.<.<.<.<.<.<.<.<.B B 4.4.<.<.( ( 1.Y j <.4.a 7 6 & : - > 1 }.R.'.1.j ( 1.9.}.].( j <.<.4.4.<.<.M <.<.<.<.<.<.<.<.<.<.4.4.B B B B <.<.<.<.<.<.<.<.M M M M M M M M <.<.<.<.<.<.<.<.( ^ / T.oXW.'.) ( ( 4.( }.T.~.^.",
"XX~.}.0.j <.s ) L $XzXOXE P N M <.<.<.<.<.<.<.<.<.<.<.<.<.M <.<.<.<.<.<.<.<.<.<.<.<.<.<.<.<.<.<.<.<.<.<.<.<.<.<.<.<.<.<.<.<.<.<.<.M N N M j M 2.3.1.8.8.8.0.3.3.{ h..X.X^.XXXX.X[.T.P ( <.j 2.( ^ E jXjX{ ^ 2.j =.-.1.1.j j 1.e.'.}.1.( 4.m M M B <.<.<.<.<.M M <.<.<.<.<.<.M M <.<.<.<.<.<.M j j j j N N <.1.T h.W./.~.~.OXh.P j j ( 0.}.#X~..X~.~.~..X.XXX.Xx.g.R.~.~.~.^.^.^..X.X.X'.w.=.B 4.g P OXkXBX~.I j k k ( ( -.-.<.B c c c <.<.<.<.<.<.<.<.<.<.<.<.<.<.<.<.<.<.<.<.<.<.<.<.<.<.<.<.<.<.<.<.<.4.4.<.4.<.<.4.4.4.4.<.<.<.<.<.<.<.<.<.<.<.<.<.<.<.<.<.<.<.<.<.<.<.<.<.<.<.<.<.<.<.<.<.<.<.<.<.<.<.<.<.<.<.<.<.<.<.<.<.<.<.<.<.<.<.<.<.<.<.<.<.<.<.<.<.<.N M <.( u { T.W.^.^.^..X[.}.r.Y ( g 0.[.~.^.~.R.[.t.( ( 1.P 0.>X[.R T ( ( 2.m 4.B 4.<.<.<.<.<.<.<.<.<.<.<.<.<.<.<.<.<.<.<.<.<.<.<.<.<.<.<.<.<.<.<.<.<.<.<.<.<.<.<.<.<.<.<.<.<.<.<.<.<.<.<.<.<.<.B B 4.4.<.<.( ( ( Y <.4.4.c q % 0 : ; - t [.'.'.` j ( ) 8.}.S.( j <.<.4.4.<.<.M <.<.<.<.<.<.<.<.<.4.4.4.<.<.<.<.<.<.<.<.1.1.1.<.s s M M M <.<.<.<.<.<.<.<.<.<.<.( ) / T.oXW.[.) ( Y 4.( }.T.~.^.",
"XX~.[.0.j <.s ) L #XzXOX} P j N <.<.<.<.<.<.<.<.M M <.<.<.<.<.<.j j <.<.<.<.<.<.<.<.<.<.<.<.<.<.<.<.<.<.<.<.<.<.<.<.<.<.<.<.<.<.4.<.M N N j 4.r.G.`.t.e.8.8.3.1.{ h..X.X^.XXXX.X#XT.P ( <.j 2.( ^ E jXjX{ ^ N j -.T 1.1.N j T 8.}.}.1.( 4.j M M B <.<.<.1.<.M M <.<.<.<.<.<.<.M <.<.<.<.<.<.M j j j j M N <.<.T h.~./.~.~.oXh.P j j ( 0.'..X~.XX~.~.~.~..X.Xj.d.! @.U.~.~.~.^.XX.XXX.Xh.1.s m 4.u ] jXmXmXs.T ^ k k ( 1.-.1.<.M M M c M <.<.<.<.<.<.<.<.<.<.<.<.<.<.<.<.<.<.<.<.<.<.<.<.<.<.<.<.<.<.<.4.4.4.<.<.<.<.4.4.4.4.<.<.<.<.<.<.<.<.<.<.<.<.<.<.<.<.<.<.<.<.<.<.<.<.<.<.<.<.<.<.<.<.<.<.<.<.<.<.<.<.<.<.<.<.<.<.<.<.<.<.<.<.<.<.<.<.<.<.<.<.<.<.<.<.<.<.<.j <.( P | T.W.~.^.^..X[.].r.Y ( g 0.[.~.Q.~.R.[.r.( ( 1.P 0.>X[.I T ( ( 2.m M B 4.<.<.<.<.<.<.<.<.<.<.<.<.<.<.<.<.<.<.<.<.<.<.<.<.<.<.<.<.<.<.<.<.<.<.<.<.<.<.<.<.<.<.<.<.<.<.<.<.<.<.<.<.<.<.4.M M 4.<.( ( ( 1.( 1.5.6.<.p 7 q 6 ; - u }.'.'.) ( ( 1.t.}.A.( <.<.<.<.<.<.<.<.<.<.<.<.<.<.<.<.<.4.4.4.<.<.<.<.<.<.<.1.<.<.<.1.=.=.<.<.<.<.<.<.<.<.<.<.<.<.<.<.( ) / T.oXW.[.) ( Y 4.Y }.T.~.^.",
"^.~.}.0.j <.s ) L .XzXjX9.T j N N N <.<.<.<.<.<.Y Y ( Y <.<.1.1.Y j Y Y ( <.<.<.<.<.<.<.<.<.<.<.<.<.<.<.<.<.<.<.<.<.<.<.<.<.<.<.<.<.<.N N <.r.G.{.}.b.9.8.8.0.8.{ h..X.X^.XXXX.X#XT.P ( <.j 2.( ^ ] jXjX{ ^ k j 1.-.=.<.N j ) 8.'.}.8.Y <.j M m <.<.<.<.1.<.<.<.<.<.<.<.<.<.<.<.<.<.<.<.<.<.<.j j j j N N M <.P h.W./.~./.oXh.P j j s 8.}..Xx.XX~.~.~.~..X.Xj.d.! @.j.~.^.^.^.XX.X.X'.q.) s M <.K q.zXNXkX! ) ^ k k ( 1.1.1.<.M <.<.<.<.( ( ( ( <.<.1.<.<.<.<.<.<.<.<.<.<.( ( <.<.<.<.<.<.<.<.<.<.<.<.<.<.<.<.<.<.<.<.<.<.<.<.<.<.<.<.<.<.<.<.<.<.<.<.<.<.<.<.<.<.<.<.<.<.<.<.<.<.<.<.<.<.<.<.<.<.<.<.<.<.<.<.<.<.<.<.<.<.<.<.<.<.<.<.<.<.<.<.<.<.<.<.<.<.<.<.<.4.j <.( P 0.T.~.~.^.^..X#X{.r.Y ( ^ 0.[.~.^.~.R.}.r.Y ( 1.P 9.>X#XT T ( ( 2.m M B <.<.=.<.<.<.<.<.<.<.<.<.<.<.<.<.<.<.<.<.<.<.<.<.<.<.<.<.<.<.<.<.<.<.<.<.<.<.<.<.<.<.<.<.<.<.<.<.<.<.<.<.<.<.<.M M M <.<.( 1.( 1.1.2.7.7.2.s i x 0 w > ) [.XXR.( ( ( 1.`.}.V.( <.<.<.<.<.<.<.<.<.<.<.<.<.<.<.<.<.<.<.<.<.<.<.<.=.<.<.=.1.1.1.1.1.2.1.1.1.( ( Y <.<.<.<.<.N <.( ( ) ) `.oXW.[.) ) Y 4.T }.T.~.^.",
"^.~.[.0.j <.s ` L ~.zXjXf.T ^ 2.N N N N <.<.<.<.( Y <.1.1.1.1.1.1.<.1.<.1.( <.<.<.<.<.<.<.<.<.<.<.<.<.<.<.<.<.<.<.<.<.<.<.<.<.<.1.<.<.<.<.1.r.|.{.'.b.,.Q 8.r.0.{ h..X.X^.XXXX.X#XT.P ( <.j 2.( ) ] lXlX{ ^ j l 1.=.T <.N k T T `.}.8.T <.j 2.m <.<.<.<.1.<.<.<.<.<.<.<.<.<.<.<.<.<.<.<.<.<.<.( ( j j N N N <.P h.W./.R./.oXt.P j k s 1.}..Xx.XX^.~.~.~..XXX.Xx.g.j.~.XX^.^.^..X.X'.T.r.T Y ( ( I oXzXNX@X~ ) ) j k <.<.1.1.<.<.1.1.1.<.1.<.( ( 1.1.1.1.1.4.<.1.1.1.1.1.1.<.1.1.1.1.1.<.<.<.( ( <.<.<.<.<.<.<.<.<.<.<.<.<.<.<.<.<.<.<.<.<.<.<.<.<.<.<.<.<.<.<.<.<.<.<.<.<.<.<.<.<.<.<.<.<.<.<.<.<.<.<.<.<.<.<.<.<.<.<.<.<.<.<.<.<.<.<.<.<.<.<.<.<.<.<.<.<.<.<.<.4.j <.( ^ 0.W.~.~.^..X.X#X{.r.s ( ^ 0.[.~.~.~.R.}.r.Y ( 1.P 9.lX-XE T ( ( 2.j M B <.<.<.<.<.<.<.<.<.<.<.<.<.<.<.<.<.<.<.<.<.<.<.<.<.<.<.<.<.<.<.<.<.<.<.<.<.<.<.<.<.<.<.<.<.<.<.<.<.<.<.<.<.<.<.M M N M ( 1.1.1.3.r.r.r.r.5.=.p x 0 d > 3.oXXXh.P <.( 1.{.}.V.( <.<.<.<.<.<.<.<.<.<.<.<.<.<.<.<.<.<.<.<.<.<.<.<.<.1.1.1.1.2.2.2.3.3.3.2.1.1.1.( <.<.<.<.N N N j ( ) ) `.oXW.[.{ ) Y 4.T }.T.~.^.",
"^.~.[.0.j N s ` L ~.zXkXj.I Y 2.M N N N M <.<.<.1.1.1.1.1.3.1.3.2.5.1.1.1.1.1.1.<.<.<.<.<.<.<.<.<.<.<.<.<.<.<.<.<.<.<.<.<.<.<.<.<.1.<.<.( 1.A. Xh.'.n.e.,.8.r.8.) t..X.X^.XXXX.X#XT.P ( <.j 4.( ^ ] zXlX8.^ j j 4.=.( <.N k Y T h.#Xr.T ( j 4.m <.<.1.1.1.1.<.( <.<.1.<.<.<.<.<.1.<.1.<.1.<.1.( ( j j M N N 1.) T.W./.R.W.oXt.P j j s 1.}..Xx.XX^.~.~.~..X.XXXXX.X~.^.^.^.^.^.^..X'.t.1.( 1.( P q.jXkXzXg.L ) ( j j M <.<.<.<.<.=.Y 1.1.1.4.1.2.3.2.3.2.2.2.2.2.3.2.2.2.2.4.2.4.1.1.1.1.1.=.1.=.<.<.<.<.<.<.<.<.<.<.<.<.<.<.<.<.<.<.<.<.<.<.<.<.<.<.<.<.<.<.<.<.<.<.<.<.<.<.<.<.<.<.<.<.<.<.<.<.<.<.<.<.<.<.<.<.<.<.<.<.<.<.<.<.<.<.<.<.<.<.<.<.<.<.<.<.<.<.<.<.4.j <.( P 0.[.~.~.XXXX.X.X'.r.Y ) P 0.oX/.~.~.R.}.r.Y ( 1.P q.lX;X{ T ( <.2.m M B <.<.<.<.<.<.<.<.<.<.<.<.<.<.<.<.<.<.<.<.<.<.<.<.<.<.<.<.<.<.<.<.<.<.<.<.<.<.<.<.<.<.<.<.<.<.<.<.<.<.<.<.<.<.<.M M M M ( 1.2.3.0.r.r.3.w.w.1.s x 0 d > q.#XXXf.K <.Y 1.}.}.` ( <.<.<.<.<.<.<.<.<.<.<.<.<.<.<.<.<.<.<.<.<.<.<.<.<.1.2.2.2.3.3.0.w.w.w.5.3.3.2.2.<.<.<.<.N N N j j ^ ) T.oXW.[.) ( =.4.=.}.T..X^.",
"^.~.[.0.j N s ` L ~.zXzXj.I Y 2.M M N <.M <.<.<.2.2.3.3.w.w.w.w.r.7.3.2.2.2.1.1.<.<.<.<.<.<.<.<.<.<.<.<.<.<.<.<.<.<.<.<.<.<.<.<.4.<.1.<.Y ( t.}.b.+X.Xk.9.e.w.) { t.'..X^.XX.X.X[.T.P ( <.j 4.( ^ ] zXlX8.( j j 2.-.<.<.C k Y R h.#X9.( ( j 4.j <.<.1.1.1.1.( ( 1.<.1.1.1.<.1.1.1.<.1.1.1.1.1.( ( j j N N <.1.) T.W./.R.W.[.t.P N j s 1.}..Xx.XX^.~.~.~.~.~.m.^..X^.^.x.c.XXXX.X'.'.t.) ( 1.1.L j.NXkXzX9.K P ( j j M M <.<.<.<.Y Y =.1.1.2.3.7.r.7.r.7.r.7.r.7.r.7.r.7.5.7.3.2.1.1.1.1.1.1.=.=.<.<.<.<.<.<.<.<.<.<.<.<.<.<.<.<.<.<.<.<.<.<.<.<.<.<.<.<.<.<.<.<.<.<.<.<.<.<.<.<.<.<.<.<.<.<.<.<.<.<.<.<.<.<.<.<.<.<.<.<.<.<.<.<.<.<.<.<.<.<.<.<.<.<.<.<.<.<.<.<.4.j <.( ( t.[.~.^.^.XX.X.X'.r.Y ) P 9.oX~.~.~.R.}.r.( ( 1.L q.lX;X{ T ( <.2.m B B <.<.<.<.<.<.<.<.<.<.<.<.<.<.<.<.<.<.<.<.<.<.<.<.<.<.<.<.<.<.<.<.<.<.<.<.<.<.<.<.<.<.<.<.<.<.<.<.<.<.<.<.<.<.<.B m j M ( 1.3.r.w.r.w.1.w.w.1.s x 6 l > q.[..Xk.K 1.Y 1.}.}.) g <.<.<.<.<.<.<.<.<.<.<.<.<.<.<.<.<.<.<.<.<.<.<.1.2.2.5.5.r.r.r.r.w.w.w.w.w.w.7.7.1.<.<.<.<.N N j ( ^ ) T.oXW.[.) ( =.4.=.}.T..X^.",
"c.~.[.A.j l <.( S R.kXNX;XL 1.) j j j ( <.1.5.5.3.3.0.8.8.8.w.w.0.3.3.3.7.7.7.7.1.Y Y =.4.4.<.<.<.<.<.<.<.<.<.<.<.<.<.<.<.<.<.<.=.<.4.1.Y ) t.}.'.XX.Xk.,.9.r.8.{ t.'..X^.^..X.X'.t.) ^ ( ( c ( I  .zXjX}.u N N Y T Y <.k j ( T h.#X8.T ( j 4.M s s Y =.1.1.2.2.3.3.3.3.3.3.3.3.1.1.1.( T Y T Y ( ( 2.2.2.4.<.P T.W./.~.oX[.C.P j N ( ) `.XX.X^.~.~.~.~..X.XXXXX.X^.^.^.XXXXXX.X[.].3.P 1.( K 9.kXmXkXjXL ) 1.1.1.<.M M j Y Y Y T 1.3.3.r.r.r.r.0.3.0.3.0.3.0.3.0.3.3.3.0.3.0.3.3.3.3.3.1.1.T =.<.<.1.<.<.<.<.<.<.<.<.<.<.M M <.<.<.<.<.<.<.<.<.<.<.<.<.<.<.<.<.<.<.<.<.<.<.<.<.<.<.<.<.<.<.<.<.<.<.<.<.<.<.<.<.<.<.<.<.<.<.<.<.<.<.<.<.<.<.<.<.<.<.B <.<.<.<.<.4.j j ( P 0.W.~.^.^.x..X#XT.1.( ( P t./.~.~.~.R.}.r.Y ( ) L 9.lX;X9.L ( <.N V B B <.<.<.<.<.<.<.<.<.<.<.<.<.<.<.<.<.<.<.<.<.<.<.<.<.<.<.<.<.<.<.<.<.<.<.<.<.<.<.<.<.<.<.<.<.<.<.<.<.<.<.<.B <.M M N 4.2.5.3.3.8.8.8.8.r.r.r.w.5.i e e < A.[..Xk.1.( Y =.#Xt.) ( <.<.<.<.<.<.<.<.<.<.<.<.<.<.<.<.<.<.M <.<.<.<.1.7.5.3.0.0.w.w.8.8.8.8.8.8.0.3.3.7.7.5.1.<.( j j ( ^ / [.[.W.oXT 1.<.4.Y ].T..X^.",
"c.^.'.A.j l _ ^ I g.kXNXjXL 1.( Y ( ( <.1.5.5.3.3.3.8.8.8.8.w.w.8.3.8.3.r.7.7.7.1.1.=.<.1.<.<.<.<.<.<.<.<.<.<.<.<.<.<.<.<.<.<.<.=.<.4.( Y ) t.'.'.XXm.k.9.9.r.8.) A.'..X^.XX.X.X#Xt.) ^ ( ( <.1.P } zXkX}.u j j T -.1.M k k ( T h.#X9.T ( j <.c =.=.-.1.3.3.3.3.3.3.3.3.3.0.3.3.3.3.1.1.1.1.1.( ( ( j j M <.1.) T.T./.~.oX[.t.P j 2.( ) `.#X.X^.~.~.~.~..X.XXXXX~.^.^.M.M.XX.X.X[.`.` ^ ` P R j.mXmXzX#XP P 1.Y ( <.M M <.1.1.1.1.1.3.r.r.r.r.0.0.0.0.0.0.0.0.0.0.0.0.0.0.0.0.0.3.3.3.3.3.1.1.1.1.<.=.1.1.<.<.<.<.<.<.<.<.N M N <.<.<.<.<.<.<.<.<.<.<.<.<.<.<.<.<.<.<.<.<.<.<.<.<.<.<.<.<.<.<.<.<.<.<.<.<.<.<.<.<.<.<.<.<.<.<.<.<.<.<.<.<.<.<.<.<.<.<.<.<.<.<.<.4.j <.( ( t.[.~.^.^.x..X#XT.T T ( P q.oX~.~.~.T.}.r.Y ( ) L 9.lX;X9.L ( <.N V M B <.<.<.<.<.<.<.<.<.<.<.<.<.<.<.<.<.<.<.<.<.<.<.<.<.<.<.<.<.<.<.<.<.<.<.<.<.<.<.<.<.<.<.<.<.<.<.<.<.<.<.B B <.<.M <.4.5.3.3.0.8.8.8.8.r.r.w.w.5.i a a < E.[..Xf.1.( Y 1.#Xt.) ( <.<.<.<.<.<.<.<.<.<.<.<.<.<.<.<.<.<.M M <.<.2.2.w.w.0.8.8.8.w.8.8.8.8.8.8.8.0.3.7.7.5.2.1.<.j j ( ^ ) [.[.W.[.T 1.Y 4.Y ].T..X^.",
"c.^.[.A.j k _ ^ I g.kXzXjXE ) ^ Y ( ) 1.5.3.3.3.3.0.8.8.8.8.8.8.8.8.8.8.8.0.0.3.1.2.1.1.=.=.<.4.<.<.<.<.<.<.<.<.<.<.<.<.<.<.<.<.<.<.<.( Y ) t.'.'.XX.Xk.9.8.r.3.) A.'..X^.XX.X.X#Xt.) ^ ( ( <.1.I @.NXkX}.K j j -.-.1.<.k k Y R h..X9.T ( Y 4.j 4.1.3.5.0.3.3.3.3.3.3.8.0.0.0.0.0.0.3.3.3.1.1.1.^ ( j j s <.1.) T.W.~.R.oX[.t.P j N ( ) h..X.X.X~.~.^.~..X.X.X.X~.~.^.XXM.XX.X.X}.A.^ ^ ) P Q @XmXMXzXf.P Y 3.s =.<.<.4.4.2.8.8.1.3.8.0.r.r.8.8.8.8.8.8.8.8.8.8.8.8.8.8.8.8.8.8.8.8.8.8.8.8.1.1.1.=.=.=.=.1.4.4.<.<.<.<.N N N N <.<.<.<.<.<.<.<.<.<.<.<.<.<.<.<.<.<.<.<.<.<.<.<.<.<.<.<.<.<.<.<.<.<.<.<.<.<.<.<.<.<.<.<.<.<.<.<.<.<.<.<.<.<.<.<.<.<.<.<.<.<.B <.4.j <.( ) t.oX~.^.^.x..X#Xh.T T ( T q./.~.~.~.T.[.r.Y ( ) R q.lX;X9.L ( ( N M B B <.<.<.<.<.<.<.<.<.<.<.<.<.<.<.<.<.<.<.<.<.<.<.<.<.<.<.<.<.<.<.<.<.<.<.<.<.<.<.<.<.<.<.<.<.<.<.<.<.<.<.B <.<.<.<.1.2.3.0.0.8.9.9.9.8.8.w.w.w.1.p a a < E..X.Xk.1.1.1.1. Xt.( <.<.<.<.<.<.<.<.<.<.<.<.<.<.<.<.<.<.M M <.<.4.2.7.3.8.8.8.8.8.8.8.8.8.8.8.8.8.0.3.3.3.3.5.1.1.( ( ( ^ ) [.[.W.[.T ( Y <.Y ].T.~.^.",
"c.^.'.A.j l _ ^ L $.kXNXjXQ T P T ( 1.3.7.r.r.0.3.3.8.8.8.8.8.8.8.8.8.8.8.8.8.0.3.5.5.1.=.Y <.4.<.<.<.<.<.<.<.<.<.<.<.<.<.<.<.<.<.<.4.( T ) t.'.~..X~.s.} 8.r.3.) A.[..X^.XX.X.X.Xt.) Y Y ( <.1.L @.NXkX[.P ( ( -.-.=.<.k k Y R k..X9.) 1.( 2.<.5.5.w.w.r.r.0.0.3.3.8.3.8.0.8.0.r.0.0.0.8.3.8.1.` ^ ) ( <.<.-.T R.~.~.R.oXoXt.P j N ( ) h..X.X.X~.~.~.~..X.X.X.X~.~..XXXM.XX.X.X}.0.^ ( I R f.kXMXMXkX{ ^ s 7.s 1.<.4.4.2.3.8.9.8.8.8.0.8.8.8.8.8.8.8.8.8.8.8.8.8.8.8.8.8.8.8.8.8.8.8.8.8.8.8.8.3.1.<.=.=.=.<.<.<.<.<.N N N N N <.<.<.<.<.<.<.<.<.<.<.<.<.<.<.<.<.<.<.<.<.<.<.<.<.<.<.<.<.<.<.<.<.<.<.<.<.<.<.<.<.<.<.<.<.<.<.<.<.<.<.<.<.<.<.<.<.<.<.<.M M M M <.s ( ( ( t.[.~.^.XXc..X#Xh.T ) ) T q./.~.~..XT.].r.Y Y ) R q.lXlXe.P ( ( N M B B <.<.;.<.<.<.<.<.<.<.<.<.<.<.<.<.<.<.<.<.<.<.<.<.<.<.<.<.<.<.<.<.<.<.<.<.<.<.<.<.<.<.<.<.<.<.<.<.<.<.<.<.<.<.<.4.2.3.3.8.r.9.9.9.9.9.8.w.r.w.5.c p y 3 ]..X.Xk.8.4.4.1. Xw.( <.<.<.<.<.<.<.<.<.<.<.<.<.<.<.<.<.<.<.M <.1.2.7.r.0.8.8.8.8.8.8.8.8.8.8.8.8.8.0.0.3.3.0.3.3.1.( ( ( ^ ) [.[.W.[.T ( Y <.Y ].T.~.^.",
"z.^.[.Z.j l _ ^ L +.kXNXjX9.T T ) 1.3.0.r.r.r.0.0.0.0.0.8.8.8.8.8.8.8.8.8.8.8.0.3.7.7.2.1.Y <.<.<.<.<.<.<.<.<.<.<.<.<.<.<.<.<.<.<.<.<.( ( { A.'.~..X~.s.{ 8.r.3.) A.[.oX^..X.X.X.Xq.T P ( ( <.1.L @.BXkX#XP ) ( -.-.1.<.k j P T k..Xq.8.3.1.5.4.7.7.w.w.r.0.3.3.8.8.8.8.8.8.8.8.8.0.8.8.8.8.8.8.1.1.3.2.2.1.-.T R.~.~.~.oXoXh.P j N s T h..X.X.X~.~.~.~..X.X.X.XW.W..X.XM.XX.X}.`.1.g ( I E .XBXAXfXOXD ( l 5.=.5.5.5.5.5.0.9.9.8.8.8.w.w.8.8.8.8.8.8.8.8.8.8.8.8.8.8.8.8.8.8.8.8.8.8.8.r.8.8.w.r.5.1.1.1.<.<.1.<.<.<.N M N N M <.<.<.<.<.<.<.<.<.<.<.<.<.<.<.<.<.<.<.<.<.<.<.<.<.<.<.<.<.<.<.<.<.<.<.<.<.<.<.<.<.<.<.<.<.<.<.<.<.<.<.<.<.<.<.<.<.<.<.<.<.<.<.<.<.s <.) ) t.[.~.^.XXc.XXXXh.1.1.) T k.~.~.~.~.T.].r.s Y 1.R f.lXlXq.T ( ( j N M B 4.4.;.<.<.<.<.<.<.<.<.<.<.<.<.<.<.<.<.<.<.<.<.<.<.<.<.<.<.<.<.<.<.<.<.<.<.<.<.<.<.<.<.<.<.<.<.<.<.<.<.<.<.<.<.2.3.8.8.8.8.9.9.9.9.9.8.8.r.w.5.=.a y y ]..X~.s.8.2.5.1. X8.( 2.<.<.<.<.<.<.<.<.<.<.<.<.<.<.<.<.<.<.<.1.1.2.7.r.0.8.8.8.8.8.9.8.8.8.8.8.8.0.0.0.3.0.0.0.3.3.1.( ) P ) [.[.W.[.T 1.1.4.Y ].T.~.^.",
"z.^.[.Z.j l _ ^ L [ kXmXzXh.E ) 1.3.8.0.0.0.0.0.0.0.0.0.8.8.8.8.8.8.8.8.8.8.8.8.r.r.r.5.4.1.<.<.<.<.<.<.<.<.<.<.<.<.<.<.<.<.<.<.<.<.<.( ( { T.W.~..X~.s.{ 8.r.3.) A.[..X~..X.X.X'.q.) ( ( ( <.1.L @.BXmX#XP 1.) -.-.1.1.N N ) T s..Xf.0.0.1.7.5.7.5.w.8.8.8.3.3.8.8.8.8.8.8.8.8.8.8.8.8.8.8.8.8.8.0.0.7.7.3.-.T '.~.~.~.~.oXh.) j N s P h..X.X.X~.~.~.~..X.X.X.XW.W..X.XM.M..X}.G.( g ( I 9.uXBXAXsXU.D _ N 2.5.w.w.7.7.7.0.9.e.9.8.8.8.8.8.8.8.8.8.8.8.8.8.8.8.8.8.8.8.8.8.8.8.8.8.8.8.r.8.8.8.r.r.5.2.1.1.1.1.<.<.<.N N N N N <.<.<.<.<.<.<.<.<.<.<.<.<.<.<.<.<.<.<.<.<.<.<.<.<.<.<.<.<.<.<.<.<.<.<.<.<.<.<.<.<.<.<.<.<.<.<.<.<.<.<.<.<.<.<.<.<.<.<.<.<.<.<.<.4.<.4.1.) A.#X.X^.XXc.XXXXh.8.1.8.) f.~.^.^.~.T.`.r.s Y 1.R s.zXlXt.T ( j j N M B 4.4.4.<.<.<.<.<.<.<.<.<.<.<.<.<.<.<.<.<.<.<.<.<.<.<.<.<.<.<.<.<.<.<.<.<.<.<.<.<.<.<.<.<.<.<.<.<.<.<.<.<.<.<.<.7.w.8.8.8.8.9.9.9.9.8.8.8.r.w.7.<.s y t  X.Xx.s.8.5.7.1. X8.Y 2.<.<.<.<.<.<.<.<.<.<.<.<.<.<.<.<.<.<.1.4.2.7.7.r.8.8.8.8.8.8.9.9.8.8.8.8.0.0.0.0.3.0.0.0.8.3.1.1.) ^ ) [.[.W.[.T 1.1.4.Y ].T.~.^.",
"z.^.[.Z.j l _ ^ L W NXmXzXR.Q ) 8.8.8.8.8.0.0.0.0.3.0.3.0.0.0.8.8.8.8.8.8.8.8.8.r.7.5.7.5.2.1.<.<.<.<.<.<.<.<.<.<.<.<.<.<.<.<.<.4.B <.( ^ | T.W.~..X~.s.{ 8.r.5.) A.[..X~..X.X.X'.q.1.` 1.1.<.1.L d.BXBX#XT 1.1.-.>.1.2.2.2.3.8.} .Xh.0.r.1.7.3.3.5.8.8.8.8.3.1.8.8.8.8.8.8.8.8.8.8.8.8.8.8.8.8.8.0.8.5.5.5.8.8.'.~.^.Q.~.oXh.) j N s P h..X.X.X~.~.~.~..X.X.X.XW.E..X.XXXM..X}.t.( ^ ( I j.kXMXAXsX@.^ k B.4.i.e.w.7.7.7.r.e.e.9.8.8.8.8.8.8.r.8.8.8.8.8.8.8.8.8.8.8.8.8.8.8.8.8.8.8.8.8.8.8.8.w.w.5.5.2.2.2.2.<.<.<.M N N N N <.<.<.<.<.<.<.<.<.<.<.<.<.<.<.<.<.<.<.<.<.<.<.<.<.<.<.<.<.<.<.<.<.<.<.<.<.<.<.<.<.<.<.<.<.<.<.<.<.<.<.<.<.<.<.<.c <.<.<.<.6.6.6.5.2.5.3.3.T.#X~.^.^.c.XXXXh.8.8.0.{ h./.^.^.~.T.`.3.s Y 1.R k.zXlXh.T ( j j M m B 4.<.<.<.<.<.<.<.<.<.<.<.<.<.<.<.<.<.<.<.<.<.<.<.<.<.<.<.<.<.<.<.<.<.<.<.<.<.<.<.<.<.<.<.<.<.<.<.<.<.<.<.<.6.<.r.w.w.8.8.9.9.9.9.9.8.8.8.r.w.r.5.s y y  X.Xx.s.8.7.7.5.{.-.s 2.<.<.<.<.<.<.<.<.<.<.<.<.<.<.<.<.<.<.4.5.7.7.r.0.8.8.8.8.8.9.9.9.8.0.3.3.3.3.0.0.8.8.8.8.8.8.8.3.) ^ ) [.oXW.[.T 1.1.4.Y ].T.~.^.",
"!.Q.oXA.( j _ ^ I E NXmXNX~.] { r.8.8.8.8.8.8.0.8.0.8.3.8.0.0.8.8.8.8.8.8.8.8.8.r.8.3.r.7.3.1.Y <.<.<.<.<.<.<.<.<.<.<.<.<.<.<.<.<.<.<.( ( 0.T.W.~..X~.s.{ 8.r.3.1.A.[..X~.^.~..X'.t.8.3.3.2.1.1.L g.BXBX$XE ) 1.1.8.8.7.7.3.r.9.} '.h.r.r.1.r.3.3.8.8.w.8.0.3.0.8.8.8.8.8.8.8.8.8.8.8.8.8.8.8.8.8.8.1.3.3.w.w.t.R.~.^.~.~.oXh.T ( <.s P f..X.X.X~.~.~.~..X.X.X.X[.[..X.XXXXX.X'.r.( ( ( I ~.mXsXfXaXH / _ N.( G.w.w.7.7.7.r.e.e.9.8.8.8.8.8.r.r.8.8.8.8.8.8.8.8.8.8.8.8.8.8.8.8.8.8.8.8.8.8.8.8.8.8.5.0.7.7.7.3.1.( <.( <.( <.<.<.<.<.<.<.<.<.<.<.<.<.<.<.<.<.<.<.<.<.<.<.<.<.<.<.<.<.<.<.<.<.<.<.<.<.<.<.<.<.<.<.<.<.<.<.<.<.<.<.<.<.<.<.<.<.<.M <.<.<.4.2.5.2.5.1.5.3.8.T.oX~.x.XXc.XXXXh.8.r.r.8.h..X^.Q.~.T.`.0.Y Y ) L d.zXzXh.T ( j j M M B <.4.<.<.<.<.<.<.<.<.<.<.<.<.<.<.<.<.<.<.<.<.<.<.<.<.<.<.<.<.<.<.<.<.<.<.<.<.<.<.<.<.<.<.<.<.<.<.<.<.<.<.<.6.2.r.w.8.8.8.8.9.9.8.9.8.8.8.0.r.r.7.s y u  X[.j.9.8.7.7.1.{.-.Y 1.<.<.<.<.<.<.<.<.<.<.<.<.<.<.<.<.<.( 2.3.7.r.0.8.8.8.8.8.8.8.9.8.8.0.3.3.8.3.8.8.0.0.8.8.8.8.8.0.) ^ { [.[.W.[.T 1.1.<.T ].T.~.~.",
").U.W.h.Q P ( Y L } gXBXBXtX[ 9.8.8.8.8.8.8.8.8.8.8.8.8.8.8.8.8.8.8.8.8.8.8.8.8.8.8.8.8.8.8.8.0.=.<.<.1.<.<.<.<.<.<.1.1.<.<.<.<.<.( ( ( ) ) T.#X.X.X~.f.9.8.0.0.8.h.'./.~.~.~.~.#X9.1.r.0.1.0.0.L ~.BXmXiX+.] 1.3.7.w.w.w.0.0.0.9.T.T.8.8.0.1.0.8.8.8.8.8.8.8.8.8.0.8.8.8.8.8.8.8.8.w.-.w.t.1.q.w.8.8.0.3.8.8.9.~.~.^.^..X.Xh.8.3.3.3.8.q.R..X.X^.^..X.X.X.X.X.X.XXXXX^.^.~.[.`.1.1.4.P E uXDX9XBXg.] | 0.` 0.3.8.8.w.0.8.8.8.8.8.8.8.8.8.8.8.8.8.8.8.8.8.8.8.8.8.8.8.8.8.8.8.8.8.8.8.8.8.8.8.8.8.8.8.8.8.8.8.0.3.3.3.1.1.( T ( <.<.<.<.<.<.<.<.<.B <.<.<.M 4.M M M M M M N <.M <.N <.N <.N <.N <.N <.M <.N <.N <.N <.M <.N M M m m M N M 4.4.4.s Y 1.2.3.0.3.3.r.3.3.3.{ I..X~.^.c.XXXXx.k.9.8.8.8.I.~.^.^.^.R.'.r.1.1.Q E g.jXzX#XL T 3.m M B B 4.4.4.4.<.<.4.M <.<.<.<.<.<.<.<.<.<.<.M M <.<.<.<.<.<.M M <.<.<.<.<.<.<.<.<.<.M M M M M M <.<.Y =.<.<.1.5.5.5.8.8.8.8.8.8.8.8.8.8.8.8.8.8.8.8.r.2.t Y  X Xt.9.8.1.r.t.r.T Y 2.<.<.<.<.<.<.<.<.<.<.<.N <.M <.<.3.3.3.8.8.0.0.8.8.8.8.8.8.8.8.8.8.8.8.8.8.8.8.8.8.8.8.8.8.8.8.8.0./ 0.T.W.oXT.{ P 1.-.1.T.[.~.~.",
"Y.U.~.j.,.-.3.1.P } uXBXBXgX}  .8.8.8.8.8.8.8.8.8.8.8.8.8.8.8.8.8.8.8.8.8.8.8.8.8.8.8.8.8.8.8.8.1.<.1.=.=.=.<.<.<.<.<.<.<.<.<.( ( Y ( ) ` { T.#X.XXX.Xf.9.8.0.0.8.h.'./.~.~.~.~.#X9.1.r.0.1.0.| I ~.BXmXhX&.] 0.5.5.w.w.w.8.0.3.{ T.A.8.8.8.8.r.8.8.8.8.8.8.8.8.8.0.8.8.8.8.8.8.8.8.w.T 8.t.>.t.w.w.w.0.3.0.9.} ~.^.^.^.XX.Xj.9.8.8.8.8.q.R..X.X^.^..X.X.X.X.X.X.XXXXX^.~.~.T.E.1.1.1.T d.hXDXwXNXI.]  .} | 0.8.0.0.8.8.8.8.8.8.8.8.8.8.8.8.8.8.8.0.0.0.0.0.0.8.8.8.8.8.8.8.8.8.8.8.8.8.8.8.8.8.8.8.8.8.8.8.8.8.8.8.8.8.1.1.1.1.1.<.<.<.<.<.=.M <.4.<.4.<.N B M M M M N M N M N M N N N N M N N N M M M N N N N N M M M N N N M B B N N N <.<.<.( ( 1.3.0.0.r.0.q.3.0.0.| T.OX~.^.c.XX@Xx.9.{ { 8.8.I.~.^.^.^.R.}.r.1.8.{ E g.kXkXOXE R 5.j B B B B ;.4.=.<.<.<.4.4.<.<.<.<.M M <.<.<.<.M M <.<.<.<.<.<.M M <.<.<.<.M M <.<.<.<.M N M N <.<.<.1.=.=.1.1.2.5.5.w.8.8.8.8.8.8.8.8.8.8.8.8.8.8.8.8.r.3.t U |.&Xt.0.9.8.r.Z.r.T T 2.<.<.<.<.<.<.<.<.<.<.M M M M <.1.3.8.8.8.8.8.8.8.8.8.8.8.8.8.8.8.8.8.8.8.8.8.8.8.8.8.8.8.8.8.8.8.8./ 9.W.W.[.I.{ T 3.-.1.T.oX~.~.",
"Y.U.~.R.9.8.r.3.I } uXBXBXhX$.} 8.8.8.8.8.8.8.8.8.8.8.8.8.8.8.8.8.8.8.8.8.8.8.8.8.8.8.8.8.8.8.8.w.5.1.=.=.=.=.<.<.<.<.<.<.<.<.<.( ( ) ` ) { h.#X.XXX.Xf.9.9.8.0.8.h.'./.~.~.~.~.oX9.1.r.0.1.0.| { /.BXmXcX&.} 0.5.5.w.w.w.8.0.3.{ T.T.9.9.9.8.r.8.8.8.8.8.8.8.0.8.8.8.8.8.8.8.8.8.8.w.T 8.t.8.t.w.w.w.0.0.0.9.} '.~.^.^..X.Xh.9.8.0.8.8.q.R..X.X^.^..X.X.X.X.X.Xm..X.X^.Q.R.T.Z.Y 1.=.9.OXbXvXvXxX$.] }  .{ 0.8.0.0.8.8.8.8.8.8.8.8.8.8.8.8.8.8.8.8.8.8.8.8.8.8.8.8.8.8.8.8.8.8.8.8.8.8.8.8.8.8.8.8.8.8.8.8.8.8.8.8.8.8.8.8.8.8.1.1.<.1.1.( =.( <.<.<.<.<.<.<.4.M M <.<.<.<.<.<.<.<.<.<.M M M M <.<.<.<.<.<.M M <.<.<.<.<.<.M M M M N <.<.<.<.=.1.3.3.0.r.r.r.0.0.1.0.0.) C.oX~.XXc.XXXXj.9.9.8.8.9.I.~.^.^./.R.[.t.3.0.| Q g.zXkXOXE T 3.j 4.4.4.4.4.<.=.<.<.<.<.<.<.<.<.<.<.<.<.<.<.<.<.<.<.<.<.<.<.<.<.<.<.<.<.<.<.<.<.<.<.<.4.M 4.<.<.<.1.1.<.<.1.1.5.w.w.w.8.8.8.8.8.8.8.8.8.8.8.8.8.8.8.8.r.3.t K {. Xt.r.9.8.r.t.r.T T 1.<.<.<.<.<.<.<.<.<.<.M M <.<.<.4.3.8.8.8.8.8.8.8.8.8.8.8.8.8.8.8.8.8.8.8.8.8.8.8.8.8.8.8.8.8.8.8.8./ q.T.W.W.I.{ T 8.1.8.T.oX~.~.",
"Y.U.~.~.e.8.r.7.) } uXBXMXhXg.} 8.8.8.8.8.8.8.8.8.8.8.8.8.8.8.8.8.8.8.8.8.8.8.8.8.8.8.8.8.8.8.8.r.7.5.1.=.=.=.=.<.<.<.<.<.<.1.1.Y ( ` 3.3.8.f.'..X.X.Xf.9.8.8.0.8.h.'./.~.~.~./.oX8.) r.0.1.0.| { /.BXcXcX#.} 0.5.5.w.w.w.8.0.` { T.T.9.9.9.8.r.8.8.8.8.8.8.8.0.8.8.8.8.8.8.8.8.8.8.w.P -.t.8.t.w.w.w.0.0.0.9.9.'.~.^.^..X.Xh.8.8.0.8.8.q.R..X.X^.^..X.X.X.X.X.X.X.X.X~.~.R.I.0.( 1.T q.kXMX0XDXOX .]  .| { 0.8.8.0.8.8.8.8.8.8.8.8.8.8.8.8.8.8.8.8.8.8.8.8.8.8.8.8.8.8.8.8.8.8.8.8.8.8.8.8.8.8.8.8.8.8.8.8.8.8.8.8.8.8.8.8.8.0.3.2.2.1.1.( 1.( Y Y Y ( <.1.1.<.( M M M M <.<.<.<.<.<.<.M M M M <.<.<.<.<.<.<.M <.<.<.<.<.<.M M <.<.<.<.<.<.1.1.3.0.0.r.r.r.8.0.0.1.0.0.) t.[..XXX^.XXXXj.e.8.8.8.9.I..X^.^.^.R.[.t.3.r.9.[ ~.zXNXjX} { 0.1.5.6.6.4.4.<.1.1.1.<.Y M M <.<.<.4.4.<.<.<.<.<.<.<.<.<.<.<.<.<.<.<.<.<.<.<.<.<.<.<.<.4.4.4.<.<.<.<.=.2.2.5.5.w.w.e.w.8.8.8.8.8.8.8.8.8.8.8.8.8.8.8.8.r.7.t t `. Xt.9.9.9.r.r.r.) T 1.<.<.<.<.<.<.<.<.<.<.Y <.<.<.4.2.8.8.8.8.8.8.8.8.8.8.8.8.8.8.8.8.8.8.8.8.8.8.8.8.8.8.8.8.8.8.8.8.8.{ t.E.W.W.I.| 1.r.1.8.'.oX~.~.",
"Y.U./.~.9.8.7.5.) ] uXBXmXmX~.} 9.8.8.8.8.8.8.8.8.8.8.8.8.8.8.8.8.8.8.8.8.8.8.8.8.8.8.8.8.8.8.8.w.w.7.7.2.1.1.Y 1.1.1.1.1.1.1.1.( ) 1.0.0.8.t.'..XXX.Xf.9.8.0.0.8.h.'.~.~.~.~./.oX8.) 7.0.1.0.| { /.NXcXdX#.} 0.3.7.w.w.w.8.| ` { T.T.9.9.9.8.r.8.8.0.8.8.8.8.0.8.8.8.8.8.8.8.8.8.w.w.U -.t.1.e.w.w.5.3.3.0.0.9.'..X^.^..X.Xh.8.8.0.8.8.q.R..X.X^.^..X.X.X.X.X.X.X.X.X~.~.[.T.0.1.1.Q h.zXbX0XSX).} ]  .| { 0.8.8.8.8.w.8.8.8.8.8.8.8.8.8.8.8.8.8.8.8.8.8.8.8.8.8.8.8.8.8.8.8.8.8.8.8.8.8.8.8.8.8.8.8.8.8.8.8.8.8.8.8.8.8.8.8.0.8.3.3.3.3.1.1.1.( ( ( ( ( ( ( ( <.( M j j j j j <.<.<.<.<.<.<.( <.<.<.<.<.<.<.<.<.<.<.<.<.<.<.M <.=.<.<.1.2.2.3.3.0.8.8.8.8.8.8.0.3.0.) ) 9.[.OXXX^.M..Xj.e.8.8.8.9.I..XQ.^.^.R.[.t.1.0.| ] ~.NXNXkX@.] q.1.7.7.5.5.5.3.1.1.1.1.1.1.<.<.<.<.<.<.<.<.<.<.<.<.<.<.<.<.<.<.<.<.<.<.<.<.<.<.<.<.<.<.<.<.<.1.1.1.1.1.3.8.w.w.w.w.w.w.8.8.8.8.8.8.8.8.8.8.8.8.8.8.8.8.r.r.t t G. Xe.9.9.9.r.r.r.1.=.=.<.N <.<.<.<.<.<.( ( =.=.1.<.2.5.8.8.8.8.8.8.8.8.8.8.8.8.8.8.8.8.8.8.8.8.8.8.8.8.8.8.8.8.8.8.8.8.8.{ t.W.W.W.I.9.8.r.w.8.'.#X~.~.",
"Y.U.~.R.9.8.3.5.0.] uXMXmXmXOX} 9.8.8.8.8.8.8.8.8.8.8.8.8.8.8.8.8.8.8.8.8.8.8.8.8.8.8.8.8.8.8.8.8.w.r.r.r.3.1.1.=.=.=.=.( ( Y Y 1.1.3.0.0.8.f.'..XXX.Xf.9.8.0.0.8.h.'.~.~.~.~./.[.{ ( 3.0.1.0.0.] ~.NXcXmX#.} 0.3.7.w.e.e.8.| | / T.T.0.0.0.8.r.8.8.0.0.8.8.8.8.8.8.8.8.8.8.8.8.8.r.w.U T t.1.e.w.8.5.3.3.0.0.9.'..X.X^..X.Xh.{ 8.0.8.8.q.R..X.X^.^..X.X.X.X.X.XXXXX.X.XoX[.f.{ 9.8.e.#XNXMXsXBXg.] ] 9.{ 8.r.8.8.8.8.8.8.8.8.8.8.8.8.8.8.8.8.8.8.8.8.8.8.8.8.8.8.8.8.8.8.8.8.8.8.8.8.8.8.8.8.8.8.8.8.8.8.8.8.8.8.8.8.8.8.8.8.8.r.r.8.8.8.1.3.1.0.3.1.` ( ^ Y Y ( <.<.<.<.j ( j <.<.<.<.<.<.<.<.<.<.<.<.<.<.<.<.<.<.<.<.<.<.<.<.=.=.1.<.1.3.5.w.0.8.8.8.8.8.8.8.1.` ` P 4 / T.W..X^..X.Xj.e.8.8.8.9.I..XQ.^.^.R.}.t.1.0.| [ ~.NXbXkX@.] 0.` 7.5.7.7.w.w.8.3.3.3.3.5.2.4.<.( Y s 1.<.<.<.<.<.1.<.1.<.<.<.<.<.1.<.<.<.<.<.<.<.1.1.s Y 1.1.1.3.w.w.w.w.w.w.w.w.w.w.8.8.8.8.8.8.8.8.8.8.8.8.8.8.8.8.5.r.U t G.|.e.{ 9.9.8.r.r.3.1.=.<.N <.<.<.<.<.1.1.1.1.1.1.2.3.3.r.8.8.8.8.8.8.8.8.8.8.8.8.8.8.8.8.8.8.8.8.8.8.8.8.8.8.8.8.8.8.8.8.{ h.W.W.W.T.9.8.r.w.8.'.oX~.~.",
"Y.U..XR.9.8.7.5.0.E uXmXdXBXOX} 9.8.8.8.8.8.8.8.8.8.8.8.8.8.8.8.8.8.8.8.8.8.8.8.8.8.8.8.8.8.8.8.1.w.w.r.r.w.3.3.1.1.1.1.1.1.1.1.1.1.3.0.0.8.f.'..XXX.Xf.9.8.0.0.8.h.'.~.~.~.~.~.[.{ ( 3.0.1.0.0.} /.BXmXmXd.} 0.3.7.w.e.e.9.| | / T.A.0.0.0.8.r.8.8.8.8.8.8.8.8.8.8.8.8.8.0.8.8.8.r.w.t P r.1.w.w.8.8.0.3.0.r.9..X.X.X^..X.Xh.{ 8.3.8.8.q.R..X.X^.^..X.X.X.X.X.X.X.X.X.X[.[.t.T | { R.kXmXmXvXcX@.] { 0.{ 8.r.8.8.8.8.8.8.8.8.8.8.8.8.8.8.8.8.8.8.8.8.8.8.8.8.8.8.8.8.8.8.8.8.8.8.8.8.8.8.8.8.8.8.8.8.8.8.8.8.8.8.8.8.8.8.8.8.8.8.9.8.9.0.0.0.0.r.0.0.1.1.` ) ( 1.1.1.<.1.<.1.<.1.<.<.<.<.<.1.<.1.<.1.<.<.<.<.<.1.<.1.<.1.<.1.1.1.1.1.1.3.5.8.w.8.8.8.8.8.8.8.8.8.) ( K # I T.R..X.Xm..Xh.9.8.8.8.8.I.~.^.^.^.R.[.t.1.0.9.[ ~.NXmXkX@.[ | ) 7.3.7.r.w.w.w.8.r.0.7.7.7.2.2.4.1.1.1.1.1.<.<.<.1.1.1.1.1.<.<.<.1.1.<.<.1.<.1.1.1.1.=.1.1.1.3.5.w.w.w.w.w.e.w.e.e.8.8.8.8.8.8.8.8.8.8.8.8.8.8.8.8.8.3.r.P K G.|.r.) { 8.8.0.w.3.1.=.<.N M M <.<.<.1.1.1.1.5.w.w.w.8.w.8.8.8.8.8.8.8.8.8.8.8.8.8.8.8.8.8.8.8.8.8.8.8.8.8.8.8.8.8.8.8.9.| h.W.W.W.T.9.8.r.w.8.`.oX~.^.",
"Y.U..X.Xe.8.r.7.q.E rXMXdXBXuX} 9.8.8.8.8.8.8.8.8.8.8.8.8.8.8.8.8.8.8.8.8.8.8.8.8.8.8.8.8.8.8.8.8.w.w.w.w.r.w.r.3.3.3.2.2.2.2.3.1.1.0.0.0.9.h..X.XXX.Xf.9.8.0.0.8.h.'.~.~.~.~.~.[.{ ( 3.8.1.0.0.} OXBXMXMXv.} 0.3.7.w.e.e.9.0.| / T.A.0.r.r.8.r.8.8.8.8.8.8.8.8.8.8.8.8.8.0.8.8.8.r.w.t U r.3.r.w.3.3.3.0.0.r.9.'..X.X^..X.Xf.8.8.3.8.{ e.R..X.X^.^..X.X.X.X.X.X.X~.W.W.[.`.9.I ] [ OXNXmXbXvXyX} / { 0.8.8.r.8.8.8.8.8.8.8.8.8.8.8.8.8.8.8.8.8.8.8.8.8.8.8.8.8.8.8.8.8.8.8.8.8.8.8.8.8.8.8.8.8.8.8.8.8.8.8.8.8.r.r.r.8.8.8.8.8.8.9.8.9.8.0.0.0.8.8.0.0.0.0.0.0.2.2.2.2.1.1.1.<.1.1.1.<.1.<.1.1.1.<.1.1.1.<.1.1.1.<.1.1.1.1.1.1.1.1.1.8.w.w.8.8.w.8.8.8.8.8.8.8.t.0.1.P 2 T T.#X.X.X.X.Xh.9.8.8.8.8.I.~.^.^.^.R.[.t.1.r.9.} ~.NXBXbX%.} 9.{ r.r.w.w.w.w.r.8.r.r.3.7.7.7.r.7.r.7.1.1.1.1.=.1.=.1.1.1.1.1.=.1.=.1.=.1.=.1.1.1.1.1.w.w.w.w.w.w.8.8.w.w.e.e.e.e.e.8.8.8.8.8.8.8.8.8.8.8.8.8.8.8.8.8.1.r.T K G.|.r./ { { 8.8.w.3.2.1.<.<.M <.<.<.1.1.1.1.3.w.w.w.w.8.8.8.8.8.8.8.8.8.8.8.8.8.8.8.8.8.8.8.8.8.8.8.8.8.8.8.8.8.8.8.8.8.8.| h.[.~.W.T.9.8.r.w.8.'..X~.Q.",
"Y.U.~..Xe.8.7.5.) { ^.MXMXBXkXs.9.8.8.8.8.8.8.8.8.8.8.8.8.8.8.8.8.8.8.8.8.8.8.8.8.8.8.8.8.8.8.8.8.8.w.w.8.8.8.0.3.3.8.3.3.3.3.3.0.0.0.0.8.{ f.W.~.@X.Xk.8.r.r.3.1.f.'.W.~.~.~.R.oX) U r.r.1.8.0.] $XmXMXMXz.] r.3.7.e.e.e.9.8.0.{ | A.9.8.e.) 0.8.8.8.8.8.8.8.8.8.9.8.8.8.8.8.8.0.r.1.t t 3.r.1.1.-.r.3.3.q.{ 9.R.XX~.j.XXoXk.{ 0.3.r.9.{ f.XX.X^.^.XXXX.X.X.X.X.XW.W.[.[.T.9.} } @.zXkXmXcXSXz.} | 8.8.8.8.8.8.8.8.8.8.8.8.8.8.1.8.0.8.8.r.r.8.8.8.8.8.8.8.9.8.8.8.8.8.8.8.8.8.8.8.8.8.8.8.8.8.8.8.8.8.8.8.8.8.8.8.8.8.8.8.8.8.8.9.9.8.9.9.9.8.8.8.8.0.0.0.0.0.3.3.3.3.3.3.7.7.1.1.1.1.1.1.1.1.( ( T ( ) ( ) ( 1.1.1.1.3.2.3.3.8.8.8.w.8.8.8.8.r.T P 1.r.w.w.r.1.3.1.` ) 0.E.oXR..X.Xj.e.8.8.0.1.e.R.~.^.^.^.~.[.t.1.r.| [ ^.NXBXhXl.[ | 8.1.r.w.w.8.8.8.8.8.0.0.3.0.3.0.3.r.7.3.3.3.3.3.3.8.3.1.1.1.1.1.1.1.1.1.1.1.3.3.3.3.3.8.8.8.8.8.8.w.8.8.8.8.w.8.8.8.8.8.8.8.8.8.8.8.8.8.8.8.8.8.8.8.8.3.r.1.t `.A.e.{ 8.8.8.0.8.0.r.7.2.1.<.( ( 1.1.3.0.8.w.w.8.8.8.8.8.8.8.8.8.8.8.8.8.8.8.8.8.8.8.8.8.8.8.8.8.8.8.8.8.8.8.8.8.8.8.8.9.{ f.W./.oXT.9.8.w.8.8.'.oX~.^.",
"Y.I.~..Xe.8.7.5.` ] ^.MXMXBXkXd.9.8.8.8.8.8.8.8.8.8.8.8.8.8.8.8.8.8.8.8.8.8.8.8.8.8.8.8.8.8.8.8.8.8.8.w.8.8.8.8.8.3.8.3.0.3.3.3.8.8.0.0.8.| k.W.~.@X.Xk.8.r.r.3.8.h.'.W.~.~.~.R.oX) U 3.r.1.8.9.] OXmXMXMXc.[ r.3.7.e.e.e.9.8.3.{ | A.9.8.e.) r.8.8.8.8.8.8.8.8.8.9.8.8.8.8.8.8.0.r.1.t t 3.r.2.-.-.r.2.2.q.8.9.'.OX~.x.XX.Xq.{ 0.3.r.9.{ f.XX.X^.^..X.X.X.X.X.X~.~.W.[.'.h.9.[ } %.NXbXBXmXMXv.} | 0.0.8.8.8.8.8.8.8.8.8.8.8.0.8.r.r.0.0.r.r.8.8.8.8.8.8.8.9.8.8.8.8.8.8.8.8.8.8.8.8.8.8.8.8.8.8.8.8.8.8.8.8.8.8.8.8.8.8.8.8.8.9.9.9.9.9.9.9.9.8.8.8.8.0.0.0.0.0.3.3.3.3.3.7.7.3.3.3.3.3.3.3.3.3.3.3.3.0.0.3.3.3.3.3.3.3.3.3.8.8.8.8.w.w.8.8.8.T U t Y 1.1.1.w.8.8.0.1.) 0.E.[.'..X.Xj.e.8.3.3.1.e.R.~.^.^.~.~.[.t.1.r.| [ ^.NXBXcXl.[ } 8.1.r.w.w.8.8.8.8.9.8.8.0.0.0.0.0.r.r.3.3.3.3.3.3.8.8.0.0.0.0.0.0.0.0.1.3.3.3.3.3.0.8.8.8.8.8.8.8.w.w.8.8.8.w.8.8.8.8.8.8.8.8.8.8.8.8.8.8.8.8.8.8.8.8.5.r.1.u `.A.e.{ 8.8.8.0.8.0.r.7.7.5.5.2.2.2.3.r.8.8.8.w.8.8.8.8.8.8.8.8.8.8.8.8.8.8.8.8.8.8.8.8.8.8.8.8.8.8.8.8.8.8.8.8.8.8.8.8.8.{ f.W././.R.9.8.w.8.8.'..X~.^.",
").U.~..Xt.8.7.3.` ] !.MXMXMXmXg.9.8.8.8.8.8.8.8.8.8.8.8.8.8.8.8.8.8.8.8.8.8.8.8.8.8.8.8.8.8.8.8.8.8.8.8.8.8.8.8.8.8.8.8.0.0.0.0.8.8.0.r.8.| k.W.~.@X.Xk.9.0.7.3.8.f.'.~.~.~.~.R.oXT U 3.r.1.0.0.[ OXmXMXMX!.[ 0.3.7.e.e.e.9.8.0.{ | A.9.8.e.1.r.8.0.8.8.8.8.8.8.8.8.8.8.8.8.8.8.0.0.( t u 2.r.2.-.Y r.2.3.q.8.t.R.OX~.~.XX'.q.| 0.1.0.9.{ f.XX~.^.^..X.X.X.X.X.X~.~.W.[.`.q.{ [ +.Q.BXbXBXmXiX&.| 3.3.0.8.8.w.w.w.w.8.8.8.8.0.0.3.r.r.r.0.r.0.1.8.8.8.8.8.8.8.8.8.8.8.8.8.8.8.8.8.8.8.8.8.8.8.8.8.8.8.8.8.8.8.8.8.8.8.8.8.8.8.8.9.9.9.9.8.8.9.9.8.8.8.8.0.0.0.0.0.0.0.0.0.0.0.0.0.0.3.8.0.0.0.0.3.3.3.3.0.0.0.0.0.0.0.0.0.r.r.r.8.8.8.8.8.8.8.8.-.U U 1.w.w.w.r.r.r.r.3.3.0.A.[.[..X'.h.9.8.3.3.1.q.R.~.~.^.~.~.}.t.1.r.| } ~.NXmXcXQ.[ } 0.1.0.w.w.w.8.8.8.9.9.8.8.8.8.8.8.8.8.8.8.8.8.8.8.8.8.r.r.r.r.r.r.r.r.8.8.8.8.8.8.0.0.8.8.8.8.8.8.8.8.8.8.8.8.8.8.8.8.8.8.8.8.8.8.8.8.8.8.8.8.8.8.8.8.5.r.1.K {.A.r.8.8.8.8.0.8.0.r.r.r.7.3.3.3.0.r.r.8.8.8.8.8.8.8.8.8.8.8.8.8.8.8.8.8.8.8.8.8.8.8.8.8.8.8.8.8.8.8.8.8.8.8.8.8.8.8.8.8.{ k.W././.T.} 8.w.8.8.'..X~.^.",
").U.~..Xe.1.7.7.` ] !.MXfXMXmXx.9.8.8.8.8.8.8.8.8.8.8.8.8.8.8.8.8.8.8.8.8.8.8.8.8.8.8.8.8.8.8.8.8.8.8.8.8.8.8.8.8.8.8.8.8.0.0.8.8.8.r.0.8.| k.W.~.XX.Xk.8.0.7.3.1.h.'.~.~.~.~.R.oXT K 3.r.0.0.0.} uXmXMXMX^.} 0.3.7.e.e.e.9.8.0.{ | A.9.8.e.1.r.0.0.8.8.8.8.8.8.8.8.8.8.8.8.8.0.0.3.Y t t 1.7.2.=.U 3.2.3.q.8.t.'.#X~.~.XXR.9.9.0.1.0.9.{ f..X~.^.^..X.X.X.X.X.X^.~..X'.T.9.{ [ %.6XBXcXbXBXtX! { 3.3.3.0.8.w.w.w.w.8.8.8.8.0.0.3.3.7.3.3.0.3.1.8.8.8.8.8.8.8.8.8.8.8.8.8.8.8.8.8.8.8.8.8.8.8.8.8.8.8.8.8.8.8.8.8.8.8.8.8.8.8.8.8.9.8.9.8.8.8.8.8.8.8.0.0.0.0.0.8.0.8.0.8.0.8.0.0.0.0.0.0.0.0.0.1.1.1.1.8.3.8.3.0.0.0.r.r.r.r.w.8.8.8.8.8.8.8.w.w.1.1.r.i.r.r.i.w.r.r.3.3.0.t.A.'.'.h.f.8.8.3.3.3.e.R.~.~.^.~.~.[.r.1.r.9.[ ~.NXmXmX^.[ | 0.1.r.w.w.w.w.8.8.8.8.8.8.8.8.8.8.8.8.8.8.8.8.8.8.8.8.8.0.8.0.8.0.8.r.8.8.8.8.8.8.8.8.8.8.8.8.8.8.8.8.8.8.8.8.8.8.8.8.8.8.8.8.8.8.8.8.8.8.8.8.8.8.8.8.w.r.1.K ].t.0.9.8.8.8.0.8.0.7.3.r.8.3.3.8.8.8.8.8.8.8.8.8.8.8.8.8.8.8.8.8.8.8.8.8.8.8.8.8.8.8.8.8.8.8.8.8.8.8.8.8.8.8.8.8.8.8.8.8.{ k.W.~.~.T.{ 8.w.8.8.'..X^.^.",
").U..X.X9.1.5.7.3.Q ^.MXfXMXmXXX9.8.8.8.8.8.8.8.8.8.8.8.8.8.8.8.8.8.8.8.8.8.8.8.8.8.8.8.8.8.8.8.8.8.8.8.8.8.8.8.8.8.8.8.8.8.8.8.8.8.r.r.8.| k.W.~.XX.Xk.8.0.7.3.1.h.T.~.~.~.~.R.oXT t 3.r.8.0.9.} jXBXMXMX5X} 9.3.5.e.e.e.9.{ | { | A.9.{ e.1.r.8.8.8.8.8.8.8.8.8.8.8.8.8.8.8.0.0.3.Y r u 1.7.5.=.s 2.5.3.0.8.h.'..X~.~.#XR.9.9.0.3.0.8.{ k..X~.^.^..X.X.X.X.X.X^.^..X'.h.9.{ } Q.bXnXcXcXNX^.Q 0.3.3.3.0.w.w.w.w.w.8.8.8.0.0.0.3.5.5.5.1.1.( ( 0.8.8.8.8.8.8.8.8.8.8.8.8.8.8.8.8.8.8.8.8.8.8.8.8.8.8.8.8.8.8.8.8.8.8.8.8.8.8.8.8.8.8.8.8.8.8.8.8.0.8.0.8.0.0.8.8.8.8.8.8.8.8.8.8.8.8.8.8.8.8.8.8.0.8.0.w.8.8.0.8.0.8.0.8.8.8.8.8.8.8.8.8.8.8.8.r.5.5.7.5.<.=.<.w.8.0.3.3.3.0.e.h.h.q.9.8.8.3.0.3.t.T.~.~.^.~.~.'.0.1.r.9.} ~.NXmXBX(.} | r.3.3.w.w.w.w.8.8.8.8.8.8.8.8.8.8.8.8.8.8.8.8.8.8.8.8.8.8.8.8.8.8.8.8.r.r.r.8.8.8.8.8.8.8.8.8.8.8.8.8.8.8.8.8.8.8.8.8.8.8.8.8.8.8.8.8.8.8.8.8.8.8.8.8.w.7.1.U |.t.9.9.9.9.8.0.8.0.7.0.8.8.8.8.8.8.8.8.8.8.8.8.8.8.8.8.8.8.8.8.8.8.8.8.8.8.8.8.8.8.8.8.8.8.8.8.8.8.8.8.8.8.8.8.8.8.8.8.8.{ k.W.~.W.j.{ 8.w.8.8.'..X^.^.",
").U.OX.X9.T 5.7.0.E c.MXfXMXMX$X9.8.8.8.8.8.8.8.8.8.8.8.8.8.8.8.8.8.8.8.8.8.8.8.8.8.8.8.8.8.8.8.8.8.8.8.8.8.8.8.8.8.8.8.8.8.8.8.8.8.r.r.8.| k.'.~.XX.Xk.8.0.7.3.1.h.T.~.~.~.~.R.oXT t 1.r.0.0.9.} jXBXMXMXrX} { 3.5.e.e.e.9.{ | { | A.9.{ e.1.r.8.8.8.8.8.8.8.8.8.8.8.8.8.0.8.3.0.1.s r p 1.5.7.1.s 2.5.3.0.) t.'..X~..X#XI.} 9.0.1.0.8.Q k..X~.^.^..XXX.X.X.X.X^.^.~.'.t.8.} d.6XBXqXqXcXNXg.] 0.5.3.3.w.w.w.w.w.w.8.8.8.0.0.3.N.5.<.) ^ u u u 3.0.0.8.8.8.8.8.8.8.8.8.8.8.8.8.8.8.8.8.8.8.8.8.8.8.8.8.8.8.8.8.8.8.8.8.8.8.8.8.8.8.8.8.8.8.8.8.8.8.8.8.0.0.0.0.8.8.8.8.8.8.8.8.8.8.8.8.8.8.8.8.8.8.8.8.8.8.8.8.8.8.8.8.8.8.8.8.8.9.8.8.8.8.8.0.r.7.7.4.s p p p 8.8.8.3.3.3.| 8.9.9.9.8.8.8.3.r.3.e.T.~.~.Q.^.~.T.0.1.r.9.} ~.NXmXBXOX} | r.0.7.7.w.w.w.w.8.8.0.8.8.8.8.8.8.8.8.8.8.8.8.8.8.8.8.8.8.8.8.8.8.8.8.r.r.r.8.8.8.8.8.8.8.8.8.8.8.8.8.8.8.8.8.8.8.8.8.8.8.8.8.8.8.8.8.8.8.8.8.8.8.8.8.r.7.1.P |.r.8.0.9.9.8.0.8.0.5.3.8.8.8.8.8.8.8.8.8.8.8.8.8.8.8.8.8.8.8.8.8.8.8.8.8.8.8.8.8.8.8.8.8.8.8.8.8.8.8.8.8.8.8.8.8.8.8.8.8.{ k.W.~.~.j.Q 8.w.8.8.'..X^.^.",
").U..X.X8.R 4.6.0.E z.MXfXMXMXuX9.8.8.8.8.8.8.8.8.8.8.8.8.8.8.8.8.8.8.8.8.8.8.8.8.8.8.8.8.8.8.8.8.9.8.8.8.8.8.8.8.8.8.8.8.8.8.8.8.8.r.0.8.| k.'.R.XX.Xq.8.0.7.3.1.h.T.~.~.~.~.R.oXT t 1.r.0.9.| ] jXmXMXMXtX@.{ 3.5.e.e.e.9.| | { | A.9.{ e.1.r.8.8.8.8.8.8.8.8.8.8.8.8.8.0.8.0.0.) u r p ( 5.7.<.s 2.3.3.3.) t.'..X~..X#Xh.{ 0.0.1.0.8.Q k..X~.^.^..X.X.X.X.X.X^.!.~.R.t.,.9.g.hXBXqXnXbXzX@.{ 3.5.3.3.w.w.w.w.w.w.8.8.8.0.0.3.3.( j s u t t u 3.3.0.0.8.8.8.8.8.8.8.8.8.8.8.8.8.8.8.8.8.8.8.8.8.8.8.8.8.8.8.8.8.8.8.8.8.8.8.8.8.8.8.8.8.8.8.8.8.8.3.3.0.0.3.0.8.8.8.8.8.8.8.8.8.8.8.8.8.8.8.8.8.8.8.8.8.8.8.8.8.8.8.8.8.8.8.8.8.9.8.8.8.8.8.0.r.r.7.<.s i p p 8.8.8.0.3.3.| { 9.| 8.8.8.8.r.3.3.e.T.~.^.Q.^.~.T.0.1.r.9.} ~.NXmXNXtX} 9.r.7.7.7.w.w.w.w.8.8.8.8.8.8.8.8.8.8.8.8.8.8.8.8.8.8.8.8.8.8.8.8.8.8.8.r.8.8.8.8.8.8.8.8.8.8.8.8.8.8.8.8.8.8.8.8.8.8.8.8.8.8.8.8.8.8.8.8.8.8.8.8.8.8.8.r.7.3.P |.r.{ r.9.9.r.0.8.3.5.3.8.8.9.8.8.9.8.8.8.8.8.8.8.8.8.8.8.8.8.8.8.8.8.8.8.8.8.8.8.8.8.8.8.8.8.8.8.8.8.8.8.8.8.8.8.8.8.8.8.{ k.W.~.W.j.Q 8.e.8.9.'..X^.^.",
"/.U.OXW.8.P 4.6.0.E x.mXfXMXMXiX9.8.8.8.8.8.8.8.8.8.8.8.8.8.8.8.8.8.8.8.8.8.8.8.8.8.8.8.8.8.8.8.8.8.8.8.8.8.8.8.8.8.8.8.8.8.8.8.8.8.8.r.{ | k.W.R.XX'.e.8.0.r.3.8.f.T.~.~.~./.R.[.R t 1.r.r.r.| [ jXMXMXMXyX@.{ 8.w.w.e.e.8.8.8.| 9.T.9.| e.8.8.8.8.8.8.8.8.8.8.8.8.8.8.8.8.8.3.0.) u r t ( 5.7.4.s 1.3.0.0./ f..XoX.X.X#Xh.{ 0.0.1.8.8.] k..X~.~.^.^..X.X.X.X^.^.^..XR.e.{ s.Q.hXBX7XnXbXkX} { 0.5.3.7.7.7.w.w.w.w.8.8.8.0.0.3.( y y y r r u Y 3.3.3.0.8.8.8.8.8.8.8.8.8.8.8.8.8.8.8.8.8.8.8.8.8.8.8.8.8.8.8.8.8.8.8.8.w.8.8.8.8.8.8.8.8.8.8.8.8.8.3.3.0.0.0.0.8.8.8.8.8.8.8.8.8.8.8.8.8.8.8.8.w.8.w.8.w.8.w.8.r.r.r.8.w.8.8.8.8.8.8.8.8.8.8.0.5.7.7.<.p t p s 3.8.0.0.q.q.0.| 9.} 8.9.8.0.7.3.8.t.R.~.^.^.^.~.T.8.1.r.9.} ~.NXmXBXtX@.} r.r.5.w.w.w.w.w.8.0.8.8.8.8.8.8.8.8.8.w.w.w.w.w.w.w.8.8.8.8.8.8.8.8.8.8.r.8.8.8.8.8.8.8.8.8.8.8.8.8.8.8.8.8.8.8.0.8.8.8.8.8.8.8.8.8.8.8.8.8.8.8.8.8.8.r.w.3.T |.8.8.r.8.8.8.8.8.8.w.8.8.8.8.8.8.8.8.8.8.8.8.8.8.8.8.8.8.8.8.8.8.8.8.8.8.8.8.8.8.8.8.8.8.8.8.8.8.8.8.8.8.8.8.8.8.8.8.8.9.{ f.W.~.~.h.Q 8.e.8.9.'..X~.^.",
"~./.W.[.8.+ <.r.1.>.f.NXdXvXsXmX} 8.9.e.r.8.8.0.0.8.8.8.8.8.8.8.8.8.w.8.w.8.w.8.w.8.w.w.w.8.w.8.8.8.8.8.8.8.8.8.8.8.8.8.8.8.8.8.r.3.0.t.9.{ f.oX.XOX.Xh.9.8.w.w.8.8.#Xg./.~.~.R.[.T t 1.r.8.r.q.+.tXMXcXMXcXl.W k.{ T 8.r.r.w.w.9.9.9.9.9.e.e.9.8.9.9.9.9.e.e.e.r.r.r.r.w.w.r.r.5.j u t r ^ 3.5.<.r ) 3.8.| ] s.OX~.~..XR.e.8.8.0.r.r.| } k.R.~.~.~.^.^.^..X.X.X.X.X#X9.9.} W zXbXqXnXnXcXuXd.Q w.7.7.7.7.7.6.5.5.5.3.3.1.1.8.8.7.h 7 7 9 7 y <.3.3.1.1.8.r.r.r.8.8.w.8.w.8.w.8.w.8.w.w.w.8.w.8.w.8.w.8.w.8.w.8.w.8.w.8.w.8.w.w.w.w.w.w.w.w.w.w.w.w.w.w.w.w.w.w.w.8.w.8.w.8.w.8.w.8.w.8.w.8.w.8.w.8.w.8.w.8.w.8.w.8.w.w.w.8.w.8.8.8.8.8.8.w.w.w.r.3.=.U t t U Y r.0.8.8.9.{ 9.h.R.R.h.9.8.3.7.7.w.8..X.Xx.^.~.W.[.) 1.8.9.E ^.mXmXmXuXg.} 9.9.8.8.5.5.3.r.7.7.r.8.9.e.e.e.e.e.e.e.e.e.e.e.e.e.e.8.8.8.8.8.0.r.0.0.0.0.0.0.3.1.8.8.9.9.9.9.9.9.9.9.9.8.8.8.8.9.9.8.8.8.8.8.8.8.8.8.8.8.8.8.8.8.8.8.r.P 8.p.8.8.8.8.8.8.8.8.8.8.8.9.9.w.w.w.8.w.8.w.8.w.8.w.8.e.8.w.8.w.w.w.8.w.8.w.8.w.8.w.8.w.8.w.8.w.8.w.8.w.8.w.8.w.8.w.8.w.8.0.{ C.W.W.W.I.] 9.r.q.T '.R.~.!.",
"~./.W.}.8.2 =.i.5.8.h.zXhXMX0XvX~.t.Q Q 8.8.0.r.0.0.8.8.8.8.8.8.8.w.w.w.w.w.w.w.w.w.w.w.w.w.w.8.8.8.8.8.8.8.8.8.8.8.8.8.8.8.8.8.r.2.0.t.9.] f./.~.~.'.k.9.e.r.r.8.8.#Xf./.~.~.R. XT t 1.r.8.r.9.+.VXNXcXMXcX*.J @.| 8.0.r.5.5.5.8.{ 8.8.8.8.{ 8.8.8.9.8.9.9.e.e.7.7.w.w.w.w.8.3.5.j y y 1 ^ 3.5.M 7 1.0.{ } } g.~.~.~..XR.9.8.8.r.r.0.| 9.f.T.~.~.~.^.^.^.^.XX.X#X[.oX9.} f.@.bXbXqXnXvXbXkXd.! 8.1.3.7.7.6.2.2.y j 1.7.r.q.e.8.M a q a a y i s 7.7.0.0.8.8.8.8.8.w.w.w.w.w.w.w.w.w.w.w.w.w.w.w.w.w.w.w.w.w.w.w.w.w.w.w.w.w.w.w.w.w.w.w.w.w.w.w.w.w.w.w.w.w.w.w.w.w.w.w.w.w.w.w.w.w.w.w.w.w.w.w.w.w.w.w.w.w.w.w.w.w.w.w.w.w.w.w.w.w.w.w.w.w.5.5.r.r.3.3.1.3.w.r.r.3.8.e.9.9.f..X'.'.h.9.8.3.7.7.w.8..X.Xx.^.~.W.E.( 1.{ q.E ^.mXmXBXyX%.W ! 9.9.8.8.3.3.3.3.3.1.q.t.t.e.e.e.e.e.e.e.e.w.w.w.w.w.8.8.8.8.8.) 1.) 0.0.0.0.0.0.0.0.8.8.8.8.8.8.8.8.9.9.8.8.8.8.9.8.8.8.8.8.8.8.8.8.8.8.8.8.8.8.8.8.8.r.T 8.p.w.w.8.8.8.8.8.8.8.9.9.w.w.w.w.w.w.w.w.w.w.w.w.w.w.e.e.w.w.w.w.w.w.w.w.w.w.w.w.w.w.w.w.w.w.w.w.w.w.w.w.w.w.w.w.w.w.w.8.0.{ q.E.Y.Y.I.] 9.8.q.Q '.R.~.).",
"~./.T.[.8.r =.r.5.8.h.zXcXMX0XvXx.e.Q 9.q.t.8.1.0.0.0.0.8.8.8.8.8.8.8.8.8.8.8.8.8.8.8.8.8.8.8.8.8.8.8.8.8.8.8.8.8.8.8.8.8.8.8.8.r.3.8.r.9.} k.oX~./.R.q.8.e.r.r.1.8.#Xg./.~.~.W.}.P t 1.r.r.w.| } gXNXzXNXzX).[ ] ] 0.Z.7.2.5.7.3.0.0.0.0.0.0.0.3.3.3.3.3.3.3.2.3.3.8.8.8.8.8.3.5.s y y y s 5.3.M 7 1.r.{ } } R.~.~..X.Xh.9.8.8.8.0.0.9.9.q.R.OX~.~.^.^.^.^..X.X'.oX[.{ ] f.Q.bXnXqXnXvXbXhXd.! e.r.r.r.7.5.( j 1 t s 1.0.r.8.1.s y 7 a s t t u 7.r.r.0.8.8.8.8.8.8.8.8.8.8.8.8.8.8.8.8.8.8.8.8.8.8.8.8.8.8.8.8.8.8.8.8.8.8.8.8.8.8.8.8.8.8.8.8.8.8.8.8.8.8.8.8.8.8.8.8.8.8.8.8.8.8.8.8.8.8.8.8.8.8.8.8.8.8.8.8.8.8.8.8.8.8.8.8.8.8.8.8.8.8.8.8.3.8.8.r.r.r.r.r.0.1.8.9.q.k.j.XX.X.X'.q.8.8.7.7.8.8..X.Xx.^.~.W.T.P ) ) q.E ^.BXcXBXbX!.&.W } { e.e.r.r.0.0.0.r.1.1.3.3.3.3.3.3.3.3.3.3.3.3.3.0.r.t.r.r.r.r.r.0.0.0.0.0.0.0.0.0.8.8.8.8.8.8.8.8.8.8.8.8.8.8.8.8.8.8.8.8.8.8.8.8.8.8.8.8.8.8.8.8.8.r.T 8.G.8.8.8.8.8.8.8.8.8.8.8.8.8.w.w.8.8.8.8.8.8.8.8.8.8.8.8.8.8.8.8.8.8.8.8.8.8.8.8.8.8.8.8.8.8.8.8.8.8.8.8.8.8.8.8.8.8.8.8.0.] q.W.Y.Y.I.] 8.8.q.Q [.W./.).",
"~./.T.}.r.t =.r.w.8.k.zXcXMXwXvXl.e.} 9.t.q.8.8.0.3.3.3.w.w.w.w.8.8.8.8.8.8.8.8.8.8.8.8.8.8.8.8.8.8.8.8.8.8.8.8.8.8.8.8.8.8.8.8.r.3.8.8.8.} k.~.oXoXR.q.8.8.w.w.T Q oXI././.R.T.}.P t 1.7.r.r.{ [ <XzXxXzXNXgX).] / ) 3.3.3.3.r.1.` ` ` ` ` ` ` 3.3.3.3.3.3.3.3.3.3.8.8.8.8.8.3.5.s y y r s 5.7.M 7 4.r.{ | } R.~..XOXT.t.9.8.r.0.0.0.9.9.q.T.OX~.~.^.^.^.^..X.X'.[.`.{ E g.OXNXBXqXvXwXcXaX#.W 9.9.9.8.3.) u t u u 1 u ( 3.8.1.1.y 1 1 t t s ( 1.3.0.r.0.8.8.8.8.8.8.8.8.8.8.8.8.8.8.8.8.8.8.8.8.8.8.8.8.8.8.8.8.8.8.8.8.8.8.8.8.8.8.8.8.8.8.8.8.8.8.8.8.8.8.8.8.8.8.8.8.8.8.8.8.8.8.8.8.8.8.8.8.8.8.8.8.8.8.8.8.8.8.8.8.8.8.8.8.8.8.8.8.8.8.8.8.8.8.0.w.8.8.1.8.) { | 9.f.j..XXX.X'.q.8.8.7.7.8.{ .X.X^.^.~.R.E.K P ) q.W OXBXcXMXBXhX^.g.@.W } } } } } } } | 0.3.3.3.0.V.Z.Z.3.3.3.3.3.3.3.3.8.8.8.8.8.8.8.1.r.r.r.0.0.3.1.1.8.8.8.8.8.8.8.8.8.8.8.8.8.8.8.8.8.0.0.0.0.0.0.0.0.0.0.0.0.0.0.0.3.r.T 3.A.3.0.1.0.0.8.0.8.0.8.8.8.0.r.r.8.8.8.8.0.0.0.0.0.0.8.8.8.8.8.8.8.8.8.8.8.8.8.8.8.8.8.8.8.8.8.8.8.8.8.8.8.8.8.8.8.8.8.8.0.{ f.Y./.~.I.] 8.w.r.>.[..X/.~.",
"~./.T.}.r.t =.7.w.8.s.zXcXnXwXvXkX#Xf.} E E 9.t.0.0.3.3.r.r.r.w.8.8.8.8.8.8.8.8.8.8.8.8.8.8.8.8.8.8.8.8.8.8.8.8.8.8.8.8.8.8.8.8.w.w.8.8.8.} k.T.'.T.h.9.8.8.w.3.P T [.I./.~.R.E.].P p =.2.7.r.{  .xXzXkXkXNXzXxX$.[ / ' | { { { | ` ` | ` 0.0.0.` ` ` ` 3.3.3.3.0.0.8.9.9.9.w.r.5.s y a a s 5.7.M 7 <.r.1.| } W.OXOX[.h.9.8.8.r.0.3.0.r.9.9.I.#X~.~.^.^.^.^..X.X'.}.T.8.Q j.jXNXMXqXvXwXvXMXz.v.! ! ] ] / ^ 4 1 u 2 2 u ` 0.r.0.3.^ u t p P 1.0.1.3.8.8.1.1.8.w.8.8.8.8.8.8.8.8.8.8.8.8.8.8.8.8.8.8.8.8.8.8.8.8.8.8.8.8.8.8.8.8.8.8.8.8.8.8.8.8.8.8.8.8.8.8.8.8.8.8.8.8.8.8.8.8.8.8.8.8.8.8.8.8.8.8.8.8.8.8.8.8.8.8.8.8.8.8.8.8.8.8.8.8.8.8.8.8.q.r.r.8.8.8.8.8.8.8.9.} 9.j.~.~.XX#X'.t.8.8.r.3.1./ '..X~.^.~.W.E.4 K 1.t.W ^.BXcXMXMXbXkXuX^.g.@.@.@.+.} [ W [ { ` ` ` ` ` ` ` ` ` ` ` ` ` ` ) 8.8.8.8.8.8.r.r.8.8.8.8.8.8.8.8.r.r.r.r.r.r.w.w.w.w.w.w.w.w.w.8.0.3.3.3.3.3.3.3.0.0.3.3.3.3.3.3.1.0.( 3.Z.1.3.3.3.0.0.0.3.3.0.0.3.3.3.3.0.0.0.3.3.3.3.3.3.3.3.3.0.0.0.0.0.0.0.0.0.0.0.0.0.0.0.8.8.8.8.8.8.8.8.8.8.8.8.8.8.8.8.8.9.{ f.Y./.~.I.{ 8.8.w.T '..XOX^.",
"~./.T.}.r.t T 5.r.{ 9.zXhXMXwXvXBXkXOX~.s.[ Q { 9.9.8.8.8.0.w.8.8.8.8.8.8.8.8.8.8.8.8.8.8.8.8.8.8.8.8.8.8.8.8.8.8.8.8.8.8.8.8.8.w.w.w.8.8.9.q.f.f.t.e.8.8.r.r.5.K T [.T././.R.W.].T t s 1.3.r.{ g.xXNXhXcXBXBXbXtXQ.$.$.$.} ! W } { { | { | | | ) ) ) ) ) ` 3.3.0.8.8.9.9.9.w.r.7.p i a a b 5.y.m 7 <.3.1.9.| f.[.[.R.e.9.8.r.r.3.3.0.r.9.{ f.#X~.~.~.^.^.^..X.X[.}.t.q.9.h.zXBXcX9XZXvXZXSXyXyX^.~.~.g. .{ D 2 5 2 4 P 1.r.r.r.0.1.) ) ) 1.0.0.0.0.8.) P P 1.8.8.8.8.8.8.8.8.8.8.8.8.8.8.8.8.8.8.8.8.8.8.8.8.8.8.8.8.8.8.8.8.8.8.8.8.8.8.8.8.8.8.8.8.8.8.8.8.8.8.8.8.8.8.8.8.8.8.8.8.8.8.8.8.8.8.8.8.8.8.8.8.8.8.8.8.8.8.8.8.8.8.8.8.8.8.8.8.8.r.8.8.8.8.8.r.r.r.r.9.9.k.R..X.XXX#X'.t.8.8.r.3.1./ '..X~.^.~.T.E.2 K ) t.Q XXBXMXcXcXcXbXBXmXhXtXrXOX(.^.^.Q.Q.f.q. . ...] ] ] ] ] ] ] ] ] ] ] 9.9.9.9.9.9.9.9.8.8.8.8.8.r.r.r.w.w.w.w.w.w.w.w.8.8.8.8.8.8.8.8.0.3.3.3.3.3.3.3.0.3.3.3.3.3.3.3.` V.( 3.V.` 3.0.3.3.3.0.3.3.3.0.3.3.3.3.0.3.3.3.3.3.3.3.3.3.3.3.0.0.8.0.8.0.8.3.8.0.8.0.8.0.8.8.8.8.8.8.8.8.8.8.8.8.8.8.8.8.8.8.| { f././.~.I.{ w.8.1.U {.'.#X~.",
"~.oXR.}.t.t T 3.r.{ } lXxXBXwXvXMXbXmXNXkX^.$.} } } 9.9.8.8.8.8.8.8.8.8.8.8.8.8.8.8.8.8.8.8.8.8.8.w.8.8.8.8.8.8.8.8.8.8.8.8.8.8.w.w.w.8.8.9.9.9.9.9.8.1.3.r.7.2.t T #XW././.R.E.].P r s <.5.7.{ @.hXBXdXsXAXvXvXMXhX6X6X5Xc.z.c.#.#.&.&.+.W W W @.} } } } } } } 9.9.9.9.9.9.8.8.5.i 7 a a x 6.y.B , j 3.0.r.{ 9.h.h.q.| 8.r.r.3.7.2.3.0.{ T q.oX~.~.~.~.^.^.^..X[.A.8.t.9.k.zXzXcX9XZXvXvXSXmXMXBXNXhXgXOX~.I.q.{ { / { 8.8.8.8.0.0.{ 0.0.r.0.8.r.8.1.P t t =.8.8.8.8.8.8.8.8.8.8.8.8.8.8.8.8.8.8.8.8.8.8.8.8.8.8.8.8.8.8.8.8.8.8.8.8.8.8.8.8.8.8.8.8.8.8.8.8.8.8.8.8.8.8.8.8.8.8.8.8.8.8.8.8.8.8.8.8.8.8.8.8.8.8.8.8.8.8.8.8.8.8.8.8.8.8.8.8.8.9.9.8.8.9.8.8.8.8.9.| { q.R..X.X.X.X'.q.8.8.r.3.1.) '.oX~.(.R.T.`.2 u 1.t.Q .XNXMXcXcXcXbXBXBXBXNXNXBXNXmXmXmXkXkXkXkXjXgXtXtXtXQ.z.l.l.v.g.%.g.@.9.} } ! Q Q Q 9.9.9.9.9.9.9.9.9.8.8.8.8.9.9.9.9.9.8.8.8.8.8.8.0.3.0.3.0.3.0.3.0.3.0.3.0.3.0.3.) V.) 3.V.) 3.0.0.0.0.0.0.0.0.0.0.3.0.3.0.3.0.3.0.3.0.3.0.3.0.0.0.0.8.0.8.0.8.0.8.0.8.0.8.0.8.8.8.8.8.8.8.8.8.8.8.8.8.8.8.8.8.9.} { f././.W.I.{ r.1.-.U {.'.#X~.",
"~.oXT.[.q.t T 3.r.) } lXxXNXqXvXnXvXvXMXBXbXtX^.&.+.} } 9.9.9.9.8.8.8.8.8.8.8.8.8.8.8.8.8.8.8.8.w.w.8.8.8.8.8.8.8.8.8.8.8.8.8.w.w.w.w.8.8.8.9.8.8.0.8.3.7.7.5.<.t P #XW./.~.R.E.].T r p j 2.7.1.! pXMXfXfXAXAXAXMXMXBXBXMXMXMXSXMXmXmXhXiXtXrXrXv.g.g.d.s.@.@.} | 8.9.9.9.9.8.w.5.p q a a x u.y.B o s 7.7.r.) 8.9.9.{ ) 0.r.r.1.5.2.7.0.) I 9.[.~.~.~.~.^.^.^..X'.r.T q.8.9.lXjXbXcXSXvXvXMXdXmXmXmXmXmXNXzXzXlX;X-X'.t.8.8.8.r.0.| { / { 0.0.8.8.1.T t 2 t 1.r.8.8.8.8.8.8.8.8.8.8.8.8.8.8.8.8.8.0.0.0.0.0.0.0.0.0.0.0.0.0.0.0.0.0.8.0.8.0.8.0.8.0.8.0.8.0.8.8.8.8.8.8.8.8.8.8.8.8.8.8.8.8.8.8.8.8.8.8.8.8.8.8.8.8.8.8.8.8.8.8.8.8.8.8.8.8.8.8.9.r.e.r.e.r.8.8.1.{ { { 9.R..X'..X'.`.q.8.8.r.3.1.) '.oX~.(.~.T.`.t p 1.t.E .XzXcXcXbXBXbXcXcXbXcXcXbXbXmXmXmXBXmXmXMXMXMXMXBXBXBXBXBXMXmXmXcXiXjXjX;X$X$XOXOXOXj.j.f.f.s.} [ ] { } 9.9.9.9.9.9.9.9.9.9.9.9.9.9.9.0.0.0.0.0.0.0.0.0.0.0.0.0.0.0.) q.) 0.V.) 0.r.0.0.8.8.8.8.9.8.0.0.0.0.0.0.0.0.0.0.0.0.0.0.8.0.8.8.8.8.8.8.8.8.8.8.8.8.8.8.8.8.8.0.8.0.8.0.8.0.8.0.8.0.8.0.8.9.9.] f.W.W.W.T.{ r.5.=.t `.'.#X.X",
"OXR.W.oXt.K K r.3.8.| f.=XNXNXqXvXZXZXvXvXMXMXMXcXuX^.g.@.! } } 9.8.8.8.8.8.8.8.8.8.8.8.8.8.8.8.8.w.w.w.w.w.w.w.w.w.w.w.8.8.w.5.r.r.w.w.r.8.8.8.r.r.0.5.2.4.4.<.r 0.[.W.R././.W.`.T r t y r ( A.! d.rXdXAXAXfXsXMXmXmXmXMXMXMXMXMXMXMXMXMXBXBXBXBXNXBXNXkXkXkXjX-X X}.'.`.t.t.r.s a a q a c 6.6.a i s 5.r.3.1.0.r.r.0.0.0.7.7.7.4.4.r.Z.1.K { oX~.~.~.~.^.^.^..X[.) + ) t.1.9.jXzXbXMXMXMXBXBXBXMXMXMXmXNXzXzXzXlXlXlX;X-X}.t.q.8.{ { 0.0.0.r.0.3.( t + + p 1.5.r.8.8.8.8.8.8.8.8.8.8.8.8.8.8.8.0.0.0.0.0.0.0.0.8.8.8.8.3.3.3.8.0.0.8.0.8.0.8.0.8.0.8.0.8.0.8.8.8.8.8.8.8.8.8.8.8.8.8.8.8.8.8.8.8.8.8.8.8.8.8.8.8.8.8.8.8.8.8.8.8.8.8.8.8.8.8.8.8.8.8.8.8.8.8.8.0.r.8./ 9.T.[.[.-X'.t.8.0.r.7.5.t q.T.W.OX^.~.W.`.t u 3.0.9.k.$XzXbXbXNXbXbXcXhXkXhXkXkXkXkXkXmXmXmXmXmXMXmXmXmXMXMXMXMXMXMXMXmXNXzXzXzXzXzXzXzXzXzXzXlXjXjX=X=X#X#X#X.XW.R.j.j.9.9.} } } ! Q Q { { { 8.8.8.{ { 8.8.8.8.8.8.8.8.0.0.0.0.0.0.0.0.8.8.8.8.9.9.9.9.8.8.8.8.8.8.8.8.8.8.8.8.8.8.8.8.8.8.8.8.8.8.8.8.8.8.8.8.8.8.8.8.0.0.8.0.8.0.8.0.8.3.8.3.8.0.8.8.{ } f.W.oXW.t.8.r.=.p p {.'..X~.",
"OXR.W.oXt.K t 3.2.3.{ | I.=XzXNXqXwXwXwXvXvXcXcXSXBXBXkXOXj.@.! 8.1.1.1.1.3.r.r.r.r.r.r.r.r.r.r.r.r.r.r.r.r.r.r.3.7.5.7.5.5.5.7.5.5.2.2.2.1.1.1.1.( ( Y s s a s 2 8.T.W.R.~.OXoX`.T t s s y u 1.{ e.j.XXpXdXmXmXmXkXkXkXkXmXmXmXiXiXiXiXiXiXkXjXuXuX$X$XOXXXXX.X`.`.A.t.h.t.r.r.a a e e e x x c a 7 p 6.7.3.3.r.3.1.1.1.2.5.5.5.L.7.4.1.K 2 { oX.X~.~.~.~.^.^..XT.K # p 1.1.8.k.=XgXhXhXkXkXjXkXiXiXyXrXXX^.x.j.h.h.h.h.q.8.8.1.8.8.` 1.1.1.3.3.1.( s p p s 1.2.3.3.3.3.3.3.3.3.3.3.3.3.3.3.3.1.3.2.2.2.2.2.3.3.3.3.2.2.2.3.2.3.3.3.3.3.3.3.3.3.3.3.3.3.3.3.3.3.3.3.3.3.3.3.3.3.8.8.3.8.3.3.3.3.3.3.3.3.3.3.3.3.3.3.3.3.3.3.3.3.8.8.8.8.8.8.8.8.8.8.8.8.8.8.8.3.1.3.1.) 9.T.}.}.`.A.r.0.3.7.2.1.2 r.T.R.~.~.~.#X].t p 1.3.8.{ f.Q.!.(.tXgXxXkXkXhXhXkXkXkXkXkXkXhXcXcXcXcXcXcXcXcXcXdXdXhXhXcXhXkXjXjXjXjXjXjXjXzXzXlXlXlXjXjXjXzXlXzXlXlXlXlXlXjXjX;X;X;X;X=X;XT.T.`.T.t.t.e.e.8.9.9.9.8.0.8.9.r.0.r.0.r.0.8.9.8.9.8.9.8.9.9.9.8.8.8.9.8.8.8.8.8.8.8.8.8.8.8.8.8.8.9.8.8.8.8.8.8.8.8.8.8.8.8.8.8.3.3.3.3.3.3.3.0.0.0.3.3.3.3.0.{ 9.q.T.[.E.t.1.r.=.s p }.'..X^.",
"/.~..XoXt.K r Y 1.5.0.8.| T.;XzXNXnXnXMXMXBXBXBXyXyXkXNXzXzXjX;X|.H.F.7.3.2.3.7.3.3.2.2.2.2.5.5.4.4.4.4.4.4.4.4.Y Y Y Y j j j ( s s s s s s s s y y y p y i y r + 8.'./.U.~./.oXT.T r p s y 7 y 1.1.8.e.k.j.j.R.f.f.f.f.f.g.g.g.s.s.@.} } } } } } } { { { { { T 0.0.8.8.8.w.1.<.p a e e a a i i a 7 p 4.7.5.7.r.r.3.3.3.3.5.5.5.D.B a p 2 2 { [.'.~.~.~.~.~.^.~.t.K t p t =.r.T q.$.$.$.s.f.k.f.@.@.o.o.! ! ! ! Q 8.8.8.8.8.8.8.r.0.3.3.7.7.3.7.5.5.2.2.2.5.5.5.7.7.7.7.7.7.7.7.r.7.7.7.7.7.7.7.7.7.7.7.7.7.7.7.3.3.3.3.3.3.3.3.7.7.7.7.7.7.7.7.7.7.7.7.7.7.7.7.7.7.7.7.7.7.7.7.7.7.7.7.7.7.7.7.3.3.3.3.3.3.3.3.7.7.7.7.7.7.7.7.r.r.r.r.r.r.r.r.7.7.r.r.r.r.r.7.3.3.3.3.0.Z.G.A.r.q.r.3.2.<.c s 2 0.T.R.^.^.~.#X{.t r s 1.r.{ { E W } @.$.$.%.%.%.%.#.#.$.d.s.s.s.s.$.$.$.$.$.$.d.d.d.d.$.$.$.$.@.@.@.@.@.@.@.@.@.$.$.$.$.$.$.$.} } } }  .$.f.f.f.f.f. . . .} 9.T.A.t.t.r.8.8.8.8.8.8.8.8.8.8.8.8.8.8.8.8.8.8.8.8.9.8.9.8.8.8.8.8.8.8.8.8.8.8.8.8.8.8.8.8.8.8.8.8.8.8.8.8.8.8.8.w.w.w.w.e.w.e.w.r.7.7.7.7.7.7.7.r.r.r.7.7.7.7.3.0.r.t.T.E.A.0.5.5.s p p }.'.XX^.",
"~.~..X#XA.P 2 t y <.5.3.1.0.T.[.=XgXgXgXtXtXtXtXjXjXjXjXjX;X;X;X%XK.F.7.1.( ( ( s s s s s s s s y y y y y y y y t y t y y y y y i y i y y y y y y y y y y y y i + 8.[.oXQ.Q.^.~.T.T t t s j y 9 h h <.3.0.8./ ) ` ` ` ` ` { { | 8.{ { { { ) ) ) 0.3.3.3.3.1.2.2.2.1.1.1.1.-.U s a a a e a a i q a q a 4.5.6.5.7.7.3.5.5.5.2.2.2.c a i p t 2 ) T.[./.~.~.~.~.^.~.t.u Y <.% i 5.( { { ] { | { 8.8.Q Q Q 9.9.9.q.q.8.8.8.8.0.r.r.r.7.7.7.7.5.5.5.5.5.5.6.6.6.6.5.5.6.7.7.5.7.7.7.7.7.7.7.7.7.7.7.7.6.6.6.6.6.6.6.6.6.6.6.6.6.6.6.6.7.7.7.7.7.7.7.7.7.7.7.7.7.7.7.7.7.7.7.7.7.7.7.7.7.7.7.7.7.7.7.7.7.7.5.5.7.7.7.7.7.7.7.7.7.3.7.7.7.7.7.7.7.7.7.7.7.7.7.7.7.7.7.7.6.6.7.5.5.3.3.3.2.5.5.<.s p q r t t.[.~.^.^.^.#X`.p i p <.Z.r.{ 9.9.9.9.} } [ [ [ [ [ [ } { { { | { { { { { { { | | | | | { | | ] [ [ [ [ [ [ ] E ] ] ] { { { ] } } | { | | | | } } }  . . . .9.8.8.8.8.8.1.1.1.8.8.8.8.8.8.8.8.8.3.8.3.8.8.8.8.8.8.8.8.8.8.8.8.w.r.w.r.w.r.w.r.w.8.w.w.w.8.w.8.w.r.w.r.w.r.w.r.r.r.r.r.w.r.w.r.7.7.7.7.7.7.7.7.7.7.7.5.5.5.5.2.2.3.0.0.q.0.1.<.<.p p p }.'..X^.",
"~.~..X#XT.1.p 7 7 a s j Y s Y ) ^ / / / / I E E I I S A @ @ 2 2 s s a a a y y y i i i i y y y y y q y q y q y q a q a e y e y e q e a e a e a a q q e e a a a p # 8.'.OX^.Q.^.~.#Xr.t t y j s y 8 e C 2.5.3.1.^ 2.2.2.2.2.5.2.1.1._ _ _ 2.2.5.5.2.2.2.2.2.2.2.2.<.<.1.1.=.Y p i a q q q q e a a a a a m B B c <.c s s s s u u y q q a a p t 8.[.[./.~.~.~.~.^.~.C.1 t M 7 7 m a Y P P P ^ j M M ( ( ( T T T T T ( ( Y Y Y s s j M m j j j s s s m j M M j j j j j j M j M j m j m j m j m j m j M j M j M j M j <.<.<.<.M M <.<.<.<.<.<.<.<.<.<.<.<.<.<.<.<.<.<.<.N N N N N N N N N N N N N N N M N M N 4.<.4.<.N N N N N N N N <.<.<.<.<.<.<.<.<.M <.<.<.<.<.<.4.4.4.<.<.j j j j j M s a q q i 2 e.[.~.XX^.~..XG.s p y a 7.0.0.3.0.0.r.r.0.9.9.9.9.9.0.0.r.r.0.0.3.3.3.3.3.0.0.3.3.0.0.0.3.3.0.0.0.9.0.0.0.0.0.0.0.q.q.q.0.0.0.0.0.0.3.1.) ) ) ) ) ) ) 1.1.1.1.3.3.r.7.r.r.r.r.r.7.r.7.r.7.r.7.7.7.7.7.7.7.7.r.7.3.7.0.w.0.5.5.r.7.r.7.r.7.r.7.r.7.5.7.7.7.7.7.5.5.5.5.7.5.5.5.4.4.2.2.1.2.2.4.4.4.4.4.4.4.4.4.4.<.<.<.M j c s s s s Y s u u y a i p p |.'.~.^.",
"~.~.~.[.`.r.s r a a q a a a y y < < < 1 1 1 t t + 1 r t u u s s 7 7 7 q a q q 7 a y a y a y a q e e e e e e e e e e e e e e e e e e e e e e e d q e e q a a a p 2 8.'.~.^.(.^.^..Xt.T r 7 y t 9 8 8 8 q y u u u r 9 9 9 r i r t 1 < < 9 y y y y 7 7 7 7 7 7 i i a a p p p p r 7 q q 9 8 9 q a a a q q a a a p p p p t t r y 9 q q a a i + 2 8.}.[./.~.~.~.~.^.~. Xu , a q e x 7 7 1 1 1 7 7 q q q 7 7 7 7 7 7 7 a y i i y y y y a a a a a q q q a y y y y y y y a a a a a a a a a a a a a a a y a a a a a a a a a a a a a a a y a a p a p a p y p a p a p a p y a a a a a a a a a a a a a a a a a a a a a a a a a a a a a a a a a a a a a a a y a a a a a a a a a a a a a y y a y a a q q e z a 2 9.R.~.^.XX~.'.`.s a 7 7 j ^ 1.4.6.4.2.2.1.1.) 8.3.1.3.3.5.5.5.5.2.5.5.1.2.1.2.2.2.2.2.2.2.1.1.1.1.1.1.1.1.1.1.5.5.5.5.5.1.1.1.7.7.7.7.7.N.7.7.7.3.7.7.7.7.7.7.4.4.5.2.5.2.4.4.4.4.4.4.4.4.4.4.4.<.4.<.4.<.4.1.<.( =.Y =.Y =.=.s s c s c c c s c s c s c s c s s s s s s s s s a a a a a a a a a a a a a a a a a p a p p a i p a a p t t t y y a 7 p s |.'.~.^.",
"^.~.~.[.}.G.1.i M e q e a a a a d f f d d d a a a a a a a q 7 7 a a a h a a q q a a a a a a a e e e 9 e e e e 9 9 9 9 9 9 9 9 w w w w w w w w w q q e e e e a y 1.t.'.~.^.^.XX^.'.{.r.Y y u y y m n a i r r t t u y y y s p p p y y y y y y y p p p p p p p p p i 7 i p p p p i a q e 9 9 e a a a a a a a a a i p p p y y y y a a a i i r K r. X'.W.~.~.~.~.^.~.*XZ.j a e n z q a y y y e d n n w w w d d d m m q q q e e e e e q e e q e q q q q a y y y y y a a a a a e e a a a a a a a a a a a a a a a a a a i a i q q q q i q 7 i 7 i 7 i 7 i 7 i 7 i 7 i 7 q q q q q q q q q q q 7 q q q q q 9 q 9 q q q 7 q q q q q 9 q 9 q 7 q 7 q 7 q 7 q 7 q 7 q 7 q q q 7 q a a q q a q q 7 q w z z e T h.R.~.^.XX~.'.|.s a q 7 a y j 6.6.6.6.4.1.1.) 1.1.2.2.2.2.6.6.4.4.2.4.2.4.2.4.1.1.1.1.1.1.1.1.<.4.4.4.4.N M N M N M M M N M M a a a h a h m j a a a a a a a a a a a a a a p a a a a a a a a a p a p a a a a a a a p p p p p p i i i i i q i i i 7 i 7 i 7 i 7 q q q q q q q q q q q q q q q q a a i a i a a a a a i a i i i i x a a p y y y a a 7 s Y  XW.~.!.",
"~.~.W.'.[.].3.u a q 7 a x a q q w f f w w w e q e e q q q q e e q q q e e q q q q q q q q q q q e 9 9 9 9 9 9 9 9 9 q q 9 9 9 9 9 9 9 e e e h h q q a a a y y u A.[.oX~.l.^.^.~..X#X XG.3.3.3.1.6.6.5.5.w.8.8.8.1.1.1.1.3.8.8.1.1.( 1.( ( Y T T T T T T =.=.=.=.<.j Y Y T =.Y Y s a a a a u u u s s s s s s s s p p u u u u u u s a s Y 1.r.`.-X'.~.~.~.~.~.~.~.T.*XG.s 7 7 a a r r r y 9 q q q q 9 9 9 8 9 9 7 q y a y y y y y q q q i a a a a i t y y y y t i y y y y y y y y a a a a a a a a y y y y y y t t s s s s a a a a a a a a a a a s a s s a a a a a a a a a a a a a a a a a a a a a a y a y a a a a a a a a a a a a a a a a a a a a a a a a a a a a a a a a a 7 9 y a a q q a e q 7 t.#XXX~.XXXX~.R.|.u r p p s 1 s a a a a p y u u u t y y y a a a p p p t u y u y p p p p p p p p i 7 i 7 7 7 7 7 7 7 q q q q q q a a a a a a a a a a a a a a a i q q y y y y y y y y y y y y y y a a a p p p p p p p p p p p p p p p a p a a a p a a a a i a a a a a a a a a a a a a a a a a a a a a a a a a a a p p p p a a a a i a p y y t y y p i s T  X.X~.^.",
"~.~..XoX[.'.A.r.2 r y p a a a a e e e e e a a a a a a a a a a a a a a a a a a a a a a a a a a a y y y y y y y y y y y y y y y t 1 1 1 2 t t t t 2 t t t t K 1.A.[.~.~.~.~.~.~.~.~..X[.[.[.[.[.[.[.[.[.[.'.'.'.'.#X#X[.[.[.[.#X[.'.'.'.'.'.'.'.'.'.'.'.'.'.'.'.'.}.[.[.[.[.[.[.[.[.[.].].[.[.[.[.'.'.'.'.'.'.'.'.`.'.'.'.'.'.].].`.'.'.'.'.'.[..X/.~.~.~.~.~.~..XoX[.`.T.q.9.1.T T T T T T T T T P Y Y P Y Y P P K K K K K K K K t t t t K K K K K K K K K K K K t t t t t t t t t t t t t t t t t 3 3 4 t t t t 2 2 t t t t t t r r t t t t t t r 2 1 1 r r r r t t t t t t t t t t t t t t t t t t t t t t t t t t t t t t t t t r r r t r t r t y t y t t t t t t t t t t t t r t u r o r s 3..X.X.X.X.X.X.X.X'.e.T t 2 2 2 2 t y y r r r y 3 3 3 r y y y y y y y y y i y y y y y y y y y y y a a p a a a a a a a a a a a a y t t t t p u u u t t t t t t t t r r r r 7 7 7 7 i i i i y t t t t t r p p p t t p p p p i p p p p t p t t t t t r r r r r r t t r r r r r r r r r r r r r r r r r 2 2 r r r 2 2 2 r r r r 2 2 r 1 1 1 2 5 5 5 2 2 T q.'.'..X.XXX",
"~.~..X.X#X'.T.T.L u r 2 r r r 7 , , , , , , , , r 7 7 7 7 7 7 7 i t r r r r y r r r r r r r r r u u u u t t t t Y Y Y P T P P P ) ) ) { 8.{ 9.| 9.t.t.t.t.T.`.[.~.~.~.~.~.~.~.~.~.~.~.~.~.~.~.~.~.~.~.~.~.~.~.~..X.X~..X~.~.~.~..X.X.X.X.X~..X~..X.X.X.X.X.X.X~.~.W.~.W.~.~.~.~.~.W.~.W.~.~.~.~.~.~.~.~.~.~.~.W.W.W.~.W.~.W.W.W.W.~.~.~.~.~.~.~.~.~.~.~.~.~.~..X'.'.'.'..X.X.X.X.X.X.X.X.X.X.X[.[.[.}.[.}.'.}.[.}.[.}.[.}.[.}.}.'.'.}.'.}.'.}.'.}.'.}.'.'.'.'.'.T.T.T.T.T.T.T.T.A.A.A.A.A.A.A.A.Z.V.C.C.Z.A.A.t.t.t.q.q.q.q.q.0.r.7.r.0.r.r.r.r.8.0.0.3.3.1.1.3.0.0.r.0.0.0.0.0.1.) 1.1.1.1.1.1.P ( P ( P ( P ( P P P P P P P P P P u u P P P P P P P P Y P Y Y K K U K U K U K t K T P T 1.r.{..XXXXXXX.X.X.X.X#X'.q.| { / I P P u u u u u u u u u u u u u u u Y Y Y s s Y s Y Y Y Y Y s Y s Y Y Y Y Y Y Y Y Y Y Y Y Y Y Y Y Y Y P P P P P T T T P T P T ( T ( ( ( ( ( ( ( ( ( 1.1.1.1.1.1.1.) 1.T -.1.-.8.>.>.e.e.w.w.5.5.5.5.5.8.w.8.8.8.8.8.r.r.w.r.w.0.w.0.r.r.r.r.r.r.r.r.r.r.r.r.r.r.r.r.q.q.q.r.r.r.q.r.q.r.q.r.r.r.q.q.q.0.q.q.r.r.r.e.q.h..X#XXXXX@X$X",
"^.^.^.~..X.X.X'.h.8.T P T 1.( Y T ( T Y T Y T Y 1.1.1.1.1.1.( ( 3.3.3.3.3.3.3.3.Z.Z.Z.Z.Z.Z.Z.r.G.A.G.A.G.A.`.T.].].{.`.{.`.}.'.E.E.T.T.`.[.'.[.'.[.[.[.oXoX#XoX~.~.~.~.~.~.~.~.~.~.~.~..X.X.X.X~.~.~.~.~.~.~.~.~.~.~.~.~.~.~.~.~.~..X~..X~.^.~..X~..X~..X~..X~.~.~.~.~.~.~.~.~.~.~.~.~.~.~.~.~.~.~.~.~.~.~.~./.~.~.~.~.~.~.~.~.~.~.~.~..X~.~.~.~.~.~.~.~.~.~..X.X.X.X.XXX#X#X#X.X.X.X.X.X.X.X.X'.'.'.'.'.'.'.'.'.'.[.[.[.[.[.[.[.[.'.[.'.'.'.'.'.'.'..X.X.X.X.X#XoX#X#XoXoXoXoX[.[.[.[.[.[.[. X].].[.[.[.[.[.[.[.[.[.}.}. X}.].].].].].}.}.'.'.'.'.'.].].].].].].[.}.[.}.[.}.[.}.}.}.}.}.}.}.}. X[. X X X[. X[.].[.[.[.].[.}.[.`.].`.].`.].`.].].].].].].].].].`.`.`.`.{.`.{.`.T.T.`.T.`.`.}.#X.XXXXX.X.X.X.X.XXX'.R.R.T.'.T.T.].`.].`.].`.].`.].].].].].`.].`.'.}.}.}.}.}.'.'.}.}.}.}.}.}.'.'.{.].{.].{.].{.].{.].{.].{.].{.].`.`.{.`.{.].].]. X X X X X X X X].].|.].|.].|.].|.].|.|.}. X|.}.}.}.}.[.[.[.#X#X'.}.}.}.{.{.{.{.}.`.{.`.{.`.{.].}.}.}.}.}.}.}.}.}.}.}.}.}.}.}.}.}.}.}.}.}.}.}.}.}.[.[.[.[.}.}.}.}.}.[.[.}.[.[.[.}. X}.[.[.[.[.#X.XXXOXXX.Xm.XXXX",
"^.^.^.^.^.XX.XXX$X.Xh.h.`.}.{.{.{.{.{.{.{.{.{.{.}.{.}.}.}.}.}.{.[.[.[.[.[.[.[.}.}.}.}.}.[.[.[.}.[.[.[.[.[.[.#X.X[.[.'..X.X.X.X.X[.[.[.[.[.[.[.oX[.W.W.W.oXoXW.R.~.~.~.~.~.~.~.~.~.~.~.~..X.X.X.X~.~.~.~.~.~.~.~.~.~.~.~.~.~.~.~.^.^.^.^.^.^.^.^.^.^.^.^.^.^.^.~.~.~.~.~.~.~.~.~.~.~.~.~.~.~.~.~.~.~.~.~.~.~.~.~.~.~.~.~.~.~.~.~.~.~.~.~.~.~.~.~.~.~.~.~.~.~.~.~..X.X.X.X.X~.~.~..X.X.X.X.X.X.X.X~.W.W.W.W.W.W.W.W.W.W.W.W.W.W.W.'.'.'.'.'.'.'.'..X.X'.'..X.X.X.X'.W.W.W.W.W.W.W.T.T.T.T.T.T.T.T.'.'.T.W.W.'.'..X.X.XoX[.[.[.[.[.[.[.[.'.'..X.X.X.X.X.X.X'.W.'.'.[.W.[.W.[.W.[.W.'.W.'.W.'.W.'.'.[.[.[.[.#X#X#X[.[.#X#X#X[.#X#X#XoX[.[.[.#X[.#X[.#X[.[.[.[.[.#X#X#X#X#X#X#X#X#X#X;X#X#X#X#X'.'.'..XXXXXXX.X.X.X.X.XR.'..X#X#XoX#X[.[.[.[.[.[.[.[.#X[.#X[.[.[.[.#XXX@X@X@X@X@X@X@X@X@X@X@X@X@X@XXX'.[.[.[.[.[.'.'.[.[.[.[.'.[.[.[.'.[.[.[.[.[.[.[.[.[.[.[.[.[.[.[.'.'.'.'.'.'.'.'.'.'.}.}.'.'.}.'.W.W.W.W..X.X.X.X.X.X.X'.[.[.}.}.[.[.[.[.[.[.[.[.#X[.[.[.[.[.#XoX'.'..X'..X[..XW..X'..X'..X'..X.XW.W.W.W.W.W.W.W.W.W.W.~.W.W.W.W.[.[.'..X.X.X.X.X.XXXXXXXx.x.M.XX",
"5X5X^.c.^.XXXXXXXX@XXXXXXXXX+X#X.X.X.X.X.X.X.X.X.X.X.X.X.X.X.X.X.X.X.XXX.X.X.X.X.X.X.X.X.X.X.X.X~.~.~.~.~.~.~.x.~.x.x.x.x.x.x.x.W.W.W.W.~.~.~.~.oX~.R.~.~..X~.~.~.~.~.~.~.~.~.~.~.~..X.X.X.X.X.X^.^.^.^.^.^.^.^.^.^.^.^.^.^.^.^.^.^.^.^.^.^.^.^.^.^.^.^.^.^.^.^.~.~.~.~.~.~.~.~.~.~.~.~.~.~.^.~.~.~.^.~.^.~.^.~.~.~.~.~.~.~.~.~.~.^.^.~.^.^.^.^.~.~.^.^.^.^.^.^.~.~..X~..X.X.X.X.X.X.X.X.X.X.X.X.X.X.X.XOXOXOX~.~.~.~.~.~.~.~.~..X.X.X.X.X.X.X.X.X.X.X.X.X.X.X~.~.~.~.~.~.~.~.~.~.~.~././.~.W.W..X.X.X.X.X.XXXXXXX.X.X.X.X.X.X.X.X.X.X.X^..X.X^.x.^.^.~.~.~.~.~.~.Q.Q.Q.Q.Q.~.Q.Q.Q.Q.Q.Q.Q.Q.Q.~.~.~.~.~.~.~.~.~.~.~.~.~.~.~.~.~.~.~.~.~.~.~.~.~.~.~.~.~.~.~.~..X.X.X.X.X.X.X.X.X.X~..X.X.X.Xx..X^.XX^.XX^..X~.OX.X.X~..X~.~.~.~.~.~.~.~.~.~.~.~.~.~.~.~.~.~.~..X.X.X.X^.^.^.^..X.X.X.X.X.X^.~.~.R.R.R.~.R.~.R.~.R.R.R.~.R.~.R.R.R.R.R.R.R.R.R.R.R.R.R.R.R.R.R.R.R.R.R.R.R.R.R.R.R.R.'.'.R.R.R.R.U.Q.Q.Q.^.^.^.^.~.~.~.~.W.W.W.~.R.~.R.~.R.~.R.~.R.~.R.~.R.~.~.~.~.~.~.~.~.~.~.~.~.~.~.~.~.~.~.~.^.^.^.^.^.^.^.^.^.^.^.~.^.~.~.~.~.~.~.^.^.^.^.^.XXXXXXXXXXXXXX",
"5X5X!.!.^.^.^.^.c.XX@X@XXXm..X.X.X^.~.^.~.~..X.X~.~.~.~.~.~.~.^.x.x.x.x.^.^.^.^.^.^.XXXXXXXXXXXXXXXXXXXXXXXXXXXXXXXXXXXXXXXXXXXX^.~.~.~.~.~.~.~.OX~.~.Q.^.(.^.^.~.~.~.~.~.~.^.~.^.~..X.X.X.X.X.X^.^.^.^.^.^.^.^.^.^.^.^.^.^.^.^.^.^.^.^.^.^.^.^.^.^.^.^.^.^.^.^.^.~.~.~.~.~.~.~.~.~.~.~.~.~.~.~.~.~.~.~.~.~.~.~.~.~.~.~.~.~.~.^.^.^.^.^.^.^.^.^.~.~.^.^.^.^.^.^.XX~.~.~.~.~.~.~.~.~.~.~.~.~.~.~.~.~.~.~.~.~.~.~.~.~.~.~.~.~.~.~.~.W.W.W.~.~.~.~.~.~.~.~.~.~.~.~.^.^.^.^.^.^.^./.~.~././.~.~.~.~..X.XXXXXXXXXXXXXXXXXXXXX.X.X.X.X~.~.^.~.^.^.^.^.^.^.^.^.^.^.^.^.^.~.!.^.!.!.^.^.(.(.(.(.(.(.(.(.XXXXXXXXXXXXXXXXXXXXXXXXXXXXXXXXXXXXXXXXXXXXXXXXXXXXXXXXXXXXXXXXXXXXXXXXXXXXXXXX^.^.^.^.XX.X.X^.^.^.^.^.^.^.^.^.XX.X~.^.~.^.~.~.XXXXXXXXXXXXXXXXXXXXXXXXXXXXXXXXXXXX.X.X.XXX.X.X.XXX.X.XOXOXXXXXXXXXXXXXXXXXXXXXXXXXXXXXXXXXXXXXXX.X.X.X.X.XXX.X@XXXXXOX#XOXOX@XXXXXXXXXXXXXXXXXXXXXOXOXOXOX.X~.(.(.^.^.^.^.^.(.^.^.^.~.~.~.R.~.~.~.~.~.~.~.Q.Q.~.~.~.~.~.~.~.~.~.~.~.~.~.~.~.~.~.~.~.~.~.~.~.^.^.^.^.^.^.^.^.^.^.^.^.^.^.^.^.^.^.^..X.XXXXXXXXXXXXXXXXXXXXXXXXX",
"!.!.!.^.!.!.^.c.^.^.XXXXXXXXXXc.^.^.^.^.^.XX^.XX^.^.XXXX^.^.^.^.^.^.^.^.^.^.^.^.c.c.c.c.c.c.c.c.^.^.^.^.^.^.^.^.c.c.c.c.c.c.c.c.^.~.~.~.~.~.^.^.~.Q.Q.Q.^.^.^.^.~.~.~.~.^.^.^.^.^.^..X.X.X.X.X~.^.^.^.^.^.^.^.^.^.^.^.^.^.^.^.^.^.^.^.^.^.^.^.^.^.^.^.^.^.^.^.^.^.^.^.~.^.^.^.^.^.^.^.^.^.^.^.^.XXXXXXXXXXXXXXXX^.^.^.^.^.~.~.~.^.^.^.^.^.^.^.^.^.^.^.^.^.^.^.^.^.^.^.^.^.^.x.l.^.^.^.^.^.^.^.^.^.^.^.^.^.^.^.^.^.^.^.(.^.^.^.^././././././././.~.~.^.^.^.^.^.^.^.^.^.^.^.^.^.^.^.^.^.~.Q.Q.Q.~.^..X^.^.c.c.c.c.^.^.^.^.^.~.~.~.^.^.^.^.^.c.c.c.^.^.^.^.^.^.^.^.^.^.(.^.(.^.(.^.Q.Q.Q.Q.Q.Q.Q.Q.^.^.^.^.^.^.^.^.x.^.x.^.x.^.x.x.^.^.c.^.c.^.c.^.c.x.c.x.c.x.c.x.x.x.^.^.x.x.x.x.XXXXXXXXXX^.^.^.^.^.^.^.^.^.^.^.x.^.^.^.^.^.XXOX^.^.^.^.c.^.^.^.^.^.^.^.^.^.^.^.~.~.R.~.~.~.~.~.~.~.R.~.~.~.~.~.^.^.^.^.^.^.^.^.c.c.^.^.^.^.^.^.^.^.^.^.^.^.^.^.x.x.^.^.^.^.^.^.^.^.^.^.^.^.^.x.z.x.^.^.^.~.~.l.Q.Q.Q.Q.Q.Q.Q.Q.~.~.^.~.~.~.~.~.~.~.~.~.~.~.~.~.~.~.~.~.~.~.~.~.~.~.~.~.~.~.~.~.~.~.~.~.~.~.~.~.^.^.^.^.^.^.^.^.^.^.^.^.^.^.^.^.^.^.^.^.c.c.^.^.XXXX^.^.XX^.^.^.",
"^.^.^.^.^.^.^.^.XXx.x.x.XXrXXX^.^.^.^.^.^.^.^.^.^.^.^.^.^.^.^.^.^.^.!.!.!.^.!.^.!.!.!.!.!.!.!.!.XXXXXXXXXXXXXXXXXX^.^.^.^.^.^.^.^.^.~.~.~.~.^.^.Q.Q.^.^.^.^.^.^.~.~.~.~.^.^.^.^.^.^..X^..X.X.X.X.X^..X^..X^..X^.^.^.^.^.^.^.^.^.^.^.^.^.^.^.^.^.^.^.^.^.^.^.^.^.^.~..X~..X~..X~..X~..X~..X~..X~..X~..X~..X~..X~..X~..X~..X~..X~..X^..X^.^.^.^.^..X~..X^..X^..X^.^.~.~.~..X^.OXOX~.~.~.~.^.^.^.~.^.~.~.~.~.~.~.~.~.~.~.~.~.~.~.~.~.R.~.~.~.~.~.~.~.~.^.^.^.~.~.^.^.^.^.^.^.~.^.~.^.~.~.~.~.~.^.^..XXXXXXXXXXXXXXX.X^.^.^.~.~.~.~.^.^.^.^.^.^.^.^.^.^.^.^.^.^.^.^.^.^.^.^.^.^.^.^.^.^.^.^.^.^.^.^.^.^.^.^.^.^.^.^.^.^.^.^.^.^.^.^.^.^.^.^.^.^.^.^.^.^.^.^.^.^.^.^.XX^.XXXXXXXXXXXXx.^.^.^.^.^.^.XX^.~.^.~.~.~.~.~.~.~.XX^.^.^.x.^.^.^.^.^.^.^.^.^.^.^.^.^.^.^.^.^.~.~.~.~.~.~.~.~.~.~.~.~.~.~.~.~.^.^.^.^.^.^.^.^.^.^.^.^.!.^.^.^.^.^.^.^.XX^.XX^.^.^.^.^.^.^.^.^.^.^.^.^.^.^.^.^.^.^.^.^.^.~.~.~.~.~.~.~.~.~././.~.~.W.~.~.W.~.~.~.~.~.~.~.~.~.~.~.~.~.~.~.~.~.~.~.~.~.~.~.~.~.~.~.~.~.~.~.~.~.~.^.^.^.^..X^..X^..X~..X^.^.^.^.^..X^..X.X.X.X.X.X@X.X.X^..X.X#X.X",
"~.~.~.~.~.~.~.~.~.~.~.~.^.~..X~.~.~.~.~.~.~.~.~.~.~.~.~.~.~.~.~.^.^.^.~.^.~.^.~.^.^.^.^.^.^.^.^.~.~.~.~.~.~.~.~.^.^.^.^.^.^.^.^.~.~.~.~.~.~.^.^.Q.^.^.^.l.l.^.^.^.~.~.^.^.^.c.x.XXXX.X.XXX#X#X.X.X.XXXXX@X.X.X^..X.X.X.X.X.X.X.X~.~.~.~.~.~.~.~.~.~.^.^.^.^.~.~..X.X.X.X.X.X.X.X.X.X.X.X.X.X.X.X.X.X.X.X.X.X.X.X.X~..X~..X~..X.X.X^..X^..X^..X^..X.X.X.X.X.X.X.X.X~..X~..X~..X~.~.~.~.~.~.~.~.~.~.~.~.~.~.~.~.~.~.~.~.~.~.~.~.~.~.~.~.~..X~..X~.~.~.~.~..X.X.X~.OXg.l.OX^.^.^.~.~.~.~.~.~.~.~.~..X.XXX.X.X.X.X~.~..X~..X~.~.~.~.l.~.(.(.~.Q.^.~.~.~.~.~.~.^..X.X.X.X.X.X.X.X.X.X.X~..X~..X~..X~.~.~.~.~.~.~.~.~..X~..X~..X~..X~.~.~.~.~.~.~.~.~.^.~.^.~.^.~.^.~.~.~.~.~.~.~.~.~.~.~.~.~.~.~.~.~.~.~..X~..X~..X~.~.~.^.^.^.^.^.^.^.~.^.~.^.~.^.~.~.~.~.~.~.~.~.~.^.^.^.^.^.^.^.^.^.^.^.^.^.^.^.Q.^.~.^.~.^.~.^.~.^.~.^.~.^.~.^.^.^.^.^.^.^.^.^.^.^.^.^.^.^.^.^.^.Q.U.Q.Q.).).~.^.^.^.^.~.~.~.~.~.~.oX#X.XT.I.h.h.h.h.I.T.`.'.'.}.[.[.[.[.[.[.[.[.'.'.'.[.[.[.[.[.#X#X#X#X#X#X#X#X[.[.'.[.'.[.'.'.'..X.X.X.X.X+XXXXXXXXXXX.X.X.XXX.X.X.X.X.X.X.X.X'.'.'.'.'.'.'.'.",
"[.[.[.[.[.[.oXoXoXoX#X#X#X#X#X#X~.W.W.W.W.W.W.W.T.W.W.W.W.W.W.R.R.~.~.~.~.~.~.~.~.~.~.~.~.~.~.~.R.R.R.R.R.R.R.R.R.R.R.R.~.~.~.~.~.~.~.~.~.~.~.~.^.^.~.~.^.^.^.~.~.~.~.~.^.^.c.x.@XXX.X.X.X'.T.R.R.'..X.X.X'..XR..X.X.X.X.X.X.X.XR.R.R.R.~.~.~.~.W.R.~.~.~.~.W.W..X.X.X.X.X.X.X.X'.'.R.R.R.R.R.R.R.R.R.R.'.R.R.R.#X#X#X#X#X#X#X#X#X#XXX#XXX#X#X#X.X.X.X.X.X.X.X.X'.'.'.'.'.R.R.W..X.X.X.X.X.X.X.XOXOXOXOXoXoXOXoXOXOXOXOXOXOXoXoXoX[.oXoX#X#X#X#X#X#X#X.X.X.X.X.X~.~.OXOX~.j.~.~..XoXoXoXoXoX.X.X'.'.'.'.[.[.[.[.#X[.W.W.~.~.~.~.Q.~.~.~.~.~./.OX~..X~.W.'.'.'.'.'.'.'.'.'.'.'.'.'.'.'.'.'.'.'.'.#X#X#X#X[.#X[.[.[.[.[.[.[.[.[.[.#X#X#X#X#X#X#X#X#X#X#X#X#X#X#X#XoXoXoXoXoXoXoX[.oXoXoXoXoXoXoXoXT.'.W.'.'.'.'.'.'.'.'.'..X.X.X.X.X#XoXoXoXoX#X#X#X#X#X#X#X#X#XOX~.^.~.^.^.~.^.^.^.^.^.^.^.^.^.~.~.R.R.R.R.~.R.R.~.~.~.~.~.~.Y.~.~.x.~.~.~.~.~.~.~.~.~.~.x.x.~.~.I.I.W.Y.R.Q.~.(.~.~.~.~.~.~.~.~.#X'.h.e.9.{ T T T T T 1.1.8.8.8.8.8.8.8.8.8.8.8.8.8.8.8.r.r.r.r.q.q.q.q.q.q.q.q.`.`.`.`.`.`.`.`.{.{.'.'.'.}.}.}.}.}.}.}.}.}.}.}.[.[.[.[.#X#X[.[.[.}.}.}.}. X X X",
"Z.Z.Z.Z.Z.Z.t.t.T.T.T.T.T.T.T.T.[.[.}.}.}.}.[.[.[.[.[.[.[.[.[.[.T.T.T.T.T.W.W.W.[.[.[.[.[.[.[.[.[.}.}.}.[.[.[.[.[.[.[.[.#X#X#X#XoX/.W.W././././.OX~.W.~.OXOX~.R.R.~.~..XXX^.^.x..X.X.X.X.X#XoXoX[.[.#X#X#X[.'.[.#X#X#X#X#X}.#X#X[.[.[.[.[.[.[.[.'.'.'.'.'.'.'.'.'.'.'.'.'.'.'.'.}.}.#X}.#X}.#X}.#X#X#X}.#X}.#X}.'.'.'.'.'.'.'.'.}.}.'.'.'.'.'.}.'.'.'.'.'.'.'.[.'.}.'.}.'.'.'.'.'.`.'.`.'.`.'.R.I.I.I.I.I.I.I.I.I.I.h.I.h.h.h.T.t.t.t.t.t.t.t.h.h.h.h.h.k.h.R.'.'.j.R.R.j.T.'.h.h.h.f.f.f.f.k.f.e.q.q.e.t.t.A.A. X[.T.W.~.oX~.~.~.~.~.R.~.W.W.[.h.t.t.t.t.e.e.q.t.t.t.t.t.t.t.t.t.t.t.t.t.t.t.q.t.A.A.A.A.A.A.A.t.t.t.t.t.t.t.t.T.T.T.T.T.T.T.T.T.T.T.T.T.T.T.T.T.T.E.E.E.E.A.A.E.E.E.E.E.E.E.E.[.}.'.'.}.'.}.}.'.'.'.'.'.'.'.'.'.`.`.`.`.`.`.`.'.'.`.`.`.'.'.'.oXoXoXoXoXoXoXoXW.W.W.W.T.T.T.T.T.E.E.E.E.E.E.E.[.E.E.[.E.E.E.E..X.X.X.X.X#X#X#X.X.X.X.X#X.X#X#XW._.*XW.W.R.~./.~.~.~.~.~.~.~.'. X`.r.1.T P U U Y U Y Y Y =.=.=.T Y Y Y Y Y T T Y Y T T T T 1.1.=.=.=.=.=.=.=.=.T T T T T T T Y T T T T -.-.-.-.8.8.8.8.1.1.8.8.r.r.r.r.r.r.r.r.t.q.t.t.r.V.r.V.",
"( ( ( ( ) ) ) ) 1.1.) 1.1.1.1.1.1.) 1.1.8.8.8.8.r.r.r.r.r.r.r.r.t.t.t.t.t.A.A.Z.A.A.A.A.A.A.A.A.`.`.`.`.`.`.`.`.`.`.`.].}.}.}.}.[.[.[.[.[.[.[.[.[.[.'.'.[.[.#XoXR.~..X.X~.^.^.^.x..X.X.X'.`.`.].`.`.`.{.{.{.{.{.`.`.`.`.`.`.`.`.A.A.A.A.A.A.A.A.t.t.t.t.t.t.t.t.t.t.t.t.t.t.t.t.r.r.r.r.q.r.r.r.q.q.r.r.r.r.r.r.q.q.r.r.r.r.r.r.8.8.8.8.8.8.8.8.8.8.8.8.8.8.8.8.8.8.8.8.8.8.8.8.8.8.8.8.8.8.8.8.{ { { { { ) { ) / T T T T T T T ) ) ) ) ) ) ) ) T T ) { T { t.}.h.{ T E t. X`.T T T / / / / T T T T T P T ) ` ) ].].[.[..X~.~.~.~.~.R.R.[.[.T.C.) ) ) ( ( T T T T T =.=.T T T T =.=.=.=.=.=.=.T ) ) ) ) ) ) ( ( ) ) ) ) ) ) ) ) ) ) ) ) ) ) ) ) ) ) ) ) ) ) ) ) ) ` ` ) ` ` ` ) ) ) ) ) ` ` ` ` 1.1.1.1.8.1.8.8.8.8.8.8.8.8.8.8.r.0.r.0.r.0.0.0.8.0.8.0.8.0.8.0.0.0.0.0.0.0.0.0.q.q.r.q.0.0.0.q.Z.C.t.C.t.C.t.C.A.A.A.A.A.Z.A.A.h.h.h.h.T.T.T.'.`.`.`.'.'.'.}.`.].E.E.E.E.W.~.~.~.~.~.~.~.~.~.'.|.r.1.T Y 1.<.<.4.4.4.4.4.4.4.4.<.<.<.<.<.<.<.1.<.<.<.<.<.<.<.<.=.=.=.=.=.=.=.=.<.<.=.=.=.=.=.=.Y Y T T =.=.=.=.=.=.=.=.=.=.=.=.Y P Y Y Y Y Y Y Y ^ Y ^ ( ^ Y ^ ",
"<.<.<.<.<.<.( ( Y Y Y T T T T T Y Y Y Y Y Y Y Y Y Y Y Y Y Y Y Y T ( ( ) 1.1.1.1.( ( ( ( ( ( ( ( 1.1.1.1.1.1.1.1.1.1.1.1.8.8.8.0.r.q.r.r.r.r.r.t.t.t.t.t.e.t.`.[.[.oXOX~.~.~..X@XXXXX#XR.q.{ / ) 1.1.) 1.) ) 1.1.T T T T T T T ) ( ( ( ( 1.( 1.( ) ) 1.1.1.1.1.1.) ) 1.1.1.1.1.1.P P P P P P Y P P P P P P P P P ) ) ) ) T T T T T T T T T T T T Y T Y Y T Y P T U U U U U U U U Y Y Y Y Y Y Y P T ( ( ( ( ( ( ( P P P P P P P P ( ( ( ( T T T T T T 1.1.T T r.|.t.T K K 8.`.t.t T T ( ( ( ( ( T 1.1.( Y Y ( ( ) q.E.[.oX.X~.~..X.X~.~..X[.T.r.) P Y Y ( Y <.<.<.=.=.=.=.=.=.=.=.<.<.<.<.<.<.<.<.( ( ( ( ( ( ( ( ( ( ( ( ( ( ( ( Y Y Y Y Y Y Y Y ( ( ( ( Y ( Y ( ^ ( ( ( ( ( ( ( ^ ^ ^ ^ ( ( ( Y U U U U U U U U U Y U Y U Y U U T ( T ( T ( T ( T Y T Y T Y T ( j j j j j j h h j j j k k k k j 1.( 1.( ) ( 1.( 1.1.1.( 1.1.1.1.T T T T T ) ) ) T T ) ) 1.1.1.1.` ^ ^ ` t.'..X.X.X^.^.^..X.X.X'.r.1.Y s <.4.4.B 4.4.4.4.6.4.4.4.4.4.4.4.4.4.4.4.<.<.<.<.<.<.<.<.<.<.<.<.<.<.<.<.6.6.6.5.6.6.6.4.1.1.1.1.1.1.4.4.4.4.4.4.1.1.1.1.( ( ( ( ( ( ( ( 1.( 1.( ( ( ( ) ",
"4.4.<.<.<.<.1.1.<.<.<.1.1.1.1.1.4.6.5.6.5.6.5.5.<.<.<.<.<.<.<.<.=.=.=.<.=.<.<.<.Y s Y s s s Y s Y Y Y Y Y Y Y Y s Y Y Y T T T T ( ( ( ^ P ( ( ( ) ) 1.) T ) 8.t.'.W.oX~.~.~..X@X.XXX#XR.9.I P P Y Y Y Y Y Y Y Y Y Y Y Y Y Y Y Y <.<.<.=.<.<.=.<.<.<.<.<.<.<.<.<.Y Y Y Y Y Y Y Y 1.1.1.1.1.1.1.<.1.1.1.1.1.1.1.1.<.<.( <.=.=.<.=.1.<.1.( <.1.1.1.2.2.2.2.2.2.2.5.2.5.5.5.5.5.5.5.<.<.<.<.<.<.<.<.<.<.<.<.<.<.<.<.<.<.<.<.<.<.<.<.<.<.<.<.<.<.<.<.2.<.<.5.1.=.7.K.r.1.=.1.Y 2.2.s 1.1.1.1.<.1.1.<.6.4.4.<.1.1.1.1.) e.'.#X.X.X.XXX.X.X.X.X[.T.1.K Y ( <.<.4.4.4.4.<.<.<.1.<.1.<.1.<.<.<.1.<.1.<.<.4.4.4.4.4.4.4.4.<.4.<.<.<.<.<.<.<.<.<.<.<.<.<.<.<.<.<.<.<.<.<.<.1.( 1.1.1.1.1.1.<.( <.( <.( <.<.2.6.5.5.5.5.5.5.6.6.6.6.6.6.6.4.<.<.<.<.<.<.<.<.1.<.1.<.1.<.<.<.M M M M M M C M m m m M M M M m M <.=.<.=.<.=.<.=.<.=.<.=.<.=.Y s s s s Y Y Y ( Y s Y Y Y ( Y ( ( g 4 P 9.T.'..X.X.XXX.X.X.X.X.X1.1.=.<.<.4.N m M M B B B <.<.<.<.<.<.<.B B B B <.<.<.<.<.<.<.<.<.<.<.<.<.<.<.<.M M M <.M M c c j j j j j j j j ( j ( ( ( j ( ( 1.1.4.1.1.1.1.1.4.1.4.1.1.1.1.1.",
"<.<.<.B <.<.<.<.B <.B <.<.<.1.<.<.<.<.B =.B =.B =.B =.B =.B <.B 4.<.<.<.<.6.6.6.<.<.<.<.<.<.<.<.4.<.4.<.4.1.4.1.<.1.<.1.<.1.<.1.( ( j j ( ( ( ( Y ( Y Y Y Y ( ) t.T..X.X.X~..X.Xj..X#X'.9./ ) 1.4.4.4.<.<.4.4.4.4.4.4.4.4.4.4.4.4.4.4.4.4.4.6.6.4.4.4.4.4.4.4.4.<.<.4.<.4.4.4.4.M M M M M M M M M M M M M M M M <.<.<.<.<.<.<.<.<.<.<.<.<.<.<.<.=.=.c =.M M M M B B B B B B B v 4.4.4.4.4.4.4.4.B M M M M N M N M M M M M M M M M M M M B M <.<.6.<.<.4.<.c 5.J.y.<.4.4.c c 4.M <.<.<.N N N N N B <.<.<.<.<.1.1.T { q.j..XXXXXXX.X.XXX+X}.t.1.U ( <.B M B B B M <.( <.( <.( <.( <.( <.( <.( <.<.<.<.<.<.<.<.<.<.<.<.<.<.<.<.<.<.4.4.4.4.4.4.<.<.4.4.4.4.4.4.4.4.<.<.<.<.<.<.<.M <.<.<.<.<.<.<.<.=.=.=.=.B v v v v v M M M M M c 4.<.<.<.<.<.<.<.<.4.<.4.<.4.<.4.c c M M M M M M 4.4.6.6.6.6.6.6.4.4.<.4.<.4.<.4.<.<.<.<.<.<.<.<.4.<.4.<.4.4.4.4.<.<.4.<.<.<.4.<.2._ ^ ^ ) e.j..X.XXXXXXXM.XX.X.X-.1.1.1.<.<.N N N N M M <.<.<.<.<.<.<.<.<.<.M M 4.4.4.<.4.<.4.4.<.<.<.<.<.<.<.<.4.4.4.4.4.4.4.4.<.<.2.<.<.<.( ( 2.2.2.2.2.2.2.2.j j M j M j M j <.<.<.<.<.( <.( ",
"4.<.4.<.4.<.<.<.B B B <.<.<.<.<.6.6.4.4.4.<.4.<.4.<.4.<.4.<.4.<.<.<.<.<.4.4.4.4.<.<.<.<.<.<.<.<.<.<.M M M M M M <.<.<.<.<.<.<.<.<.<.<.<.<.<.<.<.1.( ( 1.2.1.j u { q.'.oX.X~.~.^.j.XX#X`.8.P Y ( <.<.<.j M <.4.4.M M M M <.M <.B M M c c c c c v B B M B B B B M B M M M M M M M M M M M M M M M M M <.M <.M 4.M M M M M M M M M M M M M M M <.<.<.<.<.<.<.M <.<.4.B 4.B 4.B 4.B B B B B B B B B M N M N M N M N M N M N M N M M M B B B B B B <.4.c c 4.4.B 7.L.L.c a 4.6.6.4.m M M N N M <.<.<.s Y ( <.1.1.1.1.) T { k..X$X@Xc.XX.XXXXX'.t.1.Y 1.4.4.M B B B M <.( <.( ( ( ( ( j j ( ( ( ( ( <.<.<.<.<.<.<.<.<.<.<.<.<.<.<.<.<.<.B B B <.B B B 4.B 4.B 4.B 4.4.M <.M <.<.M M c <.<.<.<.<.<.<.<.4.4.4.4.4.4.4.B B B B B B B B B 4.4.4.4.4.4.4.4.<.<.<.<.<.<.<.<.<.<.<.<.<.<.<.<.=.<.=.=.=.<.<.<.4.4.4.4.4.4.4.4.B B B v v B B M M M M m M M M M M <.M M M M M j j ( ( Y P 8.T.$X.XXXXXXXXXXX.X.XP ( ( ( <.( <.<.M M M M <.<.<.4.<.<.<.<.<.<.<.<.M M M M M M M M <.<.<.<.<.<.<.<.<.<.<.<.<.<.<.<.j j j j j j j j j j j j j j j j <.<.4.4.4.<.<.<.<.<.<.<.<.<.1.1.",
"<.<.<.<.<.<.<.<.<.<.<.<.<.<.<.<.<.<.<.<.<.<.4.<.4.<.<.<.<.<.<.<.<.<.<.<.B B B <.<.<.<.B B B <.<.B B B <.<.<.B B <.<.<.<.<.<.<.<.<.4.4.M N N <.j <.2.2.Y s M M j P e.'.#X~.~.~.~.~.R.[.`.1.Y <.M j j s 3.s 6.<.j <.<.<.<.<.<.<.<.<.<.<.B B <.<.<.<.B B B <.<.<.<.B B B B <.<.<.<.<.<.<.<.<.<.<.<.<.<.<.<.<.<.<.<.<.<.<.<.<.<.<.<.<.<.<.<.<.<.<.<.<.<.<.<.<.<.<.<.<.<.<.<.<.<.4.<.4.<.<.<.<.<.<.<.<.<.<.<.<.<.<.<.<.<.<.<.<.( <.<.<.<.<.<.<.<.<.<.<.<.<.M c <.6.7.M B <.<.<.<.<.B M m N ( s 1.r.| T.t.{ ) Y ( <.1.1.Y ) h.XXXX^.^.^.^.^.~.#Xt.) ( 1.s 4.B 4.7.c 4.<.<.<.<.<.<.( <.<.<.<.<.<.<.<.<.<.<.<.<.<.<.<.<.<.<.<.<.<.<.<.<.<.<.<.<.<.<.<.<.<.<.<.<.<.<.<.<.<.<.<.<.<.<.<.<.<.<.<.<.<.<.<.<.<.<.<.<.<.<.4.<.4.<.<.<.<.<.<.<.<.<.<.<.<.<.<.<.<.<.<.<.<.<.<.<.<.<.<.<.<.<.<.<.<.<.<.<.<.<.<.<.<.<.<.<.<.<.<.<.<.<.<.<.<.<.<.<.<.<.<.<.<.<.<.<.B c M 4.<.s ( 4.( <.( ( 1.P 8.[.'..XXXm..X.X~.R.8.1.2.j Y w.-.=.M M M M <.<.<.M <.<.<.<.<.<.<.<.<.<.<.<.<.<.<.<.<.<.<.<.<.<.<.<.<.<.<.<.<.<.<.<.<.( ( ( ( ( ( ( ( ( ( ( ( ( ( ( <.<.<.<.<.<.( <.<.<.<.<.<.<.<.<.",
"<.<.<.<.<.<.<.<.<.<.<.<.<.<.<.<.<.<.<.<.<.<.<.<.<.<.<.<.<.<.<.<.<.<.<.<.B <.B B <.<.<.<.B B <.<.B B <.<.<.<.B <.B B <.<.<.<.<.<.<.<.4.M N M M s Y 1.=.Y j N C k Y r.'.[.~.~.~.~.~.'.#X`.1.=.4.M j j j 6.s 2.<.j <.<.<.<.<.<.<.<.<.<.B B <.<.<.<.B B <.B <.<.<.<.B B B B <.<.<.<.B <.<.<.<.<.B <.<.<.<.<.<.<.( <.<.<.<.<.<.<.<.<.<.<.<.<.<.<.<.<.<.<.<.<.<.<.<.<.<.<.<.<.<.<.<.<.<.<.<.<.<.<.<.<.<.<.<.<.<.<.<.<.<.<.<.<.( ( <.<.<.<.<.<.<.<.<.<.<.<.<.M c M 6.6.M B <.<.<.<.4.B B M 4.<.T 9.T.f.W.W.I.| ( j j j <.Y ) t..X^.^.^.^.^.^.~.#Xt.) ( 1.s 4.M 4.5.Y <.<.<.<.<.<.<.<.( <.<.<.<.<.<.<.<.<.<.<.<.<.<.<.<.<.<.<.<.<.<.<.<.<.<.<.<.<.<.<.<.<.<.<.<.<.<.<.<.<.<.<.<.<.<.<.<.<.<.( <.<.<.<.<.<.<.<.<.<.<.<.<.<.<.<.<.<.<.<.<.<.<.<.<.<.<.<.<.<.<.<.<.<.<.<.<.<.<.<.<.B B <.<.<.<.B B <.<.<.<.<.<.<.<.<.<.<.<.<.<.<.<.<.<.<.<.<.( <.<.<.<.<.<.<.4.4.4.1.1.1.1.Y <.( j 1.^ 8.}.'..X.X^.^..X~.I.) ( N j T w.e.-.M C M M =.=.<.M <.<.<.<.<.<.<.<.<.<.<.<.<.<.<.<.<.<.<.<.<.<.( <.<.<.<.<.<.<.<.<.<.<.<.<.<.<.<.<.<.<.<.<.<.<.<.<.<.<.<.<.<.<.<.( <.<.<.<.<.<.<.<.",
"<.<.<.<.<.<.<.<.<.<.<.<.<.<.<.<.<.<.<.<.<.<.<.<.<.<.<.<.<.<.<.<.B <.<.<.<.<.<.<.<.<.<.<.<.<.<.<.<.<.<.<.<.<.<.<.<.<.<.<.<.<.<.<.<.<.<.M M M j Y P T T Y <.2.C k Y r.'.[.~.~.~.^..X'.#X`.1.=.4.M M j j 6.s 2.<.M <.<.<.<.<.<.<.<.<.<.<.<.<.<.<.<.<.<.<.<.<.<.<.B <.<.B <.<.<.B B B <.<.<.<.<.B M <.<.<.<.<.<.<.<.( <.<.<.<.<.<.<.<.<.<.<.<.<.<.<.<.<.<.<.<.<.<.<.<.<.<.<.<.<.<.<.<.<.<.<.<.<.<.<.<.<.<.<.<.<.<.<.<.<.<.<.<.<.<.<.<.<.<.<.<.<.<.<.<.<.<.<.M M <.4.M M <.<.4.4.<.B M m 4.<.( e.'.'.oX/.[.A.` ^ j ( <.s ) t.#X~.^.^.!.^.^.~.#Xt.) ( <.s 4.M 4.7.Y 1.<.<.<.<.<.<.<.( <.<.<.<.<.<.<.<.<.<.<.<.<.<.<.<.<.<.<.<.<.<.<.<.<.<.<.<.<.<.<.<.<.<.<.<.<.<.<.<.<.<.<.<.<.<.<.<.<.<.<.( ( <.<.<.<.<.<.<.<.<.<.<.<.<.<.<.<.<.<.<.<.<.<.<.<.<.<.<.<.<.<.<.<.<.<.<.<.<.<.<.<.<.<.<.<.<.B B <.<.B B <.<.<.<.<.<.<.<.<.<.<.<.<.<.<.<.<.( <.<.<.<.<.<.c 4.4.<.1.1.1.Y <.<.<.<.1.^ 3.}.'..X.X^.~.OX~.I.T ( j j =.e.b.-.N C M B =.=.<.M <.<.<.<.<.<.<.<.<.<.<.<.<.<.<.<.<.<.<.<.<.<.<.<.( <.<.<.<.<.<.<.<.<.<.<.<.<.<.<.<.<.<.<.<.<.<.<.<.<.<.<.<.<.<.( <.<.<.<.<.<.<.<.",
"<.<.<.<.<.<.<.<.<.<.<.<.<.<.<.<.<.<.<.<.<.<.<.<.<.<.<.<.<.<.<.<.B <.<.<.<.<.<.<.<.<.<.<.<.<.<.<.<.<.<.<.<.<.<.<.<.<.<.<.<.<.<.<.4.<.<.4.4.M ( 1.8.8.1.T ( 4.V j Y r.'.[.~.~.~.^..X'.'.`.1.=.4.B <.j j N.s 1.<.<.<.<.<.<.<.<.<.<.<.<.<.<.<.<.<.<.<.<.<.<.<.<.<.B <.<.<.<.<.<.<.B B B <.<.<.B B B <.<.<.<.<.<.<.<.( <.<.<.<.<.<.<.<.<.<.<.<.<.<.<.<.<.<.<.<.<.<.<.<.<.<.<.<.<.<.<.<.<.<.<.<.<.<.<.<.<.<.<.<.<.<.<.<.<.<.<.<.<.<.<.<.<.<.<.<.<.<.<.<.<.<.<.<.M c M M M <.<.<.<.<.B B j M ( P e.[..X~.~.oXT.q.) ( 2.<.Y ) t.#X~.^.^.^.^.^.~.#Xt.) ( <.s 4.M 4.r.1.( <.<.<.<.<.<.<.<.( <.<.<.<.<.<.<.<.<.<.<.<.<.<.<.<.<.<.<.<.<.<.<.<.<.<.<.<.<.<.<.<.<.<.<.<.<.<.<.<.<.<.<.<.<.<.<.<.<.<.( <.<.<.<.<.<.<.<.<.<.<.<.<.<.<.<.<.<.<.<.<.<.<.<.<.<.<.<.<.<.<.<.<.<.<.<.<.<.<.<.<.<.<.<.<.<.<.<.<.B B B <.<.<.<.<.<.<.<.<.<.<.<.<.<.<.<.<.( <.<.<.<.<.<.c 6.<.s ( 0.0.T 1.4.<.<.1.( 8.}.'..X.X^.~.OX~.T.P ( k <.=.e.}.-.N M M M =.=.<.M <.<.<.<.<.<.<.<.<.<.<.<.<.<.<.<.<.<.<.<.<.<.<.<.( <.<.<.<.<.<.<.<.<.<.<.<.<.<.<.<.<.<.<.<.<.<.<.<.<.<.<.<.<.<.<.( <.<.<.<.<.<.<.",
"<.<.<.<.<.<.<.<.<.<.<.<.<.<.<.<.<.<.<.<.<.<.<.<.<.<.<.<.<.<.<.<.B B <.<.<.<.<.<.B <.<.<.<.<.B B <.<.<.<.<.<.<.<.<.<.<.<.<.<.B <.4.=.<.4.<.<.1.0.G.t.8.T Y <.V N Y r.}.[..X~.~.^..X'..X`.1.=.4.<.<.( ( Z.s 1.( <.<.<.<.<.<.<.<.<.<.B B <.<.<.B B <.<.<.<.<.<.B B <.<.<.<.<.<.B B <.<.<.<.<.<.<.<.<.<.<.<.<.<.<.<.<.<.<.<.<.<.<.<.<.<.<.<.<.<.<.<.<.<.<.<.<.<.<.<.<.<.<.<.<.<.<.<.<.<.<.<.<.<.<.<.<.<.<.<.<.<.<.<.<.<.<.<.<.<.<.<.<.<.<.<.<.<.<.<.<.<.<.<.<.<.c c M M <.<.4.4.<.B M m M j Y r.'..X~.~.oX[.Z.1.( 2.<.Y ) A.[.~.^.^.^.^.^.~.#Xt.) ( <.s 4.s 4.F.1.1.<.<.<.<.<.<.<.<.<.<.<.<.<.<.<.<.<.<.<.<.<.<.<.<.<.<.<.<.<.<.<.<.<.<.<.<.<.<.<.<.<.<.<.<.<.<.<.<.<.<.<.<.<.<.<.<.<.<.<.<.<.<.<.<.<.<.<.<.<.<.<.<.<.<.<.<.<.<.<.<.<.<.<.<.<.<.<.<.<.<.<.<.<.<.<.<.B B B <.<.<.B B <.<.B B <.<.<.<.<.<.<.<.<.<.<.<.<.<.<.<.<.<.<.<.<.<.<.<.<.<.<.<.<.5.4.Y 3.G.`.r.1.4.( j 1.Y 1.}.'..X.X^.~.OXW.T.) <.k 2.T e.#X-.M M M <.=.=.<.M <.<.<.<.<.<.<.<.<.<.<.<.<.<.<.<.<.<.<.<.<.<.<.<.<.<.<.<.<.<.<.<.<.<.<.<.<.<.<.<.<.<.<.<.<.<.<.<.<.<.<.<.<.<.<.<.<.<.<.<.<.<.<.<.",
"<.<.<.<.<.<.<.<.<.<.<.<.<.<.<.<.<.<.<.<.<.<.<.<.<.<.<.<.<.<.<.<.B B <.<.<.<.<.<.B <.<.<.<.<.B B <.<.<.<.<.<.<.<.<.<.<.<.<.<.B <.4.=.=.4.1.( 3.G.}.}.b.8.T <.M <.Y r.}.[..X~.~.^..X'..X`.1.=.4.4.<.( ( F.( <.Y 1.<.<.<.<.<.<.<.<.B B <.<.<.<.<.B <.<.<.<.<.<.B B <.<.<.<.<.<.B B <.<.<.<.<.<.<.<.<.<.<.<.<.<.<.<.<.<.<.<.<.<.<.<.<.<.<.<.<.<.<.<.<.<.<.<.<.<.<.<.<.<.<.<.<.<.<.<.<.<.<.<.<.<.<.<.<.<.<.<.<.<.<.<.<.<.<.<.<.<.<.<.<.<.<.<.<.<.<.<.<.<.<.<.<.<.M c M M <.<.4.4.<.B 6.N <.( T e.'..X^.^..X#XT.1.Y <.<.s ) A.[./.^.^.^.^.^.~.#Xt.( ( <.j 4.s 4.F.2.Y <.<.<.<.<.<.<.<.<.<.<.<.<.<.<.<.<.<.<.<.<.<.<.<.<.<.<.<.<.<.<.<.<.<.<.<.<.<.<.<.<.<.<.<.<.<.<.<.<.<.<.<.<.<.<.<.<.<.<.<.<.<.<.<.<.<.<.<.<.<.<.<.<.<.<.<.<.<.<.<.<.<.<.<.<.<.<.<.<.<.<.<.<.<.<.<.B <.B B <.B B B <.<.B B <.<.<.<.<.<.<.<.<.<.<.<.<.<.<.<.<.<.<.<.<.<.<.<.<.<.<.<.<.<.Y T r.]. X`.1.4.( ( 1.Y 1.}.'..X.X^.~.OXW.T.) 1.j 2.U e.;X8.<.M N <.=.=.<.M <.<.<.<.<.<.<.<.<.<.<.<.<.<.<.<.<.<.<.<.<.<.<.<.<.<.<.<.<.<.<.<.<.<.<.<.<.<.<.<.<.<.<.<.<.<.<.<.<.<.<.<.<.<.<.<.<.<.<.<.<.<.<.<.",
"<.<.<.<.<.<.<.<.<.<.<.<.<.<.<.<.<.<.<.<.<.<.<.<.<.<.<.<.<.<.<.<.B <.<.<.<.B B <.B B <.<.<.<.B B B B B <.<.<.<.<.B B B <.<.<.<.<.6.=.=.4.1.( r.].'.#X}.q.1.Y N <.Y r.}.[..X~.~.^..X.X'.`.1.Y 4.<.1.( ( G.( ( s 1.<.<.<.<.<.<.<.<.<.B <.<.<.<.B B <.B B B <.<.<.<.<.<.<.B <.<.<.<.<.<.<.<.B B <.<.<.<.<.<.<.<.<.<.<.<.<.<.<.<.<.<.<.<.<.<.<.<.<.<.<.<.<.<.<.<.<.<.<.<.<.<.<.<.<.<.<.<.<.<.<.<.<.<.<.<.<.<.<.<.<.<.<.<.<.<.<.<.<.<.<.<.<.<.<.<.<.<.6.<.<.<.<.4.<.M M M <.<.4.<.<.B 6.N 4.<.( t.[..XXX^..X#XT.1.Y ( <.s ) A.[./.~.^.^.^.~.~.[.t.( ( 1.j 4.s 1.G.3.T <.<.<.<.<.<.<.<.<.<.<.<.<.<.<.<.<.<.<.<.<.<.<.<.<.<.<.<.<.<.<.<.<.<.<.<.<.<.<.<.<.<.<.<.<.<.<.<.<.<.<.<.<.<.<.<.<.<.<.<.<.<.<.<.<.<.<.<.<.<.<.<.<.<.<.<.<.<.<.<.<.<.<.<.<.<.<.<.<.<.<.<.<.<.<.<.<.<.<.<.<.<.<.<.<.<.<.B <.<.<.<.<.<.<.<.<.<.<.<.<.<.<.<.<.<.<.<.<.<.<.<.<.<.<.<.<.s U 1.G.}.}.`.1.4.<.( ( Y 1.].'..X.X^.~.OXW.T.) 1.h 2.K e.zX8.( k M M 1.=.<.M <.<.<.<.<.<.<.<.<.<.<.<.<.<.<.<.<.<.<.<.<.<.<.<.<.<.<.<.<.<.<.<.<.<.<.<.<.<.<.<.<.<.<.<.<.<.<.<.<.<.<.<.<.<.<.<.<.<.<.<.<.<.<.<.",
"<.<.<.<.<.<.<.<.<.<.<.<.<.<.<.<.<.<.<.<.<.<.<.<.<.<.<.<.<.<.<.<.<.<.<.<.B B <.<.<.B <.<.<.<.<.<.B B B <.<.<.B B B B <.<.<.<.B <.5.=.=.<.1.1.t.#X'.#X#Xh.1.Y M <.P r.}.[..X~.~.~..X.X'.`.1.s 4.4.1.( 1.G.( ( s 4.1.<.<.<.<.<.<.<.<.<.<.<.<.<.<.<.<.<.B B <.<.<.<.<.<.B B <.<.<.<.<.<.B B B <.<.<.<.<.<.<.<.<.<.<.<.<.<.<.<.<.<.<.<.<.<.<.<.<.<.<.<.<.<.<.<.<.<.<.<.<.<.<.<.<.<.<.<.<.<.<.<.<.<.<.<.<.<.<.<.<.<.<.<.<.<.<.<.<.<.<.<.<.<.<.<.<.<.<.6.<.M <.<.6.<.<.M M <.<.4.<.<.B M m N ( ( e.'..XXXx.~.#X'.0.( 1.<.s ) A.[.W.~.~.^.XX~..X[.t.( ( ) j 4.s 1.G.3.T <.<.<.<.<.<.<.<.<.<.<.<.<.<.<.<.<.<.<.<.<.<.<.<.<.<.<.<.<.<.<.<.<.<.<.<.<.<.<.<.<.<.<.<.<.<.<.<.<.<.<.<.<.<.<.<.<.<.<.<.<.<.<.<.<.<.<.<.<.<.<.<.<.<.<.<.<.<.<.<.<.<.<.<.<.<.<.<.<.<.<.<.<.<.<.<.<.<.<.<.<.<.<.<.<.<.<.B <.<.<.<.<.<.<.<.<.<.<.<.<.<.<.<.<.<.<.<.<.<.<.<.B <.<.<.<.s P q.}.#X[.`.) 4.<.<.( Y 1.].'..X.X^.~.OXW.T.) <.y 2.K e.NXt.( k j <.-.1.<.M <.<.<.<.<.<.<.<.<.<.<.<.<.<.<.<.<.<.<.<.<.<.<.<.<.<.<.<.<.<.<.<.<.<.<.<.<.<.<.<.<.<.<.<.<.<.<.<.<.<.<.<.<.<.<.<.<.<.<.<.<.<.<.<.",
"<.<.<.<.<.<.<.<.<.<.<.<.<.<.<.<.<.<.<.<.<.<.<.<.<.<.<.<.<.<.<.<.B B B B <.<.<.<.<.<.<.B B B B <.B B B <.<.<.B B B B B B <.<.<.<.4.4.<.1.Y ) e.[..X.X#X'.8.T 4.<.P t.'.[.~.~.~.~.~.'.[.t.T =.4.B <.s 1.K.Y 1.<.Y 1.1.<.<.B B <.<.<.<.B B B B <.<.<.<.<.<.B B <.<.<.<.<.<.B B <.<.<.<.<.<.<.<.<.<.<.<.<.<.<.<.<.<.<.<.<.<.<.<.<.<.<.<.<.<.<.<.<.<.<.<.<.<.<.<.<.<.<.<.<.<.<.<.<.<.<.<.<.<.<.<.<.<.<.<.<.<.<.<.<.<.<.<.<.<.<.<.<.<.<.<.<.<.<.<.<.<.<.<.<.<.<.<.<.<.M M <.<.<.4.4.B M m <.( P 9.'..X^.^.^..X[.r.Y ( <.s ( t.[.W.~.~.^.^.~.'.[.t.( ( 1.s ( ( ( %X) 1.<.<.<.<.<.<.<.<.<.<.<.<.<.<.<.<.<.<.<.<.<.<.<.<.<.<.<.<.<.<.<.<.<.<.<.<.<.<.<.<.<.<.<.<.<.<.<.<.<.<.<.<.<.<.<.<.<.<.<.<.<.<.<.<.<.<.<.<.<.<.<.<.<.<.<.<.<.<.<.<.<.<.<.<.<.<.<.<.<.<.<.<.<.<.<.<.<.<.<.B B B <.<.<.<.<.<.B B <.<.<.<.<.<.<.<.<.<.<.<.<.<.<.<.<.<.<.<.<.<.<.M M <.<.s T t.}.'.'.'.r.c 4.<.( ( 1.}.'.j..X.X~..X/.t.P <.j ( P h.lX#XY j j <.1.1.4.M <.<.<.<.<.<.<.<.<.<.<.<.<.<.<.<.<.<.<.<.<.<.<.<.<.<.<.<.<.<.<.<.<.<.<.<.<.<.<.<.<.<.<.<.<.<.<.<.<.<.<.<.<.<.<.<.<.<.<.<.<.<.<.<.",
"<.<.<.<.<.<.<.<.<.<.<.<.<.<.<.<.<.<.<.<.<.<.<.<.<.<.<.<.<.<.<.<.<.B B <.<.<.<.B <.<.<.<.B B <.<.B B <.<.<.<.B <.<.B B <.<.<.<.B <.4.<.1.( ) e.[..X.X#X'.8.T <.<.P t.'.[.~.~.~.~.^.'.'.t.T =.4.<.1.U 1.|.T 1.1.Y 1.<.<.<.<.<.<.<.<.<.B B <.<.<.<.<.<.<.<.B B <.<.<.<.<.<.B B <.<.B B <.<.<.<.<.<.<.<.<.<.<.<.<.<.<.<.<.<.<.<.<.<.<.<.<.<.<.<.<.<.<.<.<.<.<.<.<.<.<.<.<.<.<.<.<.<.<.<.<.<.<.<.<.<.<.<.<.<.<.<.<.<.<.<.<.<.<.<.<.<.<.<.<.<.<.<.<.<.<.<.<.<.<.<.<.<.M M <.<.<.4.4.B M m <.( P 9.'..X^.^.x..X[.r.Y ( 1.s ( t.[.W.~.~.^..X.X'.[.t.( ( 1.s <.( ( &X1.) 1.<.<.<.<.<.<.<.<.<.<.<.<.<.<.<.<.<.<.<.<.<.<.<.<.<.<.<.<.<.<.<.<.<.<.<.<.<.<.<.<.<.<.<.<.<.<.<.<.<.<.<.<.<.<.<.<.<.<.<.<.<.<.<.<.<.<.<.<.<.<.<.<.<.<.<.<.<.<.<.<.<.<.<.<.<.<.<.<.<.<.<.<.<.<.<.<.<.<.B B B <.<.<.<.<.<.B B <.<.<.<.<.<.<.<.<.<.<.<.<.<.<.<.<.<.<.<.<.<.<.M M <.<.Y T t.[..X~.'.r.=.1.<.( ( 1.}.'.j..X.X~..X/.t.( <.j ( R h.zX#XP j j 1.1.1.<.M <.<.<.<.<.<.<.<.<.<.<.<.<.<.<.<.<.<.<.<.<.<.<.<.<.<.<.<.<.<.<.<.<.<.<.<.<.<.<.<.<.<.<.<.<.<.<.<.<.<.<.<.<.<.<.<.<.<.<.<.<.<.<.<.",
"<.<.<.<.<.<.<.<.<.<.<.<.<.<.<.<.<.<.<.<.<.<.<.<.<.<.<.<.<.<.<.<.<.<.<.<.<.<.B B <.<.<.<.<.<.<.<.<.B <.<.<.<.<.<.<.<.<.<.<.<.B B 4.4.4.<.( ) 9.[..X~.#X'.8.T <.<.T t.}.[..X~.~.~.^.'.[.t.T =.4.<.1.U 3.|.( 1.1.Y 1.1.<.<.<.<.<.<.<.<.<.<.<.<.<.<.<.<.<.<.B B <.<.<.<.<.<.B B <.<.B B <.<.<.<.B B <.<.<.<.<.<.<.<.<.<.<.<.<.<.<.<.<.<.<.<.<.<.<.<.<.<.<.<.<.<.<.<.<.<.<.<.<.<.<.<.<.<.<.<.<.<.<.<.<.<.<.<.<.<.<.<.<.<.<.<.<.<.<.<.<.<.<.<.<.<.<.<.<.<.<.<.<.<.<.<.M M <.<.<.<.4.B M m N ( Y 0.'..X^.^.x..X[.r.Y ( 1.s ) t.[.~.~.~.^..X.X'.}.t.( ( 1.s <.( ( &X) ) 1.<.<.<.<.<.<.<.<.<.<.<.<.<.<.<.<.<.<.<.<.<.<.<.<.<.<.<.<.<.<.<.<.<.<.<.<.<.<.<.<.<.<.<.<.<.<.<.<.<.<.<.<.<.<.<.<.<.<.<.<.<.<.<.<.<.<.<.<.<.<.<.<.<.<.<.<.<.<.<.<.<.<.<.<.<.<.<.<.<.<.<.<.<.<.<.<.<.<.<.<.<.<.<.<.<.<.<.B B <.<.<.<.<.<.<.<.<.<.<.<.<.<.<.<.<.<.<.<.<.<.<.M N <.1.Y ) h.#X.X~..Xr.<.1.<.( ( 1.}..Xx..XXX~..X~.t.( <.j <.T j.zX#X^ j ( 1.-.1.B M <.<.<.<.<.<.<.<.<.<.<.<.<.<.<.<.<.<.<.<.<.<.<.<.<.<.<.<.<.<.<.<.<.<.<.<.<.<.<.<.<.<.<.<.<.<.<.<.<.<.<.<.<.<.<.<.<.<.<.<.<.<.<.<.",
"<.<.<.<.<.<.<.<.<.<.<.<.<.<.<.<.<.<.<.<.<.<.<.<.<.<.<.<.<.<.<.<.<.<.<.<.<.<.B B <.<.<.<.<.<.<.<.<.<.<.<.<.<.<.<.<.<.<.<.<.<.<.<.4.4.4.<.( ) 9.W.~.~.XX'.8.T <.<.T t.}.[..X~.~.~..X'.[.t.T =.4.<.1.T 3.|.1.1.=.Y 1.1.<.<.<.<.<.<.<.<.<.<.<.<.<.<.B <.<.<.<.B <.<.B B <.<.<.<.<.<.B B <.<.<.B B B <.<.<.<.<.<.<.<.<.<.<.<.<.<.<.<.<.<.<.<.<.<.<.<.<.<.<.<.<.<.<.<.<.<.<.<.<.<.<.<.<.<.<.<.<.<.<.<.<.<.<.<.<.<.<.<.<.<.<.<.<.<.<.<.<.<.<.<.<.<.<.<.<.<.<.<.<.<.<.<.M M <.<.<.<.4.B M m N ( Y 0.}..X^.^.^..X[.r.Y ( ( s ) t.[.~.~.^.^..X.X'.}.t.( ( 1.j 1.Y ) :X8.( 1.<.<.<.<.<.<.<.<.<.<.<.<.<.<.<.<.<.<.<.<.<.<.<.<.<.<.<.<.<.<.<.<.<.<.<.<.<.<.<.<.<.<.<.<.<.<.<.<.<.<.<.<.<.<.<.<.<.<.<.<.<.<.<.<.<.<.<.<.<.<.<.<.<.<.<.<.<.<.<.<.<.<.<.<.<.<.<.<.<.<.<.<.<.<.<.<.<.<.<.<.<.<.<.B B <.<.<.<.<.<.<.<.<.<.<.<.<.<.<.<.<.<.<.<.<.<.<.<.<.<.<.M N <.<.Y ) T..X.X^..Xp.<.1.j ( ) 1.}..Xx..XXX~..X~.t.) <.k <.T R.NX;X^ ( ( <.-.=.B M <.<.<.<.<.<.<.<.<.<.<.<.<.<.<.<.<.<.<.<.<.<.<.<.<.<.<.<.<.<.<.<.<.<.<.<.<.<.<.<.<.<.<.<.<.<.<.<.<.<.<.<.<.<.<.<.<.<.<.<.<.<.<.<.",
"<.<.<.<.<.<.<.<.<.<.<.<.<.<.<.<.<.<.<.<.<.<.<.<.<.<.<.<.<.<.<.<.<.<.<.<.<.<.<.<.B <.<.<.<.<.<.B <.<.<.<.<.<.<.<.<.<.<.<.<.<.B <.B B B <.( ) q.W.~.~.XXR.8.T 4.<.T e.}.[..X~.~.~.^..X'.t.T =.6.<.1.T r.%X1.1.=.1.1.1.<.<.<.<.<.<.B B <.<.<.<.B B B <.<.<.<.<.<.<.B <.<.<.<.<.<.<.<.<.<.<.<.<.<.<.4.4.<.<.<.<.<.<.<.<.4.4.<.<.<.<.<.<.<.<.<.<.<.<.<.<.<.<.<.<.<.<.<.<.<.<.<.<.<.<.<.<.<.<.<.<.<.<.<.<.<.<.4.4.4.<.<.<.<.<.<.<.<.<.<.<.<.<.<.<.<.<.<.<.<.<.<.<.<.<.M M <.<.<.<.<.B M m N ( Y 9.'..X^.^.~..X[.r.Y ( ( Y ) t.[.~.^.^.^..X'.'.}.t.T ( 1.j 1.Y 1.:X0.T <.4.4.<.<.<.<.<.<.<.<.<.4.4.4.4.<.<.<.<.<.<.<.<.<.<.<.<.<.<.<.<.<.<.<.<.<.<.<.<.<.<.<.<.<.<.<.<.<.<.<.<.4.4.4.<.<.<.<.<.<.<.<.<.<.<.<.<.<.<.<.<.<.<.<.<.<.<.<.<.<.<.<.<.<.<.<.<.<.<.<.<.<.<.<.<.B B B <.<.<.B B B <.<.<.<.<.<.<.<.<.<.<.<.<.<.<.<.<.<.<.<.<.<.<.1.<.<.<.<.M N <.<.P 8.T.#X.Xc..XG.<.1.( ( 1.1.]..X~..XXX~.~.~.q.1.<.k ( T R.NX;X^ ( ( ( -.-.B M <.<.<.<.<.<.<.<.<.<.<.<.<.<.<.<.4.4.4.<.<.<.<.<.<.<.<.<.4.4.4.4.<.<.<.<.4.4.4.<.<.<.<.<.<.<.<.<.4.4.4.<.<.<.<.<.<.<.<.<.4.4.4.4.",
"<.<.<.<.<.<.<.<.<.<.<.<.<.<.<.<.<.<.<.<.<.<.<.<.<.<.<.<.<.<.<.<.<.<.<.<.<.<.<.<.B <.<.<.<.<.B B <.<.<.<.<.<.<.<.<.<.<.<.<.<.<.B B B B <.( ( q.W.~.~.OXR.8.T 4.<.T e.}.[..X~.~.~.^..X'.t.T =.6.<.-.T r.&X1.1.T 1.1.1.<.<.<.<.<.<.B B <.<.<.<.B B B B <.<.<.<.<.<.B B <.<.<.<.<.<.<.<.<.<.<.<.<.<.4.4.<.<.<.<.<.<.<.<.4.4.<.<.<.<.<.<.<.<.<.<.<.<.<.<.<.<.<.<.<.<.<.<.<.<.<.<.<.<.<.<.<.<.<.<.<.<.<.<.4.<.4.4.4.<.<.<.<.<.<.<.<.<.<.<.<.<.<.<.<.<.<.<.<.<.<.<.<.<.M M <.<.<.<.<.B M m N ( Y 9.'..X^.^.~..X}.q.Y ( ( Y ) t.[.~.^.^.^..X'.'.}.t.T ( ( j 1.Y 1.>Xr.T <.4.4.<.<.<.<.<.<.<.4.<.4.4.4.4.<.<.<.<.<.<.<.<.<.<.<.<.<.<.<.<.<.<.<.<.<.<.<.<.<.<.<.<.<.<.<.<.<.<.4.<.4.4.4.<.<.<.<.<.<.<.<.<.<.<.<.<.<.<.<.<.<.<.<.<.<.<.<.<.<.<.<.<.<.<.<.<.<.<.<.<.<.<.<.<.B <.B <.<.B B B B B <.<.<.<.<.<.<.<.<.<.<.<.<.<.<.<.<.<.<.<.<.<.1.<.<.<.<.M N <.<.T 8.R.#X^.c..X`.<.1.j ( 1.1.]..X~..XXX~.~.~.q.1.<.k ( T R.NXjX) ( ( ( -.=.B M <.<.<.<.<.<.<.<.<.<.<.<.<.<.<.<.4.4.<.<.<.<.<.<.<.<.4.<.4.4.4.4.<.<.4.<.4.4.4.<.<.<.<.<.<.<.<.<.4.4.4.<.<.<.<.<.<.<.4.<.4.<.4.4.",
"<.<.<.<.<.<.<.<.<.<.<.<.<.<.<.<.<.<.<.<.<.<.<.<.<.<.<.<.<.<.<.<.B B <.<.<.<.<.<.B B <.<.<.<.B B B <.B B <.<.<.<.B B <.<.<.<.<.B B B B M ( ( q.W.~.~.OXR.8.T 4.<.T e.}.[..X~.~.~.^.'.'.t.T =.6.<.=.T t.&X1.1.=.1.1.1.<.<.<.<.<.<.<.<.<.<.<.<.<.B <.<.<.<.<.<.<.<.<.<.<.<.B B <.<.<.<.B <.B B <.<.4.4.4.4.<.<.<.<.4.4.4.<.<.<.<.<.<.<.<.<.<.<.<.<.<.<.<.<.<.<.<.<.<.<.<.<.<.<.<.<.<.<.<.<.<.<.<.<.4.4.4.4.4.4.4.<.<.<.4.4.4.4.4.4.<.<.<.<.<.<.<.<.<.<.<.<.<.<.<.<.M M <.<.<.<.<.B M m N ( Y 9.'..X^.^.~..X}.q.Y ( 1.Y ) t..X~.x.^.m..X'.}.}.t.T ( ( j 1.Y 1.>Xr.P <.4.4.4.<.<.4.<.4.4.4.4.4.4.<.<.<.<.<.<.<.<.<.<.<.<.<.<.<.<.<.<.<.<.<.<.<.<.<.<.<.<.<.<.<.<.<.<.4.4.4.4.4.4.4.<.<.<.4.4.4.4.4.4.<.<.<.<.<.<.<.<.<.<.<.<.<.<.<.<.<.<.<.<.<.<.<.<.<.<.<.<.<.<.<.<.<.<.<.<.<.<.<.B <.<.<.<.B B <.<.<.<.<.<.<.<.<.<.<.<.<.<.<.<.<.<.1.<.<.<.<.M N <.<.( 9.T..X^.z.^.`.1.<.j ( 1.1.}..X~..XXX~.~.~.q.( <.k ( T R.NXjX' ^ ( ( T =.B B 4.<.<.<.<.<.<.<.<.<.<.<.<.<.<.<.4.4.4.4.<.<.4.<.4.4.4.4.4.4.<.<.4.4.4.4.4.4.4.<.<.<.4.4.4.4.4.4.4.4.4.<.<.<.4.4.4.4.4.4.<.<.<.<.",
"<.<.<.<.<.<.<.<.<.<.<.<.<.<.<.<.<.<.<.<.<.<.<.<.<.<.<.<.<.<.<.<.B B B <.<.<.<.<.B B <.<.<.<.<.<.<.<.<.<.<.<.<.<.B B B <.<.<.<.B B B M <.^ ( q.W.~.~.oXR.8.Y 4.M T e.'.#X.X~.^.^.^.R.[.t.T Y 6.<.T T t.&X1.1.=.1.1.<.<.<.<.<.<.<.<.<.<.<.<.<.<.<.<.<.<.<.4.<.4.<.<.<.<.<.B B B <.<.<.B B B <.<.<.4.4.4.4.4.<.<.4.4.<.4.<.<.<.<.<.<.<.<.<.<.<.<.<.<.<.<.<.<.<.<.<.<.<.<.<.<.<.<.<.<.<.<.<.<.<.<.<.4.4.4.4.4.4.4.<.<.<.4.4.4.4.4.4.<.<.<.<.<.<.<.<.<.<.<.<.<.<.<.<.M M <.<.<.<.<.B M m N j Y 9.'..X^.^.~..X[.q.Y ( 1.Y T t..X.Xx.^.m..X.X'.}.r.T ( ( j 1.Y 1.>Xt.P <.4.4.<.<.<.4.4.4.4.4.4.4.<.<.<.<.<.<.<.<.<.<.<.<.<.<.<.<.<.<.<.<.<.<.<.<.<.<.<.<.<.<.<.<.<.<.<.4.4.4.4.4.4.4.<.<.<.4.4.4.4.4.4.<.<.<.<.<.<.<.<.<.<.<.<.<.<.<.<.<.<.<.<.<.<.<.<.<.<.<.<.<.<.<.<.<.<.<.<.<.<.<.<.<.<.<.<.B B B <.<.<.<.<.<.<.<.<.<.<.<.<.<.<.<.<.<.<.<.<.M M M <.<.( 9.T.OX^.z.~.`.<.<.j ( 1.1.}..X~..XXX~.~.~.9.( <.j ( I x.BXjX/ ^ ( ( -.-.B B 4.<.<.<.<.<.<.<.<.<.<.<.<.<.<.<.4.4.4.<.<.<.4.4.4.4.4.4.4.<.<.<.4.4.4.4.4.4.4.<.<.<.4.4.4.4.4.4.4.4.4.<.<.<.4.4.4.4.4.4.<.<.<.<.",
"<.<.<.<.<.<.<.<.<.<.<.<.<.<.<.<.<.<.<.<.<.<.<.<.<.<.<.<.<.<.<.<.<.<.<.<.<.<.<.<.<.<.<.<.<.<.<.<.<.<.4.4.4.4.4.4.4.<.4.4.B B 4.<.B 4.M 1.u I T.W.W.~.#XT.) ( <.j P T.'.R.~.~.^.^.^.I.[.t.P 1.M 4.( T G.:X1.( 1.<.<.<.<.<.<.<.<.<.<.<.4.4.4.4.4.4.4.<.4.4.4.4.4.<.<.<.<.<.<.<.<.<.<.<.<.<.<.<.4.4.4.4.<.<.<.<.<.<.<.<.<.<.<.<.<.<.M <.<.<.1.4.<.<.=.1.<.<.<.<.<.<.<.<.<.<.<.<.<.<.<.<.<.<.<.<.4.4.<.<.<.<.<.<.<.<.<.<.<.<.<.<.<.<.<.<.<.<.<.<.<.<.<.<.<.<.<.<.<.<.M M <.<.4.<.<.<.4.M N ( P e.[..X^.^.~.W.[.Z.( ( ( ( P h..X~.XXc.^..X.X'.}.t.T <.( ( ( ( ) :XT.P 1.<.<.<.<.<.<.<.<.<.<.<.<.<.<.<.<.<.<.<.<.<.<.<.<.<.<.<.<.<.<.<.<.<.4.4.4.<.4.M <.M B B B B M B <.<.<.<.<.<.<.<.<.<.<.<.<.<.<.<.<.<.<.<.<.<.<.<.<.<.<.<.<.<.<.<.<.<.4.4.4.<.<.<.<.4.4.4.4.4.<.<.<.<.<.<.<.<.<.<.<.<.<.<.<.<.<.<.<.<.<.<.<.<.<.<.4.<.<.<.4.4.;.<.<.<.<.<.M B <.<.<.Y r.[.~.^.^.~.G.M <.j ( ` { [.#X.XXX.X~.#X#Xr.=.<.2.^ S uXmXNX| ^ ( 5.-.=.4.B 4.4.B B <.<.<.4.4.4.4.B B B <.<.<.<.4.4.4.<.<.<.4.4.4.B B B <.<.4.4.4.4.4.4.4.4.4.4.4.4.4.4.4.4.<.<.<.<.<.<.<.<.<.<.<.<.<.<.<.<.",
"<.<.<.<.<.<.<.<.<.<.<.<.<.<.<.<.<.<.<.<.<.<.<.<.<.<.<.<.<.<.<.<.<.<.<.<.<.<.<.<.<.<.<.<.<.<.<.<.<.4.4.4.4.4.4.4.4.4.4.4.B B 4.<.M 4.M <.u I E.T.W.W.#XT.) ^ 2.j P T.'.R.~.~.^.^.^.I.#Xt.P 4.N <.( I A.:X1.( 1.<.<.<.<.<.<.<.<.<.<.4.4.4.4.4.4.4.4.4.4.4.4.4.4.<.<.<.<.<.<.<.<.<.<.<.<.<.<.<.4.4.4.4.<.<.<.<.<.<.<.<.<.<.<.<.<.<.j ( ( <.<.1.=.=.=.=.<.<.<.<.<.<.<.<.<.<.<.<.<.<.<.<.<.<.<.<.4.4.<.<.<.<.<.<.<.<.<.<.<.<.<.<.<.<.<.<.<.<.<.<.<.<.<.<.<.<.<.<.<.<.<.<.<.<.4.<.4.4.M M <.( P e.[..X^.^.~.W.[.Z.( ( ( ( P h.#X~.@X^.^.^..X'.}.t.T <.( ( ( ( ) >XT.P 1.<.<.<.<.<.<.<.<.<.<.<.<.<.<.<.<.M <.<.<.<.<.<.<.<.<.<.<.<.<.<.<.<.<.<.<.<.<.M M M M M M M B M <.<.<.<.<.<.<.<.<.<.<.<.<.<.<.<.<.<.<.<.<.<.<.<.<.<.<.<.<.<.<.<.<.<.4.4.<.<.<.<.<.<.4.4.<.4.<.<.<.<.<.<.<.<.<.<.<.<.<.<.<.<.<.<.<.<.<.<.<.<.<.<.4.4.4.4.4.;.;.=.<.( <.<.B B 4.<.<.Y r.[..X~.!.~.G.j M j ( ` { [.XX.XXX.X~.#X.Xr.=.<.<.^ J yXmXNX} ^ ( 2.-.=.4.B B <.B B <.<.4.4.4.4.4.B B B <.<.<.<.4.4.<.<.<.<.4.4.4.B B B <.<.4.4.4.4.4.4.4.4.4.4.4.4.4.4.4.4.<.<.<.<.<.<.<.<.<.<.<.<.<.<.<.<.",
"<.<.<.<.<.<.<.<.<.<.<.<.<.<.<.<.<.<.<.<.<.<.<.<.<.<.<.<.<.<.<.<.<.<.<.<.<.<.<.<.B B <.<.<.<.<.<.<.<.<.4.<.<.<.<.<.<.<.<.B B B B M 4.M 1.u P E.T.W.W.#XT.) ^ <.j P T.[.R.~.~.^.^.^.U.#Xt.P 4.N <.( I A.:X1.( 1.<.<.<.<.<.<.<.<.<.<.<.<.<.<.<.4.<.<.<.<.<.4.<.<.<.<.<.<.<.<.<.<.<.<.<.<.<.<.4.4.4.<.<.<.<.<.<.<.<.<.<.<.<.<.<.<.<.j j ( ( <.<.Y Y =.=.=.<.<.<.<.<.<.<.<.<.<.<.<.<.<.<.<.<.<.4.4.4.<.<.<.<.<.<.<.<.<.<.<.<.<.<.<.<.<.<.<.<.<.<.<.<.<.<.<.<.<.<.<.<.<.<.<.<.<.<.<.<.M M <.( P e.[..X^.^.~.W.[.Z.P Y ( ( P T.#X~.XX^.^.^..X'.}.r.T <.( ( ( ( ) >XT.I 1.<.<.<.<.<.<.<.<.<.<.<.<.<.<.<.<.M M M B B <.<.<.<.<.<.<.<.<.<.<.<.<.<.<.<.<.<.M M B B M B M B <.<.<.<.<.<.<.<.<.<.<.<.<.<.<.<.<.<.<.<.<.<.<.<.<.<.<.<.<.<.<.<.<.4.4.4.<.<.<.<.<.<.<.<.4.4.<.<.B B <.<.<.<.<.<.B B <.<.<.<.<.<.<.<.<.<.<.<.<.<.4.4.4.4.4.4.4.<.<.( <.<.B B <.<.<.Y r.[..X~.~.~.Z.j <.j ( ) ) [.XX.XXX.X~.#X'.8.=.M 2.^ J yXmXNX .( ( 4.=.=.4.B B <.<.B <.<.<.<.<.<.<.<.B <.<.<.<.B B 4.B B <.B <.<.<.<.B <.<.<.<.<.<.<.<.<.B B 4.4.<.<.4.4.4.4.<.<.<.<.<.<.<.<.<.<.<.<.B <.<.<.",
"<.<.<.<.<.<.<.<.<.<.<.<.<.<.<.<.<.<.<.<.<.<.<.<.<.<.<.<.<.<.<.<.<.<.<.<.<.<.<.<.<.<.<.<.<.<.<.<.<.<.<.4.<.<.<.<.<.<.<.<.B B B B B 4.M 1.s ^ E.T.W.W.#XT.) ^ <.j P T.'.R.~.~.^.^.^.U.#Xt.P 4.N <.P I `.:X1.( 1.<.<.<.<.<.<.<.<.<.<.<.<.<.<.<.<.<.<.<.<.<.<.<.<.<.<.<.<.<.<.<.<.<.<.<.<.<.<.<.4.4.<.<.<.<.<.<.<.<.<.<.<.<.<.<.<.<.j j ( 1.1.1.1.1.=.=.=.=.=.<.<.<.<.<.<.<.<.<.<.<.<.<.<.<.<.<.4.4.<.<.<.<.<.<.<.<.<.<.<.<.<.<.<.<.<.<.<.<.<.<.<.<.<.<.<.<.<.<.<.<.<.<.<.<.=.<.4.<.M M <.( P e.[..X^.^.~.W.[.Z.( ( ( ( P T.#X~.XX^.^.^..X'.}.t.T <.<.( ( ( ) >XE.I 1.<.<.<.<.<.<.<.<.<.<.<.<.<.<.<.<.M M M B B <.<.<.<.<.<.<.<.<.<.1.<.<.<.<.<.<.<.B M B B B B M B <.<.<.<.<.<.<.<.<.<.<.<.<.<.<.<.<.<.<.<.<.<.<.<.<.<.<.<.<.<.<.<.4.4.4.4.4.<.<.<.<.4.4.<.4.4.<.<.B B <.<.<.<.<.<.<.<.<.<.<.<.<.<.<.<.<.<.<.<.<.<.4.4.4.4.4.4.4.<.<.( <.<.B B <.<.<.Y r.}.'.~.~.~.r.j <.( ( ) ) [..X~.XX.X.X#X'.8.Y M <.^ J hXmXNX9.^ ( 4.=.=.4.B B <.<.<.4.<.<.<.<.<.<.<.B B <.<.4.4.B 4.B B B B <.<.<.<.B B <.<.<.<.<.<.<.<.B B <.<.<.<.<.<.<.<.<.<.<.<.<.<.<.<.<.<.<.<.<.<.<.<.",
"<.<.<.<.<.<.<.<.<.<.<.<.<.<.<.<.<.<.<.<.<.<.<.<.<.<.<.<.<.<.<.<.<.<.<.<.<.<.<.M <.<.<.<.<.<.<.<.<.<.<.<.<.<.<.<.<.<.B M M M M M 4.4.s 1.Y ) ].T..X.X#XT.) ^ 2.j P T.'.R.~.~.^.~.OXT.#Xt.P 4.N <.P I `.:X1.( 1.<.<.<.<.<.<.<.<.<.<.<.<.<.<.<.<.<.<.<.<.<.B B <.<.<.<.<.<.<.<.<.<.<.<.<.<.4.4.4.4.4.4.4.<.<.<.<.<.<.<.<.<.<.<.<.<.j ( 1.1.2.3.5.7.1.1.=.=.=.M B <.<.<.<.<.<.<.<.<.<.<.<.<.4.4.4.4.<.<.<.<.<.<.<.<.<.<.<.<.<.<.<.<.<.<.<.<.<.<.<.<.<.<.<.<.<.<.<.<.<.<.<.<.=.4.4.4.4.M <.( P e.[..X^.^.~.W.[.A.) ( ( ( R T.#X~.@X^.^.^.~.'.}.r.( <.<.( ( ) { lX[.I 1.<.<.<.<.<.<.<.<.<.<.<.<.<.<.<.<.N N N N N <.<.M M <.<.<.<.<.<.1.1.<.1.1.<.<.<.<.<.<.<.<.B B B <.<.<.<.<.<.<.<.<.<.<.<.<.<.<.<.<.<.<.<.<.<.<.<.<.<.<.<.<.<.<.<.<.<.<.<.<.<.<.<.<.<.<.<.<.<.<.<.<.<.<.<.<.<.<.<.<.<.<.<.<.<.<.<.<.<.<.<.<.<.<.<.<.<.<.<.4.4.4.4.<.( <.<.<.<.4.<.<.Y r.}.[.W.~.W.r.s <.( ( ( ) [..X~.XXXX.X#X'.8.=.M j ^ H hXmXmXt.^ ( 4.=.<.4.m <.<.<.<.<.<.<.<.<.<.<.<.<.<.<.<.<.<.<.<.<.<.<.<.<.<.<.<.<.<.<.<.<.<.<.<.<.<.<.<.<.<.<.<.<.<.<.<.<.<.<.<.<.<.M M <.<.<.<.M M M M ",
"<.<.<.<.<.<.<.<.<.<.<.<.<.<.<.<.<.M <.<.<.<.<.<.<.<.<.<.<.<.<.<.<.<.<.<.<.<.M M <.<.<.<.<.<.<.<.<.<.<.<.<.<.<.<.<.<.B M M M M M 4.4.s 1.^ ) [.W..X.X#XI.T ^ 2.j P T.'.R.~.~.^.~.(.T.#Xt.P 4.N <.P I ].>X1.( 1.1.<.<.<.<.<.<.<.<.<.<.<.<.<.<.<.<.<.<.<.<.B B B <.<.<.<.<.<.<.<.<.<.<.<.<.4.4.4.4.<.<.4.4.<.<.<.<.<.<.<.<.<.<.<.<.( <.1.5.3.7.r.r.2.1.<.=.=.=.=.<.<.<.<.<.<.<.<.<.<.<.<.<.4.4.4.4.<.<.<.<.<.<.<.<.<.<.<.<.<.<.<.<.<.<.<.<.<.<.<.<.<.<.<.<.<.<.<.<.<.<.<.<.;.4.4.<.4.M <.( P e.[..X^.^.~.W.[.A.) ( 1.( R T.#X~.@X^.^.^..X'.}.r.( <.<.( ( ) 8.lXoXI 1.<.<.<.<.<.<.<.<.<.<.<.<.<.<.<.<.N N N N N <.<.M M <.<.<.<.4.4.=.=.=.<.<.<.<.<.<.<.<.<.<.<.<.<.<.<.<.<.<.<.<.<.<.<.<.<.<.<.<.<.<.<.<.<.<.<.<.<.<.<.<.<.<.<.<.<.<.M <.<.<.<.<.<.<.<.<.<.<.<.<.<.<.<.<.<.<.<.M M <.<.<.<.<.<.<.<.<.<.<.<.<.<.<.<.<.<.<.4.4.B 4.4.<.<.<.<.<.<.<.<.4.Y r.}.[.T./.[.0.s <.( ( ( ) [..X~.XXXX.X#X'.8.M M j ^ H bXmXNXI.^ j 4.=.4.4.m <.<.<.<.<.<.<.<.<.<.<.<.<.<.<.<.<.<.<.<.<.<.<.<.<.<.<.<.<.<.<.<.<.<.<.<.<.<.<.<.M M M M B <.<.M <.<.<.<.<.<.M M <.<.<.<.M M M <.",
"<.<.<.<.<.<.<.<.<.<.<.<.<.<.<.<.M N N M N N N N N N <.<.<.<.M M <.<.<.<.<.<.<.<.<.<.<.<.<.<.<.<.<.<.<.<.<.<.<.<.<.<.N M N N N N 4.<.s 1.( ) [.W..X.X#XI.T ^ 2.( P T.'.R.~.~.^.^.^.T.#Xt.P 1.N <.P I ].>X` Y 1.1.<.<.<.<.<.<.<.<.<.<.<.<.<.<.<.<.<.<.<.<.<.<.<.<.<.<.<.<.<.<.<.<.<.<.<.<.4.4.4.4.4.4.4.<.<.<.<.<.<.<.<.<.<.<.<.<.1.1.5.5.7.r.r.r.5.3.1.1.=.=.<.<.<.<.<.<.<.<.<.<.<.<.<.<.4.4.4.4.<.<.<.<.<.<.<.<.<.<.<.<.<.<.<.<.<.<.<.<.<.<.<.<.<.<.<.<.<.<.<.<.<.<.<.<.4.4.4.4.4.M <.( P e.[..X^.^.~.W.[.Z.) ( ( ( T T.#X~.@X^.^.^..X'.}.t.( <.<.j Y ) 0.zX#XE 1.<.<.<.<.<.<.<.<.<.<.<.<.<.<.<.<.M N N <.<.<.<.<.M <.1.<.<.4.4.1.1.( 1.1.1.1.1.<.<.<.<.<.<.<.<.<.<.<.<.<.<.<.<.<.<.<.<.<.<.<.<.<.<.<.<.<.<.<.<.<.<.<.<.<.<.<.<.M M M M M M M M M M <.<.<.<.<.<.<.<.<.<.<.<.<.<.<.<.<.<.<.<.<.<.<.<.<.<.<.M M M M M B B B B B M <.<.B <.<.<.<.<.4.Y r.].[.'.[.[.3.s <.( ^ ( ) [.~.x.XXXX.X#X'.8.j k j ^ H mXbXkXI.^ j 4.<.<.4.m <.<.<.<.<.<.<.<.<.<.<.<.<.<.<.<.<.<.<.<.<.<.<.<.<.<.<.<.<.<.<.<.<.<.<.<.<.<.<.<.<.<.<.<.<.<.<.<.<.<.<.<.<.<.<.<.<.<.<.<.<.<.<.<.",
"<.<.<.<.<.<.<.<.<.<.<.<.<.<.<.<.M N N N N N N N N N <.<.<.<.M <.<.<.<.<.<.<.<.<.<.<.<.<.<.<.<.<.<.<.<.<.<.<.<.<.<.<.<.M M N N N 4.<.s 1.( ) }.W..X.X.Xh.T ^ 2.( P T.'.W.~.~.^.^.^.T.#Xt.P 4.N <.P I ].>X` P 1.1.<.<.<.<.1.1.<.<.<.<.<.<.<.<.<.<.<.<.<.<.<.<.<.<.<.<.<.<.<.<.<.<.<.<.<.<.<.<.<.<.4.4.<.<.<.<.<.<.<.<.<.<.<.<.<.( 5.5.3.3.3.3.3.3.r.5.1.1.=.=.=.<.<.<.<.<.<.<.<.<.<.<.<.<.<.<.<.<.<.<.<.<.<.<.<.<.<.<.<.<.<.<.<.<.<.<.<.<.<.<.<.<.<.<.<.<.<.<.<.<.<.<.<.<.4.;.4.4.4.M <.( P e.[..X^.^.~.W.[.A.) ( 1.1.T T.#X~.@X^.^.^..X'.}.r.( <.<.j ^ ) 9.zX#XE 1.<.<.<.<.<.<.<.<.<.<.<.<.<.<.<.<.M <.<.<.<.<.<.<.<.<.1.<.<.<.1.2.2.1.1.2.2.2.2.1.<.<.<.<.<.<.<.<.<.<.<.<.<.<.<.<.<.<.<.<.<.<.<.<.<.<.<.<.<.<.<.<.<.<.<.<.<.<.<.M M M M M M M M M M <.<.B <.<.<.<.<.<.<.<.<.<.<.<.<.<.<.<.<.<.<.<.M <.<.<.M B M M M B B M M M M <.<.M B <.<.<.<.4.Y r.|.].`.[.].3.s <.( ^ ( ) [.~.x.XXXX~.#X'.8.j k j ^ E mXMXzXI.^ j <.1.<.4.m <.<.<.<.<.<.<.<.<.<.<.<.<.<.<.<.<.<.<.<.<.<.<.<.<.<.<.<.<.<.<.<.<.<.<.<.<.<.<.<.<.<.<.<.<.<.<.<.<.<.<.<.<.<.<.<.<.<.<.<.<.<.<.<.",
"<.<.<.<.<.( <.( <.<.<.<.<.<.<.<.<.N N N N N N N <.<.<.<.<.<.<.<.1.( ( ( ( ( ( ( 3.5.3.5.3.5.3.5.4.4.1.1.<.<.<.j <.<.<.<.<.<.<.<.4.M <.( Y 0.[.T..X.X#Xf.T ( 2.j T T.'.R.~.~.Q.^.^.~.#X9.P 2.m <.P F :X>X0.Y Y ( <.<.1.1.1.1.1.1.<.<.<.<.<.<.<.<.<.1.1.<.1.1.1.<.<.<.<.<.<.<.<.<.<.<.<.<.<.<.<.<.4.<.<.<.<.<.<.<.c <.4.4.<.<.<.2.5.1.3.3.3.0.8.8.r.r.3.2.1.1.1.<.( <.<.<.<.<.M s <.<.<.<.<.<.<.<.<.<.<.<.<.<.<.<.<.<.<.<.<.<.<.<.<.<.<.<.<.<.<.<.<.<.<.<.<.<.<.<.<.<.<.<.<.<.<.4.M M <.( T e.'..X^.^.~..X[.Z.) ( 1.T 1.T..X.X.XXXc.^..X.X}.0.Y <.j <.( P t.lXjXE 1.<.<.<.<.<.<.<.<.M M M M <.<.<.<.<.<.<.<.<.( Y <.<.1.4.2.2.5.7.3.3.3.3.7.7.7.7.7.2.<.<.=.<.<.<.<.<.<.<.<.<.<.<.<.<.<.<.<.<.<.<.<.<.<.<.<.<.<.<.<.<.<.<.<.<.<.<.M M M M M M M N 4.<.<.M c <.<.1.s Y ( ( ( 1.1.2.1.1.1.1.( ( ( ( ( j j M j j M M N N M M M M M M <.<.M M <.<.<.<.s Y 1.G. X XA.0.1.j M <.( P 0.[.~..Xx.XX.X.X'.T j j _ 4 $.bXbXkXE.( <.<.=.2.M M 4.<.<.<.<.<.=.<.1.1.1.<.<.<.<.1.<.<.<.<.<.<.<.<.<.<.1.1.<.<.<.<.<.( Y ( Y Y Y Y <.<.<.1.4.2.2.5.2.1.1.1.5.2.2.5.1.1.1.1.1.1.1.1.",
"( ( ( <.<.<.<.<.j j j j j j j j M N N N j j j j <.<.<.<.<.<.=.Y Y ^ ( ( 1.1.3.3.3.3.3.3.3.5.3.3.2.2.2.2.1.1.1.1.<.<.j <.<.<.<.<.4.M 1.( P 0.[.W..X.X.Xk.T ( 2.j T T.[.R.~.~.Q.^.~.W.#X9.P 4.M <.P F :X>X0.Y T ( 1.1.1.<.1.( 1.1.<.<.<.<.<.( <.<.Y Y Y <.1.1.1.1.<.<.<.<.<.<.<.<.<.<.<.<.<.<.<.<.<.<.<.<.<.<.<.<.M <.4.<.j <.4.5.5.3.3.3.3.3.8.8.r.8.w.3.1.1.1.<.( ( <.<.<.<.<.M <.<.<.<.<.<.<.<.<.<.<.<.<.<.<.<.<.<.<.<.<.<.<.<.<.<.<.<.<.<.<.<.<.<.<.<.<.<.<.<.<.<.<.<.=.=.<.4.M M <.( T e.'..X^.^.~.W.[.Z.) ( 1.Y 1.T..X.X.XXXc.^..X.X}.r.Y <.j <.( P t.lXjXE 1.<.<.<.<.<.<.<.<.<.<.M M <.<.<.<.<.<.<.1.1.1.1.1.1.2.2.5.5.5.7.3.3.8.3.r.7.w.7.7.2.1.<.1.=.=.<.<.<.<.<.<.<.<.<.<.<.<.<.<.<.<.<.<.<.<.<.<.<.<.<.<.<.<.<.<.<.<.<.M M M M M M N <.<.<.<.<.<.<.<.4.1.1.1.1.2.5.3.3.3.3.3.5.2.1.1.1.( <.( ( <.M <.M <.N B B B M M M <.<.<.<.<.<.<.<.<.( 1.3.Z.r.8.( 1.j M <.( P 0.[.~..Xx.XX.X.X'.T <.N 2.4 @.bXMXkXW.^ ( ( T 2.m N <.<.<.<.<.<.<.<.1.1.<.<.<.<.<.1.<.<.<.<.<.<.<.<.<.<.<.1.<.<.<.<.<.<.1.<.1.1.2.4.2.2.2.2.7.7.7.7.3.5.3.5.5.5.3.5.7.3.2.1.1.( Y Y ",
"j j ( ( <.<.<.<.j j j j j j j j j M M M M M M M <.<.<.<.<.Y Y Y Y ( ( ` 3.3.r.0.3.3.3.3.3.3.3.3.3.3.3.2.2.1.1.1.( ( ( ( ( <.( 1.4.<.<.( P 0.[.oX.X.XXXk.T ( 2.j T T.[.R.~.~.^.^.~.W.#X9.P 2.M <.P I :X>X0.P ( 1.4.1.1.( ( ( 1.1.1.1.1.1.1.1.1.1.( ( ( ( ( ( ( ( <.( <.<.<.<.<.<.<.<.<.<.<.<.4.4.<.<.<.<.<.<.<.<.<.<.<.<.j <.2.5.3.3.3.3.0.0.8.8.8.8.8.3.3.1.1.1.( j ( ( <.<.<.<.<.<.<.<.<.<.4.4.<.<.<.<.<.<.<.<.<.<.<.<.<.<.<.<.<.<.<.<.<.<.<.<.<.<.<.<.<.<.<.<.<.<.<.<.=.=.<.4.M m <.( T e.'..X^.^.~..X[.A.) ( 1.Y 8.T.#X.X^.^.c.XX.X.X}.r.s <.M <.( I h.zXjXQ =.<.<.<.<.<.<.<.<.<.<.<.<.<.<.<.1.1.=.Y 1.2.2.7.3.5.5.7.w.w.w.w.8.8.8.8.8.0.8.0.w.5.3.1.1.<.=.=.<.<.<.<.<.<.<.<.<.<.<.<.<.<.<.<.<.<.<.<.<.<.<.<.<.<.<.<.<.<.<.<.N N M M M M M <.<.<.<.1.<.4.5.2.3.3.3.3.3.3.0.3.r.3.r.3.3.3.3.3.1.1.( ( =.<.<.<.<.<.<.B M M M M <.<.<.<.<.<.<.<.1.<.( ( ( ( T Y 1.j M <.( P r.[..X.Xx.XX.X.X'.T 1.N _ D @.bXMXbXW.^ ( ( T 2.j N c <.<.<.<.<.<.<.<.<.<.<.<.<.<.<.<.<.<.<.<.<.<.<.<.<.<.1.<.<.1.=.1.( 1.1.3.3.0.7.3.3.7.7.r.7.r.7.0.3.0.3.3.3.3.3.r.3.0.1.1.( ( ^ ",
"<.<.<.<.<.<.<.<.<.<.<.<.<.<.<.<.j M M M <.<.<.<.( <.1.1.1.1.1.1.3.1.1.1.3.0.0.0.0.0.0.0.3.3.3.3.0.0.0.3.3.3.3.2.1.1.1.( 1.( ( <.<.Y <.( P r.[.oX.X.X.Xk.I ( 2.j ) T.[.R.~.~.^.^.~.~.#X9.P 2.m <.I F >X>X0.P ( 1.1.<.<.( ( 1.1.1.3.3.0.3.0.3.0.3.r.3.3.1.) T P Y <.( ( <.<.<.<.<.<.<.<.<.<.<.4.4.4.<.<.<.<.<.<.<.4.<.<.M M <.2.5.3.3.3.3.0.0.8.8.8.8.8.r.w.3.1.1.( ( ( ( <.<.<.<.<.<.<.<.<.<.4.4.<.<.<.<.<.<.<.<.<.<.<.<.<.<.<.<.<.<.<.<.<.<.<.<.<.<.<.<.<.<.<.<.<.<.<.<.=.=.<.4.M m <.( T e.'..X^.^.~.W.[.A.( ( 1.Y 1.T..X.X^.^.c.^..X.X}.r.s <.N <.( I h.zXkX! =.<.<.<.<.<.<.<.<.<.<.<.<.<.<.<.( T 1.1.1.3.w.r.w.w.w.w.w.w.w.8.8.8.8.8.8.8.8.8.w.w.w.5.5.1.1.=.<.<.<.<.<.<.<.<.<.<.<.<.<.<.<.<.<.<.<.<.<.<.<.<.<.<.<.<.<.<.<.<.N N N M M M <.<.<.<.1.<.2.5.7.r.0.0.0.0.3.3.3.3.0.0.3.3.3.3.1.1.0.3.1.( =.=.1.<.<.<.<.<.<.M M M <.<.<.<.<.<.<.<.<.<.( ( Y ( ( 1.1.j M <.( P r.[..X.Xx.XX.X.X'.T 1.j ( D @.bXMXbXW.^ ) 1.-.1.M <.<.<.<.4.<.4.<.<.<.<.<.<.<.<.<.<.<.<.<.<.<.<.<.<.<.<.<.1.<.<.<.1.1.1.3.3.0.0.r.r.8.8.0.0.3.3.3.3.0.0.0.0.0.0.0.0.3.0.1.1.1.1.1.1.",
"1.1.1.<.<.( ( ( ( ( ( ( ( ( ( ( j j j j ( ( 1.1.( ( 1.1.1.3.3.8.r.r.r.0.0.0.0.0.0.0.0.0.0.0.0.0.8.8.8.3.3.3.3.3.3.1.1.1.1.( ( ( <.s <.Y P 0.[.W..X.X.Xk.R ( 2.^ ) T.[.W.~.~.^.^.~.W.#X9.P 4.m <.T I >X>X0.P ( ( ( ( ( ( 1.2.3.0.0.0.0.0.0.0.0.0.r.r.0.3.1.1.T T <.<.<.<.<.<.<.<.<.<.<.<.<.<.4.4.4.4.<.<.<.<.<.<.4.<.M M <.1.5.3.3.3.0.0.8.8.8.8.8.8.8.w.w.3.1.1.<.<.<.( <.<.<.4.<.<.<.<.<.<.4.4.<.<.<.<.<.<.<.<.<.<.<.<.<.<.<.<.<.<.<.<.<.<.<.<.<.<.<.<.<.<.<.<.<.<.<.<.<.<.4.4.M m <.) T e.'..X^.^.~..X[.Z.( ( 1.Y 1.T.#X.X^.^.c.XX.X.X}.r.s <.j <.( T h.zXkX! =.<.<.<.<.<.<.<.<.<.<.<.<.<.<.<.T ) 1.3.8.8.w.w.8.8.8.w.8.8.8.8.8.8.8.8.8.8.8.8.8.w.w.r.5.1.1.=.<.<.<.<.<.<.<.<.<.<.<.<.<.<.<.<.<.<.<.<.<.<.<.<.<.<.<.<.<.<.<.<.<.<.<.<.<.<.<.<.( 1.1.1.3.5.w.r.0.0.0.0.0.8.8.8.8.8.8.8.8.1.1.1.r.0.3.1.1.1.1.1.1.<.<.M B B <.<.<.<.<.<.<.<.<.<.Y <.<.<.<.( 1.1.<.j M <.( P 0.[..X.Xx.XX.X'.'.T Y s ( D #.bXMXmX/./ 1.1.1.w.<.2.4.2.2.2.2.1.1.=.<.<.<.<.<.<.( ( 1.1.<.<.<.<.1.1.( <.1.1.<.1.1.1.3.8.8.8.8.8.8.0.8.8.8.8.8.8.8.8.0.0.0.0.0.0.0.0.1.8.8.8.0.0.0.0.",
"5.2.2.1.<.<.( j ( ( ( ( j j j j j j j ( j ( ( 1.( 1.1.1.8.r.r.r.8.8.9.r.8.0.r.r.8.0.8.8.8.8.9.8.8.8.8.8.8.8.8.3.0.0.0.3.1.1.) ( <.<.1.( P 0.'.W..X.X.Xk.R ( 1.^ ) T.#XW.~.~.^.^.~.W.#X9.P 4.j <./ I >X>X0.P T 1.Y ( 1.1.2.3.0.r.8.8.8.8.8.8.8.8.8.8.8.8.8.8.8.3.( <.<.<.<.<.<.<.<.<.<.<.<.<.4.4.4.4.<.<.<.<.<.<.4.<.M <.<.2.5.5.3.0.0.0.8.8.8.8.8.8.8.w.w.8.3.2.4.<.<.<.<.<.<.<.<.<.<.<.<.<.4.4.<.<.<.<.<.<.<.<.<.<.<.<.<.<.<.<.<.<.<.<.<.<.<.<.<.<.<.<.<.<.<.<.<.<.<.<.<.<.4.4.M m <.( T e.'..X^.^.~.W.[.Z.( ( 1.Y 1.T.#X.X^.^.c.XX.X.X}.r.s <.j ( ( I h.NXmX@.-.<.<.<.<.<.<.<.<.<.<.<.<.<.4.4.-.1.1.8.r.w.8.8.8.8.8.8.8.8.8.8.8.8.8.8.8.8.8.8.8.r.w.w.w.3.1.1.<.<.<.<.<.<.<.<.<.<.<.<.<.<.<.<.<.<.<.<.<.<.<.<.<.<.<.<.<.<.<.<.<.<.<.<.<.<.<.1.1.1.1.3.w.w.w.w.8.0.8.r.8.0.8.r.8.0.r.0.r.8.8.8.8.8.8.8.3.1.1.1.1.1.<.<.<.B <.<.<.<.<.<.<.<.<.<.( <.<.<.<.( j j <.j M <.( P 0.[..X.Xx.XX.X'.'.T Y s ) D #.MXAXMX<X` 3.3.8.r.4.5.7.7.5.2.2.4.1.1.<.<.1.1.<.<.1.<.1.1.<.<.<.<.1.1.1.1.1.2.2.2.2.1.8.8.8.8.8.8.8.8.8.8.8.8.8.8.8.8.8.0.8.8.9.8.8.8.8.0.r.0.9.8.8.8.",
"5.2.2.2.2.2.1.<.( ( ( ( j ( ( ( ( ( ( <.1.1.1.2.1.3.3.8.8.8.w.8.8.8.9.8.9.9.0.0.9.9.9.9.9.8.9.8.8.8.8.8.8.8.8.0.0.0.0.1.1.1.1.1.5.<.4.1.P 0.'.W.~..X.Xk.R P 1.j ) `.#XW.~.~.^.^.~.W.[.9.P 4.m <./ I >X>X0.P ) 1.( 1.2.3.3.3.3.3.8.8.8.8.8.8.8.8.8.8.8.8.9.r.r.r.( <.<.<.<.<.<.<.<.<.<.<.<.<.4.4.4.4.4.4.<.<.<.<.<.<.M <.4.5.5.5.3.0.0.0.8.9.9.9.8.8.8.8.8.8.0.3.5.4.<.<.M M <.<.<.<.<.<.<.<.4.4.<.<.<.<.<.<.<.<.<.<.<.<.<.<.<.<.<.<.<.<.<.<.<.<.<.<.<.<.<.<.<.<.<.<.<.<.<.4.4.4.M M <.( T e.'..X^.^.~.W.[.Z.( Y 1.Y 1.T.#X.X^.^.c.^..X.X}.r.s N j <.( T h.NXNX@.-.<.<.<.<.<.<.<.<.<.<.<.<.<.6.5.8.8.8.8.8.8.8.8.8.8.8.8.9.9.9.8.8.8.8.8.8.8.8.8.8.8.w.w.w.w.8.5.<.<.<.<.<.<.<.<.<.<.<.<.<.<.<.<.<.<.<.<.<.<.<.<.<.<.<.<.<.<.<.<.<.<.<.<.<.1.1.1.3.3.5.w.w.w.w.8.8.9.9.9.9.9.9.9.9.9.9.9.9.9.9.8.8.8.w.r.8.3.1.1.1.1.<.<.<.<.<.<.<.<.<.<.<.<.<.<.M j <.<.<.<.M j <.j j <.( P r.[..X.Xx.XX.X'.'.T =.( 1./ %.MXZXbX=X| 0.0.e.r.5.6.7.7.7.7.5.2.2.1.1.1.1.1.<.<.<.<.1.1.1.<.<.<.<.1.1.1.4.2.2.5.5.3.8.8.8.8.9.8.8.8.8.8.8.8.9.8.8.8.8.9.9.9.9.8.9.9.e.r.e.0.9.8.| { ",
"2.2.5.2.2.2.2.2.1.1.1.1.<.<.<.<.1.1.2.5.5.7.7.7.0.0.8.8.8.8.8.8.8.9.9.9.9.9.9.9.9.9.9.9.9.9.9.9.8.8.8.8.r.r.r.r.8.0.0.0.0.0.0.0.7.5.5.1.) t.[.'.~..X.Xk.R P 2.j ) `.#XW.~.~.^.^.~.W.[.8.P 4.j <./ I >XlXe.( ) 1.1.2.7.r.r.3.3.1.8.9.8.8.8.8.8.8.8.8.8.8.8.8.8.8.( <.<.<.<.<.<.<.<.<.<.<.<.<.4.4.4.4.4.4.<.<.<.<.<.<.M <.2.5.5.1.3.0.0.0.9.9.9.9.8.8.8.8.8.8.r.r.5.2.<.M M M <.<.<.<.<.<.<.<.4.4.<.<.<.<.<.<.<.<.<.<.<.<.<.<.<.<.<.<.<.<.<.<.<.<.<.<.<.<.<.<.<.<.<.<.<.<.<.4.4.4.M m <.( T e.'..X^.^.~..X[.Z.( Y 1.Y 1.T.#X.X^.^.c.^..X.X}.r.s N j <.( T R.NXNXs.-.<.<.<.<.<.<.<.c M M <.<.6.6.5.r.w.8.8.8.8.8.w.8.8.8.e.e.e.e.8.8.8.8.8.8.8.8.8.8.8.w.w.w.w.w.7.<.<.<.<.<.<.<.<.<.<.<.<.<.<.<.<.<.<.<.<.<.<.<.<.<.<.<.<.<.<.<.<.<.<.<.<.1.1.1.1.w.w.w.w.r.w.w.8.8.9.9.9.9.9.9.9.9.9.9.9.9.9.9.9.8.8.r.r.r.8.1.1.1.1.<.<.<.<.<.<.<.B <.<.<.<.<.<.M j j ( 4.4.4.M <.j j <.( P 0.[..X.Xx.XX.X'.'.T 2.2.V.' l.BXZXcX=X| 0.0.e.t.5.6.7.7.7.7.7.7.7.5.1.1.1.1.<.<.<.<.1.1.1.1.<.<.<.1.<.4.2.2.7.7.7.3.8.9.8.8.8.8.8.8.8.8.8.9.8.9.8.8.0.0.0.9.9.9.9.9.9.9.9.9.9.9.9.9."
};
