/* XPM */
static char *c5ce0114ec28446a82c59b720de4e8b4EywaHMC38BR7QS8b[] = {
/* columns rows colors chars-per-pixel */
"512 512 256 2 ",
"   c #250115",
".  c #2B0216",
"X  c #2D021A",
"o  c #270118",
"O  c #34041C",
"+  c #3B051E",
"@  c #3D081E",
"#  c #22020F",
"$  c #360320",
"%  c #3C0423",
"&  c #3E0129",
"*  c #3E0823",
"=  c #42061E",
"-  c #45081E",
";  c #4B091E",
":  c #4A071C",
">  c #560A1E",
",  c #420625",
"<  c #440823",
"1  c #4B0A24",
"2  c #44052A",
"3  c #49062C",
"4  c #450929",
"5  c #4C092C",
"6  c #490724",
"7  c #530B24",
"8  c #5B0C24",
"9  c #530B2C",
"0  c #5B0E2C",
"q  c #51072C",
"w  c #5B1129",
"e  c #4B0631",
"r  c #4E0931",
"t  c #460530",
"y  c #540C33",
"u  c #5B0E34",
"i  c #560D39",
"p  c #5B0F39",
"a  c #500733",
"s  c #5D1036",
"d  c #5E1139",
"f  c #571037",
"g  c #630D25",
"h  c #6A0E24",
"j  c #630E2B",
"k  c #6A0F29",
"l  c #64122C",
"z  c #6C112B",
"x  c #691429",
"c  c #73132C",
"v  c #7B142C",
"b  c #771428",
"n  c #620F33",
"m  c #630F36",
"M  c #641135",
"N  c #6B1235",
"B  c #64123A",
"V  c #6B143A",
"C  c #6E183C",
"Z  c #6C1B32",
"A  c #741435",
"S  c #7B1634",
"D  c #7C1A34",
"F  c #73163A",
"G  c #7B1739",
"H  c #75193C",
"J  c #7C193C",
"K  c #731B34",
"L  c #740F25",
"P  c #78243A",
"I  c #6D2236",
"U  c #670D1F",
"Y  c #741B41",
"T  c #7C1C41",
"R  c #721740",
"E  c #6E1840",
"W  c #7D2144",
"Q  c #7C2C41",
"!  c #7C3846",
"~  c #7C424E",
"^  c #83152C",
"/  c #8B152A",
"(  c #88162A",
")  c #94162B",
"_  c #9C162B",
"`  c #941A2E",
"'  c #9C192E",
"]  c #981426",
"[  c #841A34",
"{  c #8B1C34",
"}  c #841B3C",
"|  c #8B1D3D",
" . c #831734",
".. c #941C33",
"X. c #9C1B33",
"o. c #911E3D",
"O. c #9C1D38",
"+. c #A2192D",
"@. c #A1172B",
"#. c #A41C33",
"$. c #AA1D35",
"%. c #A71F39",
"&. c #B11E38",
"*. c #8C233C",
"=. c #872539",
"-. c #93233D",
";. c #9C233C",
":. c #972639",
">. c #90313F",
",. c #A4233B",
"<. c #AC233B",
"1. c #A6263A",
"2. c #B1243D",
"3. c #A3313F",
"4. c #831D41",
"5. c #8B1E41",
"6. c #911F40",
"7. c #832344",
"8. c #8D2242",
"9. c #842549",
"0. c #86294A",
"q. c #8C2C4B",
"w. c #892A45",
"e. c #932243",
"r. c #9B2544",
"t. c #942A44",
"y. c #9C2A45",
"u. c #942C4A",
"i. c #9C2C4A",
"p. c #972748",
"a. c #8A3549",
"s. c #93324D",
"d. c #9D324C",
"f. c #983748",
"g. c #8E3551",
"h. c #943452",
"j. c #9C3552",
"k. c #953A54",
"l. c #9B3B55",
"z. c #9B3E59",
"x. c #963D59",
"c. c #8E2E50",
"v. c #A42543",
"b. c #AB2643",
"n. c #A42A45",
"m. c #AC2945",
"M. c #A32D4A",
"N. c #AC2C49",
"B. c #A52648",
"V. c #B22742",
"C. c #B42A45",
"Z. c #B92C46",
"A. c #B42D49",
"S. c #BB2D48",
"D. c #B92744",
"F. c #A4334D",
"G. c #AC334D",
"H. c #A5384A",
"J. c #B3334D",
"K. c #BB324C",
"L. c #B3394C",
"P. c #A43651",
"I. c #AB3651",
"U. c #A43B54",
"Y. c #AB3B54",
"T. c #A33E59",
"R. c #AC3F58",
"E. c #B43B54",
"W. c #BB3B53",
"Q. c #B43953",
"!. c #C03C54",
"~. c #87424D",
"^. c #8A4757",
"/. c #9C4354",
"(. c #9C435C",
"). c #944B5B",
"_. c #9C4B5C",
"`. c #954656",
"'. c #994B56",
"]. c #A44354",
"[. c #AB4255",
"{. c #A4435C",
"}. c #AC435B",
"|. c #A44B5C",
" X c #AC4A5D",
".X c #A74956",
"XX c #B3445C",
"oX c #BA445B",
"OX c #B3495E",
"+X c #BA495E",
"@X c #B64156",
"#X c #A6535D",
"$X c #AD4D56",
"%X c #9C4B61",
"&X c #9C5362",
"*X c #A44B62",
"=X c #AC4C62",
"-X c #A64762",
";X c #B44C62",
":X c #BA4D63",
">X c #B74963",
",X c #AD5264",
"<X c #A95466",
"1X c #B45265",
"2X c #BC5266",
"3X c #B3546A",
"4X c #BC5469",
"5X c #B85A6B",
"6X c #BA5D71",
"7X c #BD6274",
"8X c #BA6267",
"9X c #BC625E",
"0X c #C2445A",
"qX c #C6595D",
"wX c #C1566A",
"eX c #C35A6C",
"rX c #C55767",
"tX c #C3566A",
"yX c #C96568",
"uX c #D76A6A",
"iX c #C76778",
"pX c #D77272",
"aX c #E8766C",
"sX c #F37665",
"dX c #F47C6C",
"fX c #F97D6B",
"gX c #F67967",
"hX c #EE7A70",
"jX c #C6655E",
"kX c #F8816E",
"lX c #F68576",
"zX c #F0877A",
"xX c #D77785",
"cX c #CD7181",
"vX c #E37C89",
"bX c #F79689",
"nX c #EE908F",
"mX c #F9A599",
"MX c #FCAB96",
"NX c #F9ACA3",
"BX c #FBB5AA",
"VX c #FCBCB3",
"CX c #ECA4A6",
"ZX c #E9979E",
"AX c #FDC4BB",
"SX c #FCC6B0",
"DX c #FDCCC5",
"FX c #FED3CD",
"GX c #FDD8CC",
"HX c #FFD5D1",
"JX c #FEDAD4",
"KX c #FFDCD9",
"LX c #FEE2DC",
"PX c #FFECE7",
"IX c #FFF3F2",
"UX c #FFF1ED",
/* pixels */
"& & & & % & & & & & & & & & & & & & & & & & & & 2 2 2 2 & & & 2 2 2 2 2 %   o . $ 2 t t t t 2 t t t t e e e e e e e e e e e e e e e e e e e e e e e r r r r r r r r e e r r r r e r e e e 2 $ o . . % r r r e r r r r r r r r r r r r r r r r r r r r r r r a a a a i i i a a a i i i i i i a a i i y y y y i i i 4 4 X % y y y i i y y y y i i i y y y y y y y y y i i i i i i i i i i i i i i i i i i i i i i i i i i i i i i i d 5 X O O O y y y i y y y i i i i y i i i i i i i i i i i i i i i i i i i i f i i i i i i i i i i i i i i i i i i i i y % * * * i i i i i i i p i i i i i i i i i i i i i i i i i i i i i i i i i i i i i i i i i i i i i i i i i y i i i i 4 O O % y i i i i y y y y y y y y y y y y y i y y y y y y y y y y y y y y y y a a a a y y y a a a a a a y y y y a 4 4 $ $ $ r r r r r r r r r r r r r r r r r r r r r e e e e e e r r e e e e e e e e e e e e e e e e e e e e e e 3 3 e 2 X X X 2 e e e t t t 2 2 2 2 2 2 t 3 2 2 2 2 2 2 2 2 2 2 2 2 2 2 2 2 2 2 2 2 2 2 2 2 2 2 2 2 2 2 2 & & & 2 & & & 2 % o o o X & & & % % & ",
"& & & & & & & & & & & & & & & & & & & & & & & & 2 2 & 2 & & & 2 2 2 2 2 %   o . $ t t t 2 t 2 3 t t e e e e e e e e e e e e e e e e e e e e e e r e r r r r r r r r r r r r r r e r e e r 2 $ o o . % r r r r r r r r r r r r r r r r r r r r r r r y r r a a a a a i i i a a a i i i i i a y y y y y y y i i i i 4 , X 4 i y y i i y y y y i i i y y i i i i i i i i i i i i i i i i i i i i i i i i i i i i i i i i i i i i i i i 5 O O O O i i i i i i i i i i i i i i i f f i i i i i i i i y f f f i i i i i i i i i i i i i i i i i i i i i i i i y % % % * i i i i i p p i i i i i i i i i i i i i i i i i i i i i i i i i i i i i i i i i i i i i i i i i i i i i i y 4 $ $ * y i i i i i i i i y y y y y y y y y y y y y y y y y y y y y y i i y y y y y y y y a a a a a a a a y y y y 4 4 O O % r a r r r r r r r r r r r r r r r r r r r r e e e e e e r e e e e e e e e e e e e e e e e e e e e e e e e e 2 X X X 2 e e 2 2 e e 3 2 2 2 2 2 2 2 3 3 2 2 2 2 2 2 2 2 2 2 2 2 2 2 2 2 2 2 2 2 2 2 2 2 2 2 2 2 2 & & & 2 2 & & & % o   o X & & & & & & ",
"% & & & & & & & & & & & & & & & & & & & & & & 2 & & & & & & 2 2 2 2 2 2 %   o . % t 2 2 2 3 t 3 t e e e e e e e e e e e e e e e e e e e e e r r r r r r r e r r r r r r r e e e e r r r r 2 $ o X . % e e r r r a r r r r r r r a a r r r r r r r y y a y i i i i i i i a a a a i i i y a a a a y y y i i i i i a 2 2 O 4 i y y i i y i i i i i i i i i i i i i i i i i i i i i i i i i i i i i i i i i i i i i i i i i i i i i i i r O O O $ i i i f f y y y y s y y y y y y y y y u y i y y y i i i i i i i i i i i i i p p p p p p i p p p p d i i p y % % % 4 f f p p p p p p p p p p p p p p p p p i i i i p p p p p p p p i i i i i i i i i i i i i i i i i i i i i y f 4 $ $ $ r y y y y y y y y y i i i y y y y i i i y y y y y y y y y y y i i y y y y i y y y y y y y a a y y y a a y 4 4 $ O % y y y y a r r r r a a a a a r r r r r r r r r r r r e e e e e e e e e e e e e e e e e e e e e e e e e e e e 2 X X X 2 e e e e e e e 3 3 3 2 2 2 2 t t 2 2 2 2 t t 2 2 2 2 2 2 2 2 2 2 2 2 2 2 2 2 2 2 2 2 2 2 2 2 & & 2 2 & & & % o     o & & & & & & ",
"% & & & & & & & & & & & & & & & & & & & & & 2 2 & 2 & & 2 2 2 2 2 2 2 2 %   o . % t 2 2 2 3 t 3 e e e e e e e e e e e e e e e e e e e e r r r r r r r r r r r r r r r e e e e e r r r a a 2 $ o X   % a r r r r r r r r r a a a a a a a a y y y y y y y i i i i i i i i i a y y y y y y a a a a y y i i i y y y a 5 4 O 4 p y i i i i i i i i i i i i i i i i i i i i i p p p p i i i i i i i i p p p p p p p p p p p p p p p p p d r O O O $ y i i y i y y y y s f f f f f f f p p p p f f p p p p p p p p p p p p p p p p p p p p p p p p p p p p i p i % % * 4 f f f p p p p p p p p p p p p p p p p p p p p p p p p p p p p p p p p p p p p p p p p p p p p i i i i i i f 4 $ $ $ y f f f f y y y y y y y y y y y y y i i i i i i i i y y y y y y y y y y a y y y y y y y i y y y y y y a a 4 2 $ O % a y y y y y y y a r r a a a a r r r r r r r r r r r r r e e e e e e e e e e e e e e e e e e e e e e e e e e 2 X X X 2 e 3 3 3 e e e e 3 3 2 2 2 2 2 t 2 2 2 2 2 t t t t 2 2 2 2 2 2 2 2 2 2 2 2 2 2 2 & 2 & 2 2 2 2 2 2 & & & & % o o   o & & & & & & ",
"% & & & & & & & & & & & & & & & & & & & & & & & & & 2 2 2 2 2 2 2 2 2 2 % . . . % t t 2 2 3 2 e e e e e e e e e e e e e e e e e r r r r r r r e r r r r r r r r e e e e e e e a r a r r a 5 O . X   % a e e r r r r r r a a a a a a a a y y a a y y a a i i i i a a y y y y y y y y y y y y y y a y y y y y y i a 3 4 O 4 p y y y y y y y y i i i i i p p p p p p p p p p p p p i i i i p p p p p p p p p p p p p p p p p p p p f d r O O O * f f f f f f f f f f p p p p p p p p p p p p p p p p p p p p p p i p p p p p p p p p p p p p p p p p p p f y % % % 4 p p p p p p p p p p p p p p p p p p p p p p p p p p p p p p p p p p p p p p p p p p p p p p p p p p i p i p 4 $ % % y f f u u f i y y y y f f y y y y y y y y y y y i i i i i i i i i y i y y y y y y y y y y y y y y y y y r 2 2 % O % a y y y y a y y y y y a a a a a a a a a a a r r r e e r r e e e e e e e e e e e e e e e e e e e e e e e e e 2 X X X 2 e 3 3 3 3 e e e e 3 3 3 2 2 2 2 2 2 2 2 2 2 2 2 2 2 2 2 2 2 2 2 2 2 2 2 2 2 2 2 2 2 2 2 2 2 2 2 & & & & 2 % o o   o & & & & & & ",
"& & & & & & & & & & & & & & & & & & & & 2 & & & & & 2 2 2 2 2 2 2 2 2 2 % . . . % e t 3 3 e t e e e e e e e e e e e e e e e e e r r r r r r r e r r r r r r r e e e e e e a a a a r r a a 5 $ . X . * a e e r r a a a a r r r r a a a a y a a a y y a a y y y y y y y y y y y y y y y y y y y y a y i i y y i i a 3 4 O 4 p f i i i i p p p p p p p p p p p p p u u u u p p p p p p p p p p p p p p p p p p p p p p p p p p p p p d r O O O % f p p p p p p p p p p p p p p p p p p p p p p p p p p p p p p p p p p p d f f f f d d f f f f f f p p p f y , % % 4 p p d f f f f f p p p p p p p p p p p p p p p p p p p p p p p p p p p p p p p p p p p p p p p f p p p p p p 4 $ % % y p u u u p p p f y y f f f y y f i i i y y y y y y y y y i i i i i i y y y y y y y y y y y y y y y y y e 4 4 % $ % a y y y y a a y a y y y y y a a a a a a a a a r r r e r r r e e e e e e e e e e e e e e e e e e e e e e e e 2 X X X 2 e e e e 3 e e e e e 3 3 3 3 2 2 2 2 2 2 2 2 2 2 2 2 2 2 2 2 2 2 2 2 2 2 2 2 2 2 2 2 2 2 2 2 2 2 2 & & & 2 % o o   o & & & & & & ",
"& & & & & & & & & & & & & & & & & & & 2 2 2 & & & 2 2 2 2 2 2 2 2 2 2 2 $   . . & t t 3 e e e e e e e e e e e e e e e e e e e e r r r r r r r e e e r e e e e e e e a a a a a a a a a a a 3 % X X . * y e r a a a a a a a a y y y y y y y y a a y a a a y y y y y y y y y y y y y y y i y y i i i i i i y y y i e 3 2 O 4 p y p p p p p p p p p p u u u p p p u u u u p p p p p p p p p p p p p p p p p p p p p p p p p p p p p d d r O O O % f p p p f p p p p p p p p p p f p p p p p p p p p f f f f d d d f d d d d f f f f d d d d f f f f f f f f p 4 4 4 4 p d d d d d d d d d d d d d d p p p p p p p p p p p p p p p p p p p p p p p p p p p p p p p p p p p p p p d 5 % % % y f p p p p p p p u u p p u u p p i i y i y y y y y y y y y y y y y y i y y y i i i y y y y y y y y y y e 4 4 * O % a a y y y a a a a y y y y y y a a y y y a a a a a r r r r e e e e e e a a a a e e e e e e e e e e e e e e e 2 X O X 2 e e e e 3 3 3 e e e e 3 3 3 3 2 2 2 3 3 2 2 2 2 2 2 2 2 2 2 2 2 2 2 2 2 2 2 2 2 2 2 2 2 2 2 2 2 2 2 2 2 2 % o o   o & & & & & & ",
"& & & & & & & & & & & & & & & & & & 2 2 2 2 & & 2 2 2 2 2 2 2 2 2 2 2 2 $   . . % t 3 e e 3 e e e e e e e e e e e e e e e e e e r r r r r r r r e e e e e e e e a a a a a a a a a a a a a 3 % X X . 4 y a a a a a a a y y y y y i y y y y y a a a a a y y y y y y y y y i i i i i i i y y y i i y i i i i i i y r 3 4 O 4 p p i p p u u p p u u u u u u p p u u p p p p p p p p p d d p p p p p p p p p p p p p p p p p p p p p p p e O O O + f p p p f p p p p d s f f f f f f f f f f f f d d f f f f d d d f f f d d f f f f d d d d f f d d f p p p u < 4 4 4 p d d d d d d d d d d d d d d d d d d d p p p p p d p p p p p p p p p p p p p p p p p p p p p u p p p u p d 5 % % % y f p p u u s f f p u p p u u p p p p u u i i i f y y y y y y y y y y y y y y i i i i i i y y y y y y y 9 < 4 % O % y y y y y a a a y y y y y y y y a y y y a a a a a a a 5 r e e e e e e e a a a a a e e e e e e e e e e e e e 2 O X X 2 e e e e e e 3 3 e t t 3 3 3 3 3 2 2 3 3 3 2 2 2 2 2 2 2 2 2 2 2 2 2 2 2 2 2 2 2 2 2 2 2 2 2 2 2 2 2 2 2 2 % o o   o & & & & & & ",
"& & & & & & & & & 2 2 & & & & & & & & 2 2 2 2 2 2 2 2 2 2 2 2 2 2 2 2 2 O o . . % t 3 3 e e e e e e e e e e e e e e e e e e e e e e e e e e e a e e e e e e a a a a a a a a a a r a r a a 4 % o X . 4 i r a a y y y y a a r a a a a y y y a a a y y y y y y y i i i i i i i i i i i i i i i i i y y y y y y y f 5 3 4 O 4 p u u u u u u u u u u u u u p p p p p p p p f d d d d p p p p p p p p p p p p p p p p p p p p p d d d d d y O + O @ f d d d d f f f f f f f f f f f d d d d d f f f f d d d d f f f s f f d d d f f f f f f f f f d d f f d p p < 4 4 < d d d d d d d d d d d d d d d d d d d d d d d d d d d d d d d d d d p p p p p p p p p p p p p p p d p d p p 5 % % % y f f p p u u u u u u u u u u p u u u u p p u u p u i y y y y y y y y y y y y y y y i i i i i y y y y y 5 4 3 % O + y y y y y a a y y y a a y a a y y y y y y a a a a a a a a a a e e e r r e r e e a a a e e e e e e e e e e e 2 O O X 2 r e e e e 3 e e 3 e e e e 3 3 2 3 3 3 3 2 2 3 2 3 2 2 2 2 2 2 2 2 2 2 2 2 2 2 2 2 2 2 2 2 2 2 2 2 2 2 & 2 % o .   . 2 & & & & & ",
"& & & & & & & & & & & & & & & & & & 2 2 2 2 2 2 2 2 2 2 2 2 2 2 2 2 2 2 O . . . % 3 e 3 e e e e e e e e e e e e e e e e e e e e a e e e e e e e e e e a a a a a r r r r a a a a i a a a a 2 $ o X . 4 i a a y a y y y y a a a a a a y y y y a y y y y y y i i i i i i i y y i i y i p p p p p i y y y y i i i d 4 , 4 O 4 f y u u u u p p p p p p p p f f p p d i i i i p p p p p p p p p p p p d d d d d d d d d d d d d d d d d B y O O O * f d d d d f f f f f f f f f f d d d d d d f f f f f d d p p f f f p p p p p p p p p p p p p p p p p p p d u < 4 < < p d d d d d p d d d d d d d d d d d d d d d d d d d d d d d d d d d d d d d d d d d p p p p p f p p p p p d 5 % % % y p p p p p p p p p u u s f p p u u u p p p p p u u p u u u u p p u p u u y y y y y y y u y u u i y u y 5 3 3 % O % y y y y y y y y y a y y y y y a a y y y y y y y a a a a a a a a e e r e e e r e e a a e a a a a a e e e e e 2 O O X 2 e e e e e e e e e e 3 e e 3 3 3 3 3 3 3 2 2 2 2 2 2 2 2 2 2 2 2 2 2 2 2 2 2 2 2 2 2 2 2 2 2 2 2 2 2 2 2 2 % X o   X 2 & 2 & & & ",
"& & & & & & & & & & & & & & & 2 & & & 2 2 2 2 2 2 2 2 2 2 2 2 2 2 2 2 2 O . . . O 2 e e e e 3 e e e e e e e e e e e e e r e e r e e e e e e e e e a a a a a a a a a a a a a a a r r y y a 2 O X O . 4 y a y a a y y y y y y y y a a a a y y y y y y y y i i i y i i i i y i i i y y y y y y y y y u p i i y p f 4 , 4 O 5 p u p p p p p f p p p p p p p p p p p p p p p p p p p p p p p p d d d d d d d d d d d d d d d d d d d d B y O O O % f d f d d f f s s p p f f f f f f p p p p p p p p p p p p p p p p p p p p d d d d d d d d d d d d d d p p s < 4 < < p p d d d d d d d d d d d d d d d d d d d d d d d d d d d d d d d d d d d d d d d d d d d d d d p p d s d p 5 % + % 9 p p f p p p p s s u s s s s s u u u u u u u u u y y u p u u p p p p p p f p p p u y y y y i y i p p y 4 2 3 % O % y i y y y y y y y y y y y a a a a a y y a y y a a a a a a a a a a a a a a e e e e e r a a a a a a e e e e e 2 O O X 4 e e e e e e e e e e e e e e e 3 3 3 3 3 2 2 2 2 3 3 2 2 2 2 2 2 2 2 2 2 2 2 2 2 2 2 2 2 2 2 2 2 2 2 2 2 2 % o o   O 2 & & 2 & & ",
"& & & & & & & & 2 & & & & & 2 2 & & & 2 2 2 2 2 2 2 2 2 2 2 2 2 2 2 2 2 X X . X + & t e e e e e e e e e e e e e e e e e e r e e e e e e a a a a a a a a a a a a a a a a a a a a a y a a e 2 O X X . 4 i y y a a y y y y a a a a y a a y y y y y i i y p i p i y y y u u u y y f y y y y y y y i u u p p p p p p 3 < 4 O 5 p p p p p p p p p p p p p p p p p p p p p p p p p p p d d d d d d d d d d d d d d d d d d d d d d d d d B 5 O % O + s p p p p p p p p d s s p p p p p p p p p p p p p p p p p p d d d d d d d d d d d d d d d d d d d d d d d s < < 4 < d d d d d d d d d d d d d d d d d d d d d d d d d d d d d d d d d d d d d d d d d d d d d d d d p d d f p d 4 + @ * 9 p d p f p p p p p p d s s s u u u u u u u s s s p p u u p p u u u u u s u u u p u u u u p i y i f r 3 3 4 3 % + % y y y y y y y y y y y y y y y y a y y a a y y y y y y a a a a a a a a a a a a e e e e e e e a a a e e e e e 2 % O X % e e e e r e e e 3 e e e 3 e e 3 3 3 3 3 3 3 2 2 3 3 3 2 2 2 2 2 2 2 2 2 2 2 2 2 2 2 2 2 2 2 2 2 2 2 2 2 2 % X o   X & & & 2 & & ",
"& & & & & & & & & & & & & 2 2 2 2 2 2 2 2 2 2 2 2 2 2 2 2 2 2 2 2 2 2 2 O X . X $ % & 2 2 2 e e 3 e e e e e e 3 3 e r e a a a e e e e a a a a a a a a a a a a a a a a a a a a a a a y y 3 2 O . X X % y a a y y a a a a a a a a y y y y y y y y i i i i y y y y y y p p f f y y u u p p u u u u u p p p u u u p 4 % % O 5 p p u p p p p p p p p f f f p p p p p p p p p p d d d d d d d d d d d d d d d d d d d d d d d d d d d d B 5 O + + + u d d p p p p p p d d d d d d d d d d d d d d d d d d d d d d d d d d d d d d d d d d d d d d d d B d d B s < < < 6 s B d d d d d d d d d d d d d d d d d d d d d d d d d d d d d d d d d d d d d d d d d d d d d d d d d p p d 4 * @ % 5 f p p p p p p p p p p d d p u u u u u u u u u u s s s u p u p p u u u u s s u u u u u u p y y 5 5 3 3 4 3 3 % % % y u y y y y y y y y y y y y y y y y y a y y y a a y a y a a a a a a a y y a a a a a a e e e a a a a e e e e % % O X % e e e e e e e e e e e e e e e e 3 3 3 3 3 3 3 t 2 3 2 2 2 2 2 2 2 2 2 2 2 2 2 2 2 2 2 2 2 2 2 2 2 2 2 2 2 & X o   . & & & & & & ",
"& & & & & & & & & & & & & 2 2 2 2 2 2 2 2 2 2 2 2 2 2 2 2 2 2 2 2 2 t 2 X . X X % % % % % % , , 2 2 2 2 2 2 2 2 3 3 3 2 2 3 e e a a a a e e e e 5 5 e e e e e e e r a a a a y y a i y 5 2 3 O X O . % y i y y y a a a y a y y y y y y y y y y y i i i y u y y y y y u u u u u u u u p p u u u u u p p p u u u p 3 O + + 4 d p p p p p p p p p p p p p p p p p p p p p d d d d d d d d d d d d d d d d d d d d d d d d d d d d d d E 5 O + + O y d d d d d d d d d d d d d d d d d d d d d d d d d d d d d d d d d d d d B B d d d d d d d d d d d d B d s < < < < s B d d d d d d d d d d d d d d d d d d d d d d d d d d d d d B d d d d d d d d d d d d d d d m d d B B B y % % % < 5 y s d f d d d d p p d d p p p p d p d u s s s s s s s u u u u p u u p p u s u u u u u y y 5 3 3 3 3 3 4 3 4 % + + a p y u u u u u u y y y y y y y y y y y y y y y a y y a y y a a a a a a a a a a a a a a a a a e a e e r r a % % + X % e e e e e e e e 3 e e 3 e e e e 3 3 t t t t t t t t 3 3 3 2 2 2 2 2 2 2 2 2 2 2 t 2 2 2 2 2 2 2 2 2 2 2 2 % X o o . % 2 2 2 2 2 ",
"2 2 & 2 2 2 2 2 2 2 2 2 2 2 2 2 2 2 2 2 2 2 2 2 2 2 2 2 2 2 2 2 2 2 2 % X X X X O % % & & & , % & & & & & & , , , , , , , , 2 2 5 5 2 2 2 , , , 2 2 2 2 2 , 2 2 2 2 2 4 3 3 5 5 3 4 2 4 < < O X X X % a y i y a i y y y y y y y y y i i y u y p i p p p u u u u p p p p p u u p p p p p p p p p p p p p s f p d 4 O % + , u p p s s p m p p p p p p p p p d d d d d B d d d d d d d d d d B B B B B B B B B B B d d d d d d B B d d < O + + O < d d d d d d d d d d d d d d d d d d d d d d d d d d d d d d d d d d d d d d d d d d d d d d d d s s s y 5 4 4 < 4 9 d d B B B B B B B B B B B B B B B B B B d d d d d d d d d d d d d d d d d d B B d d d d d d f d p y y 5 , * % % * 5 9 9 y u u u u u u y y y u u u u p u u y y y y y y y y y y y y y y y y y y y y y a 9 5 5 3 3 5 5 3 3 3 3 3 , + + + 3 y y y y a 5 e e e e e 5 5 5 e 5 5 5 e e e 5 5 5 5 5 5 e e e e e e e e r e a a a a a a a a a a e e e e e e % % % X O 3 e e e e e e e e e e e e e e e 3 3 2 2 2 2 2 2 2 2 2 2 & & & & 2 & & & & & & & & & & & & & % % % & % % % X o   o   X $ $ % % $ ",
"O O O O O $ O O O O O O $ $ O O $ $ O $ $ $ $ $ $ $ $ $ $ $ $ $ $ O X . . X X . . X O O O O O $ % % % % % % % % $ % % % $ % % % % O O $ % + O O O O % O O O $ $ $ O O O + + O O O O $ + O O O O O O O % % % % % % % % % % % % % % % * % % % % % % * * * % < < < < % 4 4 < < % , % % < 4 , , , , , 4 4 4 < < < < + + % + + @ % < < , , , , , , , < < < , , 4 4 4 < < 4 < < < < < < < < < < < < < < < < < < < < < < < < < < < < < < * + % + + @ + , < < 4 4 4 4 4 , , , , , , , , , , , , , , , , 4 4 < < < < < < , < < < < < < < < < < < < < < < < < 4 * % < < < < = < < < < < < < < < < < < < < < < < < < < < < < < < < < < < < < < < < < < < < < < < < < < < < @ < % + + + % % * < + % < , , , , , % % % % % % * % % % % % % % % % % * * * % % % % % % + + @ , 4 , % * * % % % % 4 , % * % % * % * % % % % % * % + + + + + + + + + + + + + + + O O O O + O O O O + O $ % % % % % % % $ + + + O + + % % $ % % % O O $ O % % O O O O O O O O O O O O O O $ O O O O O O X X X X X O X X X o X X o X o o o o o . . o o o o o               .       o       o o   o ",
"                                          o                 . .   . . X X X o X . X . . . . X . X X X X X X X X . . . . . . . X X X X O O O X X X O X X O O O O O O O O O O O O O O O O O O O O O O O O O O + + O O O O O O + + + + + + + O O O O + + O O + + + + + + + + + + + + + + + + % % % % % + + + + + + + + + + + + + + + + + + + + + + + + + + + + + + + + + + + + + + % + + + + + + + + + + + + + + + + + + + + + + + + + + + + % * * % % + + + + + + + + + + + + + + % + + + * + + , = + = = = = = = = = = + = = = = , % , = = = = = , = = = , , = = , = = @ + + % % + + + + + + % % + + + = = = + + + = = @ , = @ + + + + + + + + + + + + + + + + + + + + + + + + + + + + + + + + + + + + + + + + + + + @ + + + + + + + + + + + + + + + + + + + + + % % * * % % % % % % % % % % % + * < 2 , + + + % % % % % + % % % + + + + + + + + + + + O O O O + $ O O O O O O O O O O O O O O O O O O O O O O O O O O O O O O O O O O X O X X X X . . . X X X X X X X X X X X X X X X . X X X o X X o o . . . . o o o o o o . . . . . . . . .                   ",
".                             . . o o o o X X X o X X o X . . . o o X X X X X . X X X X X . . X X X X X X X . . . . X . . . . . . . o . . . O O O X X X X X X . . . . . O O O O % % % % + + % % % % % % % % % % % % % % % % % % % % % % % % + + + + + + + + + + + + + + + + + + + + % % % % + + + + + + + + % < < 5 5 6 , % < , , , < < < < < < < < % + + + < 6 + O + + + = + % + + + 4 3 6 6 3 3 3 3 3 3 1 5 3 6 6 6 6 < 6 < 2 4 4 < < < < < , , , 4 4 < < < < 4 < < < < < < < < < 6 < < < < < < < < < < , < < < < < < < < < < < < < < < < < < < < < < < < < < < < < < < < , 4 < < < < < < < 2 < < < < < 6 6 3 5 = + + + @ < 3 5 5 5 5 1 1 1 1 5 5 5 5 5 5 5 5 6 6 6 6 6 6 6 6 6 6 6 6 6 < < < < < 6 6 6 6 6 6 < 6 3 3 6 6 3 3 < 6 3 < 4 < < 2 4 3 3 5 3 3 3 5 5 5 5 1 5 5 5 5 3 3 3 < < < 6 3 < < < < , % % , % % 4 , , , , , % % % % + + + + % % % % % + O O O O O % % % % % % % % % % % % + % % % % % + % % % $ + + % O O O % % O O O O O O O O O O O O O O O O O $ $ O O O X O X O O X o X X X X X X X X X X X X X X X o . o o X o o o o o o o o o . o o X ",
"o o o o o X   o o o o o X X X X X X X X X O O O O O $ $ O O O O O O O O O O O O O O O O O O O O O O O $ $ % $ $ O $ O O O O $ % X . . . . X $ O O $ $ O O $ $ O $ O O $ % % % % % % % % + + % % % % % % % % % % % % % % % * % % % , , 4 < 4 4 < 4 4 , % + + + % 5 5 5 5 5 5 5 5 y y y y y y y 9 y y y y y y u p d d m d d d d d s s d d d d s s p d s a 5 y d B u y y 9 < O + + + + 9 s y u y y y y y y y y y y u u y y y y y y u u u u u u y y y y y y u u u u y y u u u u y y u y u u u u y 3 < 6 6 < 9 s s s s s s s s s s s s s s s d d s d d d d d d d d d s M M M s s d B M M M M s d d d d B B B B B B B V 9 + + + + d B V V V V V V V V B B B B B B B B B B d d d d s s d d d d d d s s p s u u y y y a y y u s s d d d B d d s 5 3 3 < 9 p p p p p p p p d p p p p p u u u u y y y y y a a y 9 9 9 5 5 5 5 5 5 5 5 5 5 5 5 5 5 5 5 5 5 5 5 5 5 5 2 % + O O % 3 3 3 3 3 3 3 3 3 3 3 3 3 3 3 3 4 4 4 4 4 2 4 4 2 2 2 2 2 2 2 2 2 2 2 2 2 , , 2 2 , , 2 2 2 2 2 2 2 2 , % % + $ O O & % & & % % % % % % % % % % % % % % % $ % % % % % % % & & & & & 2 2 2 ",
"% % % & & & O   o   X $ O $ $ $ $ % % % % % % % % % % & % % & % % % & & % % % % % % & % % % % % , , % % , , , , , , , , , , , , % . . . . $ 2 2 4 3 5 5 5 5 5 5 5 5 5 5 5 5 5 5 3 3 3 3 3 3 3 3 3 3 3 3 5 5 5 5 e a a a a a y y y y y y u u u u u u y < + + + 5 p p p d d d d s p p s s s d d d d s s s d d s s s s s d d s s s d d d d d d s s s s d B d m d d d B B V s + + + + 5 B s s d p s B B m m m M B B B B B B B B B B B B m m m m m m m m m B B B B d B B B B B B d B B d B B B B B 9 6 6 < 9 V V B V V V V B V B B V B B B V B B B B B B B B V V V B B B B B B B V V B B B B B V V V V V V V V V V B V s < + + < V B V V B B B B B B B B B B B B B B V B B B V B B B B B B B B B d d d B B B B B B B B d d d B d d d d d d B y 3 * + u d d s s p p p p s s s s p p p p p p p p p s s u u p u p p p p p p p u u u u u p u u u u u u u u u u y y y 4 $ O O , y y a y y a a y y y y a a a a a a a a a a a a a a a e e a 3 e 5 5 5 5 e e 5 5 e e 3 3 5 5 5 3 3 3 3 e 3 3 2 % $ X . 2 3 2 3 3 3 3 2 2 2 2 2 2 2 2 2 2 2 2 2 2 2 2 2 2 2 2 2 2 2 2 2 2 2 & ",
"& & & % & 2 $   o   X $ $ % % % % % & & 2 2 2 2 , 2 2 , & & & & % & & & % % % % % % , 2 2 2 2 2 2 2 2 2 2 , , , 4 2 2 2 , , , , % . . . . 3 y a a a a a a a a a a a a a y y y a y y y y y y y y y u u y y y y y y y y y y u y u y y y y u u u u y u p 5 + + + y s s u u u u u s u s s s s s s s p p p s d s s d s d d s d d d d d d d d d d d d d d d d p p d B d d d d B , + @ + u m s s M p p s s p p B B d s s B B B B B B B B B B B d d B d d d d B B B B B B B B B B B B B B B B B B B B u < 6 < u V B B B B B V B B B B B B V V V V V V V B B B V V V V B B B B B V V V V B B B B V V V B V V V V B B B B B B 6 + @ < B B B B B V V V V B B B B B B B B B B B B B B B B B B B B B B B B B B B B B B B d d d d d d d d B B B d d B y 3 + + u d d d d s s p p p p p p p p p p d d d p p p p p u u u u u u u u u u u u u u u u u u u y y y y y u y y y u 3 + + O , y a a y y a y a y a a a y a a a a a a a e a a a a a e 5 e 3 3 5 5 e e 5 5 5 5 5 e e e 3 3 3 5 5 3 3 3 3 3 2 $ O . . 2 t 2 2 2 2 2 2 2 2 2 2 2 2 2 2 2 2 2 2 2 2 2 2 2 2 2 2 & 2 2 2 & & & ",
"& & & & & 2 % o o   X $ % % % % & 2 2 2 2 2 2 2 2 2 2 e 2 2 2 , & & & & , , , % , 2 3 e e 5 e e 3 e e 3 e e e 3 3 3 3 3 2 2 2 , % . . . X 5 a 5 y a a a a e e r a a a a y y y y y y y y y y y y y y y y y y y y y y y y y y y y u u u y u u u u u u p 3 + + + y s u s d s s s s s s s s s s s u s s p d d d d d d d d s d d d d d d d d d d d d d p m d B d d d B d B B B 6 O + + u m m M B s B B B B B B B B B d d d d B B B B d d d d B B B B d d B B B B B B B B B B B B B B B B B B B B B s 6 6 6 y V B B B V V V V V V V V V V V V V V V V V V V V V V V V V V V V V V V V B B B B V V V V V V B V B B V B B V 6 + + < B B V V V B V V V V V V V B B B B B V B B B B B B B B B B B B B B B B B B B B B d d d m m B d d d d m d B B y 6 + + s B d d d d d d d d s p p p p p p p s d p p p d u u u u s s s p u u u u u u u u u u u u u u u u y y y y u u 5 % + O 4 y a y a y a y y y a a a a y a y a a a a a a a a a a e e e e 5 5 5 e e 5 5 5 5 e e e e 3 3 3 5 5 5 3 3 3 3 2 % X . . 2 e 3 2 2 2 2 2 2 2 2 2 2 2 2 2 2 2 2 2 2 2 2 2 2 2 2 2 2 2 2 2 2 2 2 ",
"% & & & & & & o o   X % % % % 2 2 2 2 2 2 2 2 2 2 2 2 2 2 3 t t 3 2 2 , , , , , , 2 e e e e e e e e e e e e e r a a e a e 3 2 2 , X X X X 5 a a a a a a a a a a a y a a y y a a a a a y y y y y y y y y y y y y y y u u u u y y u u y y y u u u u u s 1 + + + u d p s s s s u s s s s s s s s s s d d d d d d d d d d p d d d d d d d d d d d d d d d d d B B B B B B B B 5 + + + u B s m B B B d B B B B B B B B B B B B B B B B B B B B B B B B B B B B B B B B B B B B B B B B B B B B B B s 6 6 < u V V V V V V V V V V V V V V V V V V V V V V V V V V V V V V V V V V V V V V V V V V V V V V V V V V V V V V q , + < B B V V B B B B B V V V V V V B V V V V V V B B B B B B B B B B B B B B B B B B B B B d d B B B d d d d d B u < + + s d d d d d d d d d d d p p p d d p s s p p p p p p s d u u u u u p u p p p u u u u u u p p u i y y u y y p 5 % + + < u y y y a y y y y a a y y y y y a a a a a a a a a a a a a e 3 e e e e 5 3 5 5 5 e e e e 3 3 3 5 5 5 5 4 5 2 $ X . . 2 e 3 3 2 3 2 3 2 2 2 2 2 2 2 2 2 2 2 2 2 2 2 2 2 2 2 2 2 2 2 2 2 & & ",
"& & & & & & %   o   O % % % 2 2 2 2 2 2 2 2 2 2 2 2 2 2 2 2 3 e 3 e e e 2 , , , 2 5 e e e e e e e e e e e e e e a a e e a e 3 2 , . . X X 5 a a a a a a a a a a y y a a y a a a a y y y y y y y y y y y y y y u y y u u u u y y u u u u u u u u s s s 5 + + + u d s d s s s s p p s s u s s d d d d d d s d d m d d d d d d d d m m B B d d d d B d B B B B B B M B B B B 9 + + + s B B s B B M B B B B M M B B M B B B M B B B B B B B B B B B B B B B M M B B B B B B B B B B B B B B B B B B 6 6 6 u V V V V V V V V V V V V V V V V V V V V V V V V V V V V V V V V V V V V V V V V V V V V V V V V V V V V V V 9 < = < V V V V V V B B V V V V V B B B V V V V V V B B B B B B B B B B B B B B B B B B B B B B B B B B B B B M B B u < + + s M d d d d B d M B B s d d d s p p p p p p d p p p d s p p s u u u p p p p u u u u u u u u p p u u u y y p 9 % + + , y y y a y y y y y a y y y a y y y a a a a a a a a a a a a e 3 a e e e 5 5 5 5 5 e e e e e 3 3 5 5 5 5 3 3 5 % . . . 2 2 2 3 3 3 3 3 3 3 3 2 2 2 2 2 2 2 2 2 2 2 2 2 2 2 2 2 2 2 2 2 2 2 2 ",
"& & & & & 2 % o o . O % % & 2 2 2 2 2 2 2 2 2 2 3 3 3 3 2 3 3 3 3 3 3 3 3 3 2 2 e e e e e e e e e e e e e e a a a e a e a a e 3 4 X . X X 5 a a a a a a a a y y y y a a a y a a y y y y y y y y y y y y y y y y y u u u u u u y u u u u u u u s s s s 1 + + + u s s s s s s d u s d s d d d d d d d d d s p d p d d m m p B d d d d B B B B B B B B B B B B B B B B B B B 9 + + + s B B B B B M B B B B B B M M M B B B B M M B B B B B B B B B B B B M B B B B B B B B B B B B B B B B B B B B 1 6 < s E V V V V V V V V V V V V V V V V V V V V V V V V V V V V V V V V V V V V V V V V V V V V V V V V V V V B V 9 < = < V V V V V V V V V V V V V B B B B V B B V V V B B B B B B V V B B B B B B B B B B B B B B B B B B B B B B B u < + + u B B d d d d d B d d d d d d s d d d p p p p p p p p p p s s s s p p p p p u p p p p p u u u u u u y u u u a , % + , y y y y y y y a a a a y y y y a y a a a a a a a a a a a a a e e a a a 5 5 5 e e e 5 5 5 3 3 3 3 3 3 5 5 3 5 % . . . , 3 3 3 3 3 3 2 2 2 2 2 2 2 2 2 2 2 2 2 2 2 2 2 2 2 2 2 2 2 2 2 2 2 2 ",
"& & & & & 2 % o o . O % % 2 2 2 2 2 2 2 2 2 2 2 3 3 3 3 3 3 3 3 3 3 3 3 3 e e e e e e e e e e e e e e e e e a a e e a a a a e 3 4 X X X . 3 a a a a a a y y y y a y a a a y y y y y y y y y u y y y y y y y u u u u u u u u u u u u u u s s s u u s s 5 + + + u d p p p p s d s s d s d d d d d d d d d s s B B B B M M B B d d B B B B B B B d B B B B B B B B B B B B V y + + + p B M M B B B B B B B B B B B M B B B B B M M B B B B B B B B M B M M B B B B B B B B B B B B B B B B B B M M 1 6 6 s E V V V V V V V V V V V V V V V V V V V V V V V V V V V V V V V V V V V V V V V V V V V V V V V V V V V V V 9 < = < V V B V V V V V V V V V V V V V V V V V V B V B B B B B B B V V B V B B B B B B B B B B B B B B B B B B B B u 6 + + u B B B B B d d B d d d d d d d B d d d d s p p p p p p p p p p s s s s s p u u p p u u u u u u u u u u u u a , % + , y y y y y y y y a a a y y y y y y a a a a a a a a a a a a a 5 e a e a 5 9 5 e e e 5 5 5 3 3 3 3 3 3 5 5 5 3 % . . . , 3 3 3 3 3 3 3 2 2 2 2 2 2 2 2 2 2 2 2 2 2 2 2 2 2 2 2 2 2 2 2 2 2 2 ",
"& & & & & 2 % o X . O % % 2 2 2 2 2 2 2 2 2 2 2 2 2 3 3 3 3 3 3 3 3 3 3 3 e e e e e e e e e e e e e e e e e a a e e e a a y a 4 2 O X X O 5 a a a a a a y y y y y y y y y y y y y y y y y y y y u u y y y u y y u u u u u u u u u u s s p p u s u s d 5 + + + u p p s d s p s s d d d d d d d d d d B B M B B B B B B M B B B B B B B B B B B B B B B B B B B B B B B B V f + + = s B B B B B B B B B B B B B B B B B B B B B B M M B B B B B B B B B B B B B B B B B B B B B B B B B B V V V B 1 1 6 u E V V V V V V V V V V V V V V V V V V V V V V V V V V V V V V V V V V V V V V V V V V V V V V V V V V V V V 9 6 = < V V V V B V V V V V V V V V V V V V V V V V V V V V B B V V V V V V B B B B B B B B B B B B B B B B B B B B s 6 + + s B B B B B B B B B d d d d d d d d d d d d s d p p p p p p p p s s s s s s p p p p p u u u u u u u u u u u a , % + 2 y y y y y y y y y a a y y y a y y a a y a a a a a a a a a a 5 5 5 e a a 9 e 5 e e 5 5 5 5 3 3 3 3 3 3 5 5 5 % . . . 2 2 3 3 3 3 3 3 3 2 2 3 3 2 2 2 2 2 2 2 2 2 2 2 2 2 2 2 2 2 2 2 2 2 2 ",
"& & & & & & % o o . O % % 2 2 2 2 2 2 2 2 2 2 2 2 2 3 3 3 3 3 3 3 3 3 3 e e e e e e e e e e e e e e e e e e a a e e a a a a a 4 , O . X O 5 a a y y a a a a y y y y y y y y y y y y y y y y y y u u u u u u y u u u u u u u u u s s u u u p u s s s s 9 + + % u s p s s p d d d p d d d d d d d B B B M M B B B B M B B B B B B B B B B B B B B B B B B B B B B B B B B V u + = = M B B B B B M M B B B B B B B B B B B B B B B B B B B B B B B B B B B B B B B B B B B B B B B B B B B V V V B 7 1 6 u V V V V V V V V V V V V V V V V V V V V V V V V V V V V V V V V V V V V V V V V V V V V V V V V V V V V V V 9 6 = < V V V V V V V V V V V V V V V V B B V V V V V V V V V V V V V V V V B B B B B B V V B B B B B B B B B B B B s 1 + + s B B B B B B B B B B B d d d d d d d d d d s d B s p p p p p p p p p s s s s s u u p p p u u u u u u u u u y , % + 2 u y y y y y y y y y y y y a a y y y y y y y y a a a a a a a a a 5 a a 9 9 a a e e e 5 5 5 e e 3 3 3 3 5 5 5 % X .   2 3 3 3 3 3 3 3 3 2 2 3 3 3 2 2 2 2 2 2 2 2 2 2 2 2 2 2 2 2 2 2 2 2 2 ",
"& & & & & 2 % o o . O % % 2 2 2 2 2 2 2 2 3 2 2 2 3 3 3 3 3 3 3 3 3 3 e e e e e e e e e e e e e e a a a a a a a a a a a a a a 4 , O X X X 5 a a y y y y a a a a y y y y y y y y y y y y y y y y u u y y y u u u u u u u u u u u u s s u p p s s p u d 9 + % % u p p s s s d d d p d p p B B B B B B B B B B B B B B B B B B B B B B B B B B B B B B B B B B B B B B B B V 0 @ = = M B M B B B B B B B B B B B B B B B B B B V V B B B B B B B B B B B B B B B B B B B B B B V V B B B B V V V B q 1 6 u C V V V V V V V V V V V V V V V V V V V V V V V V V V V V V V V V V V V V V V V V V V V V V V V V V V V V V 9 6 - < V V V V V V V V V V V V V V V V V V V V V V V V V V V V V V V V V V B B B B V V V V B B B B B B B B B B B B s 1 + + s B B B B B B B B B B B B B B B d d d d d d d d B M d s d p p p p p p p p s s s s s u p p p p u u u u u u u y , % + , u y y y u u y y y y y y y a a a y y y y y a a y y a a a a a a a a a a a a a a a 5 e e e e e e e 3 3 3 5 3 5 % X .   2 3 3 3 3 3 3 3 3 3 2 3 3 2 2 2 2 2 2 2 2 2 2 2 2 2 2 2 2 2 2 2 2 2 2 ",
"& & & & & 2 % o o   O % % 2 2 2 2 2 2 2 2 3 2 2 3 3 3 3 3 3 3 3 3 3 e e e 3 e e e e e e e e e e a a a a e e a a a a a a a a a 4 , O X X O 5 a y y y y y a a a y y y y y y y y y y y y y y y u u u u y y u u u u u u u u u u u u u u u u u s p p p s d 9 + % @ u p p p d d d m m m m B B B B B M B B B B B B B B B B B B B B B B B B B B B B B B M M B B B B B B B B B B V 0 @ = = M B B B B B M B B B B B B B V B B B B B B V V V V B B B B V V V V V V B B V V V V B B V V V V V V B B V V V B q 1 6 s E V V V V V V V V V V V V V V V V V V V V V V V V V V V V V V V V V V V V V V V V V V V V V V V V V V V V V 9 6 < < V V V V V V V V V V V V V V V V V V V V V V V V V V V V V V V V V V V V V V V V V V B B B B B B B B B B B B s 6 + + s B B B B B B B B B B B B B B B m B d d d d d d M M d d d d d p p p p p p p p p s s s s u p p p p u u u u u y < + + , u y y u u u u u y y y y y y y a y y y y y a y y y y a a a a a a a a a a a a a e 3 3 3 e e 5 e e e 3 3 3 3 3 % X . . 2 e 3 3 3 3 3 3 3 3 3 2 3 2 2 2 2 2 2 2 2 2 2 2 2 2 2 2 2 2 2 2 2 2 2 ",
"& & & & 2 2 % o X . O & & 2 2 2 2 2 2 2 3 3 2 3 3 3 3 3 3 3 3 3 3 e e e e e e e e e e e e e e e e e e e e e a a a a a a a a a 3 4 O X X O 5 a a a a y y a a y y y y y y y y y y y y u u y u y y u u u u u u u u u u u u u u u u u u u u u p p p d s d 9 + , < p d p d M B B B B m m B B B B M B B B B B B B B B B B B B B B B B B B B B B B B B B B B B B B B B V V V B V 0 @ = = M V V B B B M B B B B V V V V V V V V B V V V V V V V B V V V V V V V B B B V V V B V V V V V V V V V V V V N 7 1 1 s C V V V V V V V V V V V V V V V V V V V V V V V V V V V V V V V V V V V V V V V V V V V V V V V V V V V V V 9 1 6 6 V V V V V V V V V V V V V V V V V V V V V V V V V V V V V B V V V V V V V V V V V V B B B B B B B B B B B B s < + = p B B B B B B B B B B B B B B B B B B B B B d d M M d d B B d d p p p p p p p p p p d s s u p p p p u u u u y < + + < u u u u u y y y y y y y y y y y y y y a a y a y y y y a a a a a a a a a a 5 e e e a 3 5 5 5 5 e e 3 3 3 3 3 % X X X 2 e 3 3 3 3 3 3 3 3 3 3 2 2 2 3 2 2 2 2 2 2 2 2 2 2 2 2 2 2 2 2 2 2 2 ",
"2 & & & 2 2 % o X   O & & 2 2 2 2 2 2 3 3 3 2 3 3 3 3 3 3 3 3 e 3 5 e e e e e e e e e e e e e e e e e a e e a a a a a a a a a 3 2 O X X O 5 y y a y y y y y y y y y y y y y y y y y y u u u y y u u u u u u u u u u u u u u u p u u p p p p p s d s d 9 = = < d B B B B B B B B M B B B B B M B B B B B B B B B B B B B B B B B B B B B B B B B V B B B V V V V V V V B V u + = = M V N N N B B V V V V V V V V V V V V B V V V V V V V B B V V V V V V V V V V V V V V V V V V V V V V V V V N 9 7 1 s C V F V V V V V V V V V V V V V V V V V V V V V V V V V V V V V V V V V V V V V V V V V V V V V V V V V V V 9 1 - 6 V V V V V V V V V V V V V V V V V V V V V V V V V V V V V V V V V V V V V V V V V V V V V B B B B B V B B B M = @ = p B B B B B B B B B B B B B B B B B B B B B B B B B B d d d d d d d p p p p p p p p p s s s u u p p p p u u y < + + < u u u u u y y y y y y y y y y y y y y a a a a y y y y y y a a a a a a a 5 5 e e e a 3 3 5 5 5 e e e 3 3 3 3 % X X X 2 e 3 e 3 3 3 3 3 3 3 3 2 2 2 3 2 2 2 2 2 2 2 2 2 2 2 2 2 2 2 2 2 2 2 ",
"& & & & 2 & % . X . O % % 2 2 2 2 2 2 2 2 2 3 3 3 3 3 3 3 3 3 3 3 e e e e e e e e e e e e a e e e e e e a a a a a a a a a a y 3 < O X X O 9 y a a a a y y y y y y y u u u u u u y y u u u u u u u u u u u u u p p u u u p p u u p p p p p p s s s s d 9 + = < B B B B B B B B B d B B B B B B B B B B B B B B B B B B B B B B B B B B B B B B B V V B V B V B V V V V B V 0 @ = = M N B V B B B B B B B V V V V V V N N N V V V V V V V V V V V V V V V V V V V V V V V V V V V V V V V V V V N 9 7 1 s F V F V V V V V V V V V V V V V V V V V V V V V V V V V V V V V V V V V V V V V V V V V V V V V V V V V V V 0 1 6 6 V V V V V V V V V V V V V V V V V V V V V V V V V V V V V V V V V V V V V V V V V V V V V B B B B B V B B V 0 + + @ s B B B B B B B B B B B B B B B B B B B B B B B B B B d d d d d d s M s p p p p p p p p p s s s s u u u p p y 2 + + < u u u u y y y y y y y y u y y y y y y a a a a y y y y a a a a a a a a a a a 5 5 5 a a 5 e 5 5 e 5 e 5 3 3 3 % . . X 2 e e 3 3 3 3 3 3 2 2 3 3 2 2 2 2 2 2 2 2 2 2 2 2 2 2 2 2 2 2 2 2 2 2 ",
"& & & 2 2 & % o X . O % & 2 2 2 2 2 2 2 2 3 3 3 3 3 3 3 3 3 3 e e e e e e e e e e e e e a a e a e e e e a a a a a y a a a a a 3 < O X X O 9 y y a y y y y y y y u u y y y y u u y y u u u u u u u u u u u u p p p u u u u p u s p p p p s s s s s p d 9 + = < B B B M M B B B B B B B B B B B B B B B B B B B B B B B B B B B B B B B B V V V V B V B V V V V V V B V B V 0 = = = M V V V V V V N N V V V V V V V V V V V V V V V V V V V V V V V V V V V V V V V V V V V V V V V V V V V V V N 7 7 1 s V V V V V V V V C C H C V V C C H H V V V V V V V V V C V V V V V V V V V V V V V V V V V V V V V V V V V C 0 1 6 6 V V V V V V V V V V V V V V V V V V V V V V V V V V V V V V V V V V V V V V V V V V V V V V V V B B B B B V 9 @ @ = s B B B B B B B B B B B B B B B B B B B B B B B B B B B B d d d d s s M d d p p p p p p p p p s d s s s p p 9 2 + + < u u u u u u y y u y y u u u y y y y y y a a a y y y y a a y a a a a a a a a a 5 5 a a a 5 5 5 5 5 e e e 3 3 % . . X 2 e e e e 3 3 3 3 3 3 3 3 3 3 2 2 2 2 2 2 2 2 2 2 2 2 2 2 2 2 2 2 2 2 ",
"& & 2 2 2 2 % o X . O & & 2 2 2 3 2 2 2 2 3 3 3 3 3 3 3 3 3 e e e e e e e e e e e e e e a a a a a e a a a a a y a a a a a y y 3 2 O X X O 9 a y y y y y y y y y y y y y y y u u y y y y u u u u u u u u u u u p p p u u p p p p p p s s s s s s s s B 9 + = 6 B B B M B B B B B B B B B B B B B B B B B B B B B B B B B B B B B B B B V B V B B V B V V V V V V V B V V V 0 = = , M V V V V V V V V V V V V V V V V V V V V V V V V V V V V V V V V V V V V V V V V V V V V V V V V V V V V V N 7 7 1 M V V V E F V V H F F H H V V V V H H H V H H V H V V V V H H H H H H V V V V V V V V V V V V V V V V V V V F 0 7 6 6 V V V V V V V V V V C V V V V V V V V V V V V V V V V V V V V V V V V V V V V V V V B B V V V V V V V V V V 0 = @ = s B B B B B B B B B B B B B B B B B B B B B B B B B B B B B B B d d B M d d s s s p p p p p p d p p p s s d 9 6 + + < u u u u u y u y y y y u u y y y y y y y y y a y y y a a a y y a a a a a a a a a 5 e a e e 5 3 5 5 5 5 e e 3 % . X . 2 e e e e 3 3 3 e 3 3 3 3 3 3 3 3 2 2 3 2 2 2 2 2 2 2 2 2 2 2 2 2 2 2 ",
"& & 2 2 2 2 % o X . O & , 2 2 2 3 2 2 2 3 3 3 3 3 3 3 3 3 e e e e e e e 3 e e e e e e e a a a e a a a a a a a y a a a a a y y 5 4 O X X O 9 y y y y y y y y y y y y y y y y u u y y u u u u u u u u u u u u u u p p p p p p p p p s s s s s s p m m B 9 + = 6 B B B B B B B B m B B B B B B B B B B B B B B B B M B B B B B B V V V V V B B B V V V V V V V V V V V V V V 0 = - - M V V V V V V V V V V V V V V V V V V V V V V V V V V V V V V V V V V V V V V V V V V V V V V V V V V V V V V 7 7 7 M C V C V F H V V V H V H V V V V H H C V C H H H V V V V H H H H H H C V V V V V H H H H H H H V V V V V V F 0 1 - - V V V V V V V V V V V V V V V V V V V V V V V V V V V V V V V V V V V V V V V V V V V V V V V V V V V V V V u 6 @ = M V B B B B B B B B B B B B B B B B B B B B B B B B B B B B B B d d B d d d d d M m m p p p p s p p p s s d 9 6 + + < u u u u u u u u y y u u u y y y y u y y y y y y y y a a a y y a a a a a a a a a a e e e e a 3 3 5 5 5 5 e 5 % . X . 2 e e e e 5 3 3 3 3 3 3 3 3 3 3 3 2 2 3 2 2 2 2 2 2 2 2 2 2 2 2 2 2 2 ",
"& 2 2 2 2 2 & o X . O & & 2 2 2 3 3 3 3 3 3 3 3 3 3 3 e e e e e e e e e e e e e e e a e a a e e a a a a a a a a a a a a y y y 3 2 O X X O 5 y y y y y y u u y y y y y y u y y y u u u u u u u u u u u u p p u u p p p p p p s s s s s s s s p p m m B 9 @ < < B B B B B B B B B B B B B B B B B B B B B B B B M B B B B B V V V V V B B B V V V V V V V V V V V V V V V V 0 = - - M V V V V N N V V V V V V V V V V V V V V V V V V V V V V V V V V V V V V V V V V V V V V V V V V V V V V V N 7 7 7 M H V C V V V V V V F F F F F F F F F F F F F F F F F F F F F F F H F F F R F F F F F V V H H H H V V V V F V 0 1 - 6 V V V V V V V V V V V V V V V V V V V V C C V V V V V V V V V V V V V V V V V V V V V V V V V V B V V V V V u q = = M B B B V B B B B B B B B B B B B B B B B B B B B B B B B B B B B B B d d d d d M M s m p p p p p s p p p d 9 6 + + 3 s u u u u u u y y u u y y y y u y y y u y y y y y y y y y a a y y a a a a a a 9 a a e e e a 3 3 e 5 e 5 5 5 % . X . 2 e e e e e e 3 3 3 3 3 3 3 3 3 3 2 2 3 2 2 2 2 2 2 2 2 2 2 2 2 2 2 2 ",
"& & 2 2 2 2 & X X . O & & 2 3 3 3 3 3 3 3 3 3 3 3 3 3 e e e e e e e e e e e e e a e e e a e e a a a a a a a a a a a a a y y y 3 , X X O O 5 y y y y y y u u y y y y y u u u u y u u u u u u u u u u u u p p u s p p p p p s s s s s s s M m p B d d B 9 = , 6 B B B B B B B B B B B B B B B B B B B B B B B B B B B B V B V V V V V V V V V V V V V V V V V V V V V V V V 0 = - - M V V V V V V V V V V V V V V V V V V V V V V V V V V V V V V V V V V V V V V F V V V V V V V V V V V V V V N 7 7 7 M R F F H F F F F H H H H H H H H H H H H F F H H H H C C H H H H H H F F F F F F F F F F H H H H V V V V F F 0 1 - 1 V V V V V V V V V V V V V V V V V V V V V V V V V V V V V V V V V V V V V V V V V V V V V V V V V V V V V V u 9 6 = M V B V V V V V V V V B B B B B B B B B B B B B B B B B B B B B B B B B d d d d s M M M d m m p p s p p p p a < + + 9 p u u u u u u u y u u u y y y y u y y u y y y y y y y y y y y a y y a a a a 9 9 9 a a e 3 a a 3 e 3 5 5 5 5 % . X . 2 e e e e e e 3 3 3 3 3 3 3 3 3 e 3 2 3 3 2 2 2 2 2 2 2 2 2 2 2 2 2 2 ",
"2 2 2 2 2 2 % X X . O & % 2 2 2 t t 3 3 3 3 3 3 3 3 e e e e e e e e e e e e e a a a a a e e e a a a a a a a a a a a a a y y 9 3 , X O O O 9 y y y y y y u u u y y y u u u u u u u u u u u u u u u u u u p p p p p p p s s s s s s s s M M m B B B B B y = = 6 B B B B B B B B M B B B B B B B B B B B B V V V V V V V V B B V V V V V V V V V V V V V V V V V V V V V V V 0 = 6 - M V V V V V V V V V V V V V V V V V V V V V V V V V V V V V V V V V V V V V V V V V F V V V V F F V V V F F N 7 7 7 M Y H H H H H H H F F F F F F F F F F H H F F F F H H H H H H H H H H H H F F F F H H H H H H H F F F F F F F 0 7 - ; F F H H H H V V H H V V V V V V V V F F V V V V V V V V V V V V V V V V V V V V V V V V V V V V V V V V V V u 9 6 = M V V V V V V V V V V V V B B B B B B B B B B B B B B B B B B B B B B B B B B B d d B d s d M m m p p p p p 9 % + + 9 u u u u u u u u u u u u u u u u u y y y y u y y y y y y y y y y y y a a a a a 9 9 a a a e a a a 3 e e 5 5 5 % . X . 2 e e e e e e e 3 e 3 3 3 3 3 3 3 3 2 2 2 2 2 2 2 2 2 2 2 2 2 2 2 2 2 ",
"& 2 2 2 2 2 % X X o O & % & 2 2 t t t t 3 3 3 3 3 e e e e e e e e e e e 3 5 3 3 5 a a a a a a a a a a a a a a a a y a a a y 5 3 , X O O O 9 y y y y y y u u u y u y u u u u u u u u u u u u u u u u u s p p p p p p s s s s s s s M M M M B B B B B B 9 = < < B B B B B B B B B B B B B B B B B B B B V V V B B V V V V V V V V V V V V V V V V V V V V V V V V V V V V V 0 = 6 = M V V V V V V V V V V V V V V V V V V V V V V V V V V V V V V V V V V V V V F F F V V V V V V F V F F F F F N 7 7 7 M Y H F H F F F F F F F F H F F H H F F H H H F F F F F F F F F F F F F F F F F F F H H H H H H H H H H H H F 0 7 1 ; F F H H H H V C H H H H H H C V V V V V V V V V V V V V V V V V V V V V V V V V V V V V V V V V V V V V V V s 9 1 = M V V B V V V V V V V V V V V V V V B B B B B B B B B B B B B B B B B B B B B B B B B d s M d B m m m p s d y + = + 5 u u u u u u u u u u u u u u u u u y y y y u y y y y y y y y y y y y y y a a a 9 9 9 a a a a a a a e e e e 5 % . X . , e e e e e e e e e 3 3 3 3 3 3 3 3 3 2 2 2 2 2 2 2 2 2 2 2 2 2 2 2 2 ",
", & & & 2 2 % . . . O % & % % & 2 2 2 2 2 2 3 3 3 3 3 2 2 2 2 2 2 3 3 , % , 2 2 2 2 3 3 3 3 e a a a a a a a 9 a y a a y y 9 3 3 4 X O X O 9 y u y y y y y y u u u u u u u u u u u u u p u p p u u u p p p p p p s s s s s s M B M p m B B M B B B B B 9 = - < M B B B B B B B B B B B B B B B B V V V V V V B B V B V V V V V V V V V V V V V V V V V V V V V V V V V V F 0 - - - l F V V N V V V V V V V F V V V V V V V V V V V V V V V V F V V V V V V V F F F V F F F F F F V F F V F F F V 9 7 7 0 H H F H H H H H H H H H H H H H H H H H H H H H H H H H H H H H H H H H H H F F F F F F F F R R H H H H H F 9 9 7 1 V H H H F F V V V C F F V V V V V V F R V V V V V V F C V V V V V V V V V V V V V V V V V V V V V V V V V V u 9 7 = M V V V V V V V V V V V V B V B V V B B B B B B B B B B B B B B B B B B B B B B M B B s B d d d s B m s p m 9 @ + + 5 p s p u u u u u u u u u u u u u u u u y y u y u u y y y y y a a a a a y y a a a a 9 9 a a a a a a e 3 3 3 e % X . . , a 5 e e e e e e e e 5 3 3 3 3 3 2 3 3 2 2 2 2 2 2 2 2 2 2 2 2 2 2 2 ",
"& & 2 2 & 2 % . o o O % % % % & & % & , % % , , % , , , , , , , , 2 , , , 2 2 2 2 2 2 2 2 2 3 6 3 3 3 5 5 5 a a y y y 9 5 3 3 3 , X X O O 9 u y u y y y u u u u u u u u u u u u u u s u u s u u p p s p p s s s d s s s s s M M M M B B B B B B B B B 9 = < < M B B B B B B B B B B B B B V V V B B V V V V B B V V V V V V V V N V V V V V V V V V V V V V V V V V V V F 9 - 6 - 0 V V V V F F V V V V V V V V V V V V V V F F V F V V V V V V V V V V V V N N V F F F F F F F F F F V F H F V 7 7 7 8 H F F H H H H H H H H H H H H H H H H H H H H H H H H H H H H H H H H H H H H H H H H H H F F F F F F F Y V 7 7 7 ; N H Y Y R R Y H H H H H H H H H H H H H F H H H H H F H F F V V C C H V V V V V H V F V V V V V V V V V V V u 0 9 = M V V V V V V V V V V V V V V V V V V V V V V V V B B B B B B B B B B B B B B B B B B B M M B d B d B s p m 5 + = + 3 s s u u u p u u u u u u u u u u u u u u y u u y y u y y y y a a a y y y 9 y a a a a a a y a a a a a a 3 3 q % . . X % e e e e e e e e e e 5 3 3 3 e 3 3 e 3 3 3 3 2 2 2 2 2 2 2 2 2 2 2 2 ",
"& 2 2 , 2 2 % . . . X $ % % % , & , , , , , , 2 % 2 2 2 , , 2 2 2 2 2 2 2 3 2 2 2 6 3 3 3 3 3 3 3 6 3 3 3 3 3 3 3 5 5 3 3 3 3 3 + O O O O 5 u u u u u u u u u u u u u u u u p p u d p p p s p p p p p p s s M M p m B M M M B B B B B B B B B M M B M 6 < < , s V B B B B V V V V V V V V V V V V V V V V V V V V V V V V V V V V V V V V V V F V V V V V V V V V F F F F 7 - 6 - 1 V F V F F V F F F F F F F F F F F V V F F F V F F F F F H H F F F F F H H H F F F F F F F F F F F F F H F n 7 7 7 8 V H J H H H H H H H Y H H H H H H H H H H H H H H H H H H H H H H H H H H H H H H H H H H H H H H H F V F l 7 7 7 7 0 M M M s M M n M M N N N N N N N N N N N N V N N N N N N N N N M N M M M M M N N N N N M M M M M M M M B M 0 9 9 = q 0 0 u 0 0 0 0 0 0 0 0 0 9 u s M M M M m M M M M M M M m M M B M B B B B B B B B B B B B B B B B d B d B M < = = = , 9 y y u u u y y y y y y y y y y y y y y y y a a y a y a a 9 9 9 9 5 9 9 9 9 9 5 5 e e 5 5 5 5 5 5 5 5 3 3 2 % O X . % e a e e e e e e e e e 3 3 e 3 3 e 2 t t t 3 3 t 2 2 2 3 2 2 2 2 2 2 ",
"$ % % $ % $ X . . . . X X X O O O O O O O O O O O O O O O O O O O O O O O O O + + % + + + + + + % + + + + + + + % + % % + + + + O X O X O + % , , , , , , , , 4 4 < < < 2 < < < < < < < 6 6 6 6 6 < 2 < 6 6 6 6 6 6 6 6 6 6 3 6 6 3 3 3 6 6 6 3 6 1 < < < < < 6 y u 0 0 0 0 0 0 0 0 9 9 q q q 9 9 9 0 u s s s u 0 s s 0 s n M s 0 l s M s s 0 0 0 9 9 9 9 9 9 9 0 0 8 0 9 - - - - - 7 7 7 9 0 9 0 0 0 0 0 0 0 0 0 0 0 7 8 8 8 8 0 0 9 7 8 0 0 0 0 0 0 0 0 0 j l n l l l l l w 0 0 8 8 0 8 8 0 7 7 0 8 7 8 0 0 0 0 0 0 0 0 0 0 0 0 0 0 0 0 0 0 0 0 0 0 0 0 0 0 0 0 0 0 0 0 0 0 0 0 0 0 0 0 0 0 0 0 0 0 0 0 0 0 8 7 7 7 1 6 7 7 7 7 7 7 7 7 7 7 7 7 7 7 7 7 7 7 7 7 7 7 7 7 7 7 7 7 7 7 7 7 7 7 7 7 7 7 7 7 7 1 7 1 1 1 1 1 1 1 1 1 1 6 7 w 0 9 = < 6 6 < - - - - - - - - - = = < - - = 6 6 6 6 - 6 = 6 6 6 < < - 6 6 6 6 6 6 6 1 6 6 6 6 6 6 6 6 < 6 6 < < < + = = = + = + + + + = = + + + + + + + + + + + + + + + + + + + + + + + + + + + + + + + + + + O O O O O O O O O O O O O , % X O O O O O O O O O O O O O O O O O O O O $ O O O O $ O O O O O X O O X X ",
"    . . . . . . X . . X X X . X . . . . . . X X X X X X X X X X X X X X X O O O O O O O O O O O O O O O O O O O O O O O O O O O + O O O + + + O + + + + + + + + + + + + + + + + + + + + + + + + + + + + @ + + = = = = = @ = = = = = = , = = = , = = < < - = < < = = = = = = = = - - = = = = - - - - - = : - - - 6 6 6 6 6 6 - - - 6 6 6 1 6 - - - - - - - - - - - - 6 - - - - ; 7 1 1 1 ; ; 1 1 1 1 1 1 7 1 1 1 7 7 7 7 7 7 1 1 ; 7 7 1 7 1 1 7 7 7 7 7 7 7 7 7 7 7 ; ; ; 7 7 ; 7 7 ; ; 7 ; ; 7 8 8 8 8 8 8 8 8 8 7 8 8 8 8 8 8 8 8 8 8 8 8 8 8 8 8 8 7 8 8 8 8 8 8 7 8 8 8 8 7 8 8 7 7 7 7 8 8 8 8 8 8 7 7 7 7 8 8 7 1 7 8 7 8 8 8 7 7 7 7 7 7 7 7 7 7 7 7 7 7 7 9 9 9 7 7 7 7 7 7 7 7 7 7 7 7 7 7 7 7 7 7 7 7 7 7 7 7 7 1 7 7 7 7 7 0 0 0 0 6 = = = = = = = = = = = = = = = = = = = = = = = = - < - - 6 6 : = - - - - - - - - = - - = < = = = = = @ = < , < % , = = = , = + = + + + + + + + + + + + + + + + + + + + + + + + + + + + O O + + + O O O O O O O O O O O O O O O O O % % O O O O X X X X X X X X X X . X X . X X . . . . . o X . . o . . o o o o . ",
".     . . . . . . . X X X O X O O X O X O O O O O O O O O O O O O X O X O O O O O O O O + + + + O O + + + + + + + % + % % % , + < * * , % % < , , , , < < < < < < < < % % , , < , , , , = + + + + + + = = , < < < < < < < < < < < < < < < 6 6 1 6 1 1 1 1 1 1 1 1 1 6 1 1 7 1 1 6 1 1 7 7 7 1 1 1 1 1 1 1 1 1 6 6 1 1 6 - 1 6 ; 1 1 1 7 7 1 ; ; 6 1 ; ; 1 1 1 1 1 1 1 1 1 1 1 1 1 1 7 7 7 7 7 7 7 7 7 7 7 7 7 7 7 7 7 7 7 7 7 7 7 7 7 7 7 7 7 7 7 7 7 7 7 7 7 7 7 7 7 7 7 7 7 ; 7 7 7 7 7 7 7 7 7 7 8 7 7 7 7 7 7 7 7 7 7 7 7 7 7 7 7 7 7 7 7 7 7 7 8 8 8 8 8 8 8 8 8 8 8 8 8 8 8 8 8 8 7 7 8 8 8 8 8 8 8 8 8 7 7 7 7 7 7 7 7 7 7 7 7 7 7 7 7 7 7 7 7 7 7 7 7 7 7 7 7 7 7 7 7 7 7 7 7 7 0 0 0 0 0 9 9 0 0 0 0 0 0 8 7 9 9 9 0 0 9 0 0 0 0 9 0 9 7 7 7 7 9 9 9 9 9 9 7 1 1 1 1 1 7 9 9 9 9 9 1 6 6 - - - = - 6 6 1 1 1 1 1 6 1 1 6 6 6 6 6 6 6 6 6 6 6 2 < < < < < < < < < < % < , < < < = < < < , , , , , = = = = + + + + + + + + + + + + + + + + + O O O O O O O O O O O O O O % % % + O O O + $ $ O O O O O O O O O O O O O O O O O O O O X X . . X X X X X X ",
"X X O O $ O O O $ $ $ $ $ % % % % % % % % % % % % , , , % % % % % % O O O O O O + % % , % % % % % % % % % % % * % , , , , , < , , < , < , , < 4 < < < < < < < < < < 2 < 2 6 6 6 3 6 6 6 5 < + + + + + 6 5 5 3 6 6 5 5 5 1 6 6 6 1 1 1 7 7 7 7 7 q q q q q q 9 q 9 9 9 9 9 9 9 9 9 9 9 0 9 9 9 9 9 9 0 9 0 9 9 7 1 6 6 6 0 n n M M M N N N N M M M M j M M M N N N N N N N N M N N N N M N N N N N N N N N N N N N N M M N N M M l 0 7 7 7 7 7 7 j j n n j j j j n n j j n n n n l j j l j j l l j 0 0 j j j j j j j l l l l l l l l l l l l l l l z l 0 8 8 8 8 8 j j l l l N N N N N M M M M N M l M l n l l l j l l k l j l j j 0 j j j j j l l M l M l l l l j j l 0 0 0 7 7 7 7 7 0 N V V N N N V N N N N N N N N N V V V V V V V V N V M M V V N N N N M N N N N N N N M M V V V V V V V V V m 0 9 = = 1 9 9 9 9 9 9 9 9 9 9 9 9 u u u 0 0 u 0 0 0 0 u y y 0 y 9 9 9 y 9 9 9 9 9 5 3 6 6 6 6 6 3 3 5 5 9 y 9 5 < , , , + + , 3 5 9 9 9 5 5 5 5 5 5 5 5 5 5 3 5 5 5 3 3 3 5 5 3 3 2 5 3 5 4 5 3 2 2 2 2 2 2 2 2 2 2 2 2 2 2 2 2 2 2 & % $ $ X . X % & & & % ",
"& 2 2 2 2 2 2 2 2 , , 2 2 2 2 2 2 2 2 2 2 2 3 3 3 3 3 3 3 3 3 3 3 5 5 % O O O O % % % % % , , , , 4 4 4 4 2 2 4 3 3 3 3 3 3 3 3 3 3 3 5 3 5 3 3 5 5 5 5 5 5 9 9 9 9 9 y y y y y u y u p p y + @ + + 6 u M B s d s B B B s u u u M B B B M u u u u u 0 u u u u 0 u u u u u n u u M s 0 0 0 0 0 0 0 0 0 0 0 0 0 0 7 1 1 1 M V V V V V V V V V V V V V V F F F F N V V V V N F F F F F F F F H F F F H H H F F H H F H H H H H H H F H j ; > 7 7 N H H H H H H H H H H H H H H H H H H H H H A N N N N N N N N N A F F F H H H H G H H H H H H F F A N A A j 7 8 8 0 N H J J J T T J J J J H H H H H H H H H H H H H H H H F F V A N N N N N N N N V V N V V V V N N N N N N N n 7 7 7 7 j H Y H F F F F F H H H H H H F F V V V V F V H V C F C V V F V V V V V F V V V V V V V V V V V V V V V V V B 0 0 - < 9 B B B B B B V B B B B B B B B B B M M M M M B B B m m d d d p m p p p p p p p p p u p u u p u u u u u u 3 % , + O 6 u y y y y u y a a 9 9 a a a a a a a a 9 9 9 9 e 9 a 5 5 5 5 5 e e 5 3 3 3 3 3 3 e e 3 t e 3 t t 2 2 2 2 2 & O X . X 2 t 2 2 2 ",
"& 2 2 2 2 2 2 2 2 2 2 2 2 2 2 2 2 2 2 2 2 3 2 3 3 3 3 3 3 3 3 3 3 3 3 3 O O O O % 3 e 5 9 a a a 9 y a a a a y y y y y u u u u u y u u u u u u u u u u u u u u u u u u u p p u u u p p p s s , + + + u B B B B B B B B B B B B B B B B B V V V V V V V V V V V V V V V V V V V V V V V V V V V V V V M M M M 0 0 0 9 1 7 M V V V V N N N N N N V V V V V V V V V V N V A A F N F F F V F F F F F F F F F F F F F F F F F F F F F F H l 7 7 7 j J J J J J J J H J T T T T T T T T T T T T T T J J H H H H H H H J J J T T T T T J T T T T T T T T J H A A N 8 8 8 8 A T T T T T J T T T T T T T T T T T T T T T T T T T T T H H H H H H H H H H H H H H H H H H H J F F F N N V 0 7 7 7 j H H F F F F F F F F F F F F F F V V V V V V V V V V V V F F F F C V V V V V V V V V V V V V V V V V V V V V 0 9 = < 0 V B B B B B B B B B B B B B B B B B M M M M B s s m M s s s p p p p p u u s p p u u u u u u u u u u u u y , , + + 3 y a y y y y y y a a a 9 9 a y a a a a a 5 e e a 5 q 3 5 e 5 5 5 e e 5 3 3 3 3 3 3 e e 3 3 3 2 2 2 3 2 2 2 2 O . o O 2 2 2 2 2 ",
"2 2 2 2 , , 2 2 2 2 2 2 2 2 2 2 2 2 2 2 2 3 3 3 3 3 3 3 3 3 3 3 3 3 3 3 O O O O 4 y y 9 a a a a y a a a a a y y y y y y u u y y y y u u u u u u u u u u u u u u u p u u p u u u s p s s s s , + + + u B B B B B B B B B B B B B B B B B V V V V B B V V V V V V V V V V V V V V V V V V V V V V V V V V F V N 0 0 0 7 7 V V V V N N N V V V V V V N V V V V A A F V F F F F F F F F F F F F F F F F F A A F F F F F F F F F F H A H l ; 7 7 j T J J J J J T T T J J J J T T T J J J J T T J J J T T J J J J J J J T T T J J J J J J J J J J J J T T H A A 8 8 8 8 H T T T T J T T T T T T T T T T T T T T T T Y T T T T T T T T T T T T T H H J H H H H H H J J J J Y T H V V l 7 7 7 l H F F F F F F F F F F F F F F F C V V F V V V V V V V V F V F C C C V V V V V V V V V V V V V V V V V V V B 0 9 = = u V B V V V B B B B B B B B B B B B B B M M M M B s M M M s s s s p p p p s p p p u u u s u u u u u u u y u 4 , + + 3 u y y y y y y y y a a 9 9 9 a a a a a a a 9 5 a a e e 3 5 5 5 5 5 5 5 5 3 3 3 3 3 e e e 3 3 3 2 2 3 2 2 2 2 O X o O 2 2 2 2 2 ",
", 2 2 2 , , 2 2 2 2 2 2 2 2 2 2 2 2 2 2 3 3 3 3 3 3 3 3 3 3 3 3 3 3 3 3 O O O O 3 9 9 9 a a a y y y a a y a y y y y y u y y y y y y y y u u u u u u u u u u u u u u u u p p u p s s s s s s < + + + s B B B B B B B B B B B B B B B V B V V V V B B V V V V V V V V V V V V V V V V V V V V V V V V V V V F V M 0 0 7 7 N N N N V V V V V V V V V V N N A A A F V V V F V F F F F F F F F A H H H H H H H H H H A H H H H H H H H J N > 7 7 j T T T T T J J J J J J J J T T J J J J T T T T J J J J J J J J J H J J T T T T T T J T T T T T T T J T J N A g 8 8 j H T T T J J T T T T T T T T T T T T T T T T J T T T T J T T T T T T T T T T T T T J J H H J H J J J J T H N j 7 8 7 l H H H H F F F F F F F F F F F F F F F C C F F F F F F F F V V V C C C V F H V V V V V V V V V V V V V V V V 0 9 = - s V V V V V V B B B B B B B B B B B B B B M M M M B s s M M s s s s s s p p p p u u u s u u u u u u u u u u < , + O 5 u y y y y y y y y a a a 9 a a a a a a a a a 5 e a e e a e 5 5 5 5 5 5 e 5 e e 3 e e e 3 3 3 3 2 2 2 2 2 2 2 O X X O 2 2 2 2 2 ",
", 2 2 2 , , 2 2 2 2 2 2 2 2 2 2 2 2 2 3 3 3 3 3 3 3 3 3 3 3 3 3 3 3 3 3 O O O O 5 a a a a a a a y y a a 9 y y y y y u u y y y u y y y u u u u u u u u u u u u u u u u p p p p p p s s d s s < + + + s B B B B B B B B B B B B B V V V V V V V V V V V V V V V V V V V V V V V V V V V V V V V V V V V V V V V N 0 0 9 7 N V V V V V V V V V F F V V N N F F F F V V F F F F F F A F F F H H H H H H H H H H H H H H H H H H H H H J N ; 7 7 j J T J J J T J J J J J J T T T J J J J T T T T J J T T J J T T T T T T T T T T T T T T T T T T T T T T J A A l 8 8 z J T T T J T T T T T T J J J T T T T T T T T T T T T T T T T T T T T T T T T T T T T T T T T H J J J J J H N N 8 8 7 M H H H H H H H F H F F F F F F F F F F F F F F F H H H H V F V V C V V V F H H H F V V V V V V V V V V V V V M 9 = - M V V V V V V V B B B B B B B B B B B B B B B B B B B B B M M M s s s s p p s p s u u u u u u u u u u u u u < , + O 9 u y y y y y y y y y a a a a a 9 9 a a a a a a a e a e e a e 5 e 5 5 5 e e 5 e 3 3 e e 3 3 3 3 3 3 2 2 3 2 2 O X X O 2 2 2 2 2 ",
", , 2 2 2 2 2 2 2 2 2 2 2 2 2 2 2 2 3 3 3 3 3 3 3 3 3 3 3 3 3 3 3 3 3 5 O O O O 5 a a a 9 y y 9 y y y a 9 a y y y y y y y y u u u u u u u u u u u u u u u u u u u u u u s p p s s s s d s M < + + + s B B B B B B B B B B B B B V V B V V V V V V V V V V V V V V V V V V V V V V V V V C V V V V F V V V V V F 0 0 7 7 N V N V V N V V F A A A F F F F F F F F F F F F F F F F H H H H H H H H H H H H H H H H H H H H H H H H H H N 7 8 7 l T T T J J J J T T T T J J J J J J J J J J J J J J T T T T T T T T T T T T T T T T T T T T T T T T T T J A A g 8 8 z J T T T T T T T T T T T T T T T T T T T T T T T T T T T T T T T T T T T T T T T T T T T T T T T T T J H J N M 8 8 7 M J H H H H H H H H F F F F F F F F F F F F F F F H H F F F F V V V V V V V V V V F V V V V V V V V V V V V V M 9 < < N V B B B V V V V V V B B B B B B B B B B B B B B B B B B B M B s s s s s s s p p p u u u u u u u u u u u u 6 , + + 9 u u y u u y y y y y y a 9 a a a y a a a a a a a e a a 5 a 5 5 e e 5 5 5 5 e 5 e 3 3 3 e e 3 3 3 3 3 2 2 2 2 O X X O 2 2 2 2 2 ",
"& , 2 2 , 2 2 2 2 2 2 2 2 2 2 2 2 2 3 3 3 3 3 3 3 3 3 3 3 3 3 3 5 3 3 5 O O O O 5 a a a y y y y y y a a y y y y y y y y y u u u u u u u u u u u u u u u u u u u u u u p p d s s s s s d M M < + @ + s B B B B B B B B B B B B V B B V V B V V V V V V V V V V V V V V V V V V V V V V V V V V V V V V V F V V F 0 0 7 7 N V V N V N V V A F A A F V F F F F F F F F F F F A F H H H H H H H H H H H H H H H H H H H H H H H H H H H N 7 8 8 l T T T J J J J T T T T T J J T T J T T T T T T T T T T T T T T T T T T T T T T T T T T T T T T T T T T J A A g 8 8 z J T T T T T T T T T T T T T T T T T T T T T T T T T J T T T T T T T T T T T T T T T T T T T T T T T T T J A j 8 8 8 l J H H H H H H H H H H H H F F F F H F F F F F H H H H H H H C F F V V F V V V V C C H H H H V V V V V V V C M 9 < 6 N C V V V V V V V V V V V V B B B B B B B B B B B B B B B B B B M M M M s s s s s p p u u u p p u u p u u u 3 , + + a u u u y u y y y y y y y a a a a 9 a a a a a a a a e a 5 e 5 3 5 e 5 5 5 5 e e e 3 3 3 e e 2 e 3 3 2 2 2 2 2 O X X O 2 2 2 2 2 ",
", 2 2 2 2 2 2 2 2 2 2 2 2 2 2 2 2 3 3 3 3 3 3 3 3 3 3 3 3 3 3 3 5 3 3 5 + O O O 3 a a a y y y y y y y a y y y u y y y y u u u u u u u u u u u u u u u u u u u u u p p s s s s s s s s M M M = + @ + s B B B B B B B B B B B V V B B B V V V V V V V V V V V V V V V V V V V V V V V F F V V V C V V V V F F F F M 7 7 7 N V N N V F V V F F F F F F F F F F F F F F F A H H H H H H H H H H H H H H H H H H H H G H H H H H H H H H N > 8 8 k T J J J J T T T T T T T T T T T T T T T T T T T T T T T T T T T T T T T T T T T T T T 4.4.T 4.T T T 4.J A A j 8 8 z T T T T T T T T T T T T T T T T T T T T T T T T T T T T T T T T T T T T T T T T T T T T T T T J T T T T J H l 8 8 8 l T J H J H H H H H H H H H H H H F F F H F F F F H H H H H H H H H H F V F H H H V V V H H H H F V V V V V V 0 1 < 6 N C V V V V V V V V V V V V B B B B B B B B B B B B B B B B B B B M B B M s s s s p p p u u p u u u u s u p 3 , + + a u y u y y y y y y y y y y a a a a a y 9 a a a a 5 5 e a e e a e e e 5 5 5 5 e e 3 3 3 3 3 e e 3 3 3 2 2 2 2 O X o O 2 2 2 2 2 ",
"2 2 2 2 2 2 2 2 2 2 2 2 2 2 2 2 2 2 3 3 3 3 3 3 3 3 3 3 3 3 3 3 5 3 5 5 O O O + 3 a a y y y y y y y y y y y y u y y y u u u u u u u u u u u u u u u u u u u u u p s s s s s s s s s M M M M = + @ + d B B B B B B B B V V V V V B B V V V V V V V V V V V V V V V V V V V V V V V V V C V V V V V V V V C H H C j 7 7 8 V N N F F F V V V F F F F F F F F F F F F H H A H H H H H H H H H G H H H H H H G H H H G G H H H H H H H H N > 8 7 z T T T T T T T T T T T T T T T T T T T T T T T T T T T T T 4.4.T T 4.4.T T T T T 4.4.4.4.4.4.4.T T J 4.J A A j 8 g z T 4.T T T T 4.T T T T T T T T T T T T T T T T T T T T T T T T T T T J T T T T T T T T T T T T T T T T T T A j 8 8 8 l T J H H H H H H H H H H H H H H H H H H H H H F F F F F H H H H H H H F H H H H H H H H H H H H H H E V F F 1 - 6 1 V V V V V V V V V V V V V V B B B B B B B B B B B B B B M M M B B M B B B M M s s s p p p u p u u u u u s p 3 % + + a u y y y y y u y y y y y y y a a a a a a a a a a a a 5 a a e e e e e e 5 5 5 5 e 5 3 3 3 3 e e 3 3 3 2 2 2 2 O X X O t 2 2 2 2 ",
", , , 2 2 2 2 2 2 2 2 2 2 2 2 2 3 3 3 3 2 2 3 3 3 3 3 3 3 3 3 3 3 3 5 5 + O O O 5 9 y y y y a a a y y y y y u u u u u u y u u u u u u u u u u u u u u u p p s p s s s s s s s s s m s d B B < + @ = B B B B B B B V V V B B B B V V V V V V V V V V V V V V V V V V V V V V V V V V V V V V V V F H H H F F F F j 7 1 0 F F F F F F F F F F F A F F F F F A H H H H H H H H H H H H G G H H H H H H H H H H H H G H H H H H H H H H N > 8 > l T T T T T T T T T T T T T T T T T T T T T T T T T T T T T T T T 4.4.4.T T T T 4.4.4.4.4.4.4.T T T 4.4.J A A l 8 8 z J 4.T T 4.T T T T T T T T 4.4.T T T T T T T T T T T T T T T T T T T T T T T T T T T T T T T T T T T T T T H j 8 8 8 z T Y J H J J J H H H H H J H H H H H H H H H H H H H H H F H F F H H H H R H H H H H H C C C C C C C C C V C 7 - - 1 B C V V C V V V V V V V V V V B B V B B B B B B B B B B B B B M M M d d d d s s s s s p p p p p p u u u u p 5 % + + a u u y y y u y y y y y y y y y 9 9 a y a a a a a a e a e 5 5 e e e 5 e 5 5 5 5 e e 5 3 3 3 3 3 3 2 2 3 2 3 t O X X O 2 t 2 t 2 ",
", 2 2 2 2 2 2 2 2 2 2 2 2 2 2 3 3 3 3 3 2 3 3 3 3 3 3 3 3 3 3 3 3 3 5 5 + O O + 5 y y y y y a a y y y y y u y y u u u u u u u u u u u u u u u u u u u p p s p p s s s s s s s s s m B B B B = + @ < M B B B B B V V V V B B B V V V V V V V V V V V V V V V V V V V V V V V V V V V V V V V C F H H H H F F F V j 7 7 0 F V F A F H H H F F F F F F F H H H H H H H H H H H H H H H G G H H H H H H H H H H H H H H H H H H H H H J N > 8 8 z T T T T T T T T T T T T T T T 4.T T T T T T T 4.4.T 4.4.T 4.4.4.4.4.4.T 4.4.4.4.4.} 4.4.4.4.4.4.4.J 4.J A A z 8 8 z } 4.4.4.4.4.4.T 4.T T 4.T 4.4.T 4.4.4.4.T T T T T T T T T T T T T T T T T T T T T T T T T T T T T T J J T A j 8 8 8 z T J J H J J J J H H H H J J H H H H H H H H H H H H H H H H H H H H H H H H H H R H H V C C C C C C C C C H 7 1 - 6 N V V V V V V V V V V V V V V V V V B B B V B B B B B B B B B B M M B B B B d d s s s p p p p p p u u u u p 5 % + + y u y y y y u y y y y y y y y y 9 a a a a a a a a a a a e e a e e e 5 e 5 e e 5 5 e 5 e 3 3 e e e 2 2 3 3 3 t O X X O 2 t t t 2 ",
", 2 2 2 2 2 2 2 2 2 2 2 2 2 3 3 3 3 3 3 2 3 3 3 3 3 3 3 3 3 3 3 3 5 5 5 + O O + 9 a a a a a a y y y u y y y y y u u u u u u u u u u u u u u u u u p p p s p p s s s s s s M M M s B B B B B < @ @ < M B B B V B V V V V V V V V V V V V V V V V V V V V V V V V V V V V V V V V V V V H C F F F F F F F F F F V j 7 7 0 F A F F F F H F F F F F H H F H H H H H H H H H H H H H H G H H H H H H H H H H H H H H G G G H H H H H H J N 8 8 8 z 4.T T 4.T T T T T T T T T 4.4.4.4.T T 4.4.4.4.4.4.J 4.T T 4.4.4.4.4.4.4.4.4.4.4.4.4.4.4.4.4.4.4.4.4.4.J A A z 8 g z J 4.4.4.4.4.4.4.4.4.4.4.4.4.4.4.T 4.4.4.4.T T 4.4.4.4.T T T T T T T T T T T T T T T T T T T T T T T T T T H j 8 8 8 z T T T T T T J J H H J H J J H H H H H H J H H H H H H H H H H H H H H H H H H H H R H V H H C C H H H H H H 9 1 1 1 N V V V V C V V C C V V V V V V V V B B B V B B B B B B B B B B M M B B B B B s s d s s s s p p u u u u u p 5 < + + y u u u u y y y y u y y y y y y y y 9 a 9 9 a 9 a a a a a 5 5 a a e e 5 e 5 e e e 5 5 5 e e e e 3 3 3 3 3 3 2 O X X O t t t t 2 ",
"2 2 2 2 2 2 2 2 2 2 2 2 2 2 3 3 3 3 3 3 3 3 3 3 3 3 3 3 3 3 3 3 5 5 5 5 + O O + 9 a a a a a y y y y u u y y y y u u u u u u u u u u u u u u u u u u p s p s s s s s s s M M M B B B B B B d < + + < M B B B V V V V V V V V V V V V V V V V V V V V V V V V V V V V V V V V V V V C H H F F F F F F F F F F F V j 7 7 0 H F F F F F F F A H H H H H H H H H H H H H H H H H H H G H H H H H H H H H H H H H H H G G H H H H H H H J N 8 8 8 z 4.T T 4.4.T T T T 4.4.4.4.4.4.4.4.4.4.4.4.4.4.4.4.4.4.4.4.4.4.4.4.4.4.4.4.4.4.4.4.4.4.4.4.4.4.4.4.4.4.} A S z 8 g k J 4.4.4.4.4.4.4.4.4.4.4.4.4.4.4.4.4.4.4.4.T T 4.4.4.4.4.4.4.4.4.4.4.T 4.4.4.T T T T T T T T T T T T T T T H j 8 8 8 z T T T T T T T J J J J J J J T T H H H H H H H H H H H Y H H H H H H H H H H H H H H H H H H H C H R R R C H w 7 7 7 N C V V V V V V V V V V V V V V V V B B V V V B B B B B B B B B B B B M B B B s d d B M s s s p p p u u u p 9 < + + y u u u u u y y y u y y y y y y y y y 9 9 9 9 9 a a a a a 5 a a a e e 3 3 5 e e e e 5 5 e e e e 3 e e 3 3 e 2 $ X . O 2 t t t t ",
"2 2 2 2 2 2 2 2 2 2 2 2 2 3 3 3 3 3 3 3 3 3 3 3 3 3 5 5 3 3 3 5 5 5 5 5 + O O + 9 a a a a y y y y u u u y y y u y y u u u u u u u u u u u u u u u u p p s s s s s s s s M B B B M B B B B s = @ + < M V V B B V B V V V V V V V V V V V V V V V V V V V V V V V V V V V V V C C H H F F F F F F F F F F F F F V 0 7 7 0 H F F F F F F H H H H H H H H H H H H H H H G G G H H H H H H H H H H H H H H G G H H H H H H H H H J J J J N 8 8 8 N T 4.4.4.4.T T T 4.4.4.4.4.4.4.4.4.4.4.4.4.4.4.4.4.4.4.4.4.4.4.4.4.4.4.4.4.4.4.4.4.4.4.4.4.4.4.4.4.4.4.4.S S z g g j J 4.4.4.4.4.4.4.4.4.4.4.4.4.4.4.4.4.4.4.4.4.4.4.4.T T 4.4.4.4.4.T T T T T T T 4.4.4.4.T T T T T T T T T T H l 8 8 8 N T J J J J T J J J J T T T T J J J J T Y J J H H H H Y H Y H H H H H H H H H H H H H H H H H H H H H H H H H w 7 7 7 V C V V C V V V V C C C C V V V V V V V V V B B B V B B B B B B B B B B B M B B d d B M M M s p p p u u u p 9 , + + y u u u u u u y u y y y y y y y y y y a 9 a a a y a a a a a e e a e e 5 3 5 5 e e e 5 e e e 3 3 e e e 3 3 e 2 $ O X O 2 2 2 2 2 ",
"2 2 2 2 2 2 2 2 2 2 2 2 3 3 3 3 3 3 3 3 3 3 3 3 3 3 3 5 3 3 5 5 5 5 5 5 + O O + 9 y a a y y y y y u u u y y u u y u u u u u u u u u u u u u u p p p p s s s s s s s s s M B B B B B B B B s = = @ < B V V B V V V V V V V V V V V V V V V V V V V V V V V V V V V V V V F F H H H H F F F F F F F H F F F F H N 0 7 7 0 H F F H H H H H H H H H H H H H H H H G H H G G H H H H H H H H H H H H H H H H H H J J J J J J J J J J J J A 8 8 8 A 4.4.4.4.4.4.4.4.4.4.4.4.4.4.4.4.4.4.4.4.4.4.4.4.4.4.4.4.4.4.4.4.4.} } 4.4.4.4.4.4.4.4.4.4.} } } 4.4.4.} S S k g g z G 4.4.4.4.4.4.4.4.4.4.4.4.4.4.4.4.4.4.4.4.4.4.4.4.4.4.4.4.4.4.4.4.T T T T T T 4.4.4.4.T T T T 4.4.4.4.T T H z 8 8 8 N T J J J T T J J T J T T T T J T T J J J J J H J H H T T Y Y H H H H H H H H H H H H H H H H H H H H H H H H 7 7 7 7 V C C C C C V V V V C C C C V V V V V V V V B B B B B B B B B B B B B B B B B B B B M M s s d s s p p p u p 9 , + + y u u u u u u u u y u y y y y y y y y y a a a a 9 9 a a a a a a a a 5 a 3 5 3 e e e 5 e e 5 e 3 e e e e 3 e 2 % O X O 2 2 2 2 2 ",
", 2 2 2 2 2 2 2 2 2 2 2 3 3 3 3 3 3 3 3 3 3 3 3 3 3 3 3 3 3 5 5 5 5 5 5 + O O + 9 y y y y y y y y y y y y u y y u u u u u u u u u u u u u u p s s p s s s s s s s s p B B B B B B B B B B s = = = 6 B V B B B V V V V V V V V V V V V V V V V V V V V V V V V V V V H H F F F F F F F F F F F F H F H H H H H N j 7 7 0 H H H H H H A H H H H H H H H H G H H H H H H H H H H J H H H H H H J J J J J J J J J J J J J J J J J J J J A > 8 g A 4.4.4.4.4.4.4.4.4.4.4.4.4.4.4.4.4.4.4.4.4.4.4.4.4.} } 4.4.4.4.4.4.4.4.4.4.4.4.4.4.4.4.4.4.4.4.4.4.4.4.} S S k g g k S 4.4.4.4.4.4.4.4.4.4.4.4.4.4.4.4.4.4.4.4.4.4.4.4.4.4.4.4.4.4.4.4.4.4.4.4.4.4.4.4.4.4.T T 4.4.4.4.4.4.T T H z 8 8 8 N J J J J T J J J T T T T T T T J J J J J T T T T H J J T H T Y H H H H Y Y H Y H H H H H H H Y Y H Y H H H H 0 7 7 7 V H C H H H C C V C V V V V V V V V V V V V V V V V B B B B B B B B B B B B B B B M B d d d d d s s p p s p 9 , + = y u u u u u u u y y u y u y y y y y y y a a a a 9 9 a a a a a a e a a e e 5 5 3 e e e 5 5 5 e 3 3 3 3 3 2 e 2 % O X O 2 2 t t t ",
"2 2 2 2 2 2 2 2 2 2 2 2 3 3 3 3 3 3 3 3 3 3 3 3 3 3 3 3 5 5 5 q 5 5 5 5 + O O + 9 y y y y u y y y y u u y u u u u u u u u u u u u u u u u s s s s s s s s s s s p s B B B B B B B B B B B s = = = 6 M B B V V V V V V V V V V V V V V V V V V F V V V V V V V V H H H H F F F F F F F F F F F F F H H H H H H N j 7 7 0 H H H H H H A H H H H H H H H H G G H H H H H H H H H H H H H H H J J J J J J J J J J J J J J J J J J J J J A 8 8 g A J 4.4.4.4.4.4.4.4.4.4.4.4.4.4.4.4.4.4.4.4.} 4.4.} 4.4.4.4.4.} 4.4.4.4.4.4.4.4.4.4.4.4.4.4.4.4.4.4.4.4.} S S k g g z J 4.4.4.4.4.4.4.4.4.4.4.4.4.4.4.4.4.4.4.4.4.4.4.4.4.4.4.4.4.4.4.4.4.4.4.4.4.4.4.4.4.4.4.4.4.4.4.4.4.4.T T A j 8 8 8 N J J J J J J J J J T T T T T T J T T J J T T T T T T T J T T T J T T Y Y Y H H H H H H H Y H H H H H H Y H H 0 7 7 7 V H C H H H C H C C C C C C V V V V V V V V V V V V V V B B B B B B V B B B B B M B B B d d B M s s s p s p 9 , + = y u u u u u u u u y y y u u y y y y y y y a a a 9 9 a a a a a a 5 e a e e 5 5 5 5 e 5 5 5 5 5 3 3 3 3 3 2 e 2 % O X O 2 3 t 2 t ",
"2 2 2 2 2 2 2 2 2 2 2 3 3 3 3 3 3 3 3 3 3 3 3 3 3 3 3 3 5 q 5 5 5 5 5 5 O O O + 9 y y y y y y u y u u u u u u u u u u u u u u u u u u u p p s s s s s s s s M B s B B B B B B B B M B B B M = = @ 6 B V V V V V V V N V V V V V V V V V V V V V C V V V F F F V F F F F F F F F F F F F F F F F H H H H H H H N j 7 7 8 H H A H H H H H H H H H H H H H H H H H H H G H H H G G H H H J J J J J J J J J J J J J J J J J J J J J J J A 8 8 g c J 4.4.4.4.4.4.4.4.4.4.4.4.4.4.} } 4.4.4.4.4.4.4.4.4.4.4.4.4.4.4.5.4.4.4.4.4.4.4.4.4.4.4.4.4.4.4.4.4.5.J S S z g g z J 4.4.4.4.4.4.4.4.4.4.4.4.4.4.4.4.4.4.4.4.4.4.4.4.4.4.4.4.4.4.4.4.4.4.4.4.4.4.4.4.4.4.4.4.4.4.4.4.4.4.T T A k 8 g 8 N J J H J J J J T T T T T T T J T T T T T T T J J T T J J H H T T J J J J Y H H H H H H H H H Y Y H H H Y Y H w 7 7 7 C H H H H H H H C C C C C C C C V C V V V V V V V V V V V B B B B B B B B B B d d M B s B d d d d M s s p p 9 = = + y p u u u u y u u u y y y y u u y y y y y y a a a a 9 a y a a e a 5 e a e e 5 5 5 5 5 5 5 e e 5 e 3 3 e e e 2 % O X O e 2 2 t t ",
"2 2 2 2 2 2 2 2 2 2 2 3 3 3 3 3 3 3 3 3 3 3 3 3 3 3 3 3 5 5 5 3 3 q e 5 + O O % 9 y y y y y y y y u u u y u u u u u u p p u u u u s u p p p s s s s s s s M M M B B B B B B B B B B B M B M = = = 6 B V V V V V V V V V V V V V V V V V V V V V V V V V F F C F F F F F F F F F H F F F F F H H H H H H H H H N j 7 7 8 H A H F H H H H H H H H H H H H H H H H H H H H H H H G G J J J J J J J J J J J J J J J J J J J J J J J J } A 8 8 g c } 4.4.4.4.4.4.4.4.4.4.} } } 4.4.4.4.4.4.4.4.4.4.4.5.4.4.4.4.4.4.4.4.4.4.4.5.5.4.4.4.4.4.4.4.4.4.4.4.5.S S S g g g z S 4.4.4.4.5.4.4.4.4.4.4.4.4.4.4.4.4.4.4.4.4.4.4.4.4.4.4.4.4.4.4.4.4.4.4.4.4.4.4.4.4.4.4.4.4.4.4.T 4.4.4.T A l 8 g g N T 4.J } T T J J T T T T J T T T T T T T T T T T T T J J T T T T J J T T Y T T T T Y Y T J J T J J J J T Y Y w 7 w w C H H H H H H H H C C C C C C C C C C V V V V V V V V V V B B B B V B B B B B B B B M B B B s d d d M M s p u = = = y u u u u u u u y y u y y y u u y y y y y y y a a a 9 9 9 a a a a 5 e e e 5 5 5 5 5 5 5 5 5 e e e e e 3 e 3 2 % O X O e e 2 t t ",
"2 2 2 2 2 2 2 2 2 2 3 3 3 3 3 3 3 3 3 3 3 3 3 3 5 3 3 5 5 5 q 5 e 9 5 5 + O O + 9 y y y y y y y u u u u y u u u u u u u u u p u u s p s s s s s s s s s M M B B B B B B B B B B B B B B B s = = = 6 M V V V V V V V V V V V V V V V V V V V V V V F V F F C H C F F F F H F F F F F F H H H H H H H H H H H H N j 7 7 8 H H H H H G H H H H H H G G H H H H H J H H H H H H G G G J J J J J J J J J J J J J J J J J J J J J J J J J A 8 g g c S } } } } } 4.} } 4.4.4.4.4.4.4.4.4.4.4.4.4.4.4.4.4.4.4.4.4.4.4.4.4.4.4.4.4.5.4.4.4.4.4.4.4.4.4.4.5.} S S S k g g z S } 4.| 4.4.4.4.4.4.4.4.4.4.4.4.4.4.4.4.4.4.4.4.4.4.4.4.4.4.4.4.4.4.4.4.4.4.4.4.4.4.4.4.4.4.4.4.4.4.T 4.J A j 8 g 8 z 4.T J 4.T T J J J J J J J T T T T T T T T T T T T T T T T T T T T T T T T T T T T T T T T T T T T Y T T Y T l 7 w w C H H H H H H H H R H H H C F F C C C C V V V V V V V V V V V B B V V B B B V B V B B M M M M d d d d d d d 9 + = = y u u u u u u u u y u y y u y y y y y y y y y a a a a a a a a a a a a 5 e e e e e e 5 5 5 5 5 5 e 3 3 3 3 3 2 % O X O 2 2 3 2 2 ",
"2 2 2 2 2 2 2 2 2 2 3 3 3 3 3 3 3 3 3 3 3 3 3 3 3 3 5 5 5 5 q 5 5 5 9 9 + O O + a y y y y y y y u y u u u u u u u u u u u u u p s p p s p s s M s s s M M M B B B B B B B B B B B M B B B M = = = 6 M V V V V V V V V V V V V V V V V V V V V V V V F C H H F F F F F F F F F F F H H H F H H H H F H H J H N M j 7 7 8 A H H H H H H H H H H H H H H H H H H H H H H H H J J J J J J J J J J J J J J J J J J J J J J J J J } } J J A 8 g g c S G } 4.7.4.4.4.4.4.4.4.4.4.4.4.4.4.4.4.4.4.4.4.4.4.4.4.4.4.4.4.4.5.5.5.5.4.5.5.5.5.5.5.5.5.5.4.4.} S S S A k g g z S  .4.5.5.5.4.4.4.4.4.4.4.4.4.4.4.4.4.4.4.4.4.4.4.4.4.4.4.4.4.4.4.4.4.4.4.4.4.4.4.4.4.4.4.4.4.4.4.} 4.J S A g 8 j 0 N 4.} 4.4.T T J J J T J J J J T T T T T T T T J J T T J J T J J J J J T T T T T T T T T T T T T T T Y T T T T w w w w H H H H H H H H H H H H H H H C C C C C C V C V V V V V V V V B V V B B V B V V B V B B M B B d d d B d d B 9 = + = y p u p u u u u u u u u u y y y u y y y y y a y a a a a a y a a a a a 5 a a a e e e e 5 5 5 5 5 5 5 3 3 3 e 2 O X X O e t e e t ",
"2 2 2 2 2 2 2 2 2 2 3 3 3 3 3 3 3 3 3 3 3 3 3 3 3 5 5 5 5 5 5 5 5 5 5 9 + + O + a y y y y y u u u u u u u u u u u u u u u p u u p p s s p s s s s M M M M B B B B B B B B B B B M B B B V M = = = = M V V N V N V V V V V V V V F F V V V V V V V V V F F F F H F H H H H F H H H H H H H H J H J H J J F N k N j 7 7 7 F H H H G H H G H H H H H H H H H H H H H H H H J J J G J J J J J J J J J J J J J J J J J J J J J J J J J J A 8 g g c S S S J J } } } } } } } } 4.4.4.4.4.4.4.4.4.4.4.4.5.5.4.5.5.5.} } 4.4.} } } } } } } } } } } } S S S S S S S g g g k S S J 4.5.5.4.5.4.4.4.4.4.4.4.4.4.5.5.4.4.4.4.4.4.4.4.4.4.4.4.4.4.4.4.4.4.4.4.4.4.4.4.4.4.4.4.4.} 4.J S A S l 8 g g N 4.J J T 4.4.4.J T T T T J T J T T T T T T T T T J J J J J J T T T T T T T T T T T T T T T T T T T Y Y J T J w w w w H H H Y H H H H Y H H H R R E R H H H C C C C V V V C V V V V V V V V V B V B B V V B B B M B B B B s M d B 9 + = = u p u u u u u u u u u u u u y y u y y y y y y y y a a y a 9 9 a a a a a a a 3 5 e e 5 e e e e e e 5 e 3 3 3 2 O X X % e 2 e e e ",
"2 2 2 2 2 2 2 2 2 3 3 3 3 3 3 3 3 3 3 3 3 3 3 3 3 3 5 5 5 5 9 9 3 5 a 9 O + + + 9 u y y y y u u u u u u u u u u u u u u u u u u p u s s s d s s s s s s d d d B B B B B B B B B B B B B V s = = = - 0 V V V V V V V V V V V V V V V V V V R H H F H F F F F V A N N N N V V F F H F F V V V F F V V N N j z z z j 7 7 8 A J H H H G H G H H H J H H H H H G H H H H J J J J J J G J J J J J J J J J J J J J J J J J J J J J J J J } A 8 g g z S S S S S S A S S S S S S S S S S S S S S S S S S } } } } } }  . .S S S S S S S S S S S S S S S S S S S S S g g k z G } S S } } 5.5.5.5.5.5.5.5.5.5.5.5.5.4.4.} } } } } } } } } } } } } } } } } } } } } } } J J J J J S A S S S k 8 g g z 4.4.T 4.4.4.4.J T 4.J T T T T T T T T T T T T T T T T J T T T T J T T T T T T T T T T T T T W T T T T T W H w w w w H T Y Y H H H H H Y H H H H H R H E H H C C C C C V V V V V V V V V V V V V B B V V B V B B B M M B B d B B 1 = < = 9 p u u u u u u u u u u u u y y y y y y y y y y y a a a a a 9 a a a a a a a 5 5 e e 5 5 5 5 5 5 5 5 5 3 e 3 2 O X X % e 3 e t e ",
"2 2 2 2 3 3 3 3 3 3 3 3 3 3 5 3 3 3 3 3 3 3 3 3 5 5 5 3 9 9 9 a 9 9 9 3 + O + + 9 y u u u u u u u u u u p u u u p p p s s p p d s s d d d d d d B B B B B B B B B B B B B B B B B B V B B u = = = - 0 M N V V V V V V V V V V V V V V V V V V N N N M M M l j j n n n j l l l M M M M M l N z z N M N z z z z z 8 7 8 > l J H H H H H H J H H H H H H H J H J J } } G G J J J J J J J J J J } } J J J } J } } } } } } } } } } } } } c g g g g c S S G S S S S S S S S S S S S S S S S S S S S S S S S S S S S S S S  . . . . . . . . . . . . . .S S D S z g g g k A S S S S S S S G } } } } } } J J J J S S S S S S A A A A S S S S S S S S S A A A A A A A S A A A A A A A c g g g g l H J J 4.4.4.4.4.4.4.4.4.4.4.T T T J T T 4.4.T T T T T T T T T T T J T T T T T T T J J J T T T T T T T H H N w w w l Z H H H H H H H H H H H H H C C C C C V C V C C C C V V V V V V B B V B B B M B B B B B B d s s M s M d s s < = < @ 6 s p p s p u p u u u u u u u u u u u u y y y a y y y y y a a a a a a a a a a q e e e 5 e e e e 5 5 5 e e 2 % X O X O 2 e e e e ",
"% % % % % , , , , , , , , , , , , , , , , , , , 2 2 4 2 2 2 2 2 , < , + O + + + + < < 2 < < 6 6 6 6 < 6 6 6 6 6 6 6 6 6 1 1 1 5 5 5 5 5 5 5 5 5 q 5 q 9 9 9 9 9 9 9 9 9 9 9 9 9 9 9 7 6 6 6 = = = - 1 7 7 7 7 7 7 7 7 7 7 7 9 7 7 7 9 7 7 9 7 9 7 7 7 8 0 0 0 8 0 0 0 0 8 8 8 8 8 0 0 0 8 8 8 8 8 0 0 0 0 0 8 8 7 8 8 8 8 l z N A A N z l l l g l z z k z z N A z z k g l l z z z z z z z k z z z z z z z z z z z z z z z z z z z z g g g g g g k z z z z z k h z z z z z z z z z z z z z z k k z z z z z z z z z z z z c z z z z z z z c c z k z h h h g g k g k k k k k g z z k k k k k k k k k k k k k k k k k k z z z z z z z z g g g g z z l z g g j j k g j j g g g l g g g g j g g g g l z z z z z N z z z z z z z z z z z z z z l l l l z z l l l l l l l l l l l l l l l l l l l l l l l w l w w w w w 0 w w w w 0 0 0 w 0 0 0 w w w w w w w w w w 7 7 9 9 9 9 7 7 9 1 7 7 1 1 1 1 1 6 1 1 6 6 6 6 6 6 6 6 < - = = < < = < < 6 6 6 6 6 < < < < < < < < , < , , , , % , % , , * * * * * % % % % % % + + % + % % % % % % % O O O O O O X X X X O O % % $ ",
"X X X X X X X X X X X X X X . . X . O O O O O O O O O O O O O O O O O + + + O + O O O O O O + + + + + + + + + + + + + + + + + + = = = = = = = = = = = = = , = , = = = = < , < < < = = 6 - = - - = 6 6 6 6 6 6 1 1 1 1 1 1 1 1 1 1 1 1 1 1 7 7 7 7 7 7 7 7 7 7 7 7 7 7 7 7 7 7 7 7 7 7 7 7 7 7 7 7 7 7 7 7 7 7 8 8 8 8 8 8 8 > 8 8 8 8 8 8 8 8 8 8 8 8 8 8 8 8 8 8 g 8 8 8 8 g g 8 > 8 > > > 8 8 8 8 8 8 8 8 8 8 8 g g g g g g g g g g g g g g g g g g g g g g g g g g g g g g g g g g g g g g g g g k k g g g g k g g g k k k k k k k k k k g g g g k k k k k k k z k k k k k k k k k k k k k k k k k k k k k k z k k k z z k g g g g g g g g g g g g g g g g g g g k j g g g g g g g g g g g 8 g 8 g g g g g 8 8 g g g 8 8 w 8 g g w l l l g g l l l l l l l l l l l l l l l l l l l l l l l l l l l l l l w w w w w w w w w w w 0 w w w w w w w w w 0 w 7 7 w 7 7 9 9 7 7 7 1 9 1 1 1 1 1 1 6 6 6 6 1 < < < < < < < < , < < < < = = + + + + + + + + + + + + + + + + + + + + O O O O O O + O O O O O O O O O O O O O O O O O O O O X X X X X X X X O X X X X X ",
"X X X . . X X X X X X X X X . . X X X . X X X O O O O O O O O O O O + + + + + + + + + + + + + + + + + + + + + + + + = = = < = , , , = < , % < < < < < < < < < < 6 6 6 6 1 6 < - - - - - - - - = = < 6 1 6 6 1 1 6 1 1 7 1 1 1 1 7 7 1 7 7 7 7 7 7 7 7 7 7 1 7 7 7 7 7 7 7 7 7 7 7 7 7 7 7 7 7 7 7 7 8 8 8 8 8 8 8 8 8 8 8 8 8 8 8 8 8 8 8 8 8 8 8 8 8 8 8 8 g g g g 8 8 g g g 8 > > 8 8 8 8 8 8 8 8 8 8 8 8 8 8 8 8 g g g g g g k k k g g g g g g g g g g g g g k k g g g g g g g k k k k h k g k g k k k k k h k z z z z k k k h h k k k z z z k k k k k k k k k k k k k k k k k k k k k k k k k k k k k g g g g k h k z k g g g g g g g g g g g g g g g g g g g g g g g g g g l g g g g 8 g g g g g g g g g 8 8 g 8 8 8 8 w w w w w l l l l l l l l z z z l z z z z z l l l l l l l l l l l l l l l l l l l l l l l l l l l l w w w w w w w 0 w w w w w w 7 7 w w 9 7 7 7 7 7 7 1 1 1 1 1 1 6 6 6 6 1 6 6 1 < < < < < < < , < < = = , , , , , < < < = = = + + + + + + + + + + + + + + + + + + + O O O O O O O O O O O O O O O O O O O O O O O O X X X X . X X ",
"        X O o . . . o X O O O O O O O O O O O O + + + + + + + + % % % % % % % + + + % % + + + + + + % % + + + % % , < , < < < < < < , < < 6 1 q q q q 9 9 q 7 7 1 1 7 q q q 5 1 7 q q q 9 9 9 7 6 6 < = - - - - - - - - - - - - - - - - - - - : : - - ; ; ; ; 8 0 0 0 7 7 7 7 8 9 7 8 0 0 0 0 l j 0 0 j j j j 0 j j j j j j j j l j g g 8 8 8 j j j j j j l l l l l l l l 8 8 8 8 8 z z z c z z z z z z z z z z z z z z z z z c z z z z k g g g g g g k k z z c c z z z z k k k g k g k g g k k k k k k k h z k z z z z z k z z z k z k z z k k z z k k k k k k h h h h h k k g k g g g g g h k z z z z z z z z z z k k k h g g g g g g g g g g g g g g g g g g g g g g g g g g l g g g g g g g g 8 g g g l l l g l l l l l l l l w w w l w l l z z z z z z z z z z z z z z z z z z z z z N N z Z Z Z z z z z N l l l l l l l l l l M l w w 0 0 w w 0 0 w 0 w w w 7 7 w 0 0 0 0 0 0 0 0 0 0 9 9 9 9 9 9 9 9 9 9 9 9 9 q 5 5 5 5 1 1 6 1 6 6 6 6 6 6 6 3 1 6 6 6 6 6 < 2 < < < , = , , % , % % % % % % , % % % % % % % % % % % % % % % % % O O $ $ % % $ $ $ $ $ ",
"& % % 2 3 e %   . . o $ % % % % % % % % % % % % % % + % + + + + + + + % + + + + + + % % + = = , % , , < < < < < 6 6 3 6 1 1 6 < < % , < < q 9 9 9 9 9 9 9 9 9 9 9 9 9 9 9 9 9 9 9 9 9 0 9 0 0 0 0 0 0 0 9 0 0 0 0 0 0 0 0 0 0 0 0 0 0 0 0 0 0 0 0 0 7 ; ; ; 1 N F F F F F F H H F F F H H H H H H H H H H H H H H H H H H H H H H H J J H H H H H J J J J J J J J J H J H g 8 8 > z A A A A A A A A A A A S S S S S S S S S A A S S S S S A A A A S S S S S S S S S S S S S S S S S S A c c z k g h k c D  . . . . . . . . . . . . . .S S  .S  . .S  . . . . . . . .S S S S S S S S S D D  . .D  . . .} } } } } } A z k k k S } } } J J J J J J J J J J J J J J J J } J J J J J J H H J D D H H H H H J T 4.4.4.4.4.} } 4.4.4.4.4.} G l w g l l N H J J J J J J J J P P P P P P P P P J P P P P P P P P J J J T T T P P T H H H H H H H H H H H F C H C C B s 0 0 7 w H C H C C E E C C E E V V V V V V V V V V V V B B B B d B B B B B d d s s s s p p p p p p p p p u u p u u 3 % , < , 3 9 a y y y y a y a a y a a a a a a e e e e e e 5 5 5 e e e e e e e e ",
"3 e e e e 3 2 . . o O 2 5 5 3 3 3 3 5 5 5 5 5 5 5 5 3 3 < < < 2 < < < 4 < 6 3 3 < < 6 6 6 6 6 5 5 9 9 9 9 9 y u u u p u u u u y 6 < < < 6 9 9 s s s u u u u M M M M M M u u u u n n n M M M n n M M M m M M M M M N M N M M N N N N N N N N N N M M z 7 ; ; 7 J Y H H H J J J J J J J J J J J T T T T T J T T T J J J J J J J J J T T T } } 4.} T 4.4.4.4.4.4.4.4.} } 4.4.g 8 8 8 J 4.4.5.4.5.5.5.5.4.4.5.5.4.} 4.4.4.4.4.} 4.} 5.5.4.5.5.5.5.5.8.5.5.5.5.8.8.8.8.8.8.| | 5.5.8.5.5.5.5.5.} S k g g h c | } } } } } | | | | | | | | | | | | } } } } } } } } | | | | | | | | | 5.8.8.8.8.8.8.8.8.5.} } } } } } } } S c z k z } 5.5.5.5.5.5.5.5.5.5.5.5.5.5.5.5.5.4.5.5.5.5.5.8.8.8.4.4.4.4.4.4.4.5.7.} 4.4.4.4.4.4.4.4.4.4.4.4.4.7.7.8.=.l g l g H 7.7.8.8.9.0.9.9.8.7.7.7.7.7.7.7.7.9.9.9.9.9.9.9.7.7.9.7.7.7.7.7.7.7.7.7.7.7.W W W W W W W W W W W W T T T C w M 7 M Y E R R R C C R C C C C V C V V V V V V V V V V V B B B B B B B B B B B B s s s p p m m p p p p p u u u u p 3 2 = 4 u u y y y y y a y y y y a a a a a a a a e e a a a a e e e e e e e e e ",
"2 e 2 3 3 3 3 o . o % 5 3 3 3 3 3 3 5 5 5 5 5 5 e 5 5 9 9 9 9 a a a a a a y y y y y y y u u u u u u u u y u u u u u u u u u p M 9 < < < 6 9 s B B B B B B B V V V V V V V V V V V V V V V V V V V V V V V C V V V V F F F F H H H H H H F F F F H N N 8 ; ; 0 J H H H H J T T T J J J J T T T T T T T T J T T J J T J J J J J T 4.T 4.4.} } 4.4.T 4.4.4.4.4.4.4.4.} } 4.4.l > > l 4.4.4.4.4.4.4.4.4.4.4.4.4.4.4.4.4.4.4.4.4.4.4.} } } } } } 5.4.5.5.5.5.5.8.5.5.5.5.5.| 5.5.5.5.| 5.5.| 5.5.} z g g g c | } } | 5.5.8.5.8.8.8.8.5.5.8.8.8.8.| | | | | | 5.8.8.8.8.8.8.8.8.8.8.8.8.8.8.8.8.8.8.8.8.8.8.8.8.8.*.} } D z z k c } } | } } } 5.5.4.4.4.4.4.4.4.4.4.4.4.5.5.4.} 4.4.7.4.4.4.4.4.} =.4.4.4.4.4.4.4.4.7.7.7.4.4.4.4.7.7.7.7.7.8.Z g l l J 9.9.8.9.9.9.0.8.8.7.7.7.7.7.7.7.7.7.7.7.7.7.9.7.7.7.7.7.7.7.7.7.7.7.7.7.7.W W 7.7.W W W W W W W T W T T W H w w 7 N Y Y R H R R H E E C C C V C C V V V V V V V V V V V B B B B B B B B B B B s M M p d p p p u p p p u u u u p 9 4 + 2 u y y u u y y a y y y y a a a a a y a a e r a e a a e e e e e e e e e ",
"e t 3 2 3 3 e X . X % 3 3 3 3 3 3 3 5 5 5 5 5 5 5 5 9 9 9 9 a 9 9 9 9 9 a a y a y y y y y y 0 9 y u u u y u u u u u u u u u u p u < < < 6 9 B B B B B B B B V V V V V V V V V V V V V V V V V V V V V V V V V V V V F F F F F F H H H H H F F H H F N 0 1 ; l T H H J J T J J J J J J T T T T T T T T T T T J J T T J J J T 4.4.T T T T 4.4.4.4.4.4.4.4.T 4.4.4.4.4.} 4.} g > > l 4.4.4.4.4.4.4.4.4.4.4.4.5.} } 4.4.| 5.} } } } } | *.| 5.5.4.4.5.5.5.5.5.5.5.5.5.5.5.5.5.5.5.5.| | 5.| 5.5.| c U k g v | } } 8.8.8.8.8.8.8.8.8.8.8.8.8.8.8.8.8.8.8.8.8.8.8.8.8.8.8.8.8.8.8.8.5.8.8.8.8.5.8.8.8.8.8.8.8.8.8.8.| } } c c k z 5.5.5.5.4.4.5.4.4.8.4.4.4.4.4.4.4.4.5.5.4.4.4.4.7.7.4.4.4.4.7.7.7.4.5.5.4.4.4.7.7.7.7.7.4.7.7.7.7.7.7.7.7.w.K l l x J 0.9.0.8.8.0.w.w.w.w.0.0.7.9.7.9.0.0.9.9.9.9.0.9.9.9.9.9.9.9.7.7.9.7.7.7.7.7.7.9.7.7.7.W W W W T W W W T T H M w 7 C Y Y Y Y H R H C C E C C C C C C V V V V V V V V V V B B B B B B B B B B B M s s s s p p p p p p p p p u u u 9 < + < u y y y y y y y a y y y y a a a a a a a e e a e a a e e e 3 e e e e e ",
"t t e 2 3 e e O . X $ 3 5 3 3 3 3 3 5 5 5 5 5 5 5 5 9 9 9 9 a 9 9 9 9 9 9 y y a y y y y y y y u 0 u u u u u u u u u u u p u u u p 6 = < < u B M B B B B B B V B B V V V V V V V V V V V V V V V F V V V F F V V F F F F F F H H H H H F H H H H H F N 8 1 ; l T T T H H J J J J T T T T T J J T T T T T J J J J T T T T T 4.4.4.4.4.4.4.T 4.4.4.4.4.4.} } 4.4.4.4.4.} 4.5.z > > g 4.5.4.4.5.4.4.5.5.} 4.4.5.5.4.} } *.*.5.5.| | 4.5.5.5.5.5.5.5.5.5.5.5.5.5.5.5.5.5.5.5.| 5.5.5.5.| | 5.5.5.5.A g g g c | } | 8.8.8.5.5.5.8.8.8.8.8.8.8.8.8.8.8.8.8.8.8.8.8.8.8.8.8.8.8.8.8.8.5.8.8.8.8.8.8.8.8.8.8.8.8.8.8.8.8.} } c c k z 5.5.5.5.5.5.5.5.5.5.4.4.4.4.4.4.4.4.5.5.4.4.7.8.7.5.5.5.4.8.8.8.8.8.8.7.4.4.4.7.7.7.7.7.7.7.7.7.7.7.5.7.7.w.K l l x J w.0.w.8.0.0.w.w.0.0.0.0.0.0.0.w.0.0.w.0.0.0.0.0.0.9.9.9.9.9.9.9.9.9.9.9.7.7.7.9.9.9.9.W W W W W W W T W W H w s 7 C Y Y Y Y Y R R R E E C E E C C C C V V V V V V V V V V B B B B B B B B B s B B s s s p p p p p p p p p u u p 9 2 + < u y y y y y y y y y y a y y a a a a a a a e a e a e e e e e e e e e e ",
"t e e 3 3 3 e O . X $ 3 3 3 3 3 3 5 e e 5 5 5 5 5 9 a a a e a 9 9 9 9 y y y a a 9 y y y y y y u y y u u u u u u p u u u u n p p u 6 = , 6 u B B B B V V B B V V V V V V V V V V V V V V V V V V V V V V V V V F V F F F F H R R Y F F H F H H H J H N 7 7 ; l J J J T T T J J J T T T T T T T T T T T T T T T T T 4.4.4.4.4.4.4.4.4.4.4.4.4.4.4.4.4.4.} 4.4.4.4.4.4.4.4.8.z 8 8 g 4.5.4.4.4.4.} 5.5.4.4.4.5.5.5.5.5.5.4.4.4.5.5.5.5.5.5.5.5.5.5.5.5.5.5.5.5.5.5.5.5.5.5.| 5.5.5.5.5.| | 8.8.8.D U k g c | } 5.8.8.8.8.8.8.8.8.8.8.8.8.e.e.8.8.8.8.8.8.8.8.8.8.8.8.8.8.8.8.8.8.8.8.8.8.8.8.5.5.8.8.8.8.8.8.8.8.8.}  .c c z c 5.5.5.5.| 8.5.5.5.5.5.5.5.5.5.4.4.4.5.5.4.4.4.5.5.4.7.7.8.5.5.8.7.7.8.8.8.7.7.7.7.8.7.7.7.7.7.8.7.7.7.7.7.8.K z x x D q.0.w.0.w.0.q.0.0.0.0.q.0.0.q.q.0.0.0.0.0.0.0.0.0.0.0.0.0.0.9.9.9.7.7.7.7.9.9.7.9.9.7.7.7.7.W W W W W W W Y M w 7 C T Y Y Y Y Y R R R E C C C E C C V C V V V V V V V V V V V B B B B B B B B B B M s s s p p p p p p p p p u u 9 2 + 4 u u u y y y y y y y y y y y a a a a a a a e e a a a a e e e e e e e e ",
"t 3 e 3 e 3 e X . X $ 3 3 3 3 3 5 5 5 5 5 5 5 5 9 9 a 9 e a a a 9 9 y y y y a a y y y u y y u u y u u u u u u u u u u u u u p p M 1 , < 6 u B B B B V V V V V V V V V V V V V V V V V V V V V V V V V V V V F F F F F F F H H H F F F H H H H H H H N 7 7 ; l T J T T J J J T T T T T T T T T T T T T T T T 4.4.T 4.4.4.4.4.4.4.4.4.4.4.4.4.4.4.4.4.4.4.4.4.4.4.} 4.4.4.8.c 8 8 g 4.4.4.} 4.4.4.8.5.5.5.4.5.5.5.5.8.8.5.4.5.5.5.5.5.5.5.5.5.5.5.5.5.5.5.5.5.5.5.5.5.5.5.5.5.5.5.8.5.5.8.8.8.8.D U k U c | } 8.8.8.8.e.e.8.8.8.8.8.8.8.8.8.8.8.8.e.e.8.8.8.8.8.e.e.8.8.8.8.8.8.8.8.8.8.8.8.8.8.8.8.8.8.8.8.8.8.8.| [ c c k c 5.5.5.5.5.8.8.8.8.8.5.5.5.5.8.8.8.8.8.8.8.5.5.8.4.8.7.7.8.8.8.8.8.8.8.8.7.7.8.8.7.8.7.7.7.7.8.8.8.8.7.w.8.8.K x z Z J q.w.0.w.0.q.q.0.0.q.0.q.q.q.q.q.0.0.0.0.0.0.0.0.0.0.0.0.0.0.0.0.0.0.7.9.9.9.9.9.7.9.7.9.7.7.7.7.7.W W W W Y M w 7 C W Y Y H Y Y Y R R R R E C E E C C C V V V V V V V V V V V B B B B B B B B B B B s s s d p p p p p p p p p u 9 2 + < u u u y y y y y y y y y y y a a a a a a a a a a a a a e e e e e e e e ",
"3 3 3 3 3 e 3 X . X % 3 3 3 5 5 5 5 5 5 5 5 9 a 9 9 9 9 9 9 9 9 9 9 a a a a a y y y y u u u y y y u u u u u u u u u u u p p p n M 1 < < 6 s B B V V V V V V V V B V V V V V V V V V V V V V V V C V V V V F F H F F F H F F F F F F H H H H H H H J N 8 7 ; l T J J J J T J T T T T T T T T T T T T T T T 4.T 4.} J 4.4.4.4.4.4.4.4.4.4.4.4.4.7.4.4.4.4.4.4.7.} 4.7.4.4.8.A 8 g g 4.5.5.4.4.8.8.8.8.8.5.5.8.8.8.8.8.8.8.5.5.5.5.5.5.5.5.5.5.5.5.5.5.5.5.5.5.5.5.8.8.8.8.| | 8.8.8.5.8.*.8.8.8.D U g g c | | e.8.8.8.e.e.e.8.8.8.8.8.8.8.8.e.e.8.8.8.8.8.8.8.8.8.e.e.8.8.8.8.8.8.8.8.8.8.8.8.8.8.8.8.8.8.5.5.5.5.| [ c c h c 5.5.5.5.5.5.5.5.5.8.8.8.5.5.5.5.8.5.7.8.8.8.8.8.8.8.7.8.8.8.8.8.8.8.8.8.7.8.8.8.8.8.8.8.8.8.8.8.w.w.w.w.w.8.K x Z Z D q.q.q.q.q.q.q.q.q.q.q.q.q.q.q.q.q.q.q.0.0.0.0.q.0.0.0.0.0.0.0.0.0.0.0.0.7.9.9.9.7.7.9.9.9.9.7.7.7.W W W W H N w 7 C W Y Y Y Y Y Y Y Y H R R H C C C C C C V V V V V V V V V V V B B B B B B B B B B B s s s p m m m p p p p p u 9 2 + 2 u u u u y y y y y y y a a y y a a a a a a a a a a e e e e e e e e e e ",
"3 3 3 3 3 e 3 X . X % 3 3 3 5 5 5 5 5 5 5 5 5 a a 9 9 9 a a 9 9 9 a a a a a y y y y y u y y y y u u u u u u u u u u u u p p p n p 1 < < 6 M B B V V V V V V V V V V V V V V V V V V V V V V V V V V V F F F H H F F H F F F F F F F H H H H H H T J N 8 7 7 l T J J T T T J J T T T T T T T W W T 4.4.4.4.4.4.J 4.4.4.4.4.4.4.4.4.4.4.4.4.4.4.4.7.7.4.4.7.7.7.7.7.7.7.7.8.A 8 8 g 4.8.7.8.8.8.8.5.5.5.5.5.8.8.8.8.8.5.5.5.5.5.5.5.5.5.5.5.5.5.5.| | 5.| 8.8.8.| | 8.8.8.8.| 8.8.5.5.8.8.*.8.8.D U k g c | | 8.8.8.8.8.e.e.e.e.e.e.8.8.8.e.e.e.e.8.8.e.8.8.8.8.8.e.e.8.8.8.8.8.8.8.8.8.8.8.8.8.8.8.8.8.8.8.8.8.8.| [ c c h c 5.5.5.5.5.5.5.5.5.5.8.5.5.5.5.5.5.8.*.*.8.8.8.8.8.8.8.8.8.8.8.8.8.8.8.8.8.8.8.8.8.8.8.8.w.w.8.8.w.w.w.8.8.q.K Z Z Z P q.q.q.q.t.q.q.q.q.q.q.u.u.q.q.q.q.q.q.q.q.q.q.q.u.q.q.q.q.0.0.q.0.0.0.0.0.0.9.9.9.9.9.9.9.9.9.7.7.7.7.W W H Z w 7 C W Y Y Y Y Y Y Y Y Y H R R E C C E C C V V V V V V V V V V V B B B B B B B B B B B B s s s m m m p p p u p p 9 6 + 4 u u u y y y y y y y y y a a a y a a a a a a a a a e e e e e e e e e e ",
"3 2 3 3 e e 3 X . O $ 3 5 5 5 5 e e 5 5 5 5 a a 9 9 9 y a a 9 9 a a a a a y y y u u y u u u u u u u u u u u u u u u u p p p u n M 1 < < 6 B B B V V V V V V V V V V V V V V V V V V V V V V V V V V V F V F F V F H H F F F F F F H H Y J J J T T T V 8 ; ; l T T T T T J T T T J T T 4.W W W 4.4.4.4.7.7.4.4.4.4.7.7.4.7.7.7.7.7.7.7.7.7.4.4.4.7.7.7.7.7.7.7.7.8.8.8.8.8.K g g z 8.8.8.8.7.8.8.8.8.8.8.5.5.5.5.5.5.5.5.5.5.5.5.| | | | | | 8.8.*.8.8.8.8.8.8.8.*.8.8.8.5.8.8.8.8.8.8.8.| *.e.D g h h L | | 8.8.8.8.8.e.e.e.e.e.e.8.8.8.e.e.e.e.e.e.e.8.8.8.8.8.8.8.8.8.8.8.8.8.8.8.8.8.8.8.8.8.8.8.8.8.8.8.8.8.| } c c h c 8.*.8.8.5.5.5.5.5.5.8.5.5.5.8.8.8.8.8.8.8.8.8.8.w.w.8.w.8.8.8.8.w.8.8.8.8.8.8.8.8.8.w.8.8.q.q.q.w.8.q.q.q.q.K Z Z Z =.q.q.u.t.t.u.u.u.u.u.u.u.u.u.u.u.u.u.u.q.q.q.q.u.q.q.q.q.q.q.q.q.0.0.0.0.0.0.0.9.0.9.9.9.9.9.7.9.7.7.7.7.W W Z w w H W Y T T Y Y Y Y Y Y Y H R R C C C C E V V V V V V V V V V V B B B B B B B B B B B M s s s s m p p p p p p p 9 3 + 4 u y y u u y y y y y y y a y y y a a a a a a a e e e e e e e e e e e e ",
"3 2 3 3 e 3 3 X . O % 3 5 5 5 5 5 5 5 5 5 5 9 9 9 9 9 a 9 9 a a a a a a y y y y y u y u u u u u u u u u u u u u u u p p p p n n M 1 < < 5 V B B V V V V V V V V V V V V V V V V V V V V V F V V F V V V F F F F H H H F F F F F H H Y Y J J H T T T V 8 ; ; l T T T J T W T T W W W W W 7.7.7.7.7.7.7.7.7.7.7.7.7.7.7.7.7.7.7.7.7.7.7.7.8.8.7.7.7.7.7.7.7.7.7.8.8.8.8.8.8.K g l z 8.8.8.8.8.8.8.8.8.8.8.8.8.5.5.5.5.5.5.5.5.8.8.5.5.| | 8.8.8.8.*.| 8.8.8.8.8.8.8.8.8.8.*.*.8.8.8.8.8.8.8.8.e. .U h h k | | e.e.8.8.8.e.e.e.e.e.e.e.e.e.e.e.e.e.e.e.e.e.8.8.e.e.e.e.e.8.8.8.8.8.8.8.8.8.8.8.8.8.e.e.e.8.8.5.8.8.| } c c z c 8.8.8.8.8.5.| 8.8.8.8.8.8.8.8.8.8.w.8.8.8.8.8.8.8.w.8.8.8.8.8.8.w.w.8.8.8.8.8.q.q.q.q.t.q.q.q.q.q.q.q.q.q.t.K Z K K 7.u.u.u.u.u.u.u.u.u.u.u.u.u.u.u.u.u.u.u.s.s.s.s.u.u.u.q.q.q.q.q.q.q.q.q.q.0.0.0.0.0.0.0.9.9.9.9.7.9.9.9.7.9.W Z w w H W T T Y T Y Y Y Y Y Y R R R E C C E E E V V V E E V V V V B B B B B B B B B B B B M s s s s M p p m p p p p y 5 + , p y u u u u y y y y y y y y y y a a a a a a a a e e e e e e e e e e e ",
"e e e e e e e X . X % 5 5 5 e e 5 5 5 5 5 5 a 9 9 a 9 9 9 9 a a y y y y y y y u y y y u u u u u u u u u u u p u u p p p p p s s M 1 < < 5 V V B V V V V V V V V V V V V V V V V V V V V V V V V V V V F F F H H F F F F F H H H H H T T J J T T T T V 8 7 ; l T J T T T W W W 7.7.7.7.7.7.7.7.7.7.7.7.7.7.7.7.7.7.7.7.7.7.7.7.7.7.7.7.7.7.8.8.8.8.8.8.8.8.8.8.8.8.8.8.8.8.K g l z 8.8.8.8.8.8.8.8.8.8.8.8.8.8.5.8.8.8.8.8.8.8.8.8.8.8.*.8.8.8.8.| | 5.8.8.8.*.5.5.5.8.8.8.8.8.8.8.8.8.8.8.8.e. .h k h c | | e.e.e.e.e.e.e.e.e.e.e.e.e.e.e.e.e.e.e.e.e.e.8.8.8.8.e.8.e.e.e.e.e.e.e.e.8.8.8.8.8.8.8.8.e.8.8.8.8.8.| } c c z c 8.8.8.8.8.8.8.8.8.8.8.8.8.8.8.8.8.8.8.8.8.8.8.8.8.8.8.8.8.8.8.8.8.8.8.8.t.t.q.w.w.w.t.t.t.t.q.q.q.t.q.u.t.t.I K K I w.h.s.u.s.s.u.u.u.u.u.u.s.s.u.s.u.u.u.u.h.h.h.h.s.u.u.u.u.u.u.u.q.q.q.q.q.q.0.0.0.0.0.0.0.0.9.9.9.9.7.9.7.9.W Z w w H W W T T W T Y Y Y Y Y Y R R R E C E E E E V V V E V V V V V V B B B B B B B B B B B M d d s s p p m m p p p 9 5 + , u y u u u u u y y y y y y y y y a a a a a a a a a a a a a e e e r e e ",
"e e e e e e e X . X % 5 5 e 5 3 5 5 5 5 5 5 a a 9 a a 9 9 y y a y y 9 y y y y u y u u u u u u y y u u u u u u u u u p p p u s s M 1 < < 5 V V B V V V V V V V V V V V V V V V V V V V V V V V V F F F F F H H H H H H H H H H Y H J T H J T J T T T N w 7 7 z 4.W T T T W 7.W 7.7.7.7.7.7.7.7.7.7.7.7.7.7.7.7.7.7.7.7.7.7.w.w.w.w.w.w.w.w.w.w.w.8.w.w.8.w.8.8.8.w.8.8.8.8.K l l x 8.8.8.8.8.8.8.8.8.8.8.8.8.8.8.8.8.8.8.8.8.8.8.8.8.8.8.8.8.8.8.| | | 8.8.8.| 5.8.8.8.8.8.8.8.8.8.8.8.8.5.8.e.} h h h v | | e.e.e.e.e.e.e.e.e.e.e.e.e.e.e.e.e.e.e.e.e.e.e.e.e.e.e.e.8.8.e.e.e.e.e.e.e.e.8.8.8.8.8.8.e.8.8.8.8.8.| } v c c c 8.8.8.8.8.8.8.8.8.8.8.8.8.8.8.8.8.8.8.8.8.8.8.8.8.8.8.w.w.w.q.q.8.8.q.8.t.t.q.q.t.t.t.u.u.t.u.u.u.u.u.u.u.u.P I I P q.h.h.h.h.h.h.h.h.s.s.h.h.h.h.h.u.s.s.s.h.h.h.h.h.s.s.s.h.u.u.u.s.u.u.u.q.q.q.q.q.q.0.0.0.0.0.9.9.9.9.9.9.9.W Z l w H W W W W T T T T Y Y Y Y R R R R R C E E E V E E V V V V V V V V B B B B B B B B B B B B d s s s p m m p p p 9 5 + , p u u u u u u u u y y y y y y y y a a a a a y y a a a a a e e e r r e ",
"e e e e 5 5 e X . X % 5 e 5 e 5 5 5 5 e 5 9 9 e 5 a a y y y y y y y y 9 y u u u y y y y u u u u u u u u u u u u p p u n n M s s M 1 < < 7 V V V V V V V V V V V V V V V V V V V V V V V V V F F V F F H H H F F H H H H H H H H J J H J T T T T T J A 0 7 7 z 7.T T W 4.7.7.7.7.7.7.7.7.7.7.7.7.7.9.7.7.7.7.7.7.7.w.w.w.7.w.0.0.0.0.0.w.w.w.w.w.w.w.w.w.w.w.w.w.8.8.w.w.t.Z g g x 8.8.8.8.8.8.8.8.8.8.8.8.8.8.8.8.8.8.8.8.8.8.8.8.8.8.8.8.8.8.8.8.8.8.8.8.8.8.8.8.8.8.e.e.8.8.8.8.8.8.8.8.8.e.| h h h v | | e.e.8.e.e.e.e.e.e.e.e.e.e.e.e.e.e.e.e.e.e.e.e.e.e.e.e.e.e.e.e.e.e.e.e.e.e.8.8.8.e.e.e.e.8.8.8.8.8.8.| } c c k c 8.8.8.8.8.e.8.8.8.8.8.8.8.8.8.8.8.8.e.e.e.e.e.e.t.e.t.t.t.t.q.q.q.t.t.t.t.t.t.u.u.u.u.u.u.u.u.u.u.u.u.u.s.u.P P P P q.h.h.h.h.j.j.h.j.h.h.h.s.h.h.h.h.h.h.h.h.h.h.h.h.h.s.s.s.s.s.h.u.u.u.u.u.c.q.q.q.q.q.0.0.0.0.0.0.9.9.9.9.9.W Z w w Z 9.W W W W T T Y Y Y Y Y Y Y Y R R E C C E C V V E V V V V V V B B V V B B B B B B B B B B d s s s p m p p u y 9 + % u u u u u u u u y y y y y y y y y y a a a a a a a a a a e a e e e e r ",
"e e e e 5 e e X . X $ 5 e 5 5 5 5 5 5 5 9 9 9 a 9 9 y y y y y y y y y 9 y y u u y y y u u u u u u u u u u u u p p p n n n M s M M 1 < < 9 V V V V V V V V V V V V V V V V V V V V V V V V V F F F H H H H F F F H H H H H H H H T T T T T T T T T T A w 7 7 N 7.W W 7.7.7.7.7.7.7.7.7.7.7.7.7.7.9.7.7.w.0.0.0.0.w.0.0.0.0.0.0.0.w.w.w.8.q.0.0.q.q.8.8.w.8.w.8.8.8.8.q.0.t.K l l z 8.8.8.e.e.e.8.e.e.e.e.e.8.8.8.8.8.8.8.8.8.8.8.8.8.8.8.8.8.8.8.8.8.8.8.8.8.8.5.5.5.e.e.e.8.8.8.e.e.e.8.8.8.e.} h h h S | 5.e.e.e.e.e.e.e.e.e.e.e.e.e.e.e.e.e.e.e.e.e.e.e.e.e.e.e.e.e.e.e.e.e.e.e.e.e.e.e.e.e.8.e.e.e.e.e.e.e.8.| } v v c c e.8.8.8.8.8.e.e.8.8.8.8.e.e.e.8.e.8.8.8.t.8.e.t.t.t.t.t.t.t.t.t.t.t.t.t.u.t.u.u.u.u.u.u.u.u.u.u.u.s.s.s.s.s.P P P P s.j.j.j.j.j.j.j.j.j.j.j.j.j.j.j.j.j.j.j.j.j.j.j.k.k.h.h.h.h.h.h.s.s.s.s.h.u.u.q.c.q.q.q.q.0.0.0.0.0.0.9.9.9.W Z l w H 9.W W W W W T T T Y Y Y R R Y R R R C C C E V V V V V V V V V V V V V B B B B B B B B B B d d s s s m m p p y 5 O + u u u u y u u u y y y y y y y y y y a a a a a a y a a e e a e e e e e ",
"e 5 e e 5 e 4 o X O % 5 5 5 5 5 5 5 5 9 9 9 a a a a e y a 9 y a y y y y y y y u y u u u u u u u u u u u u u p p p p u p M M M M M 1 < < 9 V V V V V V V V V V V V V V V V V V V V V V F F F H F F H H H H F F H H H H H H J J Y J Y T T T T T T T T A w 7 8 N 7.W 7.7.7.7.7.7.7.7.7.7.7.7.7.7.7.9.0.0.0.0.0.0.0.0.0.0.0.q.q.q.q.q.q.q.q.q.q.q.q.q.q.q.q.q.q.8.q.q.q.t.t.t.G l x z 8.q.8.8.e.e.8.8.e.e.e.e.e.e.8.e.e.e.e.8.8.8.8.8.8.8.8.8.8.8.8.8.8.8.8.8.8.8.8.8.8.8.e.e.e.e.8.e.e.e.e.8.e.e.| h h h v | 6.e.e.e.e.e.e.e.e.e.e.e.e.e.e.e.e.e.e.e.e.e.e.e.e.e.e.e.e.e.e.e.e.e.e.e.e.e.e.e.e.8.8.e.e.e.e.e.e.e.8.| | S v c v e.8.8.8.e.e.e.e.e.e.e.e.e.e.e.e.e.e.8.t.t.t.t.t.t.t.t.t.t.u.t.t.t.t.u.u.u.u.u.u.u.s.u.u.u.s.s.s.h.h.s.j.j.s.P P P P s.l.l.j.l.l.l.l.l.l.l.l.l.l.l.l.j.l.l.l.l.l.l.l.l.l.j.j.j.j.h.h.j.h.s.h.h.h.h.q.s.c.q.q.q.q.0.0.0.0.0.0.7.0.7.Z l w Z 9.W 7.W W W W T W T Y Y Y Y Y Y Y R R C C E E E C V V E V V V V V B B B B B B B B B B B B B d s M s s p p p u < O % u u u u y y y u u y y y y y y y y a a a a a a a a a a r e e a e e e e ",
"e 5 e e e e 2 o o O % e 5 5 5 5 5 e 5 9 9 9 a a a a r y a a a a y y y y y y y y u u u u u u u u u u u u u p p p p u u s M M M M m 1 < < q V V V V V V V V V V V V V V V V V V V V V F F F H H H F H H F H H H H H H H T T T J J T T T T T T T T T W H l 8 7 Z 9.7.7.7.7.7.7.7.7.7.7.7.7.7.7.0.0.0.0.0.0.0.0.0.0.q.q.q.q.q.q.q.q.q.q.t.t.q.q.q.q.t.q.q.q.q.q.q.t.t.t.t.t.t.J x x Z 8.t.t.t.t.t.e.t.e.e.e.e.e.e.e.e.e.e.8.8.8.8.8.8.8.8.8.8.8.8.8.e.8.8.8.8.e.e.e.8.8.e.e.e.e.8.8.e.e.e.e.8.e.e.| v h h v | e.e.e.e.e.e.e.e.e.e.e.e.e.e.e.e.e.e.e.e.e.e.e.e.e.e.e.e.e.e.e.e.e.e.e.e.e.e.e.e.e.e.e.e.e.e.e.e.e.e.8.| | v v c v e.e.e.e.e.e.e.e.e.e.e.e.e.t.e.t.t.u.t.t.t.t.u.t.u.u.t.u.u.u.u.u.u.u.u.u.u.s.s.s.s.s.s.s.s.h.h.j.j.j.j.j.j.s.P P P P h.l.l.l.l.l.l.l.l.z.l.l.j.j.j.j.l.l.l.l.l.l.j.j.j.l.l.l.j.j.j.j.h.j.h.h.h.h.h.h.h.h.s.q.s.q.q.q.0.0.0.0.0.0.7.Z l w Z 9.W W W W W W W T T T Y Y Y R Y Y H R R C E E E C C C E V V V V V B B B B B B B B B B B B B d s s s s p p m 9 + O % u u u u u y y u u y y y y y y y y a a a a a a a a a a r r e a e r e e ",
"e e 5 e e e 2 . X X 2 e 5 5 5 e e e 5 9 9 5 5 a 9 9 y a a y y y y y y u y y y y u u u u u u u u u u u u p p p p p p s s s s s M M q < < q V V V V V V V V V V V V V V V V V V V V V V V F F F H H R Y H H H H H H H H J T T T T T T T T T T W W W 7.J l w w Z 7.7.7.7.7.7.7.7.7.w.w.0.0.0.0.0.0.0.0.0.0.q.q.q.q.q.q.q.q.q.u.q.q.u.u.u.u.u.u.u.u.u.u.u.u.u.u.t.u.u.u.u.t.u.P Z Z Z t.t.t.t.t.t.t.t.t.t.e.e.e.e.e.e.e.e.e.e.e.e.e.e.e.e.e.8.8.8.e.8.e.e.e.e.8.8.8.e.e.e.e.e.e.e.e.e.e.6.6.e.e.e.| v L U v o.e.e.e.e.e.e.e.e.e.e.e.e.e.e.e.e.e.e.e.e.e.e.e.e.e.e.e.e.e.e.e.e.e.e.e.e.e.e.e.e.e.e.e.e.e.e.e.e.e.e.8.| | v S c D e.e.e.e.e.e.e.e.e.p.e.e.e.t.t.t.t.t.u.t.u.u.u.u.u.u.u.u.u.u.u.u.u.u.u.u.u.h.s.j.h.j.j.j.j.j.j.j.j.j.j.l.j.j.P P P =.h.z.z.l.l.z.z.z.z.z.z.l.z.z.l.z.l.l.l.l.z.z.l.l.l.l.l.j.j.l.l.l.l.l.h.j.j.h.h.h.h.h.h.s.c.c.q.q.q.0.q.0.0.0.7.K Z l H 9.9.9.W W W W W W T T T Y Y Y Y Y Y R R E C C E V V V C V V V V V B V B B B B B B B B B B B B d d d s s p m 5 O O % u u u u u u u u u u u y y y y y y a a y a a a a a a a a a a e e e r r ",
"e e 5 e e e 2 . X X 2 e 5 5 5 e e e 9 9 5 5 a a y y a a a a y y y y y y y y u u u u u u u u u u u p u p p p p u p M s s s s s m M q < < q V V V V V V V V V V V V V V V V H V V V V F F F F H H H Y Y H H H H H T J T T T T T T T T T T T T W 7.7.7.H l w w Z 7.7.7.7.7.7.7.0.0.0.0.0.0.0.q.q.q.q.q.q.q.q.q.q.q.u.u.q.q.q.q.q.u.u.u.u.u.u.u.u.u.u.u.u.u.u.u.u.u.u.u.u.u.i.P x Z K u.u.u.u.t.u.u.u.u.u.u.t.t.t.e.e.e.e.e.e.e.e.e.e.e.e.e.e.e.8.e.e.e.e.e.e.e.8.8.e.e.e.e.6.e.e.e.6.6.6.6.e.e.e.| ^ v h S o.e.e.e.e.e.e.e.e.e.e.e.e.e.e.e.e.e.e.e.e.e.e.e.e.e.e.e.e.e.e.e.e.e.e.e.e.e.e.e.e.e.e.e.e.e.e.e.e.e.e.8.| | v S v  .u.e.e.p.t.e.e.e.e.t.t.u.t.u.u.u.u.u.u.u.u.u.i.u.i.i.i.i.i.s.s.s.s.h.s.s.j.j.j.j.j.j.j.l.l.l.j.l.l.l.j.l.l.j.=.=.=.=.l.T.z.T.T.T.T.T.T.T.T.T.T.T.T.T.T.T.T.T.T.T.T.T.z.z.l.l.l.l.l.j.j.l.j.l.l.h.j.h.h.h.h.h.h.h.c.q.q.q.q.0.0.0.7.K Z l K 9.9.9.7.W W W W W T T T Y Y Y Y Y Y R R Y C C E C C V V V V V V V B V V B B B B B B B B B B B m m p s s p m 3 O + + u u u u u u u u u u u u y y y y y y a y a a a a a a a r a r r e e e e ",
"e e e e e e 2 . X X % 5 e 5 e e 5 5 9 9 9 9 9 9 y y a a y y y y y y y y y y y u u u u u u u u u u u p p p p n n p M M M M M m m M 1 < < q V V V V V V V V V V V V V V V V V V V V V F F F H H F H Y H H H H H H T T T T T T T T T T T T T 7.7.7.7.7.H Z w w K 0.7.7.7.7.0.0.0.0.0.0.0.q.q.q.q.q.q.q.q.q.q.q.q.q.u.u.u.u.u.u.h.h.h.h.h.h.h.h.h.s.s.s.u.u.u.u.u.u.u.u.u.u.s.P Z Z K u.u.u.u.u.u.u.u.u.u.u.u.t.t.t.t.t.t.t.e.e.e.e.e.e.e.e.e.e.e.e.e.e.e.e.e.e.e.8.e.e.6.6.6.6.6.6.6.6.e.e.e.e.e.| ^ ^ L  .o.o.e.p.e.e.e.e.e.e.e.e.e.e.e.e.e.e.e.e.e.e.e.e.e.e.e.e.e.e.e.e.e.e.e.e.e.e.e.e.e.e.e.e.e.e.e.e.e.e.e.5.| | v S v } u.e.p.p.e.t.u.u.u.u.u.u.u.u.u.u.u.i.i.u.u.s.i.i.s.s.s.s.j.j.s.j.j.j.j.j.j.j.l.l.l.l.j.l.l.l.l.l.l.l.l.l.T.l.=.w.a.a.l.{.T.T.T.T.{.T.{.T.{.T.{.{.{.{.{.T.T.T.T.T.T.{.T.T.T.T.T.z.z.z.l.l.l.l.l.j.j.j.j.h.h.h.h.h.s.s.q.q.q.q.q.q.9.K Z l Z 0.9.9.9.W W W W W W T T T Y Y Y Y Y Y R R R C E E C V C C V V V V V V V B B B B B B B B B B B B m d d d s m 3 + + + u u u u u u u u y u u u y y y y y y y y y a a a a y a a a r r e e e e ",
"e e e e e a 4 . X X % 5 5 5 e 5 5 9 9 9 9 9 9 9 y y y y y y y y y y y u 9 u y y u u u u u u u u u u u p p p n n M M M M s m m M M 7 < < q V V V V V V V V V V V V V V V V V V F V V F F H H F F H H H H H H J T T T T T T T T T T T W W 7.7.7.7.7.W H Z Z l H 0.7.7.9.0.0.0.0.q.q.q.q.q.q.q.q.q.q.q.u.u.s.h.h.s.s.s.s.s.s.h.h.h.h.h.h.h.h.h.h.h.h.h.h.h.s.u.u.s.s.s.s.s.s.P Z K K u.u.u.u.u.i.i.u.u.u.u.u.u.u.u.t.u.u.u.p.p.e.e.e.e.e.e.e.e.e.e.e.e.e.e.e.e.e.e.e.e.e.6.6.e.e.e.e.e.e.e.e.e.e.| ^ ^ b  .o.| e.r.e.e.e.e.e.r.e.e.e.e.e.e.e.e.e.e.e.e.e.e.e.e.e.e.e.e.e.e.e.e.e.e.e.e.e.e.e.e.e.e.e.e.e.e.p.p.e.| | | D S D [ t.p.p.t.t.u.u.u.u.u.u.u.u.u.i.i.i.i.i.u.s.s.j.j.s.s.j.j.d.j.d.j.j.j.j.j.j.j.j.l.l.l.l.l.z.z.z.T.T.T.T.T.T.j.a.a.a.s.l.{.{.{.-X{.{.{.{.{.{.{.-X-X{.{.{.{.{.{.{.{.{.{.{.{.T.T.T.T.T.T.T.z.z.l.l.l.j.l.j.l.k.h.h.h.h.h.h.u.c.q.0.c.0.Z Z Z Z 0.9.9.9.W W W W W W W T T T Y Y Y Y Y Y C R R C C C E C C V V V V V B V V B B B B B B B B d B B B d d d s p 3 + O + u s u u u u u y y u u u y u y y y y y y y a a a a a y r a e r r r e 5 ",
"e e e e e e 4 X X O % 5 5 5 5 e a 9 9 9 9 a y y y y a a a a y y y y u u y y u u u u u u u u p u u u p p p n n s u M M M M m M M M 6 6 6 9 M V V V V V V V V V V V V V V V V F F F F F H H H F F H H H H H J J Y T T T T T T T T T W W 7.7.7.7.7.7.J H Z Z Z I 0.0.0.0.0.0.0.q.q.q.q.q.c.q.c.q.c.h.h.h.h.h.h.h.h.s.h.h.h.h.h.h.h.h.h.h.k.j.h.h.h.h.h.h.h.s.s.s.h.s.j.j.h.j.P K I I s.s.i.i.u.u.u.i.i.i.i.u.u.u.u.u.u.u.u.t.t.p.p.p.e.p.p.p.e.p.e.e.e.e.e.e.e.e.e.e.e.e.e.e.e.e.e.e.e.e.e.e.e.e.| ^ ^ v  .o.o.o.o.o.e.e.e.p.p.p.p.r.r.r.p.p.e.e.e.e.e.e.e.e.e.e.e.e.e.e.e.e.e.e.e.e.e.p.p.p.p.e.p.p.p.p.p.e.e.*.| *.| [ D v } t.p.u.t.u.u.t.u.u.u.i.i.i.i.i.i.s.s.i.j.s.j.j.s.j.j.j.j.j.j.j.j.j.j.l.l.l.l.l.l.l.z.T.T.T.T.T.T.T.T.T.T.{.l.a.a.f.f.(.{.{.{.{.|.|.-X|.-X-X{.-X-X-X}.}.{.{.{.}.-X-X}.{.-X{.{.{.{.T.T.T.T.T.T.z.z.z.l.l.l.j.j.h.k.h.h.h.h.c.q.q.q.9.Z Z Z K 0.9.9.9.9.W W W W W W W W T T Y Y Y R Y R H R R C C C C V V V V V V V B V V V B B B B B B B M B B m d d d d 3 O + + u s p u u u u u u u u u u y y y y y y a y a a a a a a a r e a r r e e ",
"e e e 5 e a 4 . X O % e 5 5 5 5 9 9 9 5 a a a y y y y a a y y y y u y y y u u u u u u u u u u u p p p p p u M M M M M u M M M M M 6 6 6 9 0 B V V V V V V V V V V V V V V F F H H H H H H H F H H H H T J J J J T T T T T T T W W W W W 7.7.9.7.W H H Z Z Z I 0.q.0.0.q.q.q.q.q.q.c.c.c.s.s.s.s.h.h.h.h.h.h.h.h.h.h.h.h.h.k.k.k.h.h.h.h.k.h.h.l.j.j.j.j.j.j.j.j.s.j.j.j.j.P I I P s.s.s.s.d.i.i.i.i.i.i.i.u.u.u.i.i.u.u.u.t.t.p.p.p.e.e.e.e.e.e.e.e.e.e.e.e.e.e.e.e.e.e.e.e.e.e.e.e.e.e.e.e.p.| ^  .b  .o.| o.o.| | o.o.o.o.o.o.o.o.o.o.o.-.-.-.o.o.o.6.o.o.o.o.o.o.o.o.o.o.| | | | o.o.-.-.o.o.-.-.-.-.o.o.o.-.o.| [ ^ D [ i.t.t.t.t.u.i.i.u.u.i.i.i.i.i.s.s.s.s.s.s.s.d.d.j.j.j.j.j.j.l.l.j.j.l.l.l.l.z.T.z.T.T.T.{.{.{.{.{.{.{.{.{.l.a.a.f.f.{.-X{.{.-X-X-X-X-X-X-X-X-X-X-X-X-X-X*X-X*X-X-X-X-X-X-X{.{.{.{.{.{.{.T.T.T.T.z.l.l.l.l.l.l.h.h.h.h.h.s.c.q.q.7.P I Z K 0.9.9.9.9.9.W W W W W W W T T T Y Y Y Y Y Y C C C C C C C V V V V V V V B V B B B B B B B B M M B B d d s m y , + + u p s u u u u u u u u u u y y y y y y y y y y a a a y a a e e a r r e ",
"5 e e e e r 2 . X O $ 5 5 e e 9 a 9 y y y y y y a y y y a y y y y u y u u u u u u u u u p p p u p p m m M s M M M M M M M M M M u < 6 6 9 0 0 0 0 0 M M B V V V V V V F F F F F V V N N N N V V V V N V F F H H T T T T T W W W W W W 7.7.7.7.W J J H Z Z Z Z 0.q.q.q.q.q.q.c.c.c.c.q.c.h.h.h.h.h.h.h.k.k.k.k.k.h.l.l.l.l.l.l.l.l.l.l.l.l.l.l.l.l.l.l.l.j.j.l.j.l.l.l.U.j.P P P P s.j.j.j.j.j.j.d.d.d.d.i.d.i.i.i.i.i.u.i.i.u.i.i.u.t.p.t.p.p.p.p.p.p.p.p.p.e.p.e.e.e.e.e.r.e.e.p.p.e.e.p.e.p.| ^ ^ b ^ o.o.o.o.o.o.o.o.o.o.o.o.o.o.o.o.o.o.o.o.o.o.o.o.o.o.o.o.o.o.o.o.o.o.o.o.o.o.o.o.o.o.o.o.*.-.-.-.*.-.-.-.o.| D [ D D p.i.i.i.i.i.i.i.i.i.d.d.d.j.j.j.j.j.j.j.j.P.P.P.P.P.P.U.U.l.U.T.z.T.T.T.{.{.{.{.T.{.T.{.{.{.{.{.{.-X-X{.-Xk.a.f.l.k.(.=X=X=X=X=X=X=X=X=X=X=X=X=X=X=X=X=X=X=X=X=X=X=X=X-X-X=X-X-X X}.}.}.{.{.{.{.{.T.T.T.z.l.z.l.l.l.k.h.h.h.h.c.=.P P I Z 0.0.0.0.9.0.9.9.9.9.W W W W W W T T Y Y Y Y R R R R R E E E E E E V V V V V V V V B B B V B B B B B B d d d B 5 O + 5 B s s u u u u u u u u u u u u u y y y y y y a a y y a a a a i a i r ",
"e e e e e e % . O O $ , 5 5 5 5 5 5 5 5 5 5 5 5 9 9 9 9 9 9 9 9 a y y y y y y y y y y u u u u u u u u u u u s u u u u u p s u s 1 6 6 6 1 0 0 0 0 0 0 0 0 0 0 n M M M n n n M n n n n n n n M M N N N N N N N N V F H H H F F K F F H H H J J J P P K Z Z I Z Q q.q.c.q.q.q.q.c.c.c.c.c.h.h.h.h.h.h.s.h.k.k.k.k.k.k.k.l.k.l.l.l.l.x.l.l.l.l.l.l.l.l.l.l.l.j.k.k.l.l.h.s.w.P P P P P q.s.s.s.u.u.u.u.u.u.u.u.t.t.t.t.t.t.t.t.e.e.e.e.e.e.e.e.e.8.8.8.8.*.*.-.*.*.| | 5.*.*.| | { [ [ [ { { { [ v v v v v ^  . . . . . .^ ^ ^ ^  .^ ^ ^ ^  .^  . . . . . . . . . . .^  . . . . . . .[  . . .[ [ [ [ [ [ [ [ [ [ [ ^ D D D D D D *.*.*.*.=.*.*.*.*.>.w.w.w.w.w.q.q.u.t.u.s.s.s.s.s.s.s.s.s.s.s.s.s.f.f.f.f.k.j.l.l.l.l.l.l./.l.l.(.(.(.k.k.k.k.k.l././.{.{.{.{.{.{.|.|.|.|.|.|.|.|.|.|.|.|.|.|.|.{.{.{.{.].].].].(.].l.(.l.l.j.l.j.f.f.s.s.s.s.s.q.q.q.q.w.w.7.P P P I Z I P P P P H H H H H H C Z C Z Z Z B N N N B M M B M s s s s s s 0 s 0 9 0 9 0 9 9 9 9 9 9 9 9 9 q q 5 5 1 5 % + + + + 9 y y y y y a 9 a a a a a a a a e 5 9 5 5 r 5 5 5 5 5 5 5 4 4 2 2 & ",
"$ $ $ O O O O O O O O O $ % % + O O O + + + + + + + + % % + + + + + + + + * , < = = = = = < < = < < < < < < < < < < 6 6 6 6 - 6 < 6 6 1 ; 1 1 1 7 9 9 9 9 q 1 1 1 1 1 7 7 7 7 7 9 0 0 0 0 0 8 8 0 0 0 w l l l 0 w w l l l l Z l l Z Z Z Z Z Z Z K I Z I I I I I I I P P P P P P P P P Q Q Q Q Q Q Q Q Q Q Q Q Q Q w.w.a.a.a.a.a.a.a.a.a.a.a.a.a.a.a.a.a.a.a.a.w.w.a.w.w.=.w.=.=.=.7.=.=.=.=.=.=.=.=.=.=.=.=.P P P D D D D D D D D D D v D D D D v v v v v v v v c v v v v c c L v L L b L L L b v v v v b v v b L L b b v v v v v v v b v v v v v v b b b b v v b b v v v v v b b v v v v v v v v v v v v D v D D D D D D D D D D D D D D P P P P =.=.=.=.=.=.=.=.=.=.=.=.>.=.=.>.w.a.a.a.a.a.a.a.a.a.a.a.a.f.a.a.a.a.a.a.k.k.k.g.k.k.`.`.k.k.`./././.`./.`././././.`.`./././././././././././././././././.k./.f.f.k.f.f.f.f.a.a.a.a.a.a.w.=.=.=.P P P P P P P P I Z I Z Z Z Z Z Z Z l l l w w w w w w w w 8 7 7 7 7 7 7 7 7 7 1 1 1 1 1 6 6 6 6 6 6 - - < < < < < < = = = = = + + + + + + + + + + + + + + + + + + + + + + + O O O O O O O O O O O O O O O X X X ",
"X X X X O X X O O O O O O O O O O O O + O O + + + + + + + + + + + + + + + % , , = = = = = < < < < < < < < < < < < < 6 6 6 6 6 6 6 6 6 6 ; 1 1 1 6 1 1 1 1 1 1 7 7 7 7 7 7 7 7 7 7 7 7 1 1 7 7 7 7 8 8 7 7 w w w w w w l l l l l l l l Z Z Z Z Z Z Z I I I I I I I I I P P P P Q Q Q Q P Q Q Q Q a.Q Q Q Q Q Q Q Q Q Q Q a.a.a.a.a.a.a.a.a.a.w.w.w.w.w.w.w.a.a.a.a.a.a.w.=.>.>.w.=.w.w.=.=.=.=.=.=.=.=.=.=.=.=.=.=.=.P P P P D D D D D D D D D D D D S v v v v v v v v v v v v v v v v v v v v v v v v v ^ ^ v ^ ^ ^ ^ ^ ^ ^ ^ ^ v v v v v v v v v v v v v v v v v v v v v v v v v v v v v v v v v v D D D D D D D [ D D D D [ [ =.=.=.=.=.=.=.=.=.=.=.=.=.=.=.>.w.w.>.a.t.w.a.a.a.a.a.a.s.a.a.a.s.s.f.f.a.a.a.a.a.f.k.k.k.k.k.`.`.`.`.`./././.`././.`./././././._./._._.|..X.X|./..X.X.X/./..X/.]./././././././././.f.f.k.f.f.f.a.s.a.a.a.a.a.w.=.=.P P P P P P P P I I K Z Z Z Z Z Z Z Z l l l w w w w w w w w w 9 7 7 7 7 7 7 7 1 1 1 1 6 6 6 1 1 6 6 6 < < < < , , , < = = + + + 2 , + + + + + + + + + + + + + + + + + + O O O O O O O O O O O O O O O X X X ",
"X O O O O O O $ O % % O O O O O O O + % % % % , * , , , , , , , = = = % % % % < @ , = = < < < < 6 6 < < < < < < < < < 6 6 6 6 < 6 6 1 6 1 1 1 1 1 1 1 1 1 1 1 7 1 1 7 7 7 7 7 7 7 7 7 7 7 7 1 ; 7 7 7 7 7 7 7 7 7 w w w w l l l Z Z Z Z I I I I P P P P P Q Q 9.Q Q Q Q Q 0.0.a.a.a.a.a.a.a.a.a.a.a.a.a.a.a.a.a.a.a.Q ! Q Q w.a.a.a.k.k.k.k.g.a.a.a.w.a.a.a.a.w.a.a.w.P P =.P P =.a.a.a.a.a.t.w.w.>.w.=.=.=.=.=.=.=.=.=.=.=.=.=.=.=.D D D D D D [ [ [ [ [ [ [ ^ ^ ^ ^ ^ ^ ^ v v v ^ ^ v ^ v ^ ^ v v ^ ^ ^ ^ ^ ^ ^ ^ ^ ^ ^ ^ ^ ^ ^ ^ ^ v v v v ^ ^ ^ ^ ^ v v v v ^ v ^ ^ ^ ^ ^ ^ ^ ^ ^ ^ ^ ^ ^ ^ [ [ [ [ [ [ [ [ [ [ [ [ =.=.=.=.=.=.=.=.=.=.=.=.=.=.=.t.t.t.t.q.a.a.a.a.a.a.a.a.f.f.f.f.f.f.f.k.f.k.k.f.k.f././.(./.].].|.{.|.|.|.|.|.|.|.|.|.|.=X=X|.=X,X,X,X=X,X#X,X,X,X,X,X,X,X,X#X#X X=X=X=X X X X|. X X|.|.{.{.].]./././.l.f.f.f.f.f.s.s.s.q.a.w.w.w.w.7.=.7.=.=.P P P P P H H K Z Z Z Z Z Z Z N N N N M M M s 0 w 7 1 1 7 9 9 9 9 9 9 9 9 9 9 9 9 9 q q q q q 1 7 1 1 1 1 5 5 5 5 5 6 6 < 6 3 3 3 4 4 < 2 , , , , , 4 % % , % % % % % % % O * 4 4 2 * 2 & ",
"% % % % $ % % % % % % % % % % % % % % % % % , , 4 , , , , < 2 < < 6 6 < % * < , < 6 6 5 5 q q q q q 9 9 7 q q q 9 q 9 9 7 7 7 7 7 7 1 1 1 7 1 1 7 7 7 7 7 7 7 7 7 7 7 7 7 7 9 9 7 8 8 8 8 7 7 7 7 7 8 N Z Z C C C H J W P P W W W W 7.7.9.W W 7.0.0.0.q.c.c.s.h.h.h.h.g.h.k.k.k.k.k.k.x.x.x.x.x.x.x.x.(.(.(.(.l.a.a.a.a.a.k.x.g.k.g.`.(.(.(.(.{.-X*X{.{.{.{.(.(.(.(.{.(./.l.k.l.(.{.{.{.U.T.U.U.U.U.U.U.U.U.U.U.P.P.j.j.d.d.d.d.d.u.=.P P D D [ | *.*.*.*.*.{ { { { { { { { [ [ { { {  . . .{ {  . .{  . . . . . . .{  .{ { { { { { { { {  .{ { {  . .^ ^ ^ ^ ^ ^ ^ { | o.o.o.o.o.| o.-.-.e.e.e.p.p.e.e.-.-.-.e.-.e.-.t.t.u.i.i.i.d.d.d.d.s.s.d.s.d.j.U.U.U.U.j.j.U.l.l.l.l.j.f.f.f.f.(.{.{.{.{.{.{.{.|.|.|.=X-X=X=X,X,X,X1X3X3X,X1X1X1X1X3X3X3X3X3X3X3X5X5X5X5X5X5X5X5X5X5X5X5X5X5X5X5X5X5X5X5X3X,X,X=X|.,X1X,X,X=X=X=X-X-X|.{.{.{.{.{.(.l.l.l.l.h.h.s.s.s.s.q.q.q.w.0.w.9.7.7.W 7.W W W P W W H H H H H H C C C V N l 7 1 1 w V V V C V V V V V V B B M B B B B B B B M M p p p u u u p s p u u u u u u u u u y y y y y y y y y y y a 3 & % % O a i i a r a r ",
", & % % % % % % % % % % % , , , 2 , 4 , , 4 < < 3 3 3 6 6 6 6 6 6 < 6 6 < , = < q q 9 9 q q 5 q q q q 9 9 9 9 9 9 9 9 9 0 0 0 0 0 0 0 0 0 0 0 0 u n n j j 0 0 j j 0 j 0 j M M n j l l l M 0 7 7 w 7 V T T W W 7.7.7.7.7.7.9.9.9.0.0.q.q.q.c.c.c.c.c.h.h.h.h.k.k.k.k.x.x.x.x.x.z.(.(.(.(.(.(.(.(.(.(.*X*X*X*X*X-Xk.a.a.a.`.=X*X*X*X*X*X*X*X*X-X*X*X*X*X*X-X*X*X*X*X-X|.|.*X-X}.}.}.{.{.{.{.{.T.T.T.T.T.U.U.U.U.U.U.j.P.P.P.P.j.j.d.P.8.P =.[ *.i.i.i.i.i.i.i.y.i.i.y.y.p.p.p.p.p.p.p.r.p.p.p.p.p.p.r.r.r.p.r.r.r.p.r.r.r.r.r.r.r.r.r.r.r.r.r.r.r.r.p.p.;.{ ^ ^ ^ v | p.r.p.p.r.r.r.r.r.r.y.y.y.y.y.y.y.i.i.i.i.M.i.d.d.d.j.P.P.P.d.P.P.P.P.U.U.U.T.U.T.T.T.T.{.{.}.}.}.}.-X}.-X].f.l.f.{.=X=X=X=X=X=X=X=X3X3X3X3X3X3X3X1X3X3X3X3X3X3X3X3X3X3X5X5X5X5X5X5X6X6X6X6X6X5X6X6X6X6X6X6X6X6X6X5X6X6X6X5X5X1X1X#X|.3X5X3X3X3X3X3X1X,X=X=X=X-X-X-X{.{.{.{.T.z.z.z.l.l.k.h.h.h.h.q.q.q.q.0.0.0.0.9.7.9.W W 7.W W W W T Y Y Y Y H N w 1 1 s H C V V V V V V V V V B V B B B B B B B B B s s p p p p u s s p u u u u u u u y u y y y y y y y y y a y a 2 % + + a a a a r e r ",
"2 2 2 2 4 4 2 2 2 2 2 2 3 3 3 3 5 5 5 3 3 3 3 5 5 5 5 5 5 5 9 9 q 9 5 < < = + < 5 q 9 q 9 9 9 0 0 0 0 0 0 u u u n n M M M M M M M M 0 0 0 j M M N V V V N N N N N N N N V V V V N N N M l N 7 7 w w H T T T W 7.7.7.7.7.7.9.9.0.0.0.q.q.q.c.c.c.c.h.h.h.h.k.k.k.k.x.x.l.x.x.(.(.(.(.(.(.(.(.(.*X%X%X*X*X*X*X*X*X(.a.a.a._.*X*X*X*X*X*X*X=X=X=X=X-X-X-X-X-X-X-X-X*X*X*X|.*X-X-X-X}.{.}.}.{.{.{.R.{.{.T.T.T.T.U.U.U.U.U.U.U.P.P.P.d.P.t.=.=.[ t.F.i.i.i.i.i.y.y.i.y.i.y.y.p.p.p.p.p.p.p.p.p.p.r.r.p.p.p.p.p.p.p.p.r.r.r.p.r.r.r.r.r.r.r.r.r.r.p.p.r.p.p.y.-.^ ^ ^ v o.r.r.p.p.p.r.r.r.p.p.i.i.y.y.y.y.y.y.i.i.i.M.i.i.d.d.d.j.P.P.P.P.P.P.P.U.U.U.T.T.T.T.T.T.{.}.}.}.}.}.-X-X-X}.l.f.k.-X=X=X=X=X=X,X,X,X,X3X1X3X3X3X3X3X3X3X3X3X3X5X3X5X6X5X6X6X6X6X6X7X7X7X6X6X7X6X7X7X7X7X7X7X6X6X6X6X6X6X6X6X6X5X3X,X#X5X5X5X5X3X3X3X3X1X1X;X=X=X-X-X-X{.{.{.T.T.z.l.l.l.j.h.h.h.h.u.q.q.0.0.0.0.0.9.7.9.7.W 7.W W W W T Y Y Y Y Y N w 1 1 s H C V V V V V V V B V V V B B B B B B B B d s s p p p p u s s p u u u u u u u u u y y y y y y y y y y y a 4 % + % a a a i r r r ",
"r r e 5 5 4 4 4 2 3 3 3 5 3 5 5 5 5 5 9 9 a 9 9 a a a a 9 9 9 9 q q q 3 < , = = 9 u s s M B B M M B B B M M M B V B B B B B V V V N V V V V V V V V V N V V V V V V V H H F F F H H H A N N 7 7 w l J T T W W 7.7.7.7.7.9.9.0.0.q.q.q.c.c.c.c.c.h.h.k.k.k.k.x.x.x.x.z.(.(.(.(.(.{.{.(.*X%X*X*X*X*X*X*X*X*X*X*X=X_.a.a.a.*X=X*X=X=X=X=X=X=X=X=X=X=X=X=X=X=X=X=X=X=X=X=X=X=X-X-X-X-X-X-X-X-X-X-X-X{.{.{.{.{.T.T.T.U.U.U.U.U.U.P.P.P.P.t.=.=.=.t.F.d.d.i.i.i.i.i.i.y.i.y.y.p.y.p.p.r.r.r.r.p.r.p.p.r.p.r.r.r.r.r.p.p.p.p.p.r.p.r.r.r.r.r.r.r.p.p.r.r.p.p.r.;.^ ^ ^ v o.r.r.p.p.p.r.p.r.p.y.i.y.y.y.y.y.y.i.i.i.F.F.M.d.d.F.P.P.P.P.P.P.U.U.U.T.U.T.T.T.}.}.}.}.}.}.}.}. X=X=X=X-X-X(.`./.=X3X,X3X1X3X,X,X3X<X1X3X3X3X5X5X5X5X5X5X5X5X6X6X6X6X6X6X6X6X7X7X7X7X7XiXiX7X7XiXiXiXiXiXiXiXiXiXiXiXiXiX7X7X6X5X,X,X6X6X6X5X5X5X4X3X3X3X1X;X=X=X=X-X-X}.{.{.T.T.z.l.l.l.j.h.h.h.h.q.q.q.0.0.0.0.0.9.7.7.7.W W W W W T Y T Y Y Y N w 1 1 M H C V V V V V V V B V V B B B B B B B B B B d s s p p p p s s s u u u u u u u u u u y y u u y y y y a y y 4 % + % i a a i r r e ",
"e r e e a a a a a a a a a y y y y y u u u u u u u u u u u u u u 9 9 9 3 < = = < u d s M s M M M M M M B M M M M B B B B B B M V N N V V V V V V V V V V V V V V V V F F F F F F H H H H N N 8 7 w l J T W 7.7.7.7.9.9.0.0.0.0.q.q.q.c.c.c.c.h.h.h.k.k.k.k.x.x.x.x.(.(.(.(.(.(.(.(.*X*X*X*X-X*X*X*X*X*X*X*X,X*X=X_.~.^.^.*X<X<X3X<X<X<X,X,X,X=X=X,X3X=X,X=X=X=X=X=X=X=X,X=X=X=X=X=X=X=X=X-X-X-X-X}.}.{.}.}.}.}.T.U.U.U.U.U.U.U.U.P.P.u.=.=.=.t.F.d.d.d.d.d.i.i.i.i.i.y.y.y.y.i.p.r.r.r.r.p.p.p.p.r.p.r.r.r.r.r.r.r.p.r.p.r.r.r.r.p.p.r.r.r.p.p.p.p.r.p.r.r. .^ ^ v o.r.r.p.r.r.r.r.r.y.y.y.y.i.i.i.i.i.i.M.F.d.F.F.F.F.F.P.P.P.U.U.U.U.U.U.U.{.{.}.}.}.}.}.}.}.}.-X=X=X=X=X=X=X-X/.`.`.3X1X1X3X3X3X3X3X3X3X3X5X3X5X5X6X6X6X6X6X6X6X6X7X7X7X7X7X7X7XiX7X7X7XiXiXiXiXiXiXiXiXiXiXiXiXiXiXiXiXiXiXiXiX7X5X3X,X7X7X7X6X6X6X5X5X3X3X3X1X1X;X=X=X-X*X{.{.{.T.z.l.l.l.l.h.h.h.h.s.q.q.q.0.0.0.9.9.7.7.7.7.W W W W T T T T Y Y N w 1 1 N R C V V V V V V B B V V V B B B B M B B B B B p s p p p p u s s u u u u u u u u u u u y u u u y y y y y y 2 % O % y a a a r r r ",
"r r e e r a a y y a a a a y y y y y y u y y y u y u u u u u s s s 9 9 q < , + 6 s d s s M M M s M M M B M M M m B B B V B M V V V V V V V V V V V V V V V F F V F F F F F H H H H H H H H N w 7 w l J W 7.7.7.7.7.9.0.0.0.0.q.q.q.c.c.c.h.h.h.k.k.k.k.x.x.x.x.(.(.(.(.(.(.*X*X*X*X*X*X*X*X*X*X*X*X*X,X,X<X,X*X<X(.a.~.g.*X<X<X<X<X<X<X<X<X,X,X<X,X3X,X1X1X,X,X,X,X1X,X,X,X=X=X=X=X=X=X=X=X=X=X=X=X}.}.}.}.}.}.}.}.T.U.U.U.U.U.U.U.U.d.=.=.=.u.P.P.d.F.d.d.d.M.i.i.i.i.y.y.y.y.y.r.r.r.r.r.r.p.p.r.r.r.r.r.r.r.r.r.r.r.r.r.r.r.r.r.r.r.r.r.r.r.r.r.r.r.r.r. .^ ^ ^ ;.r.p.p.p.r.r.y.y.y.y.y.y.i.i.i.i.M.i.F.F.F.F.F.F.P.P.U.U.U.U.U.U.U.T.T.T.}.}.}.}.}.}.}.=X=X=X=X=X=X;X;X;X3X=X/.`./.1X3X3X3X3X3X5X5X5X5X3X5X3X3X3X3X6X5X5X6X6X6X6X6X7X7X7X7X7XiXiXiXiXiXiXiXiXiXiXiXiXiXiXiXiXiXiXiXiXiXiXiXiXiX7X5X5X5X7XiX7X7X7X6X6X6X5X5X3X3X3X1X;X;X=X=X-X-X{.{.T.T.z.l.l.h.h.h.h.h.u.q.q.q.0.0.0.9.7.9.9.7.W W W W T T T T Y Y V 0 1 1 N R C C V V V V V V V V V B B B B B B M M B B B s s p p p p p s s d u u u u u u u u u u u y y y y y y y a y 4 % O % y a a i a r r ",
"e e e e a a a y y a a a a y y y y u y u y y u u s u u u u u s s s 9 9 9 < , % 5 m s p s M M M M B B M M M M B B B V B B B V V V V V V V V N N V V V V V V F F F F F F F H H H H H H H H H N w w l l W 7.7.7.7.7.9.0.0.q.q.q.q.q.c.c.h.h.h.h.k.k.k.x.x.x.x.(.(.(.(.(.*X*X%X*X*X*X*X*X*X*X*X<X<X<X<X,X*X<X<X<X3X3X#X#X,X9XyXuXuXuXuXuXuXuXyXyXyXyX5X5X3X1X3X<X<X3X3X3X1X1X3X,X1X3X1X1X,X=X=X=X=X=X=X=X=X=X}.}.}.}.}.}.R.T.U.Y.U.U.U.Y.d.=.>.=.u.U.P.F.F.F.F.F.F.M.i.M.i.i.y.y.y.y.y.r.r.r.y.r.r.r.r.r.r.r.r.r.r.r.r.r.r.r.r.r.r.r.r.r.r.r.r.r.r.r.r.r.r.r.r. . .^ ^ ;.r.r.r.r.y.y.y.y.y.y.y.y.i.i.M.M.d.d.F.F.F.F.P.P.P.U.U.U.U.U.Y.R.}.{.}.}.}.}.}.}.}.=X=X=X=X=X=X;X1X1X1X1X1X,X|.'./.3X5X5X5X5X3X3X3X5X5X6X7XiXiXiXpXpXpXpXpXpXpXpXpXpXpXpXpXiXiXiXiXiXiXiXiXiXiXiXiXiXcXcXcXpXcXiXiXiXiXiXiXiXiXiX6X5X5XiXiXiXiXiX7X6X6X6X6X5X4X3X3X1X1X;X=X-X-X{.{.{.T.T.z.l.l.h.h.h.h.h.u.q.q.0.0.0.0.9.9.9.7.7.W W W W T T T Y Y V w 7 1 N R C C V V V V V V V V V B B B B B B B M B B B M s s s p p p s s d d d u u u u u u u u u y y y y y y y a y 4 % O % y i a i i r a ",
"r r e r a a a y y y a a y y y y y y y y y u u u u u u s u u s s d u 9 9 < % * 9 d s s s s s M M M M M M M m M M V V B V M V N N V V V V V V V V V V V V V V F F F F F F H H H H H H Y H T N w l l l W 7.7.7.9.0.0.0.0.q.q.c.c.c.c.c.h.h.k.k.k.x.x.x.x.(.(.(.(.(.(.*X*X*X*X*X*X*X*X*X=X*X<X<X*X<X<X3X6XyXuXaXaXhXfXfXfXfXfXfXgXgXgXfXfXdXgXfXfXfXdXdXhXaXpXuXyXeX3X3X3X3X3X1X3X3X1X,X1X=X;X;X;X;X;X;X=X=X=X}.}.}.}.}.}.}.T.{.R.R.U.R.d.=.>.=.d.U.P.P.F.F.F.F.F.F.M.M.M.M.i.i.M.M.M.r.r.r.r.y.y.y.r.r.r.r.r.r.r.r.r.r.r.r.r.r.r.r.r.r.r.r.r.r.r.r.r.r.r.r.r.^  .^ ^ ;.y.r.y.y.y.M.M.M.y.y.i.M.M.M.M.F.d.d.F.P.P.P.P.U.U.U.U.U.U.Y.R.R.}.}.}.}.}.}.}.=X=X;X=X=X;X=X;X1X1X1X3X1X3X1X|./._.3X3X3X5X6XyXiXpXpXhXzXlXlXlXlXlXlXkXkXlXkXlXlXlXlXlXlXlXlXlXzXzXnXvXxXxXpXcXcXcXcXxXxXxXxXcXcXcXcXcXcXiXcXiXiXiX8X8XiXiXiXiXiXiXiX7X7X6X6X5X3X3X3X1X;X=X=X-X-X{.{.{.T.z.l.l.l.h.h.h.h.s.q.q.q.0.0.0.0.9.7.9.7.9.W W W W W T T Y C w 7 1 N R C C V V V V V V V B B B B B B B B B M B B M M M s s p p p p s s s d u u u u u u u u u y y y y y y y y y 4 & O % a y a i i r r ",
"r r r r a a a y y a a y y y y y y y y y y u u u u s u u u s s p s u 9 y 6 < < 9 d s s m B B B M M M B M M B M B V B B V N N N N V V V V N V V V V F F V V V F F F F H F H H H H J H J T T N l l l l W 7.7.9.9.0.0.0.q.q.c.c.c.c.c.h.h.k.k.k.x.x.x.(.(.(.(.(.(.%X*X*X*X*X*X*X*X*X<X*X*X*X<X5XyXuXaXdXfXfXgXgXgXgXdXdXlXzXzXbXbXbXbXbXbXbXbXzXlXlXdXdXsXsXgXgXfXfXdXaXuXyX5X3X3X3X3X3X3X1X1X1X;X1X;X;X;X=X=X=X=X X=X}.}.}.}.}.}.R.R.R.d.>.t.=.d.U.U.U.P.P.P.F.F.F.F.F.M.M.i.M.M.M.M.M.y.y.y.n.n.n.n.r.r.r.r.r.r.r.r.r.r.r.r.r.r.r.r.r.r.r.r.r.r.r.r.v.r.r.;. .( ^ ^ ;.y.y.y.y.n.n.n.M.y.i.M.M.M.M.F.F.F.F.P.P.P.P.U.U.U.U.U.Y.R.R.R.}.}.}.}.}. X}. X;X;X;X;X;X;X;X1X1X3X3X3X3X3X1X/.`._.5XyXpXaXhXlXkXkXfXfXdXkXlXlXzXbXbXbXbXbXbXbXmXbXbXbXbXlXlXlXlXlXlXlXbXbXbXnXnXxXxXxXxXxXxXxXxXxXxXxXxXxXxXcXiXiXiXiXiXiXiXiXiXiXiXiXiX6X6X6X5X5X3X3X1X1X;X=X-X-X{.{.{.z.z.l.l.l.k.h.h.h.s.u.q.q.0.0.0.9.9.9.7.7.W W W W W T T T C w 7 1 N H C C C V V V V V V B B B B B B V B B B B B M M M s s s p p p s s d d u u u u u u u u u u y y u y y y y y 4 & O % a a a i i a r ",
"a r r a r r y y i a y a y y y y y y y u u u u u u u u u u d s s s u 9 9 6 , < 9 s s s B B B M M M M M M B B B B B B M V V V N N V V V V V V N V V V V V V F F F F F F F H H H H H J J T T A w l l Z W 7.7.9.0.0.0.0.q.c.c.c.g.h.h.h.h.k.x.x.x.x.(.(.(.(.(.(.*X*X*X*X*X*X*X*X*X*X*X1XyXuXaXfXfXfXsXdXdXzXbXmXNXVXAXDXFXFXFXHXHXHXJXHXHXHXHXFXFXDXAXVXBXNXbXbXlXdXgXgXgXfXfXaXuXeX5X3X3X1X1X1X1X1X1X;X1X;X=X=X=X X X X}.=X}.}.}.}.}.}.d.t.t.>.f.U.U.P.U.P.P.P.F.F.F.F.M.M.M.M.M.M.M.M.M.y.y.r.y.y.n.n.r.r.r.r.r.r.r.r.r.r.r.r.r.r.r.r.r.r.r.r.r.r.r.r.r.r.r.{ { { ^ ;.n.n.y.y.M.n.M.M.M.M.M.M.M.F.P.P.P.P.P.P.U.U.U.U.U.Y.Y.R.R.R.}.}.}.=X}. X=X;X;X;X;X;X;X1X1X1X1X3X3X3X3X3X3X5X5XyXaXdXfXfXfXdXlXzXbXmXNXVXAXDXFXHXHXJXJXJXJXJXKXJXJXJXJXHXFXDXAXAXBXmXbXbXbXlXbXbXbXbXnXnXvXvXxXvXvXvXxXxXxXxXxXpXiXiXiXiXcXcXcXiXiXiXiXiXiX7X6X6X6X5X3X1X1X=X=X=X*X-X{.{.{.T.z.l.l.h.h.h.h.h.q.q.q.0.0.0.0.9.9.9.7.7.W W W T W Y Y C w 7 1 C H C V C V V V V V V V V V B B B B B B B B B B B p M s p p p p p s s s s u u u u u u u u y y y y u y y y y 3 % O % a y a a a a r ",
"a r r a r r y y y y a a y y y y y y u u u u u u u u u u d d s s s u 9 9 6 < < 9 s s s B B B M M M M M B B B B B B B N N V V V V V V V V V V N V V V V V F F F F F F F F H H H H T J T T T Z l l l Z 7.9.9.0.0.0.q.q.c.c.c.h.h.g.h.h.k.x.x.x.x.(.(.(.(.(.(.(.*X*X*X*X*X<X*X*X3XyXpXdXfXgXgXdXlXbXNXVXDXHXJXJXJXJXHXHXFXFXFXFXFXFXFXFXFXFXFXFXFXHXHXHXJXJXJXHXFXDXBXmXbXkXdXgXgXfXhXaXyX5X1X1X3X3X1X1X1X1X1X;X=X=X=X;XXX}.=X}.}.}.}.}.U.t.f.t.d.Y.U.U.U.P.P.P.P.F.F.F.F.F.M.M.M.M.M.M.M.M.M.n.y.r.n.r.r.r.r.r.r.r.r.r.n.n.r.r.r.r.r.r.r.r.r.r.n.n.r.n.r.r.r.{ { { ^ ;.M.n.n.M.M.M.M.M.M.M.M.F.F.F.P.P.P.P.P.U.U.U.U.Y.Y.R.R.}.}.}.}.}.}.}. X X;X=X;X;X;X1X1X1X1X1X3X3X3X3X5XiXaXhXkXfXgXdXlXbXmXVXDXFXJXJXKXJXKXJXHXHXHXHXHXHXHXHXHXHXHXJXJXKXKXJXLXLXPXLXLXHXDXSXNXmXbXbXbXbXbXbXnXnXvXvXvXvXvXvXvXxXpXpXiXcXcXcXcXcXiXiXiXiXiXiX7X7X6X5X5X3X1X1X1X=X=X*X-X-X{.z.T.l.l.l.k.h.h.h.c.q.q.q.0.0.0.9.9.9.7.7.7.W W T W T T C w 7 7 V H H C C V V V V V V V V V B B V B B B B B B B B s s s s s p p p d s s s u u u u u u u u y y y y u y y y y 3 % O % a y i a a a r ",
"r r r a r y y y y y y y y y y u y u u u u u u u u u u s d s s u p u y 9 6 < = 9 B s B B M M M M B B B B B B B B B M V V V V V V N N V V V V V V V V V V F F F F F F H H H J J J T T T T T Z w l Z Z 9.0.0.0.0.q.q.c.c.c.g.h.h.k.k.x.x.x.x.x.(.(.(.(.(.%X*X|.*X*X*X*X*X,X5XuXdXfXgXsXkXbXNXAXFXJXJXJXHXHXFXFXFXFXFXFXFXFXFXFXFXFXFXFXFXFXFXFXHXFXFXFXFXFXFXFXFXHXJXJXHXDXVXmXbXdXsXgXfXdXaXyX4X1X1X1X1X1X1X1X1X;X;X=X;X X X}.;X}.}.}.U.f.f.t.j.}.Y.Y.Y.U.U.U.P.P.P.P.F.F.F.M.M.M.M.M.M.M.M.M.n.n.n.n.n.n.n.n.r.r.n.n.n.n.n.n.n.r.n.n.n.n.n.n.n.n.n.n.n.n.r.{ { { ^ ;.M.M.M.M.M.M.M.M.M.F.F.F.F.P.P.P.P.U.U.Y.Y.Y.Y.R.R.}.}.}.}.}.}.XX=X=X X;X=X;X=X;X1X1X1X3X3X3X1X5XyXaXdXfXdXdXdXbXmXVXDXJXKXKXJXHXHXHXHXHXHXHXHXHXHXHXHXFXHXJXHXHXHXJXJXJXJXJXJXJXJXLXLXLXPXPXPXLXHXAXBXMXbXbXMXMXbXnXnXvXnXnXnXvXpXpXpXxXxXxXcXcXcXcXiXiXiXiXiXiX6X6X6X5X3X3X1X=X=X=X=X-X-X{.z.z.l.l.l.k.h.h.h.q.q.q.q.0.0.0.9.7.9.7.7.W W W T T T C w 7 7 C H H H C C C V V V V V V V B B B B B B B B B B B B s p p s s p p p s s s d u u u u u u u y u y y u y y y y 3 % O % a y i a a a a ",
"r r a r r y y y y y y y y y y y y u u u u u u u u u u s d s s p p p 9 9 6 < < 9 B s B B M M M B B B B B B B B B M N N V V V V V N V V V V V V V F V F F F F F F F H H H H J J T T T T W W H l Z Z Z 0.0.0.q.q.q.c.c.c.h.g.h.k.x.x.x.x.x.(.(.(.(.(.*X*X*X|.*X*X*X*X3XyXaXfXgXsXlXbXBXDXHXHXHXFXFXFXFXFXFXFXFXFXFXFXFXFXFXFXFXFXFXFXFXFXFXFXFXFXFXHXFXFXFXFXFXFXFXFXFXFXHXJXJXHXDXBXbXkXgXdXfXdXuXeX1X3X1X1X1X1X;X;X=X;X;X;X;X;X=X}.}.U.f.f.f.U.}.R.R.R.Y.Y.Y.U.U.P.P.P.P.P.F.F.M.M.M.M.M.M.M.M.M.n.M.M.M.n.n.n.n.n.n.n.n.n.n.n.n.n.n.n.n.n.n.n.n.n.n.n.M.r.{ { { ^ r.M.M.M.M.M.M.M.F.F.F.P.P.P.P.I.U.U.Y.Y.Y.R.R.}.}.}.}.}.}.}.}.}.=X=X X;X;X=X;X;X1X3X3X3X3X1XeXpXhXkXdXgXlXbXBXDXHXJXHXHXFXFXHXHXHXHXHXHXHXHXHXHXHXHXHXHXHXHXHXJXHXHXJXJXJXJXJXJXJXJXLXLXLXLXPXPXPXUXUXUXPXFXVXMXmXMXMXmXnXnXnXnXnXvXpXpXnXxXxXxXxXcXcXcXcXiXiXiXiXiX7X6X6X5X3X3X1X,X=X-X-X-X{.{.z.z.l.l.h.h.h.h.q.s.q.q.0.0.9.9.7.9.7.7.W W W T T T C w 7 7 H H H H C C V V V V V V V V V B B B B B B B B B B B s s s s s p p p s s s d u u u u u u u u y y y y u y y y 2 % O % a y a y a a a ",
"r a a r y a a a a a y y y y y u y y y u u u u u u u u s s s p p p s 9 9 6 < = q B B B B M M M B M B B B V V V V V V V V N N V V V V V V V V F F V F F F F F F F H H H H H Y T T T T T W W P l Z Z Z 0.q.q.q.q.c.c.h.h.h.h.k.k.x.x.x.(.(.(.(.(.%X*X%X*X*X*X*X*X5XuXdXfXgXdXbXBXDXJXJXHXFXFXFXFXFXHXFXFXFXFXFXFXFXFXFXFXFXFXFXFXFXFXFXFXFXFXFXFXFXFXFXFXFXFXFXHXHXFXFXFXFXFXFXFXHXJXJXDXBXbXdXsXgXfXaXyX4X3X1X1X1X;X;X;X;X;X=X;X;X X;X].f.f.f.U.}.}.}.}.R.R.Y.Y.Y.Y.Y.P.P.P.F.F.F.F.M.M.M.M.M.M.M.M.M.n.n.n.M.n.r.n.n.n.n.n.n.n.n.n.n.n.n.n.n.n.n.n.n.n.M.r.{ { {  .r.M.M.M.M.M.M.F.F.F.P.P.I.I.Y.Y.Y.Y.Y.Y.Y.}.}.}.}.}.}.XXXX}.;X=X;X;X;X;X;X;X>X1X3X1X1X4XyXaXkXfXgXdXbXBXDXJXJXHXFXFXFXFXHXHXHXHXHXHXHXHXHXHXHXHXHXFXHXHXHXHXHXHXHXHXHXJXJXJXJXKXJXKXLXLXLXPXPXPXPXPXPXPXUXUXUXPXFXVXMXMXMXMXmXnXnXvXvXvXnXnXvXvXxXxXxXcXcXcXiXiXiXiXiX6X6X5X5X3X3X1X=X=X-X*X*X{.{.z.z.l.l.k.h.h.h.h.q.q.q.0.0.9.9.9.7.7.7.W W W T T C 7 7 w H Y R H H C V V C V V V V V V V B B B B V B B B B B B M s s d s p p p d d d s u u u u u u u u u y y y y y y 3 2 O % a a i i i a a ",
"r a r r a a a a a a y y y y y u y y u u u u u u u u s s s s p p p s 9 9 6 < = 9 B B B B M M M M B B B B V V V N V V V V N V V V V V V V V V F F V F F F F F F H H H H H H T T T T T W 7.W P l Z Z Z 0.q.q.c.c.c.c.h.h.k.k.x.x.x.(.(.(.(.(.(.(.*X%X*X*X*X*X3XuXfXfXsXlXmXDXHXHXHXFXFXFXFXFXFXFXHXFXFXFXFXFXFXFXFXFXHXHXHXHXHXJXJXJXHXJXJXJXHXHXHXFXFXFXFXFXFXFXHXHXFXFXFXFXFXFXFXFXFXHXJXJXDXNXzXdXgXfXhXuX4X1X1X1X3X>X;X;X;X;X;X;X;X].f.f.f.].XX}.}.}.}.R.R.R.Y.Y.Y.I.P.P.P.P.F.F.F.M.M.M.M.M.M.M.M.M.M.n.M.n.n.n.n.n.n.n.n.n.n.n.n.n.n.n.n.n.n.n.M.n.M.y.{ { {  .r.M.M.M.F.F.F.F.F.P.P.I.Y.Y.Y.Y.Y.Y.Y.}.}.}.}.}.}.}.}.OXOX;X;X;X;X;X;X;X;X3X1X1X1X4XuXhXfXdXdXzXNXDXHXJXHXFXFXFXHXFXFXHXHXHXHXHXHXFXHXHXHXHXHXHXJXJXKXJXKXKXKXKXKXKXJXLXLXJXJXJXJXJXKXLXLXLXPXPXPXPXUXPXPXUXUXUXUXUXLXDXBXMXNXNXmXnXxXnXnXnXnXnXvXxXxXxXcXcXcXcXiXiXiX7X7X6X6X3X3X1X;X=X-X*X-X-X{.z.z.z.l.k.k.h.h.h.q.q.q.0.0.0.9.9.7.7.7.W W W W T V 7 7 w H Y H H H C C C C V V V V V V V B B B B V V B B B B B M M s s s p p p d d d d u u u u u u u u u y y u y y i 3 , O % a a a i i a r ",
"r r r r y y a a y y y y y u y y y u u u u u u u u u s s s s p p s s 9 9 < < = 9 B B M M M M M B B B B B B B N N V V N N N V V V V V V V V V F F F F F F F H F H H H H H H T T T W W W W 7.P l l Z I 0.q.c.c.h.g.h.h.k.k.x.x.x.(.(.(.(.(.(.%X*X|.*X*X%X1XuXfXfXsXzXNXDXJXHXFXFXFXFXFXFXFXFXFXFXFXFXFXFXHXHXJXJXHXFXDXDXAXVXBXBXNXBXBXBXBXVXAXAXDXFXHXJXJXJXHXHXFXFXFXFXFXFXFXHXFXFXFXFXFXFXHXJXFXVXbXdXsXfXdXuX4X3X1X1X1X>X;X>X>X;X;X{.f.l.f.[.OX}.}.XX}.}.}.Y.Y.Y.Y.Y.Y.Y.I.P.I.G.F.F.M.M.M.M.M.M.M.M.n.n.n.n.n.n.n.n.n.n.n.n.n.n.n.n.n.n.n.n.n.n.n.n.M.n.{ { { { y.M.M.F.F.F.F.P.P.F.I.Y.Y.Y.Y.Y.Y.Y.}.}.}.}.XXXXOX;X;X;X;X;X;X>X;X1X;X3X1X1X1XeXuXdXfXgXdXbXVXHXJXHXFXFXFXFXFXHXFXFXHXHXHXHXHXHXHXJXKXKXKXHXFXDXDXAXVXVXVXVXVXVXVXVXAXDXDXFXHXJXLXPXLXLXLXLXLXLXPXPXPXUXUXUXUXUXUXUXUXIXUXHXSXNXNXBXmXnXnXnXnXnXnXnXvXxXxXcXcXcXcXiXiXiX7X6X6X5X5X1X1X,X=X=X*X-X{.{.z.z.l.l.l.h.h.h.s.q.q.q.0.0.9.9.7.9.W W W W W T C 7 7 7 H Y H H H C V C V V V V V V V V V V B B B B B B B B B B M s s s s d p s d s s u u u u u u u u u y y u y y i 3 % O % a a i a i i r ",
"r r y y a y y a a y y y y y y y y u u u u u u u u s s s s s p p s s 9 9 6 < = 9 B B M M M M M B M M B B B B N V V V N N V V V V V V V V V V V F F F F F H H H H H Y H T T T W T W W 7.W 7.P Z Z Z I 0.c.c.c.c.h.h.k.k.x.x.(.(.(.(.(.(.%X*X*X*X*X*X*XyXfXfXsXzXBXFXJXHXFXFXFXFXFXFXFXFXFXFXFXFXHXJXJXFXAXVXmXbXbXlXlXfXdXgXgXgXdXgXsXgXgXgXdXdXdXlXzXbXmXBXAXDXHXJXJXHXFXFXFXFXFXHXHXFXFXHXFXFXFXJXJXDXmXlXsXfXfXpX4X1X1X1X1X>X>X>X>X}./.l.l.}.;XOXXXXXXX}.}.}.R.Y.Y.Y.Y.Y.I.I.I.G.G.F.F.F.M.M.M.M.M.M.M.M.n.n.n.n.n.n.n.n.n.n.n.n.n.n.n.n.n.n.n.n.n.n.n.n.{ ..{ { y.F.F.F.F.G.G.F.I.I.Y.Y.Y.Y.Y.R.}.R.}.XXXXXXOX;X;X;X;X;X;X;X>X>X>X1X1X1X,X4XpXdXfXgXlXmXDXJXJXFXFXFXFXFXFXHXFXFXFXFXFXHXJXJXJXHXFXAXBXNXbXbXzXlXlXlXlXlXlXlXlXlXlXlXlXlXzXbXbXmXmXVXAXFXLXPXPXPXPXPXPXUXUXUXUXUXUXUXUXUXUXIXUXKXSXBXBXBXCXZXnXnXnXnXnXvXvXxXxXcXcXcXiXiXiX6X6X6X5X3X1X1X=X=X*X-X{.{.T.z.l.l.l.k.h.h.h.h.q.q.0.0.0.9.7.9.7.7.W W W W C 7 7 7 F H H H H H V V V V V V V V V V V V V B B B B B B B B B M s p s s m p s s s s s u u u u u u u u y u u y y y 5 % O % y a i a i i r ",
"r a r y a a y y i y y y y y u u u u u u u u u u u s s s p p p s d s 9 9 6 < = 9 B M M M M M B B M B B B B M N V M V V V V V V V V V V V V V V F F F H H H H H H Y H T T T T T W W 7.W 7.9.W Z Z I I q.h.c.g.g.h.k.k.x.z.(.(.(.(.(.(.%X*X*X*X*X%X5XaXfXsXlXBXFXJXFXFXFXFXFXFXFXFXFXFXFXHXJXJXFXVXNXbXlXfXdXgXgXfXfXfXfXdXhXaXaXaXaXaXaXaXhXdXdXfXfXfXgXgXgXdXkXbXmXBXDXFXJXJXHXFXFXFXFXFXFXHXFXFXFXFXHXJXDXNXlXsXfXdXpX4X;X3X1X1X>X>X X/.]./. X;X;X;XXXXXXXXX}.}.R.Y.Y.Y.Y.Y.Y.Y.I.G.G.G.G.F.M.M.M.M.M.M.M.M.M.n.n.n.n.n.n.n.n.n.n.n.n.n.n.n.n.n.M.n.M.M.n.{ ..{ { y.G.F.F.G.G.I.I.Y.Y.Y.Y.Y.Y.R.}.}.}.XXXXOX;X;X;X>X;X;X;X>X>X1X1X3X1X1X4XpXdXfXsXzXNXFXJXFXFXFXFXHXHXFXFXFXFXFXFXHXJXJXHXDXBXmXbXlXlXfXfXkXkXlXlXlXlXzXzXzXzXzXzXzXzXzXzXzXlXlXlXlXlXlXbXbXNXAXFXLXUXUXUXUXUXUXUXUXUXUXUXUXUXUXIXUXJXSXBXBXBXZXnXnXnXnXnXvXxXxXxXcXcXiXiXiXiX7X6X5X5X3X3X3X=X-X*X{.{.{.{.z.l.l.k.h.h.h.c.s.q.q.0.0.9.7.7.7.W W W W T H 7 7 7 F R H H H C V C V V V V V V V V V V V V B B B B B B B m B s s s s s p p p s s s s u u u u u u u u u u i y i 5 % O % y y a a a a r ",
"r r y y a a a a y y y y y y y y u u p u u u u u u s s s s p d s s p 0 9 < < = 5 B M M M M M B B M B B B V N V V V V V V V V V V V V V V V F F F F F H H H H H H Y T J J T T T W 7.W 7.9.9.W Z Z I I q.h.h.h.h.k.x.x.x.(.(.(.(.*X*X*X%X*X*X%X*XuXkXgXfXmXFXJXHXFXFXFXFXFXFXFXFXFXFXJXJXDXBXbXlXdXsXfXfXfXhXaXuXyX#X'.'.`._.&X_.&X&X&X&X*X*X<X,X5X8XyXuXaXaXdXfXgXgXgXdXzXmXVXDXJXHXHXFXFXFXFXFXHXFXFXFXFXFXJXFXNXlXsXfXdXuX4X1X3X1X1X X].]./. X:X;X;X;XOXXXXXXX}.}.R.}.Y.Y.Y.Y.Y.Y.I.I.G.G.G.F.F.M.M.M.M.M.M.M.n.M.M.M.M.M.M.M.M.M.M.M.M.M.M.M.M.n.M.M.M.n.....-.{ y.G.F.F.G.I.I.Y.Y.Y.Y.Y.R.}.}.}.XXXXXX;X;X;X;X;X;X:X>X1X>X1X3X3X1X4XuXdXfXgXlXNXFXJXFXFXFXHXFXFXFXFXFXHXFXHXJXHXDXVXmXbXlXfXfXkXlXlXzXpXuXyX8X8X8X8X<X<X<X<X<X6X6X7X7X7XiXiXpXpXzXbXbXbXbXbXbXbXMXBXDXPXIXIXUXUXUXUXIXUXUXUXUXUXUXIXUXHXSXSXBXNXZXnXnXnXnXvXvXxXxXxXcXiXiXiXiX7X6X5X3X3X3X,X=X-X*X{.{.{.z.z.l.l.k.h.h.h.q.q.q.0.0.9.7.7.7.7.W W W T H w 7 7 C Y H H H C C V V V V V V V V V V V V V V B B B B B B B B M M s s s p p s s s s s u u u u u u p y y u y y y 3 % O % i a a i a r a ",
"r r y y a a a y y y y y y u u y p u u u u u u u d d d d p s s s p s 9 9 6 < = 1 M M M M B B B B V V B B N V V B N N V V N V V V V V V F F F F F F F H H H H H J J T J T W W W W 7.7.7.0.9.P I Z I I c.g.g.k.k.k.x.z.(.(.%X*X%X%X*X*X*X*X%X5XhXkXsXbXAXJXFXFXFXFXFXHXHXFXFXFXJXJXDXBXbXdXgXgXfXfXaXyX8X#X_.).).).~.~.~.~._.*X*X*X*X*X<X<X<X<X<X<X<X<X*X<X,X5XeXuXaXhXfXfXgXsXlXbXBXDXHXJXHXFXFXFXFXFXFXFXFXFXFXJXFXNXlXsXfXdXyX3X1X4X X].].]. X2X>X>X;X;X;X;XXXXXXXXX}.}.R.Y.Y.I.Y.Y.I.I.G.G.G.F.G.M.M.M.M.N.M.M.M.M.M.M.M.M.M.n.M.M.M.M.N.M.M.M.n.M.M.N.n...-.-.*.n.G.G.I.I.I.Y.I.Y.Y.R.}.}.XXXXXXXXOX;X;X;X>X;X>X>X2X1X1X4X4X3X3XyXhXfXgXlXNXFXJXFXFXFXFXFXHXFXFXFXFXHXJXJXDXBXbXlXdXfXkXlXhXpXyX8X<X<X&X&X&X<X<X<X<X3X3X5X6X7X7X7X7X7X7X7X7X7X7X7XiXiXxXnXnXbXbXbXbXbXMXBXGXPXIXIXUXUXUXUXUXUXUXUXUXUXIXPXDXVXSXBXCXnXnXnXnXnXvXxXxXcXiXcXiXiX7X6X5X5X3X3X3X=X=X*X-X{.{.(.z.z.l.l.h.h.h.c.q.q.0.0.0.9.7.7.7.7.W W T T w 7 7 H Y H H H H V C V V C V V V V V V B V V V B B B B B B B B B B M s d s s p p s s s u u u u u u u u y y y u y 5 % O % i i a a a r i ",
"r r y a a a a y y y y u y y u y p u u u u u u u s d d p p s s s s p 9 9 6 < = 5 M M M M M B B M V N V N V V V V N V V V V V V V F F F F F F F F F F H H H H H T T W T T T W W 7.7.7.9.0.9.P I I I I c.h.h.k.k.x.x.(.(.%X%X*X*X*X*X*X*X*XyXfXdXdXNXHXHXFXFXFXFXFXFXFXFXFXJXHXVXbXlXsXgXfXhXuX5X#X).^.).).).%X%X*X~.(.`.~.*X<X<X,X,X3X3X3X1X1X3X3X3X3X3X1X3X1X,X,X3X3XeXuXaXdXfXgXsXhXbXVXFXJXHXFXFXFXHXFXFXFXFXFXHXJXDXmXfXsXkXaXeX3X=X.X]..X;X4X1X>X>X>X;X;X;X;XXXXXXXXX}.R.Y.Y.Y.I.I.I.I.G.G.G.G.G.N.N.M.M.M.M.M.M.N.M.M.M.M.M.M.M.M.M.M.M.M.M.N.N.N.N.n...-.-.*.M.I.G.I.I.Y.Y.Y.Y.Y.Y.}.XXXXXXXXOX;X;X;X;X1X>X1X4X4X4X4X4X3XeXaXkXsXdXmXDXJXFXFXHXHXFXFXFXFXHXFXHXJXFXVXbXlXdXgXkXhXpXyX5X&X&X&X&X<X<X<X<X<X3X3X3X6X6X6X7X7X7X7X7XiXiXiXiXiXiXiXiXiXiXiXcXcXxXvXnXbXbXMXMXMXNXAXLXIXIXUXUXUXUXUXUXUXUXUXIXIXKXSXSXBXCXZXnXnXnXnXvXxXxXcXcXiXiXiX7X6X6X5X3X3X,X=X=X-X-X{.(.z.z.l.k.h.h.h.s.q.q.q.q.0.9.9.7.7.7.W W W T w 7 7 H Y R H H H C C V E C V V V V V V V V V V B B B B B B B B B B m d s s d p s s s s d u u u u u u u p y y u i 5 , O % i i a i i i i ",
"r a y y y y y y y y y y y u u u u u u u u u u s s u s u p s s s B u 9 q < < < 5 p M M B B B B V V V B V V V N N V V N V V V V V F F V V V V F F F F H H H H H J T T W W W 7.W 7.7.7.9.0.7.Q I I P P c.k.k.k.k.(.(.(.%X%X%X*X*X*X*X*X<XuXkXsXzXAXJXFXFXFXFXFXFXHXFXFXJXFXBXzXdXgXfXhXuX5X&X^.).).)._.%X%X%X|.*X*X`.(./.~. X1X,X,X3X1X,X,X1X1X1X1X1X1X3X3X3X1X3X3X3X3X1X1X1X4XyXaXdXfXgXgXlXmXDXJXJXHXFXHXFXFXFXFXFXFXHXJXDXbXgXgXfXpX,X].|..X;X4X4X4X2X1X:X;X;X;XOXXXXXXXXXXXXXY.Y.Y.Y.I.I.I.I.G.G.G.G.N.M.M.M.N.M.M.M.N.N.N.N.N.N.N.N.N.N.N.M.M.M.G.N.G.n.-.-.-.*.M.I.I.Y.Y.Y.Y.Y.R.}.}.XXXXXXOX;X;X;X;X1X1X4X4X4X4X4X4X3X4XpXkXgXdXbXDXKXFXFXFXFXFXFXFXHXFXFXJXJXDXmXzXdXdXkXhXuX9X'.&X&X&X<X<X<X<X<X<X3X5X5X5X5X5X6X6X6X7X7X7X7X7X7XiXiXiXiXiXiXiXiXiXiXcXxXxXxXxXvXnXnXmXMXMXMXNXSXJXUXIXUXUXUXUXIXUXUXUXUXIXPXAXBXBXNXZXnXnXnXnXvXxXxXcXiXiXiX7X6X5X5X3X3X3X=X=X*X-X{.(.(.x.l.k.k.h.h.h.q.q.q.0.0.0.9.7.7.7.W W W H 7 7 w H Y R H H H H C C C V V V V V V V B V V V V B B B B B B d B B B s s s s p p s s s d u u u u u u u i y y y u 5 4 O % y i y i a i i ",
"r a i y y y y y y y u u u f p p u u u u u u s d d s d d d s s p u y 9 5 < < < q y M B M B B B M B V B V V V V V V V V V V V V V F F F V F F F F F F H H H H J J T T W W W 7.7.7.7.0.0.0.W P I I P I g.k.x.x.(.(.(.(.%X%X%X*X*X<X&X<XaXfXsXmXFXHXFXFXFXFXFXFXFXFXJXFXNXlXsXfXfXaX8X_.^.^.).&X&X&X_.*X*X*X*X=X<X=X`.{.(.k.=X,X,X,X=X,X;X;X;X;X1X1X3X3X1X1X1X3X3X3X3X1X3X3X3X3X1X3X4XyXaXfXfXsXdXbXVXHXJXFXFXFXFXFXFXHXFXFXHXJXVXzXsXfXhXrX|.].1X4X4X4X2X2X1X:X:X;X;X;XXXXXXXXXXXXXR.Y.Y.Y.I.I.I.I.G.G.G.F.G.G.M.N.M.N.M.M.N.N.N.G.N.N.N.G.M.M.M.M.M.G.G.G.n.-.:.:.-.F.I.I.Y.Y.Y.R.R.XXXXXXXXXXXX;X;X;X;X>X1X2X4X4X4X4X4X4XyXdXfXsXzXVXJXGXFXFXFXFXFXFXFXFXFXJXHXVXbXdXgXfXdXuX8X&X~.~.^.<X<X<X<X,X<X,X3X3X5X5X5X5X5X5X6X6X6X6X6X7X7X7XiXiXiXiXiXiXiXiXiXcXcXcXcXcXxXxXxXvXvXnXnXmXmXNXBXBXSXJXUXUXUXUXUXUXUXUXUXUXIXUXGXBXBXNXZXnXnXnXvXvXxXcXpXiXiXiX7X6X6X5X3X1X,X=X=X-X*X{.(.z.l.l.k.h.h.s.q.q.0.0.q.0.9.9.7.7.7.W 7.H 7 7 7 H Y R H H H H C C V V V V V V V V B V V V V V B B B B B d d B B m s s s p s s s s s d u u u u u u p u y y y 5 4 % % i i a i a a i ",
"e e a e a r a a r y a y a y y y y y y y u u u u u y u u u u u u 9 9 9 6 < < - q 9 0 p M M M V V V V V V V V N N V V V V V F F F F F F F F F F H F H H H T T T T T W W W 7.W 7.7.0.0.7.Q Q P I I I I a.x.x.z.(.(.(.%X*X*X*X*X<X*X5XhXdXdXNXJXFXFXFXFXFXFXFXFXJXFXNXlXsXfXdXuX<X^.^.).&X_.%X%X*X*X*X*X=X=X=X,X,X X~./.`.k.=X=X=X;X=X;X=X;X;X;X;X;X1X1X1X1X1X1X1X3X3X3X3X3X3X3X4X5X5X3X5XeXuXhXfXdXgXbXBXFXJXFXFXFXHXFXHXFXFXHXJXFXNXfXdXkXuX$X=X4X4X4X4X4X4X2X:X:X>X;X>X>X>XXXXXXXXXR.Y.Y.Y.Y.I.I.I.I.G.G.G.G.G.G.G.G.G.G.G.G.G.G.G.G.G.G.G.G.G.G.G.G.G.G.n.-.:.:.-.F.E.Y.E.R.R.XXXXXXXXXXXX;X;X;X:X:X:X2X4X4X4X4X4X3XeXaXkXsXdXNXHXJXFXFXFXFXFXHXFXFXFXJXFXBXbXdXfXkXaXyX<X_.&X).~.`.'.<X,X<X3X3X3X5X5X5X5X5X6X6X4X5X4X6X6X6X6X6X7X7X7X7XiXiXiXiXiXiXiXcXiXcXcXcXxXxXxXvXnXnXnXnXnXZXNXBXSXSXAXLXUXUXUXUXUXUXUXUXUXUXIXJXBXBXBXZXnXnXnXvXvXxXcXcXiXiX7X6X6X5X3X3X,X,X=X*X-X{.{.(.z.x.l.h.h.h.c.q.q.q.q.0.0.9.9.7.7.W T F 7 7 7 Y Y Y Y Y H H H H E E E E C V V V V V V V V V V V B V B B B B B B B B B d d d d d d d d d s u u p p u p s y 5 , % O 5 i i i y i i ",
"2 2 4 3 4 5 3 3 5 3 3 3 3 3 5 5 5 5 5 5 q 5 9 q 9 9 9 9 9 5 q q 9 q 6 5 < < < 6 q 9 9 9 u u n m M M M M M M n M M M M M M N N N N N M M M M M M N V F V F F F H H H H P P W W W W P P Q Q P I I I I Q g.x.`.(.(.(.%X_.%X*X*X%X5XdXdXdXVXJXFXFXFXFXFXFXFXFXJXVXzXsXfXdXyX&X^.).&X&X&X&X&X&X*X*X*X=X,X=X,X=X=X=X/.k.k.`.`.{.=X=X;X=X=X=X=X=X=X=X=X1X=X;X;X;X;X1X1X1X1X1X1X3X1X1X3X3X3X5X3X3X5XyXaXkXfXsXzXBXFXJXFXFXFXFXFXFXFXFXHXJXDXbXsXfXdXrX1X4X4X4X1X1X>X;X;X;X;XOXXXXXXXXXXX[.Y.Y.I.Y.I.I.G.G.G.F.F.F.F.M.M.M.M.M.M.M.M.M.M.N.M.M.M.M.M.M.M.M.F.F.F.r.:.;.:.>.y.I.Y.Y.Y.Y.Y.Y.Y.Y.[.}.}.}.}. XOX;X;X;X;X1X1X;XyXdXfXsXbXDXJXHXFXFXFXFXFXFXFXFXHXHXBXzXsXfXkXaX8X_.)._.&X&X_.'.'.'.|.,X,X,X1X3X1X1X1X1X1X1X3X3X1X1X3X3X5X5X5X5X6X6X6X6X6X7X7X7X7XiXiXiXiXiXiXiXiXxXxXvXvXnXnXnXnXZXZXNXSXSXSXGXPXIXUXUXUXUXUXUXUXUXIXLXSXBXBXZXnXnXvXvXxXxXcXiXiX7X6X6X5X3X,X,X=X*X|.{.{.(.x.l.k.k.h.c.c.q.q.0.w.9.9.7.7.7.W W T T N 7 7 w B Z N Z N N N N N M M M s M M s s s s s s s s s u 0 s 9 9 9 9 9 9 9 9 9 9 9 9 9 5 5 5 5 5 5 5 5 5 5 5 5 5 5 2 4 % O 4 y a a e r a ",
"$ O % % % % * % * % % % % % % , * % , , < < < < < < < < < < < < 6 6 6 6 < < 6 6 6 6 1 1 6 1 1 7 q q q q 7 9 7 9 7 9 9 0 9 9 7 7 0 7 0 0 0 0 0 0 0 0 w w l 0 l l l l N Z Z Z Z Z H I P P P I I I I Q Q ! Q ! a.a.a.k.^.`.`.^.1XfXdXlXAXHXFXFXFXFXFXHXFXJXFXbXsXfXkXyX).~ ~.^.^.^.^.~.`.`.`.`.`.`.`.`././././.`.`.k.k.`././././././.l.f.l././.l./././././././././.].].(.].].]..X.X|.|.|.|.|.|.|. X2XuXdXfXsXzXBXHXJXFXFXFXFXFXHXFXFXHXHXBXlXsXkXuX X].|.|..X].].].U.U.l.f.H.f.f.d.d.f.y.y.>.:.:.:.:.-.-.-.-.-.:.-.*.*.......*.*.*.-...-.-.......-.-.-.-.-.-.:.:.:.:.:.:.y.y.y.f.d.f.d.f.f.f.l.U.U.].].].].].|.]. XuXkXsXdXBXHXHXFXFXFXFXFXHXFXFXJXHXBXzXgXfXlXuX#X^.^.`.'.'.'.'.'./._.|.|.|..X|.|.|.|.|.|..X.X|..X|.|.|..X|.|.#X#X#X#X#X#X,X,X3X,X5X5X8X8X8X8X6XiXiXiXiXiXpXpXpXvXvXvXnXnXnXZXBXSXSXAXKXUXIXUXUXUXUXUXUXUXIXPXSXNXNXnXxXvXpXpXiXiXyX5X1X,X<X#X|.|.'./.`.`.k.a.a.a.a.a.w.P P P P P I I Z Z Z Z Z Z l l l w w w w w w 8 7 7 7 7 7 7 7 7 1 1 1 1 1 6 6 6 6 6 6 6 < < < < < = < < , = , < = = @ @ = = + + + + + + + + + + + O % 2 4 % O O O O O O O O ",
"$ $ $ O $ * O % % % * % % % % % % % % % * + + % + % < < < < < < < < < < < < < , < < < < < < < < 1 6 6 6 6 6 6 6 - - - 1 1 1 1 1 7 7 7 7 7 7 8 7 8 0 0 w w w w l l l l Z Z Z Z Z I I I I I I I I I Q Q a.a.a.a.g.g.k.~.`.^.,XkXgXzXDXHXFXFXFXHXFXFXHXJXVXlXgXkXaX_.~ ^.^.^.^.^.^.~.~.`.`.`.`.`.`.`.`.`.k.k.k.k.l.l.f.f.f.l.l.f.l.f.k.k.k.k.k.f.f.f.f.l.l./././././././././././.]./..X]..X|.|.|.|.|.|.9XuXfXgXsXbXVXJXHXFXFXFXFXFXFXFXFXJXDXbXsXfXhX2X/.{.].].].].].].].U.H.U.P.H.F.d.d.d.d.y.:.:.:.:.-.:.:.-.-.-.-.-.-.*.-.-.-.-.-.-.-.-.-.-.-.-.-.-.-.:.:.:.:.:.:.t.t.y.f.d.d.d.d.f.P.H.H.H.].].].].].].|.].2XhXfXsXbXDXJXFXFXFXFXHXFXFXFXHXJXVXzXgXfXdXyX#X^.^.`.'.'.'.'.'./..X.X|.|.|..X.X|.{..X.X.X.X|.|..X.X.X.X|..X.X|.|.|.#X#X X#X,X,X,X3X5X1X5X5X5X8X7X7XiXiXiXiXpXpXpXxXvXnXnXnXnXnXZXCXSXSXSXGXPXIXUXUXUXUXUXUXUXIXUXSXNXNXnXpXpXpXiXiXiX8X5X5X#X#X|./.'./.`.`.g.a.a.a.a.a.w.P P P P I I K Z Z Z Z Z Z l l w w w w w w w w 8 8 7 7 7 7 7 7 7 7 7 1 1 1 1 1 6 6 6 6 6 6 < < 6 6 < 6 = < < < < = < < , , < , % % , , < * % % % % % 2 4 4 % % % % $ $ $ O ",
"* * * % * % + O O O O % % + % % % % % % % + + % + % + + , < < < < , < 6 1 1 6 6 6 6 6 6 6 6 6 6 1 1 6 6 1 1 1 1 1 1 1 1 1 7 7 7 7 - 1 ; 7 7 7 7 7 7 7 7 w w w w w l Z Z Z Z Z Z I I I I I I P P Q Q ! ! a.a.a.a.a.k.^.^.#XkXgXzXFXHXFXFXFXFXFXFXHXHXmXgXfXdX9X~ ~ ^.^.^.`.`.).)._._.|.|.{.(././.].].(.(.(.].{.{.{.{.].U.U.U.].].U.U.U.U.].].].].].].}.}.}.}.{.{.}.}.}.}.}.{./.].|. X|.|. X X X X X X X X2XuXkXgXgXbXAXJXHXFXFXFXFXHXFXFXHXHXNXdXgXkXyX X].}. X}.[.}.}.}.[.[.[.H.U.U.U.U.F.F.F.y.:.:.:.:.:.:.:.-.-.-.:.:.:.:.:.:.:.:.:.:.:.-.:.-.-.-.:.:.-.:.:.t.t.y.y.f.f.d.f.f.P.j.H.H.H.].].].].]..X].{.yXkXdXdXNXHXHXFXFXFXFXFXFXFXFXJXAXbXgXfXlXuX&X^.^.`.`.'.'.'.'././..X.X|.|.|..X]..X.X].].].].].|.|.|.|.|. X X|. X|. X|.#X X,X X X1X1X1X1X,X5X5X5X5X6X6X7XiXiXiXpXpXpXpXvXvXnXnXnXnXnXZXZXBXSXSXAXKXUXUXUXUXUXUXUXUXUXUXVXMXNXnXpXpXpXiXiXyX6X5X3X,X#X_././.`./.k.g.a.a.a.a.w.=.P P P P I I Z Z Z Z Z Z Z z l l l l l l l l l M l l l l 0 0 0 0 0 0 0 0 0 0 0 0 9 9 9 9 q 6 = = 6 5 1 1 6 6 6 6 6 6 6 6 6 6 6 6 6 3 3 3 < 2 < < < 2 2 4 4 4 4 4 2 2 % & ",
"% % % $ O O + O O + O % + + + + + + + + + + + + + + + + + + % < < < % < < 6 6 6 1 6 6 1 1 7 7 9 9 9 9 9 9 9 0 0 0 0 0 0 0 0 0 0 0 7 1 1 1 0 M N N V V Z Z Z F F H H P P W Q Q Q Q Q 0.0.a.a.a.a.a.a.g.k.x.x.`.(.(._.`.1XfXsXzXFXHXFXFXFXFXFXFXHXFXbXsXkXuX^.~ ~.^.^.^.`.'.).`.(.(.|.|.{.{.{.]./.(.(.l.l./.l.l.l.f.f.f.f.l.l.l.l.U.U.l.l.l.l.l.U.U.].].].U.}.}.}.}.}.}.}. X{././.]. X X}. X X XOX,X1X1X1X,X=XrXaXkXgXdXmXFXHXFXFXFXHXFXFXFXFXJXAXzXsXkXaX;X XOXOX X X[.}.}.[.[.[.[.Y.Y.U.F.F.F.y.t.;.:.:.:.-.-.:.-.*.:.:.:.:.:.:.:.:.:.:.:.:.:.:.:.:.:.:.;.;.y.y.d.d.d.d.H.f.P.H.U.H.].U.].].].].]..X]. XuXkXsXzXAXJXFXFXHXFXFXFXFXFXHXFXmXdXdXkXuX#X^.^.'._._.'.'./.|.|.|.|. X X X}.}.]..X.X}.}.}.}.}.}.}.}. X X X X X X X X X X=X;X1X,X|. X,X,X1XiXiXiXiXiXiXiXiXiXiXcXxXxXxXnXnXnXnXnXnXZXZXZXCXCXCXVXSXSXGXUXUXUXUXUXUXUXUXUXPXVXMXMXnXvXvXxXpXpXiXiXiX6X,X|..X`.`./.(.(.(./.l.k.k.s.g.q.w.w.9.7.7.W P P P J H H H H H F F F V C V V V N N N N M M M M M M M n n n n n u p u 0 9 < @ 5 u u u u u u u u u p p u u u u u u u y p u y y i i y y y y y y y y a a ",
"r r r e 5 % O O $ O O O % 3 5 9 5 5 5 5 9 9 9 9 9 5 1 5 3 6 6 6 6 6 3 5 1 9 9 0 p s s M M M M B M B V V V V V V V V V V V V V V w - ; ; ; V T Y T T T T W W 7.7.W 7.0.0.0.0.q.q.c.c.g.h.k.k.k.x.x.x.(.(.(.(.*X*X*X%X1XfXdXlXDXHXFXFXFXFXFXFXJXAXlXsXkX9X~ ~ ~.^.)._._._.|.|.=X=X,X=X=X=X-X-X X X}.}.{.}.{.{.{.U.U.].{.{.{.{.}.}.}.}.}.[.}.[.[.}.}.}.}.}.}.}.}.}.}.}.}.}.}.].f././.].;X;X1X1X4X2X4X4X4X5X5X5X3X3XyXhXfXsXlXVXJXHXFXFXFXFXHXFXFXHXFXmXsXfXdXeX4X4X4X2X2X2X2X:X:X;X;X;XXXXX[.I.F.d.y.>.:.:.:.:.M.F.F.F.G.G.G.G.G.G.I.I.I.I.I.Q.I.I.I.I.I.I.Y.E.R.R.R.XXXXXXOXOXOX;X:X;X:X:X1X;X;X>X2X>XeXhXfXsXmXFXHXFXFXHXFXFXFXFXHXJXVXlXsXkXaX9X).).&X#X#X*X*X,X,X,X1X>X>X>X;X;X;X;X;X;X;X;X;X;X X=XOXOX;X;X;X;X>X1X1X1X;X;X;X;XOX=X X;X X|. X X5XiXiXiXiXiXiXiXiXiXcXcXxXxXxXxXxXnXnXnXnXnXZXZXZXCXCXCXBXSXSXSXPXIXUXUXUXUXUXUXUXPXBXMXMXnXvXvXxXcXiXiXiXiX5X|.|./.`.{.-X{.{.(.(.l.l.k.h.s.q.q.q.0.9.7.7.7.7.W W P P J H H H H H H F F C C V Z V V V V V V V M M M B M M m m m s u 1 + 5 E B B B B B B B d d d d d d d s s p p p p u u u p p i i i y y y i i i ",
"a y a y y y % O $ $ O % y p p u u u d d d s s s s s s d d d d M d B B B B B B B B B B B B B V V V V V V V V V V V V V V F F F H F 7 ; ; ; N J Y T T T T W W W W W 7.0.0.0.0.q.q.c.c.g.h.k.k.k.x.x.x.(.(.(.(.*X*X%X,XhXdXlXDXHXFXFXFXFXFXFXKXVXdXdXdX,X~ ~ ~ ~.~._.%X*X*X*X=X X=X=X=X-X-X-X-X}.}.{.{.{.{.{.}.}.}.}.}.}.}.{.U.{.{.U.[.[.Y.[.[.[.}.[.}.}.}.}.}.}.}.}.XXXX}.}.].f.f.f.}.2X:X1X2X2X4X4X4X4X4X4X4X4X4X4X4XuXdXdXgXbXDXJXFXFXHXFXFXFXFXFXHXBXdXdXkXuX4X4X4X2X4X4X2X2X:X:X>X>X;X+XXXY.M.y.3.>.>.y.I.E.E.Y.Y.E.E.Q.Q.I.I.I.Y.E.E.E.E.E.E.Q.Q.E.E.E.E.E.E.XXXXXX>X;X:X:X:X:X2X2X2X4X4X4X4X4XuXfXgXdXBXHXFXFXFXFXFXFXFXFXJXDXbXsXfXdXyX_.).&X*X*X<X,X,X1X1X3X4X4X4X4X4X3X1X2X:X:X:X1X1X>X>X>X>X>X>X>X>X;X>X:X>X1X1X2X2X4X4X4X4XOX X.X.X.X.X5XiXeXiXiXiXiXiXiXiXiXiXcXcXxXxXxXxXnXnXnXnXnXnXZXZXZXCXZXCXSXSXSXLXIXUXUXUXUXUXUXIXPXNXMXmXvXvXxXpXpXiXiXiX6X<X|.'.`.=X*X-X{.{./.l.k.k.h.s.q.q.w.w.9.7.7.7.=.P W W J J J H H H H F C F F V V V V V V V V V N M M M M M M M M M M 0 1 @ 1 V B B B B B B d d d d d d d d p p p p p p u u p p i i p i y y y a i a ",
"y r y y a y 4 O + O O < u u y y u u s s u u s u p s s s d d d s s M B B B B B B B B B B B B B V V V V V V V V V V V V V V F V F F 7 ; 7 ; C T J T T W W W W W W W 0.0.0.0.q.q.c.c.g.h.k.k.k.x.x.(.(.(.(.(.%X*X*X*XaXfXdXAXJXFXFXFXFXFXFXJXBXhXfXaX&X^.^.~ ~.~.).*X*X*X,X=X=X=X-X X X}.}.{.}.{.{.{.{.{.].{.].U.U.T.U.U.U.U.U.U.U.U.Y.U.U.Y.Y.Y.Y.Y.[.}.}.}.}.}.}.}.}.}.}.XXU.f.f.f.}.>X;X>X>X1X1X1X2X2X4X4X4X4X5X4X5X3XeXaXfXsXlXBXJXHXFXHXFXFXHXFXFXJXAXzXsXkXpX4X4X4X4X4X4X2X2X2X:X:X;XOX+XoXF.y.3.y.>.I.E.E.E.Y.Y.E.E.E.Q.Q.E.Q.E.E.E.E.E.E.E.E.E.E.E.R.R.XXXXXXXX>X>X>X:X:X:X:X2X2X2X2X4X4X2XuXkXsXzXAXJXFXHXFXFXHXHXFXHXJXBXkXgXkXaX#X).%X&X*X*X<X,X,X1X1X1X4X4X2X2X1X>X:X:X>X>X;X;X;X;X;X;X;X;X;X;X;X;X;X;X;X;X;X;X>X>X>X1X1X2X1X X.X]..X].3X4X6XeXiXiXiXiXiXiXiXiXiXiXcXxXxXxXxXxXnXnXnXnXnXnXZXZXZXZXCXBXBXBXJXIXUXUXUXUXUXUXIXLXMXMXbXvXxXxXpXiXiXiX7X,X|.'./.,X*X*X{.(.(.l.l.k.h.s.s.q.q.q.w.7.7.7.7.W W W P H H H H H F F F C V V V V V V N V V V M M M M M M M M M m m 0 < = q V B B B B B B B B B B m d d d d p p p p p u u p p p p i i y y y a i i ",
"r a y y a y 3 O % + O 5 p u y y u u u u u u s u u s s s d d s d d M M B B B B B B B B B B V V V V V V V V V V V V V V V V F V F F 7 1 ; 1 C Y H T W W W W W W W W 0.0.0.0.q.c.c.g.g.k.k.k.x.x.x.(.(.(.%X%X*X*X%XuXkXsXVXHXFXHXFXFXFXFXJXBXgXfXaX&X^.).^.~.~.~.).*X*X,X=X=X X=X X{.}.}.{.{.{.{.{.T.U.U.U.U.U.U.U.U.U.U.U.U.U.U.U.U.U.U.U.U.U.Y.Y.Y.Y.Y.Y.Y.Y.}.}.}.}.}.}.XXU.f.f.f. X;X;X;X;X>X>X1X1X2X2X1X4X4X4X4X4X4X4X4XyXdXfXsXbXDXJXFXFXFXFXFXFXFXHXFXbXsXkXaXwX4X2X4X4X2X4X2X:X:X:X>X>X>XY.d.y.y.y.E.E.E.E.E.E.E.E.E.E.E.E.E.E.E.E.E.E.E.E.E.E.E.E.E.XXXXXXXX>X>X>X:X:X2X2X2X4X4X4X4X4XwXaXkXsXbXFXHXFXFXFXFXFXFXFXJXDXbXsXfXhX5X).).&X*X*X,X,X,X,X1X4X4X2X2X2X2X:X>X1X;X;X;X;X;X;X;X;X;X;X;X;X;X;X;X;X;X;X;X;X;X;X;X;X>X1X1X1X2XOX.X].].].1X4X4X4XeXeXeXiXiXiXiXiXiXiXcXcXcXxXxXxXxXvXnXnXnXnXnXnXZXZXZXZXNXNXNXHXIXUXUXUXUXUXPXIXHXbXMXnXxXxXpXiXiXiXiX,X|._._.=X-X|.{.{.(.z.l.k.h.h.s.c.q.w.w.7.7.7.7.7.W W T H H H H H H F F C V V V V V V N V V V N M M M M M M M M M m s 1 = q B B B B B B B B d d d d d d d d f f p p p u u p p p u p i y y i i i i ",
"r y y y a y 5 O $ O + r u u y y u u u u u u u u s s d d d d d d d B B B B B B B B B V B B B V V V V V V V V V V V V V F C F F F F 7 ; 7 7 C T T T W T W W W W 7.0.0.0.0.0.q.c.g.g.h.k.k.x.x.(.(.(.(.(.(.*X*X%XyXkXsXNXJXFXHXHXFXHXFXJXBXsXfXaX^.^.).%X^.~.~.~._.*X=X=X X-X|.{.{.{.{.{.{.{.{.T.T.T.T.U.U.U.U.U.U.U.U.U.U.U.U.U.U.U.U.U.U.U.U.U.U.U.U.U.Y.Y.Y.Y.Y.Y.[.Y.}.}.P.f.f.f.}.;X;X;X;X;X>X>X>X1X1X2X4X4X4X4X4X4X4X4X3XeXaXkXgXlXVXJXFXFXFXFXHXFXFXFXJXmXsXfXhXeX4X4X4X4X4X4X2X2X:X:X>X;X[.y.H.y.F.E.E.E.E.E.E.E.E.E.E.E.XXE.E.E.E.E.E.E.E.E.R.E.E.E.XXXXXX>X>X>X:X:X2X2X4X4X4X4X4X4XeXhXfXsXmXHXFXFXFXFXFXFXFXHXJXVXlXsXkXuX&X).&X&X&X|.<X,X,X1X3X2X2X2X2X1X:X:X:X:X;X;X;X;X;X;XOX;XOX;XXXXXXXXXXXOXOXXX;X;X;XOX;X;X;X;X;X>X>X2X;X]./.].].1X4X4XeX4XeXeXiXiXiXiXiXiXiXiXiXcXcXxXxXxXxXvXnXnXnXnXnXnXnXnXnXnXmXNXMXHXIXPXUXUXUXUXUXIXDXbXMXnXpXpXiXiXiXiX,X#X_.|.,X=X*X{.{.{.(.l.l.k.h.h.c.q.q.w.9.7.7.7.7.W J T J H H H H H H F F C V V V V V N N V V M M M M M M M M M M M u q = q B B B B B B B B d d d d d d d d p p p u p p u u u p p p i i i y y i i ",
"a y y y y y 5 $ % O + r u u y y u u u u u u u u s s d d d d d d d B B B B B B B B B B B B B V V V V V V V V V V V V V V F F F F H 7 ; 7 7 C T T T T W W W 7.W 9.9.0.0.0.q.c.c.g.h.k.k.x.x.x.(.(.(.%X%X%X*X%X3XfXsXbXJXFXFXFXFXFXFXJXBXgXfXaX^.^.).%X&X^.~.~.a.|.-X-X X|.{.{.{.{.{.{.{.{.U.U.U.U.U.U.U.U.U.U.U.U.U.U.U.P.P.P.U.U.P.U.U.U.U.U.P.U.U.U.U.U.U.Y.Y.Y.Y.Y.Y.Y.Y.F.t.f.f.[.OXXXOX;X;X;X;X:X:X:X:X:X2X2X4X4X4X4X4X4X4X4XuXdXfXdXmXHXHXFXFXFXFXFXFXFXJXBXdXfXdXyX4X4X4X2X4X4X2X4X2X:X:X[.H.F.d.F.XXXXXX@X@X@X@X@X@X@X@X@XE.@X@X@X@X@XE.XX@XXXXXXXXXXXXX>X+X+X:X2X2X2X4X4X4X2XwX4XyXdXdXdXBXJXFXFXFXFXFXFXFXFXHXmXdXfXdX9X).)._._.|.*X,X=X=X1X2X4X:X:X:X:X:X>X;X;X;X;X;XOXXXXXXXXXXXXXXXXXXXXXXXXXXXXXXXXXXXXXOXOXOX;X;X;X;X;X:X;X]./././.;X4X4X4X4XeXeXeXiXiXiXiXiXiXiXiXiXpXcXxXxXxXxXvXvXnXnXnXnXnXnXnXnXZXmXMXmXHXIXPXUXUXUXPXPXUXBXbXbXpXiXiXiXiXiX3X#X_.|.,X=X*X|.{.{.(.(.l.k.h.s.c.q.q.q.w.9.7.7.7.W P T J H H H H H H F F C V V V V V N N V V N M M M M M M M M M M u q = q B B B B B B B B B d d d d d d d p p p p p p u u u p p p i i i y y i i ",
"y y a y y y 5 $ $ + O 5 u u u u u u u u u u u u s s d d d d d d M B B B B B B B B B V B B V V V V V V V V V V V V V V V F F F F H 7 1 7 7 F J J T T W 7.W W 7.7.0.0.0.0.q.c.g.g.k.k.x.x.x.(.(.(.(.%X*X*X*X*XaXdXzXFXFXFXFXHXFXFXHXVXdXfXaX^.^.).).).&X~.~.~.a.|.-X*X|.{.{.{.{.{.{.U.].U.U.U.U.U.U.U.j.P.P.P.P.P.P.P.P.P.F.P.P.F.P.P.P.F.F.F.F.P.P.P.P.P.U.U.U.U.Y.Y.Y.Y.Y.F.t.f.t.[.XXXXXXXXXXXX;X;X;X:X:X:X:X:X2X4X2X4X4X4X4X5X4XeXaXfXsXbXDXJXFXHXFXFXFXFXFXJXAXhXgXfXuX4XeXwX4X4X4X2X2X2X:X}.H.H.F.I.oXXX@XXXXXXXXXXXXXXXXXXXXXXXXXXXXXXXXXXXXXXXXXXXoXoXoX+X:X:X:X4X2X4X4X2X4X4X4XyXdXdXdXAXJXFXFXFXHXFXFXFXJXDXbXsXkXaX#X^._.&X_.#X|.=X,X1X>X:X2X:X:X:X;X>X>X;X;XXXXXXXXXXXXXXXXXXXXXXXXXXX}.}.}.}.XXXXXXXXXXXXXXXXXXXXXXOX;X;X;X;XH.f././.OX4X4X4X4X4XeXeXeXeXiXiXiXiXiXiXiXiXiXcXxXxXxXxXxXxXxXvXnXnXnXnXnXnXnXmXmXmXJXUXUXUXPXPXPXPXPXMXbXbXiXiXiXiXiX3X#X_.#X,X=X*X{.{.(.(.l.l.k.k.s.s.c.q.q.0.9.9.7.W W P T J J T H H H H F F F F V V V V N N N N N N N M M M N M M M M 0 9 = q V B B B B B B B B d d d d d d d d p p p p p u u u p p p i y y y y i i ",
"y y y y y y e $ $ + O 5 u u u u u u u u u u u d s d d s d d d d B B B B B B B B B B V V V V V V V V V V V V V V V V V V F F F F H 7 1 7 7 H T T T T W W W 7.7.9.0.0.0.q.c.c.g.h.k.k.x.x.(.(.(.(.%X*X*X*X%XuXfXdXAXHXFXFXFXFXFXHXAXfXfXaX).^.).).%X_.%X~.a.a.a.|.|.|.{.{.{.{.{.T.U.U.U.U.U.U.U.U.j.j.P.P.P.F.P.F.F.F.F.F.F.P.F.F.F.F.F.F.F.F.F.F.P.P.F.F.P.P.P.Y.Y.Y.Y.U.Y.d.t.t.t.Y.XXXXXXXXXXXXXXOX;X;X;X;X:X:X:X4X2X4X4X4X4X4X4X4X5XuXlXgXdXVXJXFXFXFXHXFXFXFXJXDXlXsXfXuX4XeX4XwXwX2X2X2X2XXXH.H.H.I.oXoXoXoXoXoXoXoXXXXXoXoXoXoXoXoXoXoXXXXXoXoXoXoXoX+X>X>X:X:X2X2X4X4X4XwXeX4XuXkXgXlXDXHXFXFXFXFXFXFXHXJXVXdXsXkXjX^.)._.*X*X*X=X=X,X1X1X:X:X:X:X>X;X;XOX;XXXXXXXXXXXXXXXXXXXXX}.}.XXXXXX}.}.}.}.}.}.XXXXXX}.}.XXXXXXXXXXXXOX;XOXH.f.f./.OX2X4X4X4X4X4X4XeXeXeXiXiXiXiXiXiXiXiXiXpXcXxXxXxXxXxXxXxXxXnXnXnXnXnXnXmXbXMXLXUXPXPXPXPXPXPXJXbXbXnXiXiXiXiX5X<X|.*X1X,X=X*X{.{.(.x.l.l.k.h.s.c.q.q.0.9.9.7.7.W W T J J J H H H F F F F C V V V V V N N N M N M M M M N M M M M u 9 = 1 V B B B B B B B B d d d d d d d d p p p p p p p u p p p i i y y y i i ",
"a y y y y y e $ $ + O 5 p y y y u u u u u u u s s d d s s d d d B B B B B B B B B B B B V V V V V V V V V V V V V V V F V F F F H 7 1 7 7 H T T W W W W W 9.0.0.0.0.0.q.c.g.h.k.k.k.x.(.(.(.%X%X%X%X*X%X5XfXsXNXJXFXFXFXFXFXHXDXzXdXhX&X^.%X%X%X%X%X*X^.a.a.a.{.{.{.{.{.{.T.T.U.U.U.U.U.U.U.U.j.j.j.d.d.d.d.d.d.F.F.F.F.d.F.i.d.d.F.F.F.F.F.F.F.F.F.F.F.F.F.F.F.F.Y.Y.Y.Y.d.>.>.t.Y.}.XX}.XXXXXXXXXXXXOX>X;X;X:X:X:X2X4X2X4X4X4X4X4X4X4XyXdXfXgXNXJXGXFXFXFXHXFXFXHXFXbXsXkXuX4XwX4XeXwX4X4X2XOXH.H.H.H.oXXXoXoXoXoXXXoXoXoXoXoXoXXXXXXXXXXXXXXXXXoXoXoX+X+X>X:X:X2X2X4XwXwX4X4X4XpXkXsXbXDXHXFXHXFXFXHXFXFXJXNXgXgXdX#Xa.`.&X|.|.*X=X,X1X1X>X:X:X:X:X;X;X>X>XXXXXXXXXXXXXXXXXXXXXXXXXY.Y.XXR.R.Y.R.}.}.R.}.}.R.XXXX}.XXXXXXXXXXXXXXXXXXH.f.f.f.XX:X:X2X4X4X4X4X4XeXeXeXiXiXiXiXiXiXiXiXiXiXcXcXcXxXxXxXxXxXxXxXnXnXnXnXnXbXbXMXLXPXPXPXPXPXLXPXAXbXbXpX7XiXiX5X<X|.*X3X,X=X*X|.{.(.(.l.l.k.h.s.c.q.q.w.w.w.7.7.W W W J J H H H H F F K F C V V V N N N N N M N V M M M M M M M M u 9 , 9 V B B B B B B B B d d d d d d d d d p p p p p p u p p p p i y i i i i ",
"a y y y y y e $ O + O 5 p y y u u u u u u u u s d d d d s s d d B B B B B B B B B B B B B V V V V V V V V V V V V V V F V F F F H 8 1 7 7 H T T W W W W W 9.0.0.0.0.q.c.c.g.k.k.k.x.x.(.(.(.%X%X%X*X*X=XhXgXbXHXFXFXFXFXFXFXHXbXsXdX<X^.).%X).%X%X%X*X`.a.a.a.{.{.{.{.{.T.U.U.U.U.U.U.U.j.j.P.j.d.d.d.d.d.d.d.d.d.d.d.d.i.i.i.i.F.F.M.M.M.M.M.F.F.F.F.F.F.F.F.F.F.F.F.F.I.y.>.>.>.Y.R.Y.R.}.XXXXXXXXXXXXOXOX;X;X:X:X:X:X2X4X2X4X4X4X4X4X4XeXhXfXsXbXFXHXFXFXFXFXFXFXHXHXbXsXkXpX4XeXeXeXwX4X4XOX].[.H.[.+X+X+XoXoXoXoXoXoXoXoXoXoXoXoXoXoXoXoXoXoX+X+X+X>X:X:X:X2X2X4XwXwXeXeX4XaXkXsXbXFXHXFXFXFXFXHXFXGXFXbXsXkXaX'.a.~.'.*X*X,X,X,X;X;X>X:X:X:X;X;X;XOXXXXXXXXXXXXXXXXXXXXXXXE.Y.Y.Y.Y.R.Y.Y.Y.Y.Y.Y.Y.Y.Y.Y.E.R.R.XXXXXX}.}.XXXXXXXXH.f.f.f.}.:X:X:X2X2X2X4X4X4XeXeXeXeXiXiXiXiXiXiXiXiXiXcXcXcXxXxXxXxXxXxXxXxXnXvXvXnXbXbXNXPXPXPXPXPXLXLXPXmXlXbX7X7XiX6X<X#X*X3X,X=X-X*X{.{.(.x.l.k.k.s.c.q.q.w.9.w.7.7.W W W W T J H H H F F K F C C V V V N V V N M N N N M M M M M M M u 9 < q V B B B B B B B B B d d B d d d d d p p p p p u u p p p p i y i i i i ",
"a y y y y i e O % + O e p u u u s u u u u u u s d d d d s s d B B B B B B B B B B B B V B V V V V V V V V V V V V V V F F F F F H 8 1 7 7 H T T W W W W 9.0.0.0.0.q.q.c.g.g.k.k.k.x.x.(.(.%X%X*X*X*X%XuXfXdXDXGXFXFXHXFXFXKXmXsXlX8X^.).).%X&X&X%X*X=X`.a.a.a.(.{.T.T.T.U.U.U.U.U.j.j.j.j.j.j.d.d.d.d.d.d.i.i.i.i.i.i.i.i.i.i.i.i.i.i.M.M.i.M.M.M.M.M.F.F.F.F.F.F.F.F.G.G.y.*.*.>.F.Y.Y.Y.R.R.XXXXXXXXXXXXXX;X;X;X:X:X2X2X2X4X4X4X4X4X4XeX5X4XaXkXsXzXDXJXFXFXHXFXFXFXFXHXmXsXkXaX4XeXeX4XwXwXOX].].].[.>X>X>X>X+X+X+X+X+X+X+X+X+X+X+X+X+X+X+X+X>X>X>X:X:X:X:X2X2X2X4XwXeXeXeXaXkXsXmXHXHXFXFXHXFXFXFXJXDXzXsXkXyX).~.`.`._.,X,X1X1X>X:X:X:X:X:X;X;XOXXXXXXXXXXXXXXXXXR.R.R.R.Y.Y.Y.Y.Y.Y.Y.Y.I.Y.Y.Y.I.Y.Y.Y.Y.Y.Y.Y.Y.Y.R.XX}.}.XXXXXXH.>.f.f..X;X;X;X:X:X2X4X4X4X4XeXeXeXiXiXiXiXiXiXiXiXiXiXcXiXcXxXxXxXxXxXxXxXxXxXxXxXnXbXbXVXPXLXLXLXLXLXLXHXbXbXzX7X7X5X<X#X*X3X,X=X=X*X{.{.(.l.l.k.k.s.s.q.q.q.9.9.7.7.W W T W T J Y H H H F K F V V V V V V V V V N N N N M M M M M m m u 9 < q V B B B B B B B B B d d d d d d d d p p p p p u u p p i i i y i i y i ",
"a y y y y i 5 O % O + e p u u u u u u u u u s s d d d p d s d B B B B B B B B B B B B B V V V V V V V V V V V V V V F F F F F F H 8 1 1 7 H T W T W W W W 9.0.0.0.q.c.c.g.g.k.k.x.x.(.(.(.%X%X*X*X*X5XkXsXNXJXFXHXFXFXFXJXVXhXkXyX^.).).%X&X&X%X*X*X=Xk.a.a.a.].{.U.U.U.U.U.j.j.j.j.j.j.d.d.d.d.d.i.i.i.i.y.i.i.i.i.i.i.y.y.y.y.y.y.y.n.M.M.i.M.M.M.M.M.M.M.M.M.M.M.F.G.G.r.*.-.*.F.Y.I.Y.Y.Y.R.XXXXXXXXXXXXXXOX>X>X:X:X:X:X2X4X2X4X4X4X4XeX4X4XuXfXdXkXAXJXFXFXFXFXFXFXFXJXmXsXkXpX4X4XeXwXwXOX].[.].[.:X:X:X>X:X>X>X>X>X>X>X>X:X>X>X:X:X:X>X>X>X>X:X:X:X2X2X2X4X2XwXwXeXeXaXkXsXmXJXFXFXHXFXFXFXFXHXAXkXgXkXyX)._.'.`.`._.,X;X,X1X2X:X:X:X;X;X;X;XOXXXXXXXXXXXXXE.R.R.E.E.Y.Y.Y.Y.I.Y.I.I.Y.Y.I.I.I.Y.Y.I.Y.Y.Y.Y.Y.R.R.Y.Y.R.[.[.XX[.d.:.t.t.[.;XOX;X>X>X:X:X:X4X4X4X4XeXeXeXiXiXiXiXiXiXiXiXiXiXcXcXcXcXcXxXxXxXxXxXxXxXxXnXbXbXDXPXLXLXLXLXLXPXVXzXbXiX6X<X<X#X<X3X<X<X*X*X*X{.(.(.l.k.k.h.s.c.q.q.9.9.w.7.7.W T W J J H H H H H F F V V V V V V V V N N N N N N M M M M m m 0 9 < q V B B B B B B B B B d B d d d d d d d f p p p u p p p i i i y i i y i ",
"r r y y y y r O % + O r u i y u u u u s s u s d d d d d d d d B B B B B B B B B V B B V V V V V V V V V V V F V F F F F F H F H H w > 7 7 H T W W W W 7.9.0.0.0.0.c.c.g.g.k.k.x.x.z.(.(.%X*X*X*X*X*XaXdXbXHXFXFXFXFXHXHXDXlXfXaX^.).%X&X&X&X%X*X*X=X=Xk.a.a.a.].T.U.l.U.U.j.j.P.d.j.d.d.d.d.d.d.i.i.i.i.i.y.y.i.y.y.y.y.y.y.y.y.n.y.y.y.n.M.M.M.y.M.M.M.M.M.M.M.M.M.M.M.G.;.*.*.*.F.Y.I.Y.Y.Y.Y.E.R.XXXXXXXXXXXX>X;X>X:X:X:X:X2X4X4X4X4X4X4XeXeX4XyXdXfXdXBXJXFXFXFXFXFXFXFXJXmXsXkXaX5XeXeXwXOX[..X[.XX:X:X:X:X:X:X:X:X:X:X:X:X:X:X:X:X:X:X:X:X:X:X:X:X2X2X2X4X2X4XwXeXeXaXfXsXmXJXFXFXFXFXFXFXFXJXVXdXfXdX<X).&X#X`.`./.|.1X;X:X2X:X:X>X;X;X;XOXXXXXXXXXXXXXXXXXR.R.Y.E.Y.Y.I.Y.Y.Y.Y.I.I.Y.Y.I.I.I.I.Y.Y.I.Y.Y.Y.Y.Y.Y.Y.Y.Y.Y.XXXX[.d.:.>.>.[.OXXXOX;X>X:X:X:X4X4X4X4X4XeXeXeXeXeXiXiXiXiXiXiXiXiXiXiXcXcXcXcXxXcXxXxXxXxXxXbXbXbXJXLXJXLXLXLXLXKXmXlXzX6X<X<X#X<X3X,X<X=X*X*X(.(.(.l.k.k.h.s.q.q.q.q.9.9.7.7.W W W J H H H H H H F F F V V V N N V N N N N M V V M M M M M m u 9 = 9 V B B B B B B B B B B d d d d d d d d p d p i u u p p i p i i y y y y ",
"y y y y y i e O + + O r u y u u u u u s u u d d d d d d d d d B B B B B B B B B B B B V V V V V V V V V V V V V F F F F F F F H H w 7 7 7 H T T W W 7.7.0.0.0.0.q.c.c.g.k.k.k.x.x.(.(.%X%X*X*X*X%XyXkXdXAXJXFXHXFXFXFXHXbXsXdX&X^.%X%X&X&X&X*X*X=X-X*Xg.a.a.a.l.T.U.U.U.U.j.j.j.j.d.d.d.d.d.i.i.i.y.y.y.y.y.y.y.y.y.y.y.y.y.y.y.M.n.y.y.n.M.M.n.n.n.n.n.n.M.M.M.M.M.M.M.F.;.=.*.*.G.I.I.I.I.Y.Y.Y.Y.E.R.XXXXXXXXXXXX;X>X>X:X:X:X2X4X4X4X4X4X4XwXeX4XeXhXfXgXNXHXFXFXFXFXFXFXFXHXmXsXfXuX4XeXeX:X[.$X[.$X4X4X2X2X2X2X2X2X:X:X:X:X:X:X2X2X2X2X2X2X2X:X:X2X2X2X2X4X4X4XwXeXaXkXsXmXHXFXFXFXFXFXFXFXJXNXsXfXaX<X).#X#X*X'.`./.|.1X2X:X:X:X>X;X;XOXOXXXXXXXXXXXXXXXXXR.Y.Y.E.Y.I.I.I.I.I.I.I.I.I.I.I.I.I.I.I.Y.Y.I.Y.I.Y.Y.Y.Y.Y.Y.Y.Y.Y.R.Y.y.:.>.>.[.XXXXXXXX;X;X>X:X:X4X4X4X4X4X4XeXeXeXeXiXiXiXiXiXiXiXiXiXiXcXcXcXcXcXcXcXcXxXcXxXbXlXMXLXKXKXKXLXJXLXDXlXbXpX&X<X<X<X5X<X<X=X=X*X{.(.(.x.l.k.h.s.q.q.q.0.9.9.7.7.7.W W J J J J H H H F F V V V V V V V N N N N N N V M M M M M m u 9 = 9 V B V B B B B B B B B d d d d d d d d p d p p u u p p i p i i y y y y ",
"y y y y y i e O + + + r p u u u u u u u u d d d d d d d d d M B B B B B B B B B B B V V V V V V V V V V V V V V F F F F F F F H H w 7 7 7 H W W W 7.W 9.0.0.0.0.c.c.g.g.k.k.x.x.(.(.%X%X%X*X*X*X<XhXsXmXJXFXFXFXFXFXJXBXsXkX,X^.).%X).&X&X*X*X*X=X-X*Xf.a.a.a.l.U.U.U.U.P.j.j.j.d.d.d.i.i.d.i.i.i.y.y.y.y.y.y.y.y.y.y.y.y.y.y.y.y.y.y.y.y.y.y.n.n.n.n.n.n.n.n.M.M.M.M.M.M.;.*.*.*.M.I.I.I.I.I.I.Y.E.Y.E.R.XXXXXXXXXX>X>X;X>X:X:X2X2X4X4X4XwXwXwXwXeX4XeXaXfXsXmXJXFXFXFXHXFXFXFXHXmXsXkXpX4XeX2X$X$X[.OX4XwX4X4XwXwXwXwXwXwX2XwXwXwXwXwX2XwXwXwX2XwX2X2X4X4X2XwXeX4X4XaXkXsXmXHXFXFXHXFXFXFXFXJXmXsXkXaX_.).&X#X#X,X.X/./. X2X:X:X:X>X>X>XXXXXXXXXXXXXXXR.R.E.E.E.E.E.E.I.I.I.I.I.I.I.I.I.I.I.I.I.I.I.I.I.I.I.I.I.I.I.Y.Y.Y.Y.Y.Y.Y.Y.Y.y.>.:.>.Y.XXXXXXXXXX;X;X;X:X:X:X4X4X4XwX4XeXeXeXeXeXiXiXiXiXiXiXiXiXiXcXcXcXcXcXcXcXcXcXcXnXbXbXAXLXJXJXJXJXJXLXNXlXzX<X&X&X<X3X<X3X=X=X*X{.{.(.x.l.k.h.h.c.q.q.0.9.9.7.7.W W W T T J J H H H F F V V V V V V V N N N N N N M M M M M n m u 9 , 9 V B V B B B B B B B B d d d d d d d d p d p p p u u p i p i i i y i i ",
"y y y y y i e O % % + r p u u s u u u u u d d d d d d d d d M B B B B B B B B B B B V V V V V V V V V V V V V V F F F F F F H Y H 7 1 7 7 H W Q W 7.7.0.0.0.0.0.c.c.g.h.k.x.x.(.(.(.%X%X*X*X*X%XyXfXdXDXHXFXFXFXFXFXDXlXfXuX^.).).%X).&X&X*X*X=X=X-X*Xa.w.w.w.l.U.U.P.j.j.j.d.d.d.s.i.i.i.i.y.i.y.y.y.y.y.y.y.r.y.y.r.y.y.y.y.y.r.n.n.n.y.y.n.n.n.y.y.n.n.n.n.M.n.n.n.n.M.:.{ *.*.M.I.I.I.I.I.I.I.Y.E.E.E.E.XXXXXXXXXX>XXX;X:X:X:X2X2X2X2X4X4X4X4XwXeXeX4XaXfXsXmXHXFXFXFXFXFXFXFXJXmXsXfXuX4X2X$X$X$X;XwXwXwXwXwXwXwXwXwXwXwXwXwXwXwXwXwXwXwXwXwXwXwXwXwXwXwXwXwX4XaXkXsXmXJXFXFXHXFXFXFXHXHXbXsXkXuX_._.&X&X*X,X1X.X].].OX2X:X:X:X;X>XoXXXXXXXXXXXR.R.E.E.E.E.E.Y.E.I.I.I.I.I.I.I.I.G.G.I.I.I.I.I.I.I.I.I.I.I.I.I.I.Y.Y.Y.I.Y.Y.Y.Y.Y.y.:.>.>.U.XXXXXXXXXXXXXX;X>X:X:X:X2X4X4X4X4X4XeXeXeXeXeXiXiXiXiXiXiXiXiXcXcXcXcXcXcXcXcXcXcXnXbXbXHXJXJXJXJXJXKXFXlXlXpX)._.<X3X3X<X3X=X*X|.(.(.x.l.k.h.s.c.q.q.0.w.0.7.7.7.W P T J J J H H H F F F V V V V V V V N N N V N M M M M M M m u q = q V B V V B B B B B B B d d d d d d d d p d f p p u u p i i i i i i i i ",
"y y y y y y e % + + + e p u u u u u u u u s s d d d d s d d B B B B B B B B B B B V B V V V V V V V V V V V V C F F F F F H H H T w 7 7 7 T W W W 7.0.0.0.0.0.q.c.c.g.k.k.x.x.(.(.%X*X*X*X*X%X<XdXgXmXJXFXFXFXFXFXJXmXgXdX&X^.).%X&X&X%X*X*X*X=X*X|.{.a.a.a.=.j.U.j.j.j.d.d.d.d.i.i.i.i.y.i.i.y.y.y.p.y.y.y.y.r.r.r.r.r.r.r.r.r.r.y.y.y.r.r.r.r.y.y.r.n.n.n.n.n.M.M.n.M.M.;.{ { { M.G.G.G.I.I.I.I.I.Y.Y.E.E.R.E.XXXXXXXXXXOXOX>X:X:X2X2X2X2X4X4XwXwXwXeXeXwXaXkXsXbXHXHXFXFXFXFXFXFXJXmXsXkXuX;X$XOX$XOXeXeXwXwXeXeXeXwXwXwXwXwXeXwXeXeXeXwXwXwXwX4XwXeXeXeXwXeXeXaXkXsXmXJXFXFXFXFXFXFXFXHXbXsXkXuX).).#X_.#X,X,X1X X[.H.}.:X:X:X>X>XXXXXXXXXXXXXXXE.E.E.E.E.E.Y.I.I.I.I.I.I.G.I.I.G.G.I.I.I.G.G.I.G.G.G.G.I.I.I.I.I.I.I.Y.I.I.I.I.I.I.:.*.:.:.U.XX[.XXXXXXXXXXXX>X>X:X:X:X2X4X4X4X4X4X4X4XeXeXiXiXiXiXiXiXiXiXiXiXcXcXcXcXcXcXcXiXcXbXlXNXLXJXJXJXJXHXLXBXlXzX#X).<X<X3X<X<X*X*X|.{.(.(.l.k.h.s.c.q.q.q.0.0.9.7.7.W T T J J J H H H F F F F V V V V V N N N N N N M M M M M M M u q - q V B B V B B B B B B B B d d d d d d d p f f p p p p p p i i i y y i i ",
"y y y y y y e $ + + % e p u u u u u u u u s d d d d s d d d B B B B B B B B B B B V V V V V V V V V V V V V V C F F F F F F H H J w 7 7 w J W W W 7.0.0.0.0.q.c.c.c.h.k.k.x.x.(.(.(.%X*X*X*X%XuXfXkXDXHXFXFXFXFXJXAXdXkX8X^.).).%X&X%X*X*X=X-X*X*X{.{.a.=.=.=.f.j.j.j.d.d.d.s.d.i.i.i.y.y.y.i.y.y.p.p.p.p.p.r.r.r.r.r.r.r.r.r.r.r.r.r.r.r.r.r.r.y.y.n.n.n.n.n.n.n.n.n.n.n.-.{ { { M.G.G.G.G.I.I.I.I.I.Y.E.E.E.E.XXXXXXXXXXoX+X+X+X:X:X2X2X2X4X4X2XwXwXeXwXeXwXpXkXsXbXHXFXFXFXFXHXFXFXJXmXsXkXyX|.OX X:XeXeXeXeXeXeXeXeXeXeXeXeXeXeXeXeXeXeXeXeXeXeXeXeXeXeXeX4XpXkXsXmXJXFXFXFXHXFXFXFXHXbXsXkXyX^._.&X#X#X#X=X,X1XOXOX[.[.:X>X>X>X>XXXXXXXXXXXR.E.E.E.E.E.E.I.I.I.I.I.I.I.G.G.G.G.G.G.G.G.G.G.G.G.G.G.G.G.G.G.I.I.I.I.I.I.I.I.I.I.I.Y.:.*.:.*.U.XXY.[.XXXXXXXXXXXXOX;X;X:X:X2X4X4X4X4X4X4XeXeXeXeXiXiXiXiXiXiXiXiXiXiXiXiXiXiXiXiXcXzXzXzXDXLXJXJXJXJXJXFXbXlXpX^.&X<X<X<X<X<X*X*X|.(.(.l.k.h.s.s.c.q.q.0.9.9.7.=.W P T J H H H H H F F F F C V V V N N V N N N N M M M M M M M u 9 - q V B B V B B B B B B B B d d d d d d d p p f p p p p p p i i i y y i i ",
"y y y y y y 5 O + + % e u u u u u u u u s s d d d d s d d B B B B B B B B B B B B B V V V V V V V V V V V V F F F F F F H F H J H w 7 7 w W 7.7.W 0.0.0.0.0.q.c.c.g.h.k.k.x.(.(.(.%X%X*X*X*X3XdXsXmXJXFXHXFXFXFXJXbXdXaX^.^.).%X&X&X*X*X=X=X-X-X{.{.{.a.=.=.=.s.j.j.d.d.d.d.i.i.i.i.i.y.i.y.y.p.p.r.r.r.r.r.r.r.r.r.r.r.r.r.r.r.r.r.r.r.r.r.r.v.r.r.r.n.n.v.v.n.n.n.n.n.n.-.{ { { M.G.G.G.G.G.I.I.I.I.Y.E.E.E.E.E.E.XXXXXXXXoXoX+X>X:X:X:X2X2X4X2X2X4X4XwXwXwX4XuXfXsXbXFXHXFXFXFXFXFXFXHXbXsXkXjX|.OX2XeXeXeXeXeXeXeXeXeXeXeXeXeXeXeXeXeXeXeXeXeXeXeXeXeXeXeXpXkXsXbXHXFXFXHXFXFXFXHXFXbXsXkXyX)._._.#X#X=X X;X1X2XOX@X[.[.:X+X+XoXXXXXXXXXE.E.E.E.E.I.Q.Q.I.I.I.I.I.G.I.G.G.G.G.G.G.G.N.F.G.G.G.G.G.G.G.G.G.G.G.G.G.G.G.G.I.I.I.G.I.G.:.*.*.*.F.Y.Y.Y.XXXXXXXXXXXXXXoX;X;X:X:X:X4X4X4X4X4X4X4XeXeXeXeXiXiXiXiXiXiXiXiXiXiXiXiXcXiXiXiXbXlXmXKXJXJXJXJXHXLXBXlXzX&X&X<X<X<X<X<X*X*X|.(.(.l.l.k.s.s.q.q.q.q.0.9.7.7.W P T J J J H H H H F F F F V V V V N V N N N N N M M M m M M 0 9 - q V B B V V B B B B B B B d d d d d d d p p f p p p p p p i i i y y i i ",
"y y a y y y 5 O + + % e u u u u u u u u s s d d d d d d B B B B B B B B B B B B B B V V V V V V V V V V F V C H F V F F H H H T H 7 7 7 w W 7.7.9.9.0.0.0.q.q.c.c.h.k.k.x.x.(.(.(.*X%X*X*X*XyXfXdXDXHXFXHXFXFXHXVXgXkX<X^.).).).&X%X*X*X=X-X-X{.{.{.{.a.=.=.=.s.j.d.d.d.i.i.i.i.i.y.y.y.y.p.y.r.r.r.r.r.r.r.r.;.r.r.r.r.r.r.r.r.r.r.r.r.r.r.v.v.v.v.v.r.r.v.v.v.n.n.v.v.M.o.^ { { n.G.N.G.G.G.G.G.I.I.I.I.I.E.E.E.E.E.E.XXXXXXXXoX+X>X:X:X:X2X2X2X2X2X2X4X4XeXwX4XuXkXsXbXFXFXFXHXFXFXFXHXGXbXsXkXyX|.2XeXeXeXeXeXeXeXeXeXeXeXeXeXeXeXeXeXiXeXeXeXeXiXeXeXeXuXkXsXbXHXFXFXFXHXHXHXFXFXbXsXkXyX^.&X_.#X*X,X=X;X;X2X2XXXXXY.[.:X+XoXoXXXXXXXE.E.E.E.E.E.Y.Y.I.I.I.I.I.G.G.G.G.G.G.G.G.M.G.N.N.G.G.G.G.M.F.F.F.G.G.G.G.G.G.G.G.G.I.Y.Y.I.F.:.=.*.*.F.Y.Y.Y.E.R.XXXXXXXXXXXXXX;X;X;X:X:X:X2X2X4X4X4X4X4XeX6X6XiXiXiXiXiXiXiXiXiXiXiXiXiXiX7XpXzXlXAXJXJXJXHXJXJXFXzXlXyX).<X<X<X<X<X*X*X|.(.(.l.l.k.h.s.q.q.q.0.0.9.7.7.W W T J J H H H H H F F F H C C V V N V V N N N N N N M M M M 0 9 - 9 V B B V V B B B B B B B B d d d d d d d p s p p p u p p p p i y y i i ",
"y y y y r y 4 O % * + r p s s s u u u s s s d d d d s s B B B M B B B B B B B B B B V V V V V V V V V V V V H F F F F F H H H T C 7 7 7 w W 7.7.9.9.0.0.0.q.q.c.g.h.k.k.x.(.(.(.%X%X%X*X*X<XhXgXmXJXFXHXFXHXFXHXbXfXuX^.^.).).).&X%X*X=X-X-X{.{.{.{.{.a.=.=.P s.P.d.d.i.i.i.i.y.y.i.y.p.y.p.p.r.r.r.r.r.r.r.r.r.r.r.r.;.r.r.r.r.r.r.r.r.r.r.v.v.r.r.v.v.v.v.v.v.n.n.n.n.v.o.( ( { n.N.G.N.G.G.G.G.G.G.I.I.I.I.E.E.E.E.E.XXXXoXoXoXoX+X+X+X:X:X:X2X2X2X2XwXwXwXwXeX4XuXkXsXbXHXHXFXHXFXFXFXFXFXbXsXfX9X1XiXyXiXiXiXiXeXeXeXeXeXiXiXiXyXyXeXeXeXeXyXiXiXiXeXuXfXgXbXFXFXFXFXFXFXFXHXFXbXsXkXyX^._.#X|.#X,X,X=X;X:X2X:X[.[.Y.[.+XoXoXXXXX@X@XE.E.E.E.E.I.I.I.I.G.I.G.G.G.G.G.G.G.G.G.F.M.M.N.G.N.G.F.F.F.F.G.G.G.G.G.G.G.G.G.G.G.G.G.G.G.F.>.*.*.*.F.E.Y.Y.Y.Y.E.XXXXXXXXXXXXXXOX;X;X;X:X:X:X2X4X4X4X4X4X4X4XeXeX7X7XiXiXiXiXiXiXiXiXiXiXiX7XzXlXbXJXJXJXHXHXHXKXNXlXzX&X&X<X<X<X<X*X*X*X(.(.l.x.k.k.s.g.c.q.q.0.9.7.7.W W W J J H H H H F F F F F F C V V N N V V N N N M M M M M m 0 9 = 9 V B V B V B B B B B B B B d d d d d d d p p f p p p p p i p i y i i i ",
"y y y y y i 4 O $ * % 5 u u s u s u u s s d d d d d B B B B B B B B B B B B V V V V V V V V V V V V V V V F H H F F H F H H H T N 7 7 7 w W 7.7.7.0.0.0.q.q.c.c.g.k.k.x.x.(.(.(.%X*X*X*X*XyXfXdXDXHXFXFXFXFXJXVXsXkX#X^.).).).).%X*X*X-X*X*X{.{.{.].U.a.P P P s.d.i.i.i.i.i.y.y.y.y.y.y.p.p.p.r.r.r.r.r.r.r.r.r.r.r.r.r.r.r.r.r.r.r.r.r.r.r.v.v.r.r.v.v.v.v.v.v.v.n.v.n.v...^ ( ^ n.N.N.N.N.G.G.G.G.G.G.G.G.G.I.Q.Q.E.E.XX@XXXXXXXXXXXXXoX>X:X:X:X:X2X2X2X2XwXwXeXwX4XuXkXsXbXHXFXFXHXFXFXFXHXFXlXdXdX5X6XiXyXiXiXiXyXiXiXiXiXiXiXiXiXiXiXiXeXiXeXiXiXiXiXdXdXzXFXHXFXFXFXHXFXHXGXbXsXkXyX^._._.|.,X=X,X1X;X:X:X:XoX[.[.L.Y.+XoXXXXX@X@X[.E.E.E.E.I.I.I.I.I.G.G.G.G.G.N.G.G.G.N.N.N.M.M.N.N.N.N.M.M.F.N.N.N.G.G.G.G.F.F.G.G.G.G.G.G.I.M.-.*.:.*.F.I.I.Y.Y.Y.E.[.E.XXXXXXXXXXXXXXOXOX>X:X:X:X2X2X4X4X4X4X4X4X6X7X7X7X7XiXiXiXiXiXiXiXiX7X7XiXzXlXAXLXHXHXHXHXJXFXzXlX8X&X<X<X<X<X*X*X*X(.(.x.x.k.k.h.c.c.q.q.9.9.9.7.7.W W W J H H H H F F F F F F C V V N N N N N N N M M M M M M u 9 - 1 V B V B V B B B B B B B B d d d d d d d p p f p p p p p i i i y a i i ",
"y y y y y y 4 $ + % O 5 d s s s s s d d d d d p d d d d B B B B B B B B B B B V V V V V V V V V V V V F F F F F F F H H H H J T l 7 w w w P 7.7.9.0.0.q.c.c.c.g.k.k.k.x.x.(.(.(.%X*X*X<X<XaXgXbXJXFXFXFXFXFXHXzXfXuX^.).).).).%X_.*X*X*X*X{.{.{.{.{.U.w.P P P d.d.i.i.i.i.i.i.i.y.y.y.p.p.y.p.r.r.r.r.r.r.r.r.r.r.r.r.r.r.r.r.r.v.v.n.v.r.r.,.v.v.v.v.v.v.n.v.v.v.v.v.v.;.{ ( ( ( n.N.N.N.N.G.N.G.G.G.G.G.G.G.I.Q.Q.Q.Q.E.E.@XXXXXXXXXXXoX>X>X+X:X:X:X2X2X2X2X2XwXwXwXwXuXkXsXbXHXFXFXFXFXFXFXHXDXdXdXhX5XiXiXiXiXiXiXiXiXiXiXiXiXiXiXiXiXiXiXiXiXiXiXiXhXdXlXDXHXFXFXFXFXFXFXHXbXsXkXyX)._.&X#X|.=X,X=X;X2X:X:X>X[.E.Y.I.Y.oXoXXXXXE.E.E.E.E.E.Q.Q.I.I.I.I.I.G.G.G.G.N.N.N.N.N.N.N.N.M.N.N.N.N.N.G.M.F.G.G.G.G.G.G.N.F.G.G.G.I.G.G.G.y.:.*.*.*.F.Y.I.Y.I.I.Y.Y.E.R.XXXXXXXXXXXXOXOXOXOX;X:X:X:X2X2X4X4X4X4X4X6X6X6X7X7X7X7X7X7X7X7X7X7X7X7XzXzXbXJXHXJXHXHXHXKXmXkXhX&X&X<X<X<X*X*X*X(.(.(.l.k.k.h.s.c.q.q.0.0.9.7.7.P W J J J H H H F F F F F F F F V N N N N N N N M N M M M M 0 0 6 < B V V V V V V V V B B B B B B B d d d d p d d p p f f f d i i i i i i ",
"i i y y y 5 % O + % % % 5 5 y 9 y y y s u s s p m B B B B B B B B B B B B V B B V V V V V V V V V V V V V F F F F F H H H J F N w 7 7 w w H 7.7.9.0.0.0.q.c.c.h.g.k.x.x.(.(.(.(.%X%X*X*X5XfXdXAXHXFXHXFXFXJXVXsXfX#X^.).^.).)._._.|.|.|.{.{.{.{.(.l.j.=.=.=.P w.i.i.i.i.y.y.y.y.p.p.r.r.r.e.r.r.r.r.r.;.;.;.r.r.r.r.;.r.r.r.r.r.;.;.;.;.;.;.;.;.;.;.;.-.;.o.O.O.o......./ ( ^ ( ` ;.M.N.n.N.N.N.N.N.G.G.G.G.G.G.G.I.I.I.E.E.E.E.E.XXXXXXoXoX+X+X>X>X:X:X2X2X2XwXwXwXeXeX4XpXkXsXmXHXFXFXHXFXFXFXHXAXdXdXaX5XiXiXiXiXiXiXiXiXiXiXiXiXiXiXiXiXiXiXiXiXiXaXfXdXAXJXFXFXFXFXHXFXHXmXsXkXjX)._._.|.|. X XOX;X>X:X+XXX[.Y.Y.Q.I.H.I.E.E.I.I.I.G.G.G.G.G.G.G.G.G.G.G.n.N.N.n.n.n.n.n.n.n.n.n.n.n.n.n.n.n.n.n.n.n.n.n.M.n.n.y.y.;.n.M.M.n.M.y.:.-.=.*.=.M.I.I.I.E.Y.Y.Y.Y.Y.R.R.XXXXXXXXXXXXXXOXOX;X;X:X:X2X2X2X2X4X5X5X6X6X7X7X6X7X7XiX7XiX7XiX7X7XiXzXlXAXJXHXJXHXHXJXAXlXlX8X&X<X<X<X*X*X*X{.(.(.l.k.k.s.s.c.q.q.w.9.9.7.7.W W W J H H H H H F F F F C F V V V N N N N M M M M M M n u u 0 6 = 1 u s s u u u u u u u u u y y y y a y y a y y 5 e 5 5 5 5 r e e e 5 5 ",
"% O $ % + % + * % % % % O % % + @ + * % , < < < < < < < 6 6 6 6 6 6 6 1 1 1 1 1 1 1 1 1 1 7 7 7 7 9 9 7 7 9 9 7 0 0 0 0 0 0 0 w w 7 w w w l Z Z Z Z I I I I P P P Q Q Q a.a.g.g.a.`.`.^.uXfXzXHXFXFXFXFXFXHXbXdXuX! ~ ~.~.~.~.g.k.k.f.f.f.f.s.a.a.t.=.=.P P P P =.=.=.=.=.[  .[  .^ ^ ^ ^ ^ ^ ^ ^ ^ ^ ^ ^ ^ ^ ^ ^ ^ ^ ^ ^ ^ ^ ^ ^ ^ ^ ^ ^ ^ ^ ^ ^ ^ ^ ^ ^ ^ ^ ^ ^ ^ ( ( ( ( ( / ( ( ` ` ` ............:.:.:.:.:.:.:.:.;.;.;.;.y.y.n.n.H.H.H.H.H.H.H.H.[.[.[.[.[. X$XOXOXOXOXuXkXsXmXJXFXFXFXFXHXFXHXBXgXkXuX<X5X5X5X5X5X4XeX4X4X5X5X5X5X5X5X5X5X4X5XuXfXsXBXJXFXFXFXFXFXFXJXmXsXkXyX~.'.'./././.].].[.[.[.L.L.H.H.F.H.H.M.y.y.n.n.n.y.;.;.;.;.:.;.:.;.;.;.;.:.:.:.:.............................................:.-.-.:.-.-.-.-.-.:.:.-.*.*.*.:.:.r.y.y.M.y.M.d.y.y.y.y.d.d.d.d.d.H.H.H.H.P.P.H.].].].]..X.X|. X X,X,X,X,X,X<X3X5X5X6X5X5X5X<XzXlXbXKXHXJXHXHXHXJXbXlXpX^.).).).'.`.`.~.a.a.a.a.Q Q P P P P I I I Z Z Z l l l l w w w w w 8 w w 8 8 7 7 7 7 7 7 7 1 1 1 6 1 1 6 1 9 9 6 - < < , , = = , + @ @ + + + + + + + + + O + + + + + O O O O O O O O O O ",
"$ * $ $ + % + + + % % % + % * + * % < < % , < , < < < < < < < 6 6 6 6 6 6 6 6 6 6 6 1 6 6 6 1 1 6 1 7 7 7 7 7 7 9 7 7 7 7 7 8 w w w w w l l Z Z Z Z Z I I I P P P P Q Q a.a.a.g.g.^.^.).hXgXNXJXFXFXHXFXHXAXdXkX#X! ~.~.a.a.a.a.a.a.a.a.a.a.a.a.>.>.=.=.=.=.=.=.=.[ [ D D D v v ^ ^ v v v ^ ^ v ^ ^ v v v v ^ ^ ^ ^ ^ ^ ^ ^ ^ ^ ^ ^ ^ ^ ^ ^ ^ ^ ^ ^ ^ ^ / ( ( ( ^ ( ( / ` { ....` ` / ` ` ` ..` ` ` ` ....:.:.:.:.:.:.:.:.:.:.:.;.;.;.y.n.H.H.H.H.H.H.H.H.[.[.[.[.$X$XOXOXOXOXuXkXsXNXHXFXFXHXFXFXFXJXmXsXkXyX<X5X5X5X5X5X4X4X5X5X5X5X5X5X5X5X4X4XuXfXsXmXJXFXFXFXFXFXFXKXNXsXkXyX^.`.`.`./././.].].H.Y.H.H.H.H.H.H.M.M.y.y.y.;.;.;.:.:.:.:.:.:.:.:...................` ..{ { ..{ ` ` ` ` ` ` ` ` ..{ { { { { ` { { *.{ { { { *.*.*.*.*.*.-.-.*.-.*.-.-.-.-.:.:.:.:.:.>.>.>.y.y.y.d.f.d.d.d.f.H.H.H.].].].].].|..X|.|.#X#X#X#X,X#X#X#X<X<X<X<XyXlXlXDXJXHXJXHXHXKXBXlXlX).^.`.`.`.`.^.a.a.a.a.Q Q P P P I I I Z Z Z Z Z l w l w w w 8 7 7 7 7 7 7 7 7 7 7 1 1 1 1 1 6 6 6 6 - - < < 6 < < < , < < < , < < < < @ = % % % + + + + + + % * % + + + % % O O $ O O O ",
"% * 2 2 4 * * * % + % % % * @ < 6 6 3 3 6 6 6 6 6 1 1 1 1 1 1 1 1 7 9 1 6 6 6 6 9 0 9 9 9 9 9 9 9 9 0 0 0 0 0 0 0 0 w 0 w 0 l l l N Z Z N Z Z Z K I P P P Q Q Q Q Q a.a.a.g.g.^.`.`.^.5XfXkXDXHXFXFXFXFXJXmXgXaX~ ~ ~.~.~.~.^.k.k.k.f.f.s.s.a.a.t.w.w.w.=.=.=.*.*.[ [ [  . .[ [  . . . . .^ ^  .^ ^ ^ ^ ^ ^  . . . . .^ ( { { ( (  .( ( { ( { { { ( ( / / / { { ......O...O...X.o.o.O.X.X.O.O.;.O.;.;.;.;.,.,.,.,.,.,.v.n.n.n.n.n.n.n.n.n.H.H.H.I.Y.Y.[.[.XXXXOXOX+X:X2X2X2X2X2XaXfXsXBXHXFXFXFXFXHXFXJXbXsXkX8X1X5X4X5X5X4X4X4X4X4X4X4X5X4X5X5XyXfXsXbXJXFXFXHXFXFXFXHXVXgXkXuX^.`.'./././.].].[.[.[.H.H.H.H.H.F.H.H.M.M.3.3.3.;.;.;.;.:.:.;.;.;.:...........` ....` ` ....` { ` ` ` ` ` ` ` ` ` { { { { { { { { { { *.*...{ { *.-.-.-.-.:.:.:.-.-.-.:.:.:.:.;.:.;.y.y.>.y.y.y.y.f.f.d.d.d.d.f.f.f.l.l.].].].].]..X.X.X.X|.|.#X#X#X#X<X#X<X<X<XzXlXmXKXHXHXGXHXHXDXzXlX8X~.^.^.~.~.~.a.a.a.a.a.Q P P P P I I I Z Z Z l l l w w w w w w w w w w 0 7 7 7 7 7 1 7 7 1 1 1 6 6 6 6 1 6 6 6 < 6 6 6 < < < < < < < = % % % < * * + + + + % + + O * + + $ O O O O $ $ ",
"$ % % % * % % % % + % % * * * * < % , 4 < < < < < < 6 5 9 9 9 9 9 1 < 6 6 6 6 6 6 1 6 6 1 7 7 7 7 7 7 7 7 7 7 7 9 0 8 8 0 0 0 w l l l l l Z Z K I P P P Q Q Q Q a.a.a.a.g.g.k.^.`.`.`.uXfXbXJXFXFXFXFXFXDXlXfX9X! ~.~.~.~.~.^.k.k.k.k.s.s.s.a.a.q.w.w.w.8.=.=.*.*.[ [ [ [ [  . . . . . . . . . . . . .^ ^ ^ ^ (  . .(  .( ( ( ( ( ( ( ( { { / { / ( ( ` { { { ..........O.O.O.......X.X.X.O.O.O.O.;.;.;.;.;.;.;.;.;.;.,.;.,.v.n.n.n.n.n.M.H.H.Y.E.XX@XoXoXoX+X+X+X:X:X2X2XwXwXwXeXaXfXdXAXJXFXFXFXHXFXFXFXlXgXdX5X5XyXyXyXeXeXeXeXeXeXeXyXeXeXyXdXsXlXFXFXFXFXFXFXFXJXAXdXfXuX`.`.'./.'./.].].].[.[.[.H.H.H.H.G.F.M.M.H.H.n.n.n.n.n.n.n.n.n.v.v.v.v.,.;.;.,.;.,.;.;.;.;.;.;...............-.;.;.;.-.;.;.-.-.;.;.;.;.;.;.:.;.;.;.;.;.;.y.;.y.y.y.y.y.y.y.y.y.y.M.M.M.d.d.F.F.M.H.F.F.F.H.U.U.U.U.H.f.f.f.f.f.]. X X X X X X,X,X,X<X<X<X<X<X<X<X<XpXlXzXFXHXHXHXHXFXJXbXkXpX).&X&X_._._.(.(.(.(.x.k.k.h.g.c.a.q.q.9.9.W Z l l w Z H H H T T T T T Y H C V V V V V C V V V V V V V V V V B V B B B B B B B B B B s s s d s s s s u p p p u y % O + + % 4 e e a e e ",
"r e e e y y y r y y y y y y y u u y y u u u p s u s s B B B B B B M q 6 6 6 6 6 1 0 M M N V V V V V N V V V F V F F F H H H F H H P T W W W W 9.0.0.q.a.c.c.g.g.k.k.x.x.(.(.%X*X*X%X<XdXsXBXJXFXFXFXFXHXBXsXdX).~.^.^.^.`.`.(.{.(.z.(.U.l.l.l.j.j.j.j.j.s.d.i.i.y.t.t.p.y.p.p.p.r.r.r.r.r.r.r.r.p.r.r.r.e.o.{ ^  .^ { {  ...o...o.o.o.o.o.o.o.o.O.O.O.O.O.O.;.r.;.,.,.,.v.,.v.v.v.,.v.v.v.v.v.v.v.v.v.v.n.v.n.v.n.n.n.n.n.n.n.v.,.n.n.n.n.H.y.Q.@X@XoXoXoX+X+X:X:X2XwXwXwXwXeXeXeXeXhXdXkXDXHXFXHXFXHXFXFXDXkXfXaX7XiXiXiXiXiXiXiXiXiXiXiXiXiXhXdXfXDXHXFXFXFXHXFXHXDXkXfXaX_.).&X|.|.|.|. XOXOXOXoXoXoX@X[.@X[.E.Q.Q.Q.Q.E.I.I.I.I.I.J.I.G.G.G.N.N.N.N.N.N.N.N.m.N.N.N.N.N.v.....` ( v.n.n.n.n.n.n.n.n.n.N.N.n.M.N.n.n.m.N.N.M.N.N.M.F.F.F.G.G.G.G.G.G.G.F.G.G.G.G.I.I.Y.Y.Y.Y.Y.Y.Y.Y.Y.XX}.}.XXf.f.f.f.}.:X>X1X1X3X3X4X5X5X5X6X6X6X6X6X6X6X6X7XlXlXVXJXHXHXHXHXKXVXkXlX<X&X&X*X*X*X*X-X{.(.z.x.k.k.k.h.h.c.q.q.0.0.K l l w W 7.W T T T T T J Y H H Y H H H R H R E C C V E V E V E V V V V V V V V V V B B V B B B d B B B d d d d d d r O % O 5 f y y a y y ",
"a a y y y y y y y u y u u u u u u u u s s p p s s s s M B B M M M B M 6 < 6 6 7 N V V V V V V V F F F F F F F F H H H J J T T T W 7.7.7.7.7.9.0.0.q.q.c.c.h.h.h.k.x.x.(.(.(.%X*X*X*XyXfXkXDXFXFXFXFXFXJXbXgXuX^.^.).)._._.*X*X-X{.-X{.{.{.T.U.U.U.P.j.P.d.d.d.i.i.y.i.y.y.y.y.p.p.r.r.r.p.r.r.r.r.r.r.p.r.r.r.{ ^ { ^ ^ o.r.r.;.;.;.;.r.;.r.v.,.v.v.r.v.v.v.v.v.v.v.v.v.v.v.v.v.v.v.v.v.v.v.b.b.v.b.b.m.m.m.m.N.m.N.N.N.G.J.G.G.N.,.n.n.n.;.M.E.E.@X@XoXoXoX+X+X:X:XrXwXwXwXwXwXeXwXyXdXgXlXFXFXFXFXFXFXFXJXVXdXfXpX6XiXiXiXiXiXiXiXiXiXiXiXaXfXdXVXJXFXFXFXHXFXFXFXzXsXdX<X_.<X<X,X,X1X1X2X2X:X:X:X:X>XoXoXoX@XXXE.E.E.E.E.I.I.I.I.G.G.G.G.G.G.N.N.N.N.N.N.N.N.N.N.N.m.m.b.m.X...( ^ v.v.n.n.n.n.n.n.n.n.n.n.n.n.n.n.n.n.N.n.M.M.M.M.M.M.M.M.M.G.G.F.F.F.G.F.G.G.G.G.G.I.I.I.Y.Y.Y.Y.Y.Y.Y.Y.[.}.H.f.f.f.OX;X;X;X>X1X1X3X3X3X3X5X5X5X6X5X6X6X7X6XhXlXbXJXHXHXHXHXJXDXzXlX8X).&X&X*X*X*X*X{.(.z.x.k.h.h.h.s.c.q.q.0.0.K l l Z W 7.T T T T T T T Y H Y Y H H H F H E E E V V V V V V V V V V V V V V V V B B B B B B B d d d d d d d p p p y O % O 5 y y y a y y ",
"r y y y y y y y y y y y u u u u u u u s s p p s s s M M B B M M B B B q < 6 6 0 V V V V V V F F V V F F F F F F H H H H H H J T W W W 7.9.9.9.0.q.q.q.c.c.g.g.h.k.x.x.(.(.(.%X*X*X*XpXgXbXJXFXFXHXFXHXDXdXfX<X^.).).).)._.*X-X-X{.{.{.{.T.U.U.U.P.j.P.d.d.d.i.i.i.i.y.y.y.y.p.p.p.p.r.p.p.p.r.r.r.r.r.r.r.r.r.o. .^ L v O.r.r.r.;.;.;.;.r.r.r.r.,.,.,.,.r.v.v.v.v.v.v.v.v.v.v.v.v.v.,.v.v.v.v.v.v.b.v.b.m.m.m.m.N.N.m.N.N.G.G.G.J.n.,.n.n.:.N.E.W.E.@X@X@XoX+X+X+X:XrXrX2XwXwXwXeXeXeXuXfXsXbXHXFXFXFXFXFXFXJXmXsXfXyX7XiXiXiXiXiXiXiXiXiXpXfXsXmXJXFXFXFXFXFXFXHXbXsXkX5X&X<X#X#X,X1X;X1X2X:X:X:X>X:XoXoXoX@XXXE.E.E.E.Q.Q.Q.I.I.J.G.N.G.N.N.N.N.N.N.N.N.N.N.N.N.m.m.b.m.b.N.;.` ^ ^ v.v.v.v.n.n.n.n.n.n.n.n.n.n.n.n.n.n.n.n.n.M.M.M.M.M.M.F.M.M.M.G.F.F.F.F.G.F.G.G.G.G.G.G.I.I.I.Y.Y.I.Y.Y.Y.[.Y.f.s.f.OX X;X;X;X1X1X1X3X3X3X3X5X5X5X5X6X6X6X6XiXlXlXDXJXHXHXHXHXKXbXkXpX).&X%X*X*X*X*X(.(.z.x.k.k.h.h.c.c.q.q.0.0.K l l Z 7.W W T T T T T T T Y Y Y H H H F H E E E V V V V V V V V V V V V V V V B B B B B B B B B d d d d m d d d d y O % + 5 y y y y a y ",
"y y y y y y y y y y y y u u s u u u u s s p p s s s M B B M M M B B B 9 < 6 6 0 V V V V V V F F V F F F F F H H F H H H H H T T W W 7.W 9.9.9.0.0.q.q.c.g.h.h.h.k.x.x.(.(.(.*X*X*X<XhXsXBXJXFXFXFXFXJXNXgXaX^.^.).).).(.(.*X-X-X{.{.{.T.U.U.U.U.P.j.P.F.d.i.i.i.i.i.y.y.y.y.p.p.r.p.p.p.p.p.r.r.r.r.r.r.r.r.r.r.{ v L ^ ;.r.r.r.;.;.;.;.r.r.r.r.,.,.v.,.r.r.v.v.v.v.v.v.v.v.v.v.v.,.v.v.v.v.v.v.v.b.v.v.v.m.m.m.m.m.m.m.N.N.G.G.G.N.;.3.n.:.G.W.E.E.E.@X@X@XoX+X+X+X:XrXrX2XwXwXwXwXeXeXpXkXsXmXJXFXFXFXFXFXFXHXbXsXdX7X6XiXiXiXiXiXiXiXuXfXsXbXHXFXFXFXHXFXFXJXmXsXkX8X&X<X#X*X,X1X1X;X2X:X:X:X:X:XoXoX@X@XXXE.E.E.E.Q.Q.Q.I.I.I.J.G.N.N.N.N.N.N.N.N.m.m.N.N.N.m.m.m.b.m.m.N.;.` ( ( v.v.v.b.n.n.n.n.n.n.n.n.n.n.n.n.n.n.n.n.n.n.M.M.M.M.M.M.M.M.F.M.M.F.F.F.F.F.F.G.G.G.G.G.G.I.I.Y.Y.Y.Y.Y.Y.Y.U.f.a.f.XXOXOX;X;X>X1X1X1X3X3X3X3X5X5X5X6X6X6X6X7XzXkXBXKXHXHXJXHXKXVXfXzX&X).&X%X*X*X*X(.(.(.x.l.k.h.h.c.c.q.q.q.0.H l l Z 7.W W T T T T T T T Y Y H H H H F F V E V V V V V V V V V E V V V V V V B B B B B B d B B d d d d m d d d d y O % O 5 y y y y a a ",
"y y y y y y y y y u y y u u u u u u u d p p p s s s s B B M M M M M B 9 6 6 6 0 V V V V V V V V V F F F F F F F H H H H J J T T W W 7.7.7.7.9.0.q.q.c.c.c.h.h.k.k.x.x.(.(.(.*X*X%X4XfXdXDXHXHXFXFXFXJXbXfXyX^.).).)._.%X*X-X-X{.{.{.{.T.U.U.U.U.j.j.j.d.d.i.i.i.i.y.y.p.p.p.p.r.r.r.p.p.p.p.r.r.r.r.r.r.r.r.r.r.( b b ^ ;.;.;.;.;.;.r.r.r.r.,.v.v.v.v.v.v.v.v.,.,.v.v.v.v.v.v.v.v.v.,.v.v.v.v.v.b.b.b.b.v.v.m.m.m.m.m.m.N.A.G.J.J.N.;.3.3.:.N.E.Q.W.E.@X@X@XoXoX+X+X+X:X:XrXwXwXwXeXrXeXeXaXfXsXBXJXFXFXFXFXFXFXFXlXdXaX6XyXiXiXiXiXiXiXhXdXlXDXHXFXFXFXFXFXHXBXsXkXyX&X&X*X*X,X,X1X2X2XrXrX:X:X:XoXoX@X@XXXE.E.E.Q.Q.Q.Q.I.I.J.J.J.G.J.N.N.m.m.m.m.m.N.m.m.N.N.b.b.m.m.m.m.N.;...( ( v.b.v.v.n.n.m.n.n.n.n.n.n.N.n.n.n.n.n.n.n.n.n.n.M.M.N.M.M.M.M.F.F.M.F.F.F.F.F.G.G.G.G.G.G.G.G.G.Y.Y.Y.Y.Y.Y.P.t.t.f.XXXXOX}.;X;X;X;X1X1X1X3X3X3X3X5X5X6X6X6X5XpXlXbXJXHXHXHXHXHXDXlXlX8X^._.%X*X*X*X(.(.(.x.l.k.k.h.s.c.q.q.0.0.I l w Z 7.W W T T T T T T Y Y Y H H H Y F F F E E E V V V V V V V V V V V V V V B V V V B V B B B d d d d d d d d d 5 O + O r y y y y y y ",
"y y y y y y y y y y y y p u u u u u u d u p p s s p s B M M B B B M B 9 6 6 6 0 V V V V V V V V V F F F F F F F H H H H J J T W W 7.7.7.7.9.0.0.0.q.c.c.h.h.k.k.k.x.x.(.(.(.*X*X%XuXgXbXHXFXFXHXFXGXDXkXfX<X^.).).)._.%X*X-X-X{.{.{.{.T.U.U.U.j.j.j.d.d.i.i.i.y.y.y.y.y.p.p.p.p.r.r.p.p.r.r.r.r.r.r.r.r.r.r.r.r.^ L L ^ ;.;.;.;.;.;.r.r.r.r.,.,.,.r.r.v.v.v.,.v.,.,.v.v.v.v.v.v.,.v.v.v.v.v.v.b.b.b.b.b.v.b.b.m.m.m.m.m.m.N.N.J.J.N.;.,.,.:.H.Q.Q.Q.E.E.@X@X@XoXoXoX+X+X:XrXrXwXwXrXwXeXeXeXaXdXfXAXHXFXFXFXFXFXJXVXdXfXpX6XiXiXiXiXiXaXfXsXVXJXFXFXFXFXFXHXAXdXfXaX&X#X<X#X,X,X1X1X2X2X:X:X+X+XoXoX@X@XW.W.E.E.E.Q.Q.Q.Q.I.J.J.J.G.J.N.N.N.N.m.N.m.N.b.b.b.b.b.b.v.n.v.m.n.N.;...( ( v.b.v.b.v.v.n.m.n.n.n.n.n.n.n.n.n.n.n.n.n.n.n.n.n.n.M.N.M.M.M.M.M.M.M.M.F.F.F.G.M.G.G.G.F.G.F.G.G.I.Y.Y.Y.Y.P.f.>.f.}.}.XX}. X;X;X;X;X1X1X1X3X3X3X5X3X5X5X6X5XiXlXlXFXHXHXHXHXHXHXbXkXyX).&X_.%X*X*X*X(.(.x.l.k.k.h.h.c.q.q.q.0.I l l Z 7.7.W W T T T T T Y H Y H H H Y H H F V E E V V V V V V V V V V V V V V V V V V B V B B B d d d d d d B d d 5 + + O e y y y y a y ",
"y a y y y y y y y y y y p u u u s u u f s p s s s s B B M M M B B M B 9 < 6 6 0 V V V V V V V V V V F F F F F F H H J J J T T W W 7.7.7.7.9.0.0.0.q.c.c.h.h.k.k.x.x.(.(.(.%X*X*X*XaXgXmXJXFXFXFXFXJXBXgXhX).^.).).).(.(.*X-X{.{.{.{.T.T.U.U.l.j.j.j.j.d.i.i.i.i.y.y.y.p.p.p.p.p.r.r.p.r.r.r.r.r.r.r.r.r.r.r.r.r.^ L L ^ O.;.;.;.;.v.v.r.;.;.,.,.r.r.r.v.,.,.,.,.v.v.v.v.v.v.v.v.v.v.v.v.v.b.b.b.b.b.b.b.b.m.b.m.m.m.m.m.m.N.N.N.J.G.,.,.;.;.m.J.Q.Q.Q.E.W.@X@XoXoXoXoX+X+X:XrXwX2XwXwXeXeXeXyXhXdXzXFXHXFXFXFXFXFXJXmXsXkXyX6XiXiXiXpXfXsXmXJXFXFXFXFXFXHXFXzXdXhX#X&X<X#X,X,X,X1X:XrXrX:X:X+X+XoXoX@X@XW.E.E.Q.E.Q.I.I.I.J.J.J.G.J.J.N.N.N.N.m.m.m.m.b.b.b.b.b.m.m.m.b.v.v.b.;.` ( ( v.v.v.v.v.v.b.v.v.v.n.n.n.n.n.n.n.n.n.n.n.n.n.n.n.n.n.N.N.n.M.M.M.M.M.M.M.F.F.F.M.F.F.F.G.F.G.F.F.F.U.Y.Y.Y.F.f.>.f.}.}.XX}.}.}. X;X;X;X1X1X1X3X3X3X5X5X5X5X6X7XlXdXVXJXHXHXHXFXKXmXfXaX).%X).&X%X*X*X(.(.x.l.k.k.h.h.c.q.q.0.q.I l l Z 7.7.W W T T J J T T J H Y H H R R H F F E E E V V V V V V E V V V V V V V V B B B V B d B B d d d d d d d d 4 + + O e i y y y y y ",
"a a y y y y y y y y y y u u u u u u u d p p s s s s B B M M M B M B B 9 6 6 - 7 V V V V V V V V V V F F F F F H H H H J J T T T W 7.7.7.9.9.0.0.q.q.c.c.h.k.k.x.k.x.(.(.(.%X*X*X,XfXdXVXJXFXFXFXFXJXbXgXuX^.).).).).%X(.-X-X{.{.{.T.T.T.U.U.P.P.j.j.d.d.i.i.y.i.y.y.y.p.p.r.r.r.r.r.r.r.r.r.r.r.r.r.r.r.r.r.r.r.{ b L ^ O.;.;.,.v.v.v.v.,.,.,.v.,.,.v.v.v.,.,.v.v.v.v.v.v.v.v.,.v.v.v.v.b.b.v.b.b.b.b.b.b.m.b.m.m.m.m.m.m.N.N.N.G.J.1.1.;.;.n.J.J.Q.Q.Q.E.W.@X@XoXoXoXoX+X+X:XrXwXwXrXrXeXeXeXuXfXsXbXJXFXFXFXHXFXFXHXbXgXhX8X6XiXiXdXdXbXHXFXFXFXFXFXFXJXbXsXfX#X_.<X#X#X,X,X1X:X:XrX:X0X+XoXoX@X@X@XW.W.W.E.Q.Q.I.I.J.J.J.J.J.J.A.A.N.N.N.m.m.m.m.m.m.m.b.b.b.v.m.v.b.b.v.m.;...( ( v.v.v.b.b.b.b.v.v.n.n.n.n.n.n.n.n.n.n.n.n.n.n.n.n.n.n.n.n.n.M.M.M.M.M.M.M.M.F.F.F.F.M.M.G.F.F.F.F.F.F.U.U.I.F.f.>.f.}.[.}.}.}.}.}.;X;X;X1X1X1X1X1X3X3X3X5X6X6X3XhXfXmXKXHXHXHXFXKXAXfXlX&X).)._.%X*X*X(.(.z.l.k.k.h.h.c.q.q.0.q.H l l Z 7.7.W W W T T T T T J H Y H H R R H F F E E V C V V V V V V V V V V V V V V B B B V B d B B d d B d d d d d < + + O a i y y y y a ",
"a a y y y y y y y y y f p u y u p p p s s p s s s p B B M M B B B B V 9 6 1 6 0 V V V V V V V V V F F F F F H H H H H J J T T T W 7.7.7.9.0.0.0.q.c.c.h.h.k.k.k.x.x.(.(.(.(.*X%X4XfXlXDXHXFXFXFXFXHXzXfX8X^.).).)._._.-X{.{.{.{.{.T.T.U.U.P.j.j.j.d.d.i.i.i.y.y.y.y.p.p.p.r.r.r.r.r.r.r.r.p.r.r.r.r.r.r.r.r.r.r.{ ^ L ^ ;.;.r.v.r.v.r.r.,.,.;.r.,.,.v.v.v.v.v.v.v.v.v.v.,.,.v.v.v.v.v.v.v.v.b.b.v.v.b.b.b.b.b.b.m.m.m.m.m.m.N.N.N.N.1.1.;.:.m.J.J.J.Q.Q.W.W.W.@X@X@XoXoXoX+XrXwXwXrXrXrXeXeXeXeXuXkXsXNXJXFXHXFXFXFXHXDXdXfXpX5X7XaXfXdXDXFXFXFXFXFXFXJXNXsXkX9X^.<X<X<X,X;X;X2X:XrX:X+X+XoXoXoX@X@X@XW.E.E.Q.Q.I.Q.J.Q.J.J.J.A.G.N.N.N.N.N.N.m.m.m.m.m.m.m.m.m.m.m.m.b.b.b.m.;.` ( ( v.b.v.v.v.v.v.v.v.v.v.n.n.n.n.n.n.n.n.n.n.n.n.n.n.n.n.n.n.n.n.n.n.M.n.F.F.M.M.M.M.F.F.M.M.M.F.G.G.G.F.F.F.I.F.d.*.u.Y.[.}.}.}.}.}.;X;X=X;X1X,X,X3X3X3X3X3X5X6X3XpXkXbXHXHXHXHXHXJXDXlXkX<X^.).%X_.|.*X{.(.x.l.l.k.h.h.c.q.q.q.0.I l l Z 7.7.W W T T T T T T T H H H H H R H F F F E E E C V V V V V V V V V V V V V B B B B B B B B B d d d d d d d 4 O % O e y y y y r a ",
"a a y y y y y y y y y f p u y u u p p s p p s s s M B B M M B B B B V 9 6 1 6 9 V V V V V V F F V F F F F F H H H H T J T T T T W 7.7.9.9.0.0.q.q.c.c.h.h.k.k.x.x.(.(.(.(.(.*X%XyXfXbXHXFXFXFXFXHXAXfXfX#X^.).).)._.{.|.-X{.{.{.T.T.U.U.P.P.j.j.d.d.d.i.i.i.y.i.y.p.p.p.p.r.p.r.r.r.r.r.r.r.r.r.r.r.r.r.r.r.r.r.{ ^ L ^ ;.r.v.r.v.r.r.v.,.r.;.v.,.,.v.v.v.v.v.v.v.v.v.,.,.,.v.v.v.v.v.v.v.b.b.b.b.v.b.b.b.b.b.b.m.b.b.m.m.m.m.N.N.N.,.1.;.:.1.J.J.J.L.Q.Q.Q.E.W.@X@XoXoXoX+X:XrX:XwXrXrXrXeXeXeXeXaXfXdXAXHXFXFXFXHXFXJXNXsXfXyXyXkXsXNXJXFXFXFXFXFXHXAXdXkXuX~.`.<X<X,X1X1X:X:X:X:X+X+XoXoXoX@X@X@XW.W.E.Q.Q.Q.Q.J.J.J.J.J.G.A.N.N.N.N.N.N.N.m.m.m.m.m.m.m.m.m.N.m.b.b.b.b.m.%.` ( ( v.b.b.v.v.b.b.v.b.v.v.v.m.n.n.n.n.n.n.n.n.n.n.n.n.n.n.n.M.n.n.n.n.n.n.M.M.M.M.M.M.M.F.M.M.M.F.F.G.F.F.F.F.F.F.y.*.t.Y.Y.}.}.}.}.}.}. X=X=X=X;X,X1X1X3X3X5X5X5X3XiXlXlXDXJXFXHXHXHXHXbXkXyX^.).).%X(.*X(.(.(.l.l.k.h.h.c.q.q.q.q.P l l N 7.7.7.W T T T T T T T H H Y H H R R H F F F E R C V V V V V V V V V V V V V B B B B B B B B B d d d d d d d 5 O % O e y y y y r a ",
"y y y y y y y y y y y f p u u u p u s s p s s s s M B B M M B B B B V 9 - 1 6 9 V V V V V V V F F F F F F F H H H H T T T T T T 7.7.7.9.0.0.0.q.q.c.c.h.k.k.k.x.x.x.(.(.%X*X*X*XaXgXmXJXFXHXFXFXJXBXgXaX).^.).)._._.*X{.-X{.{.T.T.U.U.U.P.P.j.j.d.d.d.i.i.i.y.y.y.p.p.p.r.p.r.p.r.r.r.r.r.r.r.r.r.r.r.v.v.r.r.v.{ ( L ^ O.,.v.r.r.;.v.v.;.;.v.,.,.v.v.v.v.v.v.v.v.v.v.v.,.v.v.v.v.v.v.v.b.b.b.b.b.b.b.b.b.b.b.b.m.m.m.m.m.b.m.m.N.m.;.,.;...1.J.J.J.J.J.Q.W.Q.W.W.@X@XoXoXoX:X0X0XrXrXrXrXrXrXeXeXiXhXdXzXFXFXFXFXFXFXFXJXbXsXhXhXgXbXJXFXHXFXFXFXFXFXzXfXaX'.).'.<X<X,X1X;X:XrXrX+X+X+XoXoXoX@X@XW.W.W.Q.Q.Q.I.I.J.J.J.J.A.N.N.N.N.N.N.m.m.m.m.m.m.m.m.m.m.m.m.m.m.b.b.b.b.b.%.` ( ( v.v.b.b.b.b.b.v.v.v.v.v.v.m.n.n.n.n.n.n.n.n.n.n.n.n.n.n.n.n.n.n.n.n.M.M.M.M.M.M.M.M.F.F.M.M.M.F.G.F.F.F.F.U.d.y.=.>.Y.Y.Y.}.}.}.}.}.}. X=X=X=X1X1X1X3X3X3X5X3X3X6XzXfXBXKXHXHXHXHXKXmXfXuX^.).)._._.*X{.(.(.x.l.k.k.h.s.q.c.q.q.P l l Z 7.7.7.W T T T T T T T J H H H H R R H H F V V E E V V V V E E V V V V V V V B B B B B B B B B d d d d d d B 5 + % + r y y y y y y ",
"y y y y y y y y y y y p p u u u u u s p p s d s s M B M M B B B B B V 9 6 1 6 9 V V V V V V V V F F F F F F H H H H J T T T T W 7.7.7.7.0.0.q.q.c.c.h.h.k.k.k.x.x.(.(.(.*X*X*X=XaXgXBXJXFXFXFXFXJXmXfXuX^.).).)._._.*X{.-X{.{.T.T.U.U.U.P.U.j.P.d.d.i.i.i.i.y.y.y.p.r.r.r.p.r.r.r.r.r.r.r.r.r.r.r.r.v.v.v.v.v.v.{ ( L ^ %.;.r.r.;.,.v.v.r.v.v.v.v.v.v.v.v.v.v.v.v.v.v.v.v.v.v.v.v.v.v.b.b.b.b.b.b.b.b.b.b.b.b.b.b.b.m.m.m.m.m.m.N.b.;.;...` 1.J.J.J.J.J.Q.Q.W.W.W.W.@XoXoXoXoX0X0XrXrXwXrXrXrXeXeXeXyXfXsXbXJXFXFXHXFXFXHXDXlXfXfXlXDXFXFXFXHXFXFXHXmXsXkX#X^.'.'.<X,X1X1X:XrXrXrX0X+XoXoX@X@X@XW.W.W.Q.Q.Q.Q.Q.J.J.J.J.J.A.N.N.N.N.N.m.m.m.m.m.m.m.m.m.m.m.m.m.m.m.m.v.b.b.b.v.` ( ( v.v.v.b.b.b.v.v.v.v.v.v.v.v.m.n.n.n.n.n.n.n.n.n.n.n.n.n.n.n.n.n.n.n.M.M.n.M.n.n.M.M.M.M.M.M.M.F.F.F.F.F.F.F.M.t.=.>.Y.Y.Y.R.}.}.}.}.}.}.=X=X=X1X,X1X3X3X3X3X3X3X5XaXfXmXKXHXHXHXFXKXBXfXhX).).).%X_.(.(.(.(.x.l.k.k.h.h.c.c.q.q.P l l Z 7.7.7.W T T T T T J T H H H H H H R H H F F F E V V V V V E V V V V V V V V B B B B B V B B B d B d d d d B y + % + e y y y y y y ",
"y y y y y y y y y y y p p u u u u u s p p s s s M B M M M B B B M B V 9 6 1 6 0 V V V V V F F F F F F F F F H H H T J T T T T W 7.7.7.9.0.0.q.q.c.c.h.h.k.k.k.x.x.(.(.(.*X*X*X1XfXdXAXHXFXFXFXFXHXzXfX8X^.).).).%X_.-X-X{.{.{.T.T.U.U.j.j.j.j.d.d.d.i.i.i.i.y.y.y.r.r.r.r.r.r.r.r.r.r.r.r.r.r.r.r.r.r.v.r.v.v.v...^ L ^ O.r.r.r.,.,.v.,.v.v.v.v.v.v.v.v.v.v.v.v.v.v.v.v.v.v.v.v.b.b.b.b.b.b.b.b.b.b.b.b.b.b.b.b.b.b.b.b.b.m.m.m.m.b.O.O.` ` 1.J.J.J.J.J.J.Q.Q.W.W.W.W.@X@XoXoXoX+XrXrXwXwXrXrXtXeXeXiXaXfXsXVXJXFXFXFXFXFXJXBXgXsXBXJXFXFXFXFXFXJXVXsXkXyX^.'.'.'.,X1X1X2X2XrX0X0X+XoXoXoX@X@XW.W.Q.Q.Q.Q.J.J.J.J.J.J.A.A.N.N.N.A.m.m.m.m.m.m.m.m.m.m.m.m.m.m.m.m.m.m.m.b.b.m.v...( ( v.v.b.v.b.v.v.v.v.b.b.b.v.v.v.m.n.n.n.n.n.n.n.v.v.n.n.n.n.n.n.n.n.n.n.n.n.n.M.M.M.M.M.M.M.M.M.M.M.F.F.F.F.F.F.:.=.>.Y.Y.Y.R.[.}.}.}.}.}.=X=X X=X;X,X1X3X3X3X3X3X3XpXkXbXHXHXHXHXFXJXAXdXdX&X^.).)._.%X%X(.(.x.l.k.k.h.h.s.c.q.q.P Z Z Z 7.7.7.W T T T T T J T H H Y F Y H R R H F F V E V V V V V V V V V V V V V V V B B B B B B B B d B d d d d B y + % % y y y y y y y ",
"y y y y y y y y y y y p u u s u u u s p p s s s M B M M M B B B M B V 9 6 1 6 0 V V V V V V V F V F F F F F H H H J J T T T T W W W 7.7.0.0.q.q.c.c.h.h.k.k.x.x.x.(.(.(.*X*X%X5XfXlXDXFXFXFXFXHXDXkXfX<X^.).)._.%X|.*X-X{.{.{.T.U.U.P.P.l.j.j.j.d.i.i.i.i.y.y.i.r.r.r.r.r.r.r.r.r.r.r.r.r.r.r.r.r.r.v.v.v.v.v.v...^ v ^ O.r.r.,.,.v.,.,.v.v.v.v.v.v.v.v.v.v.v.,.v.v.v.v.v.v.v.,.b.b.b.b.b.b.b.b.b.b.b.b.b.b.b.b.b.b.b.b.m.b.b.m.m.b.X.O.` ` ,.J.J.J.J.J.J.J.Q.Q.W.W.W.@X@X@XoXoXoX0XrXrXrXrXrXrXeXeXiXiXaXgXlXDXHXFXFXFXFXFXHXbXbXJXFXFXFXFXFXHXDXlXdXpX_.'.'.'.'.,X2X2X2XrXrX+X+XoXoXoX@XoXW.W.Q.W.W.Q.J.J.J.J.J.J.A.N.A.N.N.N.N.A.A.m.m.m.m.m.m.m.m.m.m.m.m.b.m.m.m.m.m.b.b.v...( ( v.m.v.v.b.v.v.b.v.b.b.b.v.b.v.v.v.n.n.n.n.n.n.n.n.n.n.n.n.n.n.n.n.n.n.n.n.n.n.n.n.n.M.M.M.M.M.M.M.M.F.F.F.F.d.*.=.>.Y.U.Y.Y.Y.R.}.}.}.}.}. X X=X;X,X,X1X3X3X3X3X3XiXkXlXDXJXHXHXHXHXFXlXfX<X^.).).(.(.(.(.(.x.l.l.k.h.h.h.c.q.q.P Z Z Z 7.7.7.T T T T T T T T H H H H Y Y R R H H F V R E E E V V V V V V V V V V V V B V B B V B B B B d d d d d d y + % % y y y y y y y ",
"r y y y y y y y y y i p u u u u u s s p s s s s M B M M B B B B M B N 7 6 1 6 0 V V V V F V F F F F F F F F H H H H T T T T T W 7.7.7.7.0.0.q.c.c.c.h.h.k.k.x.x.(.(.(.*X*X*X%XyXfXzXHXFXHXFXFXHXAXdXdX&X^.).)._.%X{.-X-X{.{.{.T.U.U.U.U.l.j.j.j.d.i.i.i.i.i.y.y.r.r.r.r.p.r.r.r.r.r.r.r.r.r.r.v.r.r.r.r.v.v.v.v...v v ^ ;.v.v.v.r.v.v.v.,.v.,.,.v.v.v.v.v.v.,.,.,.v.v.v.v.v.v.v.b.b.b.b.b.b.b.b.b.b.b.b.b.b.b.b.b.b.b.V.b.b.b.m.m.1.` X.` ` ,.J.A.J.J.J.J.J.Q.Q.W.W.W.W.@X@XoXoXoXoX+XrXrXwXrXrXeXeXeXeXyXdXsXbXJXHXFXFXFXFXHXDXDXHXFXFXFXFXFXHXbXsXdX<X&X'.'.'.].1X2X2XrXrX0X+XoXoXoXoXoXW.W.W.W.W.W.Q.L.J.J.J.J.J.A.A.A.N.m.m.N.N.C.A.m.m.m.m.m.m.m.m.m.m.m.m.m.m.b.m.m.m.m.v...( ( v.m.v.v.v.v.v.b.b.b.b.b.v.v.v.v.v.v.n.n.n.n.n.n.n.n.n.n.n.n.n.n.n.n.n.n.n.n.n.n.n.n.M.M.M.M.M.M.M.M.M.M.M.F.y.=.=.*.Y.U.Y.Y.R.R.}.}.}.}.}.}.=X=X=X=X,X3X<X3X3X3X3X7XlXdXAXKXHXHXHXHXHXbXfX8X^.).).(.%X{.(.(.x.x.k.k.h.h.h.q.q.q.P Z l Z 7.7.7.7.T T T T T T T T H H Y Y Y H R H H F V E E E V V V V V V V V V V V V V V V B B V B B d B d d B d d B y + % % r y y y y y y ",
"r y y y y y y u y i i s u u u u u s s p s s s s s B M M B B B B B N V 7 6 1 6 u V V V V F F F F F F F F H H H H H J T T T J T W 7.7.7.7.0.0.q.c.c.h.h.k.k.k.x.x.(.(.{.*X*X*X*XuXgXbXJXFXFXHXFXJXBXgXaX).).).%X_.{.-X-X}.{.{.T.U.T.U.U.U.j.j.j.d.d.i.i.i.i.i.y.y.r.r.r.r.r.r.r.r.r.r.r.r.r.r.r.r.r.r.r.r.r.r.v.v.^ L v ^ ;.v.v.r.r.v.,.v.,.,.,.,.v.v.v.v.v.,.,.,.v.v.v.v.v.,.v.v.b.b.b.b.b.b.b.b.b.1.b.b.b.b.b.b.b.b.b.b.b.b.b.m.C.1.` ..` ` ,.A.A.A.K.J.J.J.J.Q.W.W.W.W.W.W.oXoXoXoX0X0XrXrXwXrXrXeXeXiXeXpXkXsXBXJXFXFXFXFXFXHXHXFXHXFXFXFXJXBXsXkXyX&X#X'././..X2X2XrXrX0X+XoXoXoXoXoXW.W.W.W.W.Q.W.Q.L.J.J.J.J.J.A.A.A.A.A.A.N.m.m.m.m.m.m.m.m.m.m.m.m.m.m.m.m.m.m.m.b.m.m.v.` ( ( v.b.b.m.b.v.b.b.b.b.v.v.v.v.v.v.v.v.v.n.n.n.n.n.n.n.n.n.n.n.n.n.n.n.n.M.n.n.n.n.n.n.n.n.n.M.M.M.M.M.M.M.M.F.:.=.=.>.U.U.I.Y.Y.Y.}.}.}.}.}.}.=X=X=X=X,X3X1X3X3X5X3X6XhXdXBXKXHXHXHXFXJXbXfXyX^.).).).(.%X(.(.x.x.l.k.h.h.h.c.q.q.P Z Z N 7.7.7.7.T T T T T T T J H H H Y Y H H H H F V E E E V V V V V V V V V V V V V V V B V V V B d B d d d d d B y + % O r y y y y y r ",
"y y y y y y y y y y y p u y u u u s p p s s s M B B M B B B B B B N V 9 6 6 6 0 V V V V V V V V F F F F F H H H H J T T T T W W 7.7.7.9.0.0.q.q.c.h.h.h.k.l.l.x.(.(.{.*X*X*X*XaXgXmXJXFXFXFXFXJXmXgXuX^.%X)._._.*X*X*X{.{.{.T.T.T.U.U.l.P.P.d.d.d.i.i.i.i.y.y.y.r.r.r.r.r.r.r.r.r.r.r.r.r.r.r.r.r.r.v.v.v.v.v.;.v b b ^ ,.,.r.v.v.v.,.,.,.v.v.v.v.v.v.v.v.v.,.v.v.v.v.v.b.v.b.b.b.b.b.b.b.b.b.b.1.b.b.b.b.b.b.b.b.b.b.b.b.b.m.m.m.,.` ` ` ` ,.S.A.J.J.J.J.J.J.J.Q.W.W.W.W.W.W.@XoXoX0X0XrXrXrXrXrXrXeXeXeXeXaXfXlXDXHXFXFXFXFXFXFXFXFXFXFXHXDXlXfXaX&X<X#X'.].]..X2X2XrXrX0X0XoXoXoX@XW.W.W.W.W.W.Q.Q.J.J.J.J.J.J.J.A.A.N.N.N.N.A.m.m.m.m.m.m.m.m.m.m.m.m.m.m.m.m.m.m.b.m.m.m.,.` ( / b.b.b.v.b.v.v.v.b.b.n.v.v.b.b.b.b.v.v.v.n.n.n.n.n.n.n.n.n.n.n.n.n.n.n.n.n.n.n.n.n.n.n.n.n.n.M.M.M.M.M.M.F.F.*.=.=.>.Y.P.U.U.Y.Y.Y.[.}.}.}.}.}.=X=X=X,X3X1X3X3X3X5X3XaXfXmXKXFXFXFXFXJXmXfXaX^.^.`.).(.(.(.(.z.x.l.k.h.h.h.q.q.q.P Z Z N 7.7.7.7.7.T T T T T T T J H H R R H Y R H F F E C E C V V V V V V V V V V V B V B V B B B B d d d d d d d B a % + O r y y y y y y ",
"y y y y y y y y y y y p u u u u u s p p s s s M B B M B B B B B V V V 7 6 1 6 0 V V V V V V F F F F F F F H H H J J T T T T T 7.7.7.7.9.0.0.q.c.h.h.h.k.k.l.l.x.(.(.(.(.*X*X*XaXgXBXJXFXHXFXFXJXbXgXyX^.).).%X&X*X*X*X{.{.}.T.T.T.U.U.U.P.P.d.d.d.i.i.i.i.y.y.y.r.r.r.r.r.r.r.r.r.r.r.r.r.v.r.n.r.r.v.v.v.v.v.;.v b b ( %.,.;.v.v.v.,.,.,.v.v.v.v.v.v.v.v.v.v.v.v.v.v.b.v.v.b.b.b.b.b.b.b.b.b.b.1.b.b.b.b.b.b.b.b.b.b.b.b.m.m.V.C.,.` ` ` ` ,.A.A.A.J.K.J.J.J.J.J.W.W.W.W.W.W.@XoXoX0X0X0XrXrXrXrXrXrXeXeXeXuXdXgXbXJXFXHXFXFXFXFXFXFXHXFXJXbXgXdX<X&X<X#X/.].].].2XwXrX0X0XoX0XoX@XW.W.W.W.W.W.Q.J.J.J.J.J.J.J.J.J.A.A.A.A.A.m.C.m.C.C.m.m.m.m.m.m.m.m.m.m.m.m.m.m.m.m.m.m.m.,.` / ( m.b.b.b.b.b.b.v.b.v.m.v.v.v.v.b.b.v.b.v.v.n.n.n.n.n.n.n.n.n.n.n.n.n.n.n.n.n.n.n.n.n.n.n.n.n.n.n.n.M.M.M.M.M.=.=.=.*.P.P.U.U.U.U.Y.R.R.}.}.}.}.=X=X=X=X,X1X3X3X3X3X5XpXfXbXJXFXFXFXFXJXBXdXaX^.^.).).(.%X{.(.z.x.l.k.h.h.h.c.q.q.P Z l Z 7.7.7.7.T T T T T T T T J T H Y R Y R R H H F E V E E V V V V V V V V V V E V V B B B B B B B d d d d d d B y % % % y y y y y y y ",
"y y y y y y y y y y p p u u u u u s p d s s s M B B M B B B B B B M N 1 6 6 6 s V V V V V V F H F F F F F H H J J J T T T T T 7.7.7.7.9.0.q.q.c.s.h.h.k.k.l.x.z.z.(.(.%X*X*X,XdXgXVXHXFXHXFXFXFXzXfX8X^.).).&X_.*X*X-X{.}.}.T.U.U.U.U.U.P.P.d.d.d.i.i.i.i.y.y.y.r.r.r.r.r.r.r.r.r.r.r.v.v.v.v.v.r.r.r.v.r.n.v.;.b b b ( ,.,.,.,.v.v.,.v.v.v.v.v.v.v.,.,.v.v.v.v.v.b.b.b.b.b.b.b.b.b.b.b.b.b.b.b.b.b.b.b.b.b.b.b.b.b.b.m.m.m.m.m.C.,.) ` ` ` ,.A.A.A.S.J.J.J.J.J.J.Q.W.W.W.W.W.W.oXoXoXoX0X0XrXrXrXrXeXeXrXeXeXuXkXsXVXHXFXFXFXFXHXFXFXFXHXBXsXkX8X&X#X<X#X/.].].[.rXwXrX0X0X0XoXoXW.W.W.W.W.W.W.W.J.J.Q.J.J.J.J.J.A.A.A.A.A.A.m.C.m.m.m.m.m.m.m.m.m.m.m.m.m.m.m.m.m.m.m.m.m.m.O.` / ( ,.b.b.b.b.b.b.b.v.b.b.b.v.v.v.v.v.v.v.v.v.v.n.n.n.n.n.n.n.n.n.n.n.n.n.n.n.n.n.n.n.n.n.n.n.n.n.n.n.n.M.M.M.M.*.=.=.*.F.P.P.U.U.U.U.U.T.}.}.-X}.}.=X=X=X=X1X3X3X3X3X3XpXfXbXHXFXFXFXFXJXVXdXdX).^.).).(.%X*X(.(.x.l.k.h.h.h.c.q.q.P Z Z Z 9.7.7.T T T T T T T T J J J H H R H H R H H F V E E E V E V V V V V V V V E V V V V B B B B B B B d d d d B 5 + + O r f y y y y y ",
"y y y y y y y y y y p p u u u u s s p d s s p M B B M B M B B V V N M 6 6 6 6 s V V V V V V F F F F F F F H H J J T T T T T T 7.7.7.7.9.0.q.q.q.c.h.h.k.k.l.x.z.(.(.(.*X*X*X3XfXfXDXHXFXFXFXFXDXlXfX8X^.).%X&X_.*X*X-X{.}.}.T.T.U.U.U.U.P.P.d.d.d.i.i.i.y.y.y.y.y.y.r.r.r.r.r.r.r.r.r.r.v.v.v.v.r.r.v.v.n.n.v.;.b b b ^ ,.,.,.,.v.v.,.v.v.v.v.v.v.,.,.,.v.v.v.v.b.b.b.b.b.b.b.b.b.b.b.b.b.b.b.b.b.b.b.b.b.b.<.<.<.m.m.m.m.m.m.m.C.,.) ` ` ` 1.S.A.S.A.A.A.K.J.J.J.J.Q.W.W.W.W.W.W.@X@XoXoX0XrXrXrXrXrXrXrXrXrXeXaXfXlXFXFXFXFXFXFXFXHXFXFXlXdXaX_.*X#X,X|.].].].[.rXrX0X0XoX0XoXoXW.W.W.W.W.W.W.Q.J.Q.J.J.J.J.J.S.A.A.A.A.A.A.m.C.m.m.m.m.m.m.m.C.m.m.m.m.m.m.m.m.m.m.m.m.m.m.O.` ) / ,.b.b.v.b.v.b.b.m.v.b.b.b.v.v.v.v.v.v.v.v.v.v.v.v.n.n.n.n.n.n.n.n.n.n.n.n.n.n.n.n.n.n.n.n.n.n.n.n.n.n.M.n.M.*.[ =.*.F.P.P.U.U.U.U.U.T.}.}.}.}.=X=X=X=X=X1X3X3X3X3X3XiXkXzXFXHXFXFXFXHXDXfXfX_.^.).`.).%X(.{.(.x.k.k.k.h.h.c.q.q.P Z Z Z 9.7.7.W 4.T T T T T T J J J H H H H H R R H F V E E E E E V V V V V V V V E V V V V B B B B B B B d d d d B 3 + @ O r f y y y y y ",
"y y y y y y y y y y p u u u u u s s p s s s M B d d B B M M B B B V 0 6 6 1 6 M V V V F F F F F F F F F F H H J J T T T T T W 7.7.7.7.9.0.0.q.q.c.h.h.k.k.l.x.(.(.(.(.*X*X*X4XfXlXDXFXFXFXFXHXDXdXfX<X^.).%X_.*X*X-X-X}.{.T.T.T.U.U.U.j.P.P.d.d.i.i.i.M.i.y.y.y.y.r.r.r.r.r.r.r.r.r.r.r.r.v.v.v.r.v.v.v.n.v.v.O.b v b ( ,.v.v.v.,.v.v.v.v.v.v.v.v.v.v.v.v.v.v.v.b.v.v.b.b.b.b.b.b.b.b.b.b.b.b.b.b.b.b.b.b.b.<.<.<.m.m.m.m.m.m.<.C.,.) ) ` ` 1.S.A.A.A.A.A.A.K.J.J.J.J.Q.W.W.W.W.W.@XoXoXoX0X0XrXrXrXrXrXrXrXtXrXeXfXsXmXHXFXHXFXFXFXFXJXmXsXdX#X_.#X#X,X X].].[.[.0X0X+XoX0XoX@XW.W.W.W.W.W.W.Q.J.Q.J.J.K.J.S.A.A.A.A.A.A.C.C.m.C.C.m.m.m.m.m.m.C.m.m.m.m.m.m.m.m.m.m.m.m.m.m.O.` ) ( v.b.b.b.b.v.v.b.b.b.v.b.v.b.v.v.v.v.v.v.v.v.v.v.m.n.n.n.n.v.v.v.v.n.n.n.n.n.n.n.n.n.n.n.n.n.n.n.n.M.M.n.M.M.*.^ { *.F.F.P.P.U.U.U.U.U.R.}.}.}.}.=X=X=X=X,X,X3X3X3X3XiXfXlXDXHXFXHXHXFXDXlXfX#X^.).).(.(.(.(.(.x.l.k.k.h.h.s.c.q.P Z z Z 9.7.7.W T T T T T T J H H J J H R H H R R H H E E E E E E E V V V V V V V V E V V V V B B B d B B B d d d B < + + O r f y y y y y ",
"y y y y y y y y y y p u u s u u s p p s s s M B B B B B M M B B V V 9 6 6 1 1 M V V F F F F H F F F F F H H H J J T T T J J W 7.7.7.7.0.0.0.q.c.h.h.h.k.k.l.x.(.(.(.(.*X*X%XeXfXlXFXFXFXFXFXHXAXdXdX&X^.).&X_.|.*X-X-X}.{.T.T.T.U.U.U.l.P.P.d.d.M.M.i.y.i.y.y.y.r.r.r.r.r.r.r.r.r.r.r.r.v.v.v.v.r.v.n.n.v.v.v.;.b b b ( v.v.v.v.,.v.v.v.v.v.v.,.v.v.v.v.v.v.v.,.v.v.b.b.b.b.b.b.b.b.b.b.b.b.b.b.b.b.b.b.m.m.<.<.<.b.m.m.m.m.m.m.m.%.) ` ` ) 1.S.A.A.A.A.A.K.K.K.J.J.J.W.W.W.W.W.W.W.@XoXoX0X0X0XrXrXrXrXrXrXrXrXrXuXkXdXAXHXFXFXFXFXHXAXdXkXyX'.|.#X X,X.X].].H.L.0X0X+XoXoX@X@XW.W.W.W.W.W.J.J.Q.J.J.J.A.K.S.A.A.A.A.A.C.C.m.C.C.m.m.m.m.m.m.m.C.m.m.m.m.m.m.m.m.m.m.m.b.m.m.O.` ` / v.b.b.b.b.v.b.b.m.b.b.v.v.b.b.v.v.v.b.v.v.v.v.v.v.v.n.v.v.n.v.n.n.v.v.n.n.n.n.n.n.n.n.n.y.n.y.n.n.n.n.n.M.M.{ ^ [ *.F.F.P.P.P.U.U.U.U.R.}.}.}.-X=X=X=X=X,X,X3X3X3X3X6XdXfXAXHXFXFXHXFXFXzXfX<X^.).`.).(.(.(.(.x.l.k.k.h.h.c.q.q.P Z Z Z 7.7.7.W T T T T T T T H H J J H H H H Y R H H F V E E E E E V V V V V V V V V V V V V B B B d B B B d d d d 4 + % O r f y y y y y ",
"y y y y y y y y y p u s s s s s s p s s s s M B B B B B B B B V V M 1 6 6 6 1 M V F F F F F F F F F F H H H H H J T T T J W W 7.7.7.7.9.0.q.q.c.h.h.h.k.k.l.x.(.(.{.(.*X*X%XyXfXbXFXFXFXFXFXJXVXdXhX&X).)._._.|.-X=X-X}.{.T.T.U.U.U.P.P.P.P.j.d.F.i.i.y.i.y.n.y.r.r.r.r.r.r.r.r.r.r.r.r.v.v.v.v.v.n.n.n.v.v.v.o.L b b ^ v.v.v.v.v.v.v.v.v.v.,.,.v.v.v.v.v.b.v.v.b.b.b.b.b.b.b.b.b.<.1.b.b.b.b.b.<.<.b.b.m.<.b.m.m.m.m.m.m.m.m.m.C.,.` X.X.) <.S.C.A.A.A.A.S.A.S.K.K.J.K.K.K.W.W.W.W.W.@X@X0X0X0X0XrXrXrXrXrXrXrXrXrXhXdXbXJXFXFXFXFXJXbXgXaX'._.|.|. XOX[.].].L.H.0X0X0X0X@X@X@XW.W.W.W.W.K.J.J.K.J.J.J.J.S.S.A.A.A.A.A.C.C.C.C.C.C.C.m.m.m.m.m.m.m.m.m.m.m.m.m.m.m.m.m.m.m.m.O.` ` ( ,.m.v.b.b.b.v.b.b.b.b.v.v.b.b.b.v.v.v.v.v.v.v.v.v.v.n.v.v.n.v.n.n.v.n.n.n.n.n.n.n.n.n.n.y.y.n.n.n.n.n.n.M.n.[ [ [ *.F.F.F.P.P.U.U.U.U.Y.}.}.}.}.}.=X=X=X=X,X3X3X<X3X6XdXdXVXJXFXFXHXFXHXbXfX8X^.^.`.`.(.(.(.(.(.l.k.k.h.h.s.c.q.P Z Z Z 7.7.7.7.W T T T T T T H H J J H H H H Y R H H F F V V E E E V V V V V V V V V V V V V B B V B B B B d d d d 4 + % + 5 f y y y y y ",
"y y y y y y y y y p u s s s p s d p s s M s m B B M M M s M M M M 9 6 1 6 1 1 0 V F F F C H F F F F H H H H J J T T T T W 7.7.7.7.7.7.w.0.q.q.s.h.h.k.k.l.x.(.(.{.*X{.*X*X%XuXgXbXHXFXFXFXFXJXBXgXaX).)._.%X%X*X-X=X=X}.{.{.T.T.T.U.U.P.P.P.P.F.M.M.i.i.M.M.M.n.n.r.r.n.n.n.n.n.r.r.v.n.v.v.v.v.v.n.n.v.n.n.n...b b v ^ ,.v.,.v.v.v.v.v.v.v.v.,.v.v.v.v.b.1.v.v.b.b.b.b.b.b.b.b.1.1.1.b.b.b.<.b.<.<.b.b.m.m.m.m.m.m.m.m.V.m.m.V.C.X.` X.X.` #.C.A.A.A.A.A.S.K.K.K.K.J.K.K.K.W.W.W.W.W.@X@XoX0X0X0X0XrXrXrXrXrXrXrXrXyXkXsXNXJXJXHXJXNXsXkX,X`.|.|.|. X;XXXH.H.H.H.@X0XoX@X@XW.W.W.W.W.W.W.K.J.J.K.J.K.K.K.S.A.A.A.A.A.A.A.A.C.C.C.C.C.C.C.C.C.C.C.m.C.C.C.m.m.m.m.m.m.m.m.b.,.X.X.` ( ) v.m.b.m.b.m.b.b.b.b.b.m.b.m.m.m.b.b.b.v.m.v.v.v.v.v.n.v.n.n.v.v.v.n.v.v.v.n.n.n.n.n.n.v.n.n.n.n.n.n.n.n.;.^ ^ [ [ M.F.F.I.I.Y.Y.U.U.Y.{.}.}.}.}.=X=X;X,X3X3X3X3X3X3XhXdXBXJXFXFXFXFXJXbXfXyX^.^.`.`.(.(.{.(.(.x.l.k.h.h.s.q.0.I Z Z Z W 7.7.7.7.7.T T T T T T T T J T J Y H Y Y Y H H F V F E E E V V V V V V V V V V V V B B B B d B B B B d p d , + % + 5 y 5 r r r e ",
"* % % * * * 4 4 4 4 4 < < < < < < 6 6 6 6 6 6 < < 6 6 6 6 6 6 6 6 6 6 6 6 1 1 1 7 0 0 0 8 8 8 0 0 0 0 0 0 j l l l l l l z z z Z Z Z K K P P P P Q Q 0.a.a.a.a.g.g.g.k.`./.`.uXgXbXJXFXFXFXFXJXNXgXaX~.^.^.~.`.`./.l.l.f.f.f.s.s.f.t.t.w.>.*.-.*.*.*.*.*.{ { { { { { { { { { { { { { { { { { { { { { { { ` { / / v v v ( / / / / ) ) ) ) ........` ` ) ) ` ` ` ` ` ` ` ` ` ` ..` ` ` ` ` ` ` ` ` X.X.X.X.X.X.` X.` ` X.X.X.' ` X.X.` ) ' #.X.X.#.,.,.,.,.,.,.1.,.,.1.1.1.1.m.m.m.m.N.N.G.L.L.L.L.L.@X@X@X@X@X@XoXoXoX@XuXkXgXbXNXNXbXgXkXjXa././.].]..X$XH.L.W.H.H.H.G.G.m.m.3.3.1.1.1.1.1.1.1.1.1.,.,.,.,.;.;.O.O.O.X.X.X.X.X.X.X.X.X.X.X.X.X.` X.` ' ' X.X.' ` ` ` ` X.` ` ) ) X.` / ( / ..X.X.X.X.X.X.X.X.........` ` ................` ....{ / ` ` ` ` ` { { { { { ` ` ` ` ` { { { { { { { { { [ { =.=.*.*.>.t.t.t.t.u.f.f.f.f.f.f.l.l./././.(._.|.#X#X|.aXdXNXJXFXFXFXFXJXbXfXyX~ ~.~.a.a.k.g.g.a.a.a.a.0.Q P P I Z Z Z z z z l l l l l l l l l 0 0 l 0 0 0 0 0 0 0 0 0 9 7 9 7 9 9 7 9 9 1 1 1 1 1 1 1 6 6 6 6 6 < < < < < < < < < < % % % % + + + + O O O ",
"$ % % $ % $ % % + % * + * % + + * < = @ % < < 6 6 1 1 1 1 1 1 1 1 1 1 6 6 1 7 7 7 7 7 7 7 7 7 7 7 7 8 8 8 8 8 8 8 8 w g l l g l l z Z Z Z I I P P P P Q w.w.a.a.a.g.g.g.k.g.uXgXbXJXFXFXFXFXJXmXgXuX~ ^.^.~.~.~.f.f.f.s.a.a.t.=.=.=.=.=.=.=.=.=.[ [ [ ^  .^ ^ ^ ^ ^ ^ ^ ^ ^ ^ ^ ^ ^ ^ ( ^ ( ^ ^ ^ ^ ^ ^ / / ( / b v ^ ^ ^ ^ / ( / / / / ( ( ( ( ( ( / / / / / / ) / / ) ) ) ) ) ) ) ) ) ) ) ) ` ) ) ) ) ) ) ) ) ) ) ) ) ) ) ) ) ) ) ) ) ) ` ` ' _ ` ' ' ' ' X.;.,.,.,.,.1.1.1.1.;.1.1.3.3.3.H.H.H.L.L.L.L.L.L.L.L.L.L.L.uXkXgXsXsXgXkXjXa.a.a.a.f.f.f.H.H.@XW.G.G.H.H.3.1.1.1.1.1.1.1.,.;.;.;.;.;.' ` ' ' ` ` ` ` ) ) ) _ _ ) _ ) ) ) ) ) ) ) ) ) ) ) ) ) ) ) ) ) ) ) ) ) ) ) / / ( ( / / / / / ( ( ( / / / / ( / / / / / / ( / ( ( ( ( ( ( ( ( / ^ ( ( ^ ^ ^ ^ ^ ( ( ^ ^ ^ ^ ^ ^ ^ ^ ^ ^ ^ ^ ^ { [ [ { { [ *.=.=.=.=.=.=.>.>.t.a.a.a.f.f.k.k.`.`.`.`._._._.aXdXmXJXFXHXFXFXJXbXfXyX! ~ ! ! a.a.a.a.Q Q P P P P I I I I Z Z z l l w w w 8 8 8 8 8 7 7 7 7 7 7 7 7 7 7 7 1 1 1 ; 6 6 1 1 6 - 6 6 6 - - - 6 < < < < = , < < , < = % * % % + @ + % % + + % + + + + ",
"4 4 4 4 4 % * * % % % 4 3 5 3 3 3 3 3 3 5 9 9 9 9 9 9 0 0 0 0 0 0 0 0 0 0 0 0 0 0 0 0 0 j j j l M M l l j l l l l l l z N N N Z Z N Z Z Z P P P Q w.0.a.a.a.g.g.g.g.k.`.`.`.uXgXmXJXFXFXFXFXJXmXgXuX~ ^.^.~.~.`.`.k.f.f.s.s.a.t.>.w.w.=.*.=.*.*.=.=.[  .^ ^ ^ ( { ^ {  .{ { ^ { ( ( ( (  .( ( { {  ./ / / / { / ( ( ( ( / / ` ` ) ) ) ) ` ` ) ) ) ) ) ) / ) ) ` ` ` ` ` ` X.X.X.' ' X.X.X.X.X.X.X.X.X.X.X.X.X.X.X.X.X.X.X.X.X.X.X.X.X.X.` ` ` X.X.X.#.,.,.,.,.,.1.1.1.,.1.1.1.1.3.m.m.m.3.H.H.H.H.H.H.H.L.L.W.@X@XW.L.L.L.qXaXaXaXaXqXa.a.f.f.f.f.H.H.H.L.@XW.L.G.H.H.3.3.1.1.1.1.1.,.,.,.;.;.;.X.X.X.' ` ` ` ` ` ` ) ) ) _ _ ) ) ) ) ) ) ) ) ] ) ) ) ) ) ) ) ) ) ` ) ) ) ) ` ) ) ) ` ) ) ) ) ) / / / ( ( ( ( ( ( ( ( ( ( ( ( ( / ^ ( ( ^ ( ( ( ( ( / ( ( ` ` ` ` ` ` { { { ..{ ....{ { ....{ o.*.*.*.*.=.*.=.*.=.*.*.>.>.>.t.t.a.s.f.f.k.k././.`./._._._.).aXfXmXJXFXFXFXFXJXmXfXuX! ~ ~ ! a.a.a.a.a.a.Q Q Q P P I I I Z Z Z z z l l l l l w w 8 8 8 8 8 7 7 7 7 7 7 7 7 7 7 7 1 1 1 1 6 1 - 6 - - 6 6 < < < < - < , < < < < < % % % % + + + + % % % % O O O O ",
"* * % % % @ * % * % % 6 6 6 6 6 6 6 6 6 1 1 6 6 6 1 1 1 1 q 9 9 q 9 9 9 9 9 9 0 0 0 0 0 0 0 0 0 0 0 0 j j j l l j l l z z N N N K Z Z Z Z P P P P Q 0.a.a.a.a.g.g.k.`.`.`.`.uXgXmXJXFXFXFXFXJXmXfXuX~ ^.^.~.~.`.`.k.f.f.s.f.a.t.t.=.=.=.=.=.*.[ { [ {  . .^ ^ { { { ....{ { { { ..............O.O.O.....O.O.O.O...O.O.....O.O.O.X.O.O.O.X.X.X.O.O.O.O.O.O.X.X.O.O.O.O.O.X.X.X.X.X.#.#.%.#.#.%.#.#.#.#.#.#.#.#.#.%.%.%.%.%.%.%.#.#.%.%.%.%.%.%.,.,.,.<.<.<.<.<.1.1.1.1.1.1.1.b.m.m.m.N.A.A.J.G.3.H.H.H.L.@X@X@X@XW.@X@X@X@XL.W.@X@XW.L.@X[.H.H.H.H.L.L.L.W.L.L.L.L.J.A.m.m.m.m.3.1.1.1.1.<.,.1.,.,.,.,.%.#.#.#.O.X.) ) ) ] ] ) ` X.X.#.#.#.#.%.#.#.#.#.#.#.#.#.#.#.#.X.X.X.#.#.#.#.#.#.#.%.#.#.#.#.#.%.O.O.O.X.O.X.X.X.X.X.X.X.X.O.O.......O.../ { o.;.;.;.;.;.;.;.;.;.;.O.o.o.o.o.-.-.-.;.;.;.;.;.;.r.r.;.t.t.r.y.y.y.f.d.d.d.d.j.j.U.U.].{.{.|.|.|.*X,X<X*XuXfXmXJXFXFXFXFXJXmXdXuX~ ~ ~.a.g.k.k.g.a.a.a.a.Q Q P P P P P I K Z Z N N z z z M l l l l 0 l 0 0 0 0 0 0 0 0 0 0 0 7 1 1 1 1 1 9 9 9 9 9 q q 7 1 1 1 1 5 3 6 6 6 6 < 6 3 4 < < 4 4 4 4 4 4 , * , 4 ",
"5 r 5 5 4 % % * < % , 2 6 3 5 1 5 5 q 9 q 9 9 9 9 q 9 9 9 0 0 9 0 0 0 0 0 0 0 j j j M M M M N N N N N N N N N N V V A G G G K A Z Z Z I I P P 0.c.s.k.k.k.x.x.(.(.(.(._.|._.aXgXmXJXFXFXFXFXJXbXfXyX^.^.^.`.`.`.`.k.k.k.f.f.f.s.f.u.t.t.t.t.-.*.*.{ { D  .[ ^ ..o.....O.O...o.O.O.O.....O.O.O.O.O.O.O.O.O.O.O.O.O.O.O.O.O.O.O.O.O.O.O.O.O.O.O.%.%.%.%.%.%.%.%.%.%.%.%.%.#.X.) ) ` %.%.%.%.%.%.%.%.%.%.%.%.%.%.%.%.%.%.%.%.%.%.%.,.<.,.,.%.<.<.<.<.<.<.<.<.<.<.1.1.1.1.<.<.<.<.m.m.m.C.A.J.J.m.3.3.3.3.L.L.L.W.W.W.W.W.@XW.W.W.W.W.W.W.W.W.W.L.L.I.L.L.L.L.L.J.J.J.J.A.A.A.A.m.m.m.1.1.1.1.1.<.<.<.<.<.<.<.,.,.%.%.` ] ] ) ] ` %.<.<.b.<.<.<.<.<.%.%.%.%.%.%.%.%.<.%.,.<.<.<.<.<.<.<.b.b.v.v.,.b.,.,.v.v.v.v.v.v.v.v.v.v.v.v.v.,.,.O.O.O.O.O.O.( ;.m.m.n.n.n.n.v.v.v.n.n.n.n.r.y.v.n.n.n.n.n.n.n.n.M.M.M.F.M.M.M.F.P.F.P.U.U.U.Y.U.}.}.}.=X=X=X;X=X1X3X3X3X<XuXdXmXJXFXFXFXFXJXmXdXuX~.^.^.`.(.(.(.(.l.l.k.h.s.c.q.q.0.9.7.7.7.W P T J J J J H H H F F F F A F F V V V N N N N V V 6 = 1 7 N V V V V B V B B B B B B B B m m d s d u d u u s u u y u u y i y y y ",
"y y y y y 3 % < < < 4 3 y u y u u u u u u u u u u u n n M M M M M n n n n M M M N N N N N N N N N N N A A A A A H A A H D D H H Z Z Z Z Z P q.h.h.k.l.l.x.z.(.(.(.|.*X*X=X*XaXgXNXJXFXFXFXFXJXbXfXyX^.&X_.%X|.|.|.{.{.{.}.{.U.U.U.P.P.P.F.F.F.M.y.*.{ D v ^ v { o.r.r.v.v.v.r.v.v.v.r.r.n.v.v.v.v.v.,.,.;.,.,.v.,.,.,.,.v.v.,.,.,.,.v.v.v.v.v.b.b.b.b.m.m.m.m.m.m.b.,.#.%.X.) ) ` %.%.%.%.#.%.%.%.%.%.%.%.%.%.%.%.%.%.%.%.%.%.%.%.,.,.<.<.<.<.<.<.<.<.<.<.<.<.<.<.m.m.A.C.A.A.K.A.K.K.A.A.A.L.1.1.n.3.J.L.W.oX0X0X0X0X0X0X0X0X0XoXoX0XoXoXoX@XoX0XoX@X@X@X@XW.W.W.W.W.W.W.W.W.K.K.K.A.A.A.A.S.S.S.K.K.S.S.K.A.m.%.#.) ] ) ) 1.C.S.S.S.A.A.C.C.A.C.C.C.C.C.A.A.A.C.A.A.A.A.A.A.N.C.C.A.A.A.A.A.m.N.N.N.N.N.m.m.m.m.m.m.m.m.m.N.N.N.v.X.O.O.O.O.` ;.N.v.n.n.v.v.v.v.n.n.n.n.n.n.n.n.n.n.n.n.n.y.n.n.n.M.M.M.M.M.M.F.F.P.P.P.U.U.U.U.{.}.}.}.-X=X=X=X,X1X3X3X3XpXdXbXJXFXFXFXFXJXNXdXuX^.^.^.`.(.(.(.(.(.l.x.k.h.h.s.c.q.0.9.7.7.7.7.7.W J J J J J J J H H H H H H F F F F V F F V F 0 = - 9 V V V B B B B M M M M M d M s s s s s s u u u s y y u y y y y i y y y ",
"y y y y y 5 % < < < < 9 y y y 0 y 0 0 u u u 0 0 u u u 0 s n u M n n M M n n M n M M M N N N N N N N N A A A A A A A A G G D H J K Z K Z Z 7.s.c.s.h.k.k.l.x.(.(.{.{.|.*X*X*XaXgXNXJXFXFXFXFXJXbXgXyX^.)._._.*X|.=X}.}.}.}.{.U.U.U.P.P.P.F.d.M.i.M.y.{ D ^ v v ..r.n.r.v.v.v.r.r.v.n.n.n.n.v.v.v.v.n.n.n.n.n.n.n.v.v.v.b.m.m.m.m.m.m.m.m.m.m.m.m.b.b.m.m.m.m.b.m.m.C.C.,.%.X.) ` ) #.#.#.%.,.<.b.<.<.b.<.b.b.<.<.<.<.<.<.<.<.V.V.C.C.A.A.S.A.A.C.A.A.A.A.S.S.S.S.K.K.K.K.K.K.K.K.K.W.W.W.K.A.J.3.1.3.3.m.@X0X0X0X0X0X0X0X0X0X0X0X0X0X0X0X0X0X0X0X0X0X0X0X0X0X0X0X0XW.W.W.W.W.W.W.W.W.W.W.K.K.K.J.J.K.K.K.K.S.S.K.V.#.) ) ] X.S.S.A.S.A.S.C.C.C.C.A.A.A.A.A.A.A.A.A.A.A.A.A.A.m.m.m.m.m.m.m.m.m.m.m.m.m.m.m.m.N.N.m.m.m.N.N.N.N.N.N.N.v.O.O.O.O.) ;.m.v.n.n.n.n.v.n.n.n.n.n.n.n.n.n.n.n.n.n.y.y.y.n.n.M.M.M.F.F.M.F.F.P.F.P.U.U.U.Y.].}.}.}.-X=X=X=X,X3X<X5X<XpXfXbXJXFXFXFXFXJXNXfXuX^.^.^.`.`.(.(.(.(.l.k.k.h.s.c.q.q.0.7.7.7.7.7.7.W J J J J J H H H H H H H H F F F V V V F V N 0 6 - 1 V N B B B B B B B M M B B M s s d s s s u u u s y u u y y y y i y y y ",
"y y y y y y * < < 4 6 9 y y y 9 9 0 u u u u 0 0 u n u 0 0 n n n n n M M n n M M M N M N N N N N N N N A A A A A A A H G D D H J G Z Z Z K 9.c.h.s.h.k.l.l.x.(.(.{.{.*X*X*X*XaXsXNXJXFXFXFXFXJXbXgXyX^.)._._.|.|.=X X}.{.}.{.U.U.U.P.P.F.F.d.F.M.i.M.-.^ v v v o.y.r.n.v.v.v.v.v.v.n.n.n.n.v.v.v.v.v.v.v.v.v.v.v.v.v.v.b.b.b.m.m.m.m.m.m.m.m.b.b.m.b.m.m.m.m.m.m.m.m.C.b.%.X.) ) ) #.%.,.m.A.C.A.C.C.C.C.C.C.C.C.C.C.C.C.A.A.A.C.A.S.A.C.S.S.S.C.A.S.A.A.S.S.S.S.S.K.K.K.K.K.K.K.K.K.K.W.W.W.K.m.1.1.1.A.0X0X0X0X0X0X0X0X0X0X0X0X0X0X0X0X0X0X0X0X0X0X0X0X0X0X0X0XW.W.W.W.W.W.W.K.Q.K.K.K.K.K.J.J.K.K.K.S.K.S.S.S.A.%.) ] ] X.S.A.S.S.A.S.S.S.C.A.A.A.A.A.A.A.A.A.A.A.A.A.A.A.A.m.A.A.m.m.m.m.m.A.m.m.m.m.m.m.m.N.m.m.N.N.N.N.N.m.N.m.b.O.O.O.O./ ;.m.b.n.n.n.n.v.n.n.v.n.n.n.n.n.n.n.n.n.n.n.y.n.n.M.M.M.M.M.M.M.F.F.F.P.P.U.U.U.U.Y.}.}.}.-X=X=X=X,X3X3X3X<XpXgXbXJXFXFXFXFXJXNXdXuX~.^.^.`.`.(.(.(.x.l.k.k.h.s.c.q.q.0.w.7.7.7.7.7.T J J J J H H H H H H H H H H H F F F V V V V l 1 = - N B V B B B B M M M M B B M s s d s s s u u u f y y u y y y y i y y y ",
"y y y y y y + , < 4 6 y y y y 9 y 9 u u u u u 0 u u u u n n n n n j M M n M M M M N N N N N N N N N N A A A A A A A A G D H H J G Z Z Z K q.c.s.s.h.k.l.l.x.(.(.{.{.*X*X*X*XaXgXNXJXFXFXFXFXHXbXfXyX^.)._._.*X|.=X-X}.}.}.{.U.U.U.P.P.F.F.F.F.i.i.M.r.^ v v v ;.y.r.v.v.v.v.v.v.n.n.r.n.n.n.v.n.n.n.n.n.v.v.v.v.v.v.m.v.v.m.m.m.m.m.m.m.m.m.m.b.b.b.m.m.m.m.m.m.m.m.m.m.,.X.) ) ) #.%.b.C.C.C.C.C.C.C.C.C.C.C.C.C.C.C.C.C.C.C.C.C.C.A.A.S.S.A.S.A.A.A.A.Z.A.Z.Z.S.S.K.K.K.K.K.J.K.K.K.K.W.W.K.m.1.1.1.N.0X0X0X0X0X0X0X0X0X0X0X0X0X0X0X0X0X0X0X0X0X0X0X0X0X0X!.0XW.W.W.W.W.W.W.W.K.K.K.K.K.J.J.J.K.K.K.K.K.K.S.S.A.%.) ) ) #.S.S.S.S.A.A.S.S.C.C.C.C.A.A.A.A.A.A.A.A.A.A.A.A.m.m.N.m.m.m.A.A.m.m.m.m.m.m.N.m.m.N.N.N.N.N.N.N.N.N.N.N.m.;.O.O.O./ ;.m.n.n.m.m.n.n.n.v.v.n.n.n.n.n.n.n.n.n.n.n.y.n.n.n.M.M.M.M.F.M.F.F.F.P.U.U.U.U.U.T.}.}.}. X=X=X=X,X1X3X3X<XpXdXbXJXFXFXFXFXJXNXdXuX^.^.^.`.(.(.(.x.x.l.k.k.h.s.c.q.q.0.w.7.7.7.7.W T J J J J J J H H H H H H H F F F F F V V V V 0 9 - - M V B B M M M B B M M B B d s s s s s s u u f u u y u u y y y y y y y ",
"y y y y y y % % < 4 6 y y y y 9 y y u u u u u 0 u u u u n n u n n j M M n M M M M M N N N N N N N N N A A A A A A A A G D H H J J Z Z Z P q.q.s.s.h.k.l.l.x.(.(.{.{.*X*X*X*XaXgXNXJXFXFXFXFXJXbXgXyX^.)._._.|.|.=X-X}.}.}.{.U.U.U.U.P.P.F.F.F.i.y.M.r.^ v v v ;.n.r.v.v.v.v.v.v.n.n.n.n.n.v.v.n.n.n.n.n.v.v.v.v.v.v.v.v.v.m.m.n.m.m.m.m.m.m.b.b.b.b.m.m.m.m.m.m.m.m.m.m.<.X.) ) ` #.%.m.C.C.C.C.C.C.C.C.C.C.C.C.C.C.C.C.C.C.A.C.C.C.C.A.S.S.S.A.A.A.A.A.Z.S.Z.Z.S.S.K.K.K.K.K.K.K.K.K.K.K.W.J.2.1.1.1.m.0X0X0X0X0X0X0X0X0X0X0X0X0X0X0X0X0X0X0X0X0X0X0X0X0X0X!.!.W.W.W.W.W.W.W.K.K.K.K.K.J.K.J.K.K.K.K.J.J.J.S.S.A.%.) ) ) ,.S.S.S.S.S.S.A.S.A.C.C.C.A.A.A.A.A.A.A.A.A.A.A.A.A.m.A.m.m.m.A.A.A.m.m.m.m.m.m.m.m.N.m.N.N.N.N.N.N.N.N.N.m.O.O.O.O.( ;.m.n.n.n.n.n.n.v.v.v.n.n.n.n.n.n.n.n.n.n.n.y.n.n.n.M.M.M.M.M.M.F.F.F.P.U.U.U.U.U.T.}.}.}.-X=X=X=X3X1X3X3X<XpXdXbXJXFXFXFXFXJXNXgXuX^.^.^.`.(.(.(.(.x.k.k.h.h.s.c.q.q.0.w.7.7.7.7.4.T J J J J J H H H H H H H H F F F F V V V V V 0 9 - - N N V B B B B B B M M B B d s s s s s s u u u u u y u u y y y y i y y ",
"y y y y y y * * < 4 6 y y y y u y y u u u u u 0 u u u u n n n m n n M M n M M M M M M z N N N N N N N A A A A A A A G G D H H J J z Z Z P q.q.c.s.h.k.l.l.z.(.{.{.{.*X*X*X*XaXsXmXJXFXFXFXFXJXbXgXuX^.&X_.%X|.*X=X-X}.}.}.{.U.U.U.U.P.P.d.F.F.i.i.M.r.^ v v ^ ;.n.v.v.r.v.v.v.v.n.n.n.n.n.v.v.n.n.n.n.n.v.v.n.v.v.n.b.b.v.m.v.n.m.m.m.m.m.N.b.b.b.m.m.m.m.m.m.m.m.m.m.m.<.X.) ) ` #.,.m.C.C.C.C.C.C.C.C.C.C.C.C.C.A.C.C.A.A.C.C.C.C.C.C.A.A.A.A.A.A.A.A.A.S.A.A.S.S.K.K.S.K.S.K.K.K.K.K.K.W.K.2.;.1.1.m.0X0X0X!.!.!.!.!.0X!.0X0X0X0X0X0X!.!.!.0X!.!.0X!.!.!.W.W.W.W.W.W.W.K.K.K.K.K.J.J.J.K.K.S.S.S.S.K.J.A.S.S.A.%.) ) ) ,.S.A.S.S.A.A.A.A.A.A.A.C.C.C.A.A.A.A.A.A.A.A.A.A.A.A.A.A.m.m.A.A.m.m.m.m.m.m.m.m.m.N.b.N.N.N.N.N.N.N.N.N.N.O.O.O.O./ ;.m.n.n.n.n.n.n.v.v.v.n.n.n.n.n.n.n.n.n.n.n.n.n.n.n.M.M.M.M.M.M.F.F.F.F.P.U.U.U.Y.R.}.}.}.=X=X=X=X3X1X1X3X3XpXdXbXJXFXFXFXFXHXmXdXuX^.^.^.`.(.(.(.(.l.k.k.h.h.s.s.q.q.w.w.7.7.7.7.4.T J J J J J J H H H H H H H H F F F V V V V V 0 0 - 6 V N V V B B B B B M M M B d s s s s s s u u u u u y u u y y y y i y y ",
"y y y y y y % * < 4 6 y y y y 9 y y u u u u 0 0 u u u u n n m m n j M M n M M M M M M z N N N N N N N A A A A A A A A G D H H J J Z K K P q.q.c.s.h.k.l.l.x.(.{.{.{.*X*X*X*XaXgXmXJXFXFXFXFXJXmXgXuX^.&X_._.|.*X=X-X}.}.}.{.U.U.U.P.F.P.d.F.F.i.M.M.r.^ v v ^ ;.n.v.v.v.v.v.v.v.n.n.n.n.n.v.v.n.n.n.n.v.v.v.n.n.v.v.b.b.m.m.v.m.n.m.m.m.m.b.b.b.b.m.m.m.m.m.m.m.m.m.m.m.<.X.) ) ` #.,.C.C.C.C.C.C.C.C.C.C.C.C.C.A.A.C.C.A.C.C.C.C.C.C.C.C.C.A.A.A.A.A.A.A.A.A.A.S.S.S.K.S.S.S.S.K.K.K.K.K.W.K.<.1.1.1.m.!.W.!.!.!.!.!.!.!.!.!.!.!.!.!.!.!.!.!.!.W.W.W.W.W.W.!.!.W.W.W.K.K.K.K.K.K.K.K.K.K.A.S.S.S.S.S.S.A.S.S.S.S.%.] ) ) ,.S.A.S.S.A.A.A.A.A.A.S.C.C.C.A.A.A.A.A.A.A.A.A.A.A.A.A.A.A.m.m.m.m.m.m.m.m.m.m.m.m.m.b.b.m.N.N.N.N.N.N.N.N.%.O.O.O.( ;.m.n.n.n.n.n.n.n.n.v.n.n.n.n.n.n.n.n.n.n.y.n.n.n.n.M.M.M.M.M.F.F.F.F.F.P.U.U.U.Y.}.}.}.}.}.=X=X=X,X1X3X3X3XpXdXmXJXFXFXFXFXJXmXfXuX^.^.^.`.(.(.(.(.x.l.k.h.h.s.s.q.q.0.w.7.7.7.7.4.T J J J J J H J H H H H H H H H F F V V V V V 0 0 - 6 V N V V B B B B M M M M B d s s s s s s u u u u u y u u y y y y y y y ",
"y y y y y y % * % * 6 y y y y u 0 0 u u u u u u u u u n j j n m n j M n n M M N N N N z N N N N N N A A A A A A A A G D H H J J D Z H K P q.q.s.s.h.k.l.l.x.(.(.{.{.*X*X-X*XpXgXmXHXFXFXFXFXJXmXgXuX^.&X_._.|.*X=X-X}.}.}.{.U.U.U.U.P.P.d.F.F.i.i.M.r.v v v ^ ;.n.v.v.v.n.v.v.n.n.n.n.n.n.v.n.v.n.n.v.v.v.n.n.n.v.b.b.b.m.m.m.m.n.m.m.m.m.b.b.b.m.m.m.m.m.m.m.m.m.m.m.m.<.X.) ) ` #.<.A.C.C.C.C.C.C.C.C.C.C.C.C.C.C.C.C.C.C.C.C.C.C.C.C.C.C.A.A.A.A.A.A.A.Z.A.A.A.S.S.S.S.S.K.K.K.K.K.K.K.K.K.<.,.,.,.1.!.W.W.W.!.!.!.!.W.W.W.W.!.!.!.!.!.!.!.!.W.W.W.W.W.!.W.W.W.W.W.K.K.K.K.K.K.K.J.K.A.A.S.A.S.S.S.S.S.S.S.S.S.%.] ] ] #.S.S.A.A.A.A.S.A.A.A.S.S.C.C.C.A.A.A.A.A.A.A.A.A.A.A.A.A.A.m.m.m.m.m.m.m.m.N.m.m.m.m.b.b.b.m.N.N.N.N.N.m.N.%.X.O.O.( ;.m.v.n.n.n.n.n.n.n.v.n.n.n.n.n.n.n.n.n.n.n.n.n.n.n.n.M.M.M.F.F.M.F.F.F.P.U.U.Y.Y.}.}.}.}.}.=X=X=X,X3X3X3X3XaXdXmXJXFXFXFXFXJXmXfXuX~.^.^.`.(.(.(.(.x.l.k.h.h.s.s.q.q.0.w.7.7.7.7.7.T T J J J J H H H H H H H H H H F F F F F F F 0 0 - 6 V V N V V B B B M M M M B d s s s s s s u u u s s f u u y y y y y y y ",
"y y y y y y % % % % 6 y y y y u 0 0 u u u u u u u u u n j j n n n j M n n M M N N N N N N N N N N N A A A A A A A A G G H H J J H Z K K P q.u.s.s.h.k.l.l.x.(.(.{.{.*X*X-X*XuXgXbXJXFXFXFXFXJXmXgXaX^.)._._.*X*X=X-X}.}.}.{.U.U.U.U.P.P.F.F.F.i.i.M.r.D v v ^ ;.n.v.v.v.v.v.v.n.n.n.n.n.n.v.n.n.n.n.v.v.v.v.n.n.b.b.b.b.m.m.m.m.m.m.b.b.b.b.b.b.m.m.m.m.m.m.m.m.m.m.m.m.<.X.) ) ` #.1.A.C.C.C.C.C.C.C.C.C.C.A.A.C.C.C.C.C.C.C.C.C.C.C.C.C.C.C.C.A.A.A.A.A.Z.A.A.A.A.S.S.S.S.S.K.K.K.K.K.K.K.K.<.;.;.X.1.!.W.W.W.!.!.!.!.!.!.!.!.!.!.!.!.!.!.!.!.W.W.!.!.W.W.W.W.W.W.W.K.K.K.K.K.K.K.K.K.A.A.A.S.S.S.S.S.S.S.S.S.S.%.] ] ] #.S.S.A.A.A.A.S.A.A.A.S.S.A.C.C.C.A.A.A.A.A.A.A.A.A.A.A.A.A.A.m.m.m.m.m.m.m.N.m.m.m.m.b.b.b.m.m.m.N.N.m.N.N.,.O.O.O.( ;.m.v.b.v.v.n.n.n.n.n.n.n.n.n.n.n.n.n.n.n.n.n.n.n.n.M.M.M.M.F.F.F.F.F.F.U.U.U.U.U.T.}.}.}.=X=X=X=X,X1X3X3X3XaXdXmXJXFXFXFXFXJXbXfXyX~ ^.^.^.(.(.(.(.x.l.k.h.h.s.s.q.q.0.w.7.7.7.7.7.T T J J J J J J H H H F H H F F F F F F F F V 0 0 - 1 V V N V V B B B M M M M B B s s s s s s u u u s s u u u y y y y y y y ",
"y y y y y y % % < % 6 y y y y 0 0 0 u u u u 0 u u u u n j j n n n M M M n M M N N N N N N N N N N N A A A A A A A A G G H H J J H Z K K P q.q.c.s.h.k.l.l.x.(.(.{.{.*X*X-X*XuXgXbXHXFXFXFXFXHXNXdXaX).)._._.*X*X=X-X}.}.{.{.U.U.U.P.P.P.F.F.F.i.i.M.r.D v v ^ ;.n.n.v.v.v.v.n.n.n.v.n.n.n.v.n.v.n.n.v.v.v.v.v.v.b.b.b.b.m.m.m.m.m.m.b.m.b.b.b.b.m.m.m.m.m.m.m.m.m.m.m.C.<.X.) ) ` #.b.A.C.C.C.C.C.C.C.C.A.C.C.A.C.C.C.C.C.C.C.C.C.C.C.C.C.C.C.C.C.A.A.A.A.Z.Z.A.A.S.A.S.S.S.S.S.S.K.K.K.K.K.S.<.X.;.' <.W.W.W.W.W.W.W.W.W.W.W.W.W.W.W.W.W.W.W.W.W.W.W.W.W.W.W.K.W.W.K.K.K.K.K.K.K.K.K.K.S.A.A.S.S.S.S.S.S.S.S.S.S.%.] ] ] X.S.A.A.A.S.S.S.S.A.A.S.S.S.S.C.C.C.C.A.A.A.A.A.A.A.A.A.A.A.A.A.A.A.A.A.A.A.m.m.m.m.m.m.N.b.N.b.m.m.m.n.n.N.,.O.O.O./ ;.m.v.v.v.v.n.n.v.n.v.n.n.n.n.n.n.n.n.n.y.n.n.n.n.n.M.M.M.M.F.F.F.F.F.F.U.U.U.U.U.T.}.}.}.=X=X=X=X,X1X3X3X3XhXdXNXHXFXFXFXFXJXbXfXyX~ ^.^.`.(.(.(.(.x.l.k.h.h.s.s.q.q.0.w.7.7.7.7.7.T T J J J J J J H H H H H H F F F F F F F F V 0 9 - 1 V V N V B M B B M M M M B B d s s s s s s u u s u s u u y y y y y y y ",
"y y y y y y % , 4 % 6 y y y y 0 0 0 u u u u 0 0 u u u n j j n n n M M M n M M N N N N N N N N N N N A A A A A A A A A A H H J J D Z K K P q.q.s.s.h.k.l.l.x.(.(.{.{.*X*X=X*XuXgXbXHXFXFXFXFXJXBXgXaX).).)._.*X*X=X-X}.}.{.U.U.U.U.U.P.P.F.F.i.i.i.M.r.v v v ^ ;.n.r.n.v.v.v.n.n.r.v.n.v.n.n.n.v.n.n.v.v.v.v.v.v.b.b.b.m.m.m.m.v.m.m.m.m.b.b.b.b.m.m.m.m.m.m.m.m.m.m.m.m.<.X.) ) ` %.m.A.C.C.C.C.C.C.C.A.A.C.C.C.C.C.C.C.C.C.C.C.C.C.C.C.C.C.C.C.C.C.A.A.A.Z.Z.Z.A.A.A.A.S.S.S.S.K.K.K.K.K.K.S.,.' ;.' <.W.W.W.W.!.!.!.W.W.W.W.W.W.W.W.W.W.W.!.!.W.W.W.W.K.K.W.K.W.W.K.K.K.K.K.K.K.K.K.J.S.S.S.S.S.S.S.S.S.S.S.S.S.%.] ] ] ' S.C.S.S.S.S.S.S.A.A.S.S.S.S.A.C.C.C.A.A.A.A.A.A.A.A.A.A.m.m.A.A.A.m.A.A.A.m.m.m.m.m.m.N.N.N.b.m.m.m.N.m.N.,.X.O.O.) ;.m.v.v.v.v.v.v.v.n.n.n.n.n.n.n.n.n.n.n.y.n.r.y.n.n.M.M.M.M.F.F.F.F.P.F.U.U.U.U.R.T.}.}.}.-X=X=X=X,X1X3X3X3XhXdXBXJXFXFXFXFXHXbXfXjX! ^.^.`.(.x.(.(.l.l.k.h.h.h.s.q.q.0.w.7.7.7.7.7.T T J J J J J J H H H H H H F F F F F F V V V 0 9 = 1 V V M V B M M B M M M M B B d s s s u p s u u u u s u u y y y y y y y ",
"y y y y y y % % < * 6 y y y y y y 0 u u u u 0 0 u u u 0 n n n n n M M n n M M M N N N N N N N N N N N N A A A A A A K A H H H J H Z K K P q.q.s.h.h.k.l.l.x.(.(.(.{.*X*X*X*XyXfXbXFXFXFXFXFXJXVXgXhX&X).)._.|.*X=X-X-X}.}.{.U.U.U.U.P.P.F.F.F.M.M.M.:.v v v ^ ;.n.v.v.v.v.n.n.n.B.n.n.n.n.n.v.v.n.v.v.v.v.v.n.m.b.v.v.m.m.m.n.m.m.n.m.m.b.b.b.m.m.m.m.m.m.m.m.m.m.m.m.C.<.X.) ` ` #.m.A.C.C.C.C.C.C.C.A.C.C.C.C.C.C.C.C.C.C.C.C.C.C.C.C.C.C.C.C.C.C.A.A.A.A.A.A.Z.S.A.A.A.S.A.A.S.S.K.K.K.K.S.,.' ' ' <.K.W.W.W.W.W.W.W.W.W.W.W.W.W.W.W.W.W.W.W.W.W.W.W.W.K.K.K.K.K.K.K.K.K.K.K.K.S.S.S.S.S.S.S.S.S.S.S.S.S.S.S.S.%.] ] ] ' S.S.A.A.A.A.A.S.A.A.S.S.S.S.A.A.A.S.C.A.A.A.A.A.A.A.A.A.m.A.A.m.m.m.m.m.m.A.m.m.m.m.m.B.B.b.B.N.m.m.m.m.N.,.X.O.O.( ,.m.v.v.v.v.v.v.n.n.v.n.v.v.n.n.v.v.n.n.n.n.r.n.n.n.n.M.M.M.M.F.F.F.F.F.P.U.U.U.U.U.{.}.}.}.=X=X,X,X1X3X3X5XhXdXVXJXFXFXHXFXHXzXfX9X~ ^.^.`.`.(.(.(.l.l.k.h.h.s.s.q.0.0.w.7.7.7.7.4.T T J J J J J H H H H H H H F F F F F F F V V 0 1 - 1 V N N N V B M B B M M M M B d s s s s s s u u u u u y u u y y y y y y ",
"y y y y y y * < < % 6 y y y y y y y u u u u 0 0 u u u 0 n n n n n M M n n M M M N N N N N N N N N N N N A A A A A A G G H H H J H Z K K P q.q.s.h.h.k.l.l.z.(.(.(.{.*X*X*X*XyXfXzXFXFXFXFXFXHXAXdXdX&X)._._.|.=X=X-X}.}.}.}.U.U.U.U.F.P.F.F.F.M.M.M.:.v v v ^ ;.y.v.v.r.v.n.n.n.n.n.n.n.n.n.v.v.n.v.v.v.v.v.n.m.b.b.v.m.m.m.m.m.m.n.m.b.b.b.m.m.m.m.m.m.m.m.m.m.m.m.m.C.<.X.) ) ` %.m.C.C.C.C.C.C.C.A.A.C.C.C.C.C.C.C.C.C.C.C.C.C.C.C.C.C.C.C.C.C.C.A.A.A.A.A.A.A.A.A.A.A.A.A.A.S.S.S.K.K.K.A.,.' X.' <.K.K.K.K.K.K.K.K.W.!.!.!.!.!.K.K.K.K.K.K.K.K.K.W.K.K.K.K.K.K.K.K.K.K.K.K.K.S.S.S.A.S.S.S.S.S.S.S.S.S.S.S.A.%.] ] ] ' S.S.A.A.A.A.S.S.A.A.S.S.S.S.A.A.A.S.C.C.A.A.A.A.A.A.A.A.A.A.m.m.m.m.m.m.m.m.m.m.m.m.m.N.b.b.N.N.N.m.m.m.m.,.O.O.X.( ,.m.v.v.v.v.v.v.n.n.n.v.v.v.n.n.v.v.n.n.n.n.r.n.n.n.n.M.M.M.M.F.F.F.F.P.P.U.U.U.Y.R.}.}.}.}.-X=X=X,X3X3X1X6XdXdXAXHXFXFXFXFXFXzXfX,X~ ^.^.`.(.(.(.(.l.l.k.h.h.s.s.q.q.0.w.7.7.7.7.} T T J J J J J H H H H H H H F F F F F F F F V 0 1 = 7 V V N N B B M B B M M M M B d s s s s s s u u u u u y u u y y y y y y ",
"y y y y y 9 % < < < 6 y y y y y y u u u u u 0 0 u u u u n n n n n M M n n M M N N N N N N N N N N N N A A A A A A A A S H H H J H Z K K P q.q.s.h.h.k.l.l.z.(.(.{.{.*X*X*X*XeXfXkXDXHXFXFXFXHXDXdXdX#X)._._.|.*X-X X}.}.{.}.U.U.U.U.F.P.F.F.F.M.M.M.:.^ v v ^ r.n.n.v.v.n.n.n.n.n.n.n.n.n.v.v.v.v.v.v.v.v.v.b.b.b.b.m.m.m.m.m.m.m.m.m.b.b.b.m.m.m.m.m.m.m.m.m.m.m.m.m.C.,.` ) ) ` %.C.C.C.C.C.C.C.C.C.A.C.C.C.C.C.C.C.C.C.C.C.C.C.C.C.C.C.C.C.C.A.A.A.A.A.A.A.A.A.A.A.A.A.A.S.K.S.S.S.S.S.K.A.%.` ' ` <.K.K.K.K.K.K.K.K.K.K.K.K.K.K.K.K.K.K.K.K.K.K.K.K.K.K.K.K.K.K.K.K.K.K.K.K.K.K.S.S.A.A.S.S.S.S.S.S.S.S.A.A.A.%.] ] ) X.S.S.A.A.S.S.S.S.S.S.S.S.A.A.A.A.S.S.A.C.A.A.A.A.A.A.A.A.A.m.m.m.m.m.m.m.m.m.m.m.m.m.m.m.N.N.N.N.N.m.m.m.N.,.O.O.X.( v.n.v.v.v.n.v.v.n.v.v.n.v.v.n.n.v.v.n.n.n.n.y.n.n.n.n.M.M.M.M.M.M.F.F.P.P.U.U.U.Y.R.}.}.}.}.-X=X=X,X1X3X1X6XdXdXDXHXFXFXFXFXDXkXfX#X^.^.^.`.(.(.(.(.l.l.l.h.h.s.s.q.q.0.w.7.7.7.7.} T J J J J J J J H H H H H H H H F F F F V V V 0 7 - 7 V V V N B B B M B M M M M B d s s s s s s u u u u u y u u y y y y y y ",
"y y y y y y % < < < 6 y y y y y u 0 u u u u 0 0 u u u u n n n n n M M n n M M N N N N N N N N N N N N A A A A A A A A G H H H J H Z K K P q.q.s.s.h.k.l.l.z.(.(.{.{.*X*X*X*X5XfXfXDXHXFXFXFXHXDXlXfX<X)._._.*X*X-X X}.}.}.}.U.U.U.U.F.P.F.F.F.M.M.M.-.v v v ^ ;.n.r.v.v.n.n.n.n.n.v.v.n.v.v.v.v.v.v.v.v.v.v.b.b.v.m.m.m.m.m.m.m.m.m.b.b.b.m.m.m.m.m.m.m.m.m.m.m.m.m.m.C.,.` ) ) ` %.C.C.C.C.C.C.C.C.C.C.C.C.C.C.C.C.C.C.C.C.C.C.C.C.C.C.C.C.C.A.A.A.A.A.A.A.A.A.A.A.A.A.A.A.A.S.S.S.S.S.S.K.A.%._ ' ' <.K.K.K.K.K.K.K.K.K.K.K.K.K.K.K.K.K.K.K.K.K.K.K.K.K.K.K.K.K.K.K.K.K.K.K.K.K.S.S.S.S.S.S.S.S.S.S.S.S.S.A.A.S.%.] ) ) #.S.S.A.A.A.S.S.S.S.S.S.S.A.A.A.A.S.S.A.C.C.A.A.A.A.A.A.A.A.m.m.m.m.m.m.m.m.m.m.m.m.m.m.m.m.N.N.N.N.N.m.m.N.,.O.O...( v.v.v.v.n.n.n.n.n.n.n.n.n.n.v.v.n.n.n.n.n.n.r.n.n.n.n.M.M.M.M.F.M.F.F.P.P.U.U.U.U.R.}.}.}.-X=X=X=X3X,X3X<XyXfXlXDXHXFXFXFXGXDXfXfX_.^.^.^.`.(.(.(.(.l.l.k.h.h.s.s.q.q.w.w.7.7.7.7.} J J T J J J J J H H H H H H H H F F F F V V F 0 9 = 7 V V V V V B B M B M M M M B d M s s s s s u u u u u y u u y y y y y y ",
"y y y y y 9 % < 2 < 4 y y y y 0 0 0 u u u u 0 0 u u u n n n n n n M M n n M M N M N M N N N N N N N A A A A A A A A A D H H J J D Z K K P q.q.s.s.h.k.l.l.x.(.(.(.{.*X*X|.*X1XfXgXAXHXFXFXFXFXFXzXfX8X^._._.%X*X-X}.}.}.}.}.T.U.U.U.F.P.F.F.F.M.M.M.-.v v v ^ ;.n.r.v.v.n.n.n.n.v.v.v.n.n.n.n.n.v.v.v.v.v.v.b.b.v.v.v.m.m.b.m.m.m.m.b.b.b.m.m.m.m.m.m.m.m.m.m.m.m.m.m.m.<.` ) ) ` #.C.C.C.C.C.C.C.C.C.C.C.C.C.C.C.C.C.C.C.C.C.C.C.C.C.C.C.C.A.A.A.A.A.A.A.A.A.A.A.A.Z.Z.Z.Z.A.A.S.S.S.S.S.K.C.%._ ' _ <.K.K.K.K.K.K.K.K.K.K.K.K.K.K.K.K.K.K.K.K.K.K.K.K.K.K.K.K.K.K.K.K.K.K.K.K.S.S.S.S.S.S.S.S.S.A.S.S.S.S.S.A.S.<.) ) ) #.S.A.S.S.S.S.A.A.S.S.A.A.A.A.S.S.S.S.A.C.C.A.A.A.A.A.A.A.A.m.A.A.m.m.C.A.m.m.m.m.m.m.m.m.m.N.B.b.m.m.m.m.N.,.O.O.` / v.b.v.v.v.v.n.v.n.n.v.n.n.n.n.v.n.n.n.n.n.n.n.n.n.M.n.M.M.M.M.F.F.F.F.P.P.U.U.Y.Y.T.}.}.}.}.-X=X=X,X,X3X3XyXfXlXFXFXFXFXFXHXAXdXdX).^.^.^.`.(.(.(.(.z.l.k.h.h.s.s.q.q.w.w.7.7.7.7.4.T T T J J J J J H H H H H H H H F F F F V V F 0 0 - 7 V V V V V B B M B B M M M B d M s s s s s s u s u u f u u y y y y y y ",
"y y y y y 5 % < 2 , < y y y y 0 0 0 u u u u 0 0 u u u n n n n n n M M n n M M N N N M N N N N N N N A A A A A A A A A D H H J J D Z K K P q.q.s.s.h.h.k.l.x.(.(.{.{.-X*X*X*X,XhXgXVXJXFXFXFXFXHXbXfXyX^._._.*X*X=X=X X}.}.}.U.U.U.U.P.P.F.F.F.M.F.M.-.D v v ^ ;.n.r.v.n.n.n.n.n.v.v.v.n.v.n.n.v.v.v.v.v.v.b.b.b.v.n.m.m.m.m.m.m.m.m.b.b.m.m.m.m.m.m.m.m.m.m.m.m.m.C.m.m.<.` ) ) ` #.C.C.C.C.C.C.C.C.C.C.C.C.C.C.C.C.C.C.C.C.C.C.C.C.C.C.C.C.A.A.A.A.A.A.A.A.A.A.A.A.A.Z.Z.Z.A.S.S.S.S.S.S.S.C.<.#.#._ <.K.K.K.K.K.K.K.K.K.K.K.K.K.K.K.K.K.K.K.K.K.K.K.K.K.K.K.K.K.K.K.K.K.K.K.K.S.S.K.K.S.S.S.S.S.S.S.S.S.S.S.S.S.<.) ) ) #.S.A.S.S.S.S.A.S.S.S.A.A.A.A.S.S.S.S.A.A.C.C.A.A.A.A.A.A.A.A.A.A.m.m.A.m.m.m.m.m.m.m.m.m.m.N.B.b.B.N.m.m.m.v.O.O.) / v.v.v.v.v.v.v.v.v.v.v.v.v.n.v.v.n.n.n.n.n.r.r.n.n.M.n.M.M.M.M.F.F.P.F.P.P.U.U.Y.T.}.}.}.}.}.-X=X=X,X1X3X<XuXfXbXHXFXFXFXFXJXVXgXaX^.^.^.^.`.(.(.(.(.l.l.k.h.h.s.s.q.q.w.w.7.7.7.7.7.T T T J J J J J H H H H H H H H H F F F V V F 0 0 - 7 V N V N V B B M B B M M M B d M s s s s s s u s u u f u u y y y y y y ",
"y y y y y 5 % 4 4 , < y y y 0 0 u u u u u u 0 u u u u n n n n n n M M n n M M N N M M N N N N N N N A A A A A A A A A D H H J J D Z K K P q.q.s.h.h.h.k.l.l.l.(.{.*X{.*X*X=X=XaXgXNXJXFXFXFXFXJXbXgXuX^.)._.%X*X=X=X}.}.}.}.U.U.U.U.U.P.F.F.F.M.M.M.-.v v ^ ^ ;.n.v.v.n.n.n.n.n.v.v.v.v.n.n.n.n.v.v.v.v.v.m.b.m.m.m.m.m.m.m.m.m.m.b.b.b.m.m.m.m.m.m.m.m.m.m.m.m.m.m.m.C.<.` ) ` ) #.C.C.C.C.C.C.A.A.C.C.C.C.C.C.C.C.C.C.C.C.C.C.C.C.C.C.A.A.A.A.A.A.A.A.A.A.A.A.A.A.A.A.Z.Z.Z.S.S.S.S.K.A.S.C.<.+.+._ ,.K.K.K.K.K.K.K.K.K.K.K.K.K.K.K.K.K.K.K.K.K.K.K.K.K.K.K.K.K.K.K.K.S.S.S.S.S.S.S.S.S.S.S.S.S.S.S.S.S.S.S.S.S.<.] ] ] #.S.S.A.S.A.A.A.A.S.S.S.A.A.A.A.A.A.A.A.S.C.C.A.A.A.A.A.A.A.A.A.A.A.A.m.m.m.m.m.m.m.m.m.m.m.m.B.b.N.N.m.m.m.v.O.O./ / v.b.v.v.v.v.v.v.v.v.v.v.v.v.v.v.n.n.n.n.n.n.n.n.n.n.n.M.M.M.M.M.F.P.P.P.P.U.U.Y.R.}.}.}.}.=X-X=X=X,X1X3X3XaXdXmXJXFXFXFXFXJXNXgXaX^.^.^.^.(.(.(.(.z.l.l.k.h.h.s.q.q.q.w.w.7.7.7.7.7.T T T J J J J J H H H H H H F H H F F F V V F 0 0 = 7 V N V M V B B B B M M M M M d B d s s s s s u s s u y y y y y y y y y ",
"y y y y u 5 + 4 4 , 4 y y y 0 0 y u u u u u 0 u u u u l n n m n n M M n n M M N N N N N N N N N N N A A A A A A A H S S H H J J D N K K P q.q.s.s.h.h.k.l.l.l.(.(.{.{.*X*X=X*XaXgXmXJXFXFXFXFXJXNXgXaX).%X&X%X*X=X=X}.}.}.}.}.Y.U.U.U.P.F.F.F.M.M.M.-.v v ^ ^ ;.n.n.n.n.n.n.n.n.v.v.v.v.n.n.n.n.n.n.v.v.v.m.m.m.m.m.m.m.m.m.m.m.m.b.b.b.m.m.m.m.m.m.m.m.m.m.m.m.m.C.m.m.<.` ) ` ` #.C.C.C.A.C.C.A.A.C.C.C.C.C.A.C.C.C.C.C.C.C.C.C.C.C.A.A.A.A.A.A.A.A.A.A.A.A.Z.A.A.A.A.A.Z.Z.A.A.A.A.S.Z.S.V.%.+.#.+.%.K.K.K.K.K.K.K.K.K.K.K.K.K.K.K.K.K.K.K.K.K.K.K.K.K.K.K.K.K.K.K.K.S.S.S.S.S.S.S.S.S.K.S.S.S.S.S.S.S.A.S.S.S.<.] ] ) ' S.S.A.A.A.A.A.A.S.S.S.A.A.A.A.A.S.A.S.S.C.C.A.A.A.A.A.A.A.m.A.A.A.A.m.m.m.A.A.m.N.N.m.m.m.m.b.b.N.N.m.m.m.v.O.O./ / v.b.v.v.v.v.v.v.v.v.v.v.v.n.v.v.v.v.n.v.v.n.n.n.n.n.n.n.M.M.M.F.F.F.P.P.P.U.U.U.R.}.}.}.}.=X=X;X=X3X3X3X3XaXsXmXHXFXFXFXFXJXmXgXuX~.^.^.^.`.(.(.z.l.l.l.k.h.s.s.q.q.q.0.w.7.7.7.7.7.T T T J J J J J H H H H H H F F H F F F V V V 0 0 = 7 V M V N V B B B B M M M M M d B d s s s s d s s s u y y y y y y y y y ",
"y a y y y 4 % < < * 4 y y y 0 9 u u u u u u 0 u u u u n n n n n n M M n n N N M N N N N N N N N N N A A A A A A A A A G H H H J D Z K K J q.q.q.s.h.h.k.k.l.z.(.{.{.-X*X|.-X*XuXgXbXHXFXFXFXFXJXBXgXaX).)._.|.*X=X=X}.}.}.}.].T.U.U.U.U.F.F.F.F.M.F.*.v v ^ ^ -.n.r.n.n.B.n.n.n.v.v.n.v.n.v.n.v.v.v.v.v.b.b.b.n.m.m.m.m.m.m.m.m.m.m.b.b.m.m.m.m.m.m.m.m.m.m.m.m.m.m.m.C.<.` ) ` ` #.b.S.C.C.C.C.C.C.C.C.C.C.C.C.C.C.C.C.C.C.C.C.C.C.A.Z.A.A.A.C.A.A.A.A.A.A.A.A.A.A.A.A.A.Z.A.Z.A.A.A.A.A.S.C.#.+.+._ %.K.S.K.K.K.K.K.K.K.K.K.K.K.K.K.K.K.K.K.K.K.K.K.K.K.K.K.K.K.K.K.K.K.S.S.S.S.S.S.S.K.S.S.S.S.S.S.S.S.S.S.S.S.<.] ] ] ' S.A.S.S.A.A.A.A.A.C.A.S.S.S.S.S.A.A.S.A.C.C.C.A.A.A.A.A.A.A.A.A.A.C.C.C.m.m.m.A.A.m.m.m.m.m.m.m.m.N.m.N.m.v.O.O./ / v.b.b.v.v.v.v.v.v.v.v.v.v.n.v.v.v.v.n.v.n.n.n.n.n.n.n.n.M.M.M.F.F.F.P.P.P.U.U.U.R.R.}.}.}.=X=X=X;X,X,X3X3XhXgXBXJXFXFXFXFXJXbXfXyXg.^.^.`.`.(.(.z.z.l.k.k.h.h.s.q.q.0.w.w.8.7.7.7.7.J 4.T J J J J J H H H H H H F F F F F F F V V 0 0 : 7 V V V V B B B M M M M M M M B B M s s s s s u u p u y u u y y y y y y ",
"y y y y y * * , < % 4 y y y 9 9 u u 0 u u u 0 u u u u u n n n n n M M n n M M M N N N N N N N N N N A A A A A A A A A G G H H J D K K K K q.q.c.s.s.h.h.k.l.z.(.{.{.{.*X|.-X*XyXfXzXFXFXFXFXFXHXAXdXdX&X)._._.*X=X=X=X}.}.}.{.U.Y.U.U.U.P.F.F.F.M.M.*.^ ^ ^ ^ -.r.n.n.n.n.n.n.n.v.v.n.v.n.n.v.v.v.v.v.v.b.b.b.b.m.m.m.n.n.n.m.m.m.b.b.b.m.m.m.m.m.m.m.m.m.m.m.m.m.m.m.m.<.X.) ` ` %.<.C.C.C.A.C.C.C.C.C.C.C.C.C.C.C.C.C.C.C.C.C.C.A.A.A.A.A.A.Z.A.A.A.A.A.A.A.A.A.A.A.A.Z.Z.Z.Z.A.A.S.A.S.S.2.#.+.+._ %.K.S.K.S.K.K.K.K.K.K.S.S.S.S.K.K.K.K.K.K.K.K.K.K.S.K.K.K.K.K.K.K.S.S.S.S.S.S.S.S.S.S.S.S.S.S.S.S.S.S.S.S.S.<.] ] ] ' A.S.S.S.S.A.A.A.S.S.A.A.S.S.A.S.C.C.S.S.S.C.C.A.A.A.A.A.A.A.A.m.A.A.C.C.m.m.m.m.A.m.m.m.m.m.N.m.b.b.m.m.m.,.O.O.( ( ,.m.v.v.v.v.v.v.v.v.v.v.v.v.v.v.n.n.n.v.v.n.n.n.n.n.n.M.M.M.M.M.F.F.F.F.U.U.U.Y.R.}.}.}.}.=X=X=X,X,X<X3X6XfXdXAXHXFXFXFXFXFXzXfX9X~ ^.^.`.`.(.(.z.z.l.k.k.h.s.s.q.q.0.w.w.8.7.7.7.} J 4.J J J J J J J H H H H H F F F F F F F F F 0 0 - 7 V N V V V B B M M B M M M M d d s s s p s s u u u u y u u y y y y i y ",
"i y y y , % % * < < < y u 9 u 9 u u u u u u 0 u u u u s n n n n n M n n n M N N N N N N N N V N N N A A A A A A A A A H H G J } D N K K K q.q.q.s.s.h.h.k.l.z.(.(.{.*X*X|.-X*XeXfXlXDXHXFXFXFXHXDXdXfX<X)._._.|. X=X}.}.}.}.}.Y.U.U.U.P.P.F.F.F.F.r.{ ^ v v ^ o.O.r.n.n.n.n.n.n.n.n.v.v.n.v.v.v.v.v.v.b.b.b.m.m.m.m.m.m.m.m.m.b.m.b.b.N.m.m.m.m.m.m.m.m.m.m.m.m.C.C.C.b.%.X.) ` ` %.%.1.C.C.C.S.C.C.C.C.C.C.C.C.C.C.C.C.C.C.C.C.A.A.A.A.Z.A.C.Z.C.A.A.A.A.A.A.A.A.A.A.A.Z.Z.A.Z.S.A.S.S.S.C.<.#._ +._ #.K.K.K.K.S.K.K.K.S.S.S.S.S.S.S.K.K.K.S.S.K.S.K.S.S.S.S.S.S.S.K.S.S.S.S.S.S.S.K.S.S.S.S.S.S.S.S.S.S.A.A.A.S.<.] _ ] _ A.S.S.S.S.A.S.S.S.S.S.C.C.C.A.S.S.A.A.A.S.C.A.A.A.A.A.A.A.A.A.A.m.A.C.C.m.m.m.m.m.m.N.m.m.m.N.m.m.m.N.N.N.O.O.O.) ( ;.b.v.v.b.v.v.v.v.v.v.v.v.n.v.v.n.n.n.v.n.n.n.n.n.n.M.n.M.M.M.F.F.F.F.I.U.Y.U.Y.R.R.}.}.}.=X=X;X=X=X3X3XyXfXdXDXHXFXFXFXFXFXlXfX#X~.^.^.`.`.(.(.z.l.l.k.k.h.s.s.q.q.0.w.7.7.7.*.7.J J J J J J J J J J H H H H H H H H F F F F F N 0 0 1 1 V N V V B B B M M M M M M M s d d d s s s s u u u u y y y y y i a y y ",
"2 4 4 % + * % 4 < , % 3 y 9 u u u u u u u u 0 u n n n s n n n n n M M n n n n M M n M N N N N N N N N N N N A A A A A A A S D D K Z K K Z P q.u.s.s.h.h.k.l.x.(.{.{.-X*X*X=X=X4XfXdXAXHXFXFXFXFXFXzXfX9X)._.&X*X=X=X=X X}.}.}.}.Y.Y.U.U.P.F.F.F.M.*.{ ^ ^ ^ ^ ..O.O.O.r.r.n.n.v.v.v.v.v.v.v.v.v.v.v.v.v.v.v.v.v.v.v.v.v.v.b.b.b.b.b.b.m.m.m.m.m.m.m.m.m.m.m.m.m.b.b.b.%.<.X.) ) ` #.%.%.<.C.A.A.A.A.A.A.A.A.A.A.A.A.C.C.A.A.A.S.Z.A.A.A.Z.A.C.C.C.C.C.V.C.C.C.A.C.C.A.A.A.A.A.A.A.A.C.C.2.<.<.@.+.+._ %.K.K.K.K.K.K.K.K.K.K.S.K.K.K.S.K.K.K.K.K.K.K.K.K.K.K.K.K.K.K.K.K.K.K.K.S.S.K.K.K.K.K.K.K.K.K.K.S.S.S.S.S.V._ ] ] ] ] b.S.S.S.S.S.S.S.S.S.S.S.S.S.S.S.S.S.S.S.S.S.S.S.S.S.A.A.A.m.m.C.m.m.C.m.m.m.m.m.m.m.m.m.N.N.m.b.b.b.b.v.,.O.O.O.) ( O.b.v.b.b.b.v.b.v.v.v.n.n.v.v.v.v.v.n.n.v.v.n.n.n.M.M.M.M.F.F.F.F.G.F.Y.Y.Y.Y.R.R.}.}.}.}.=X=X;X;X1X3X3XuXfXzXFXFXFXFXFXHXAXdXfX_.^.^.^.`.`.(.(.z.l.l.l.k.h.s.s.q.q.0.0.w.7.7.7.7.} } T T T J J J J J J H H J H H H H F F F F F M 0 0 7 1 V V V V V V V N V V B B B B B B B d d s s s p d s d s u u u u y y y i ",
"O $ O * % * % * 4 % % % % < < 6 6 6 6 6 6 6 6 6 1 1 1 1 1 1 1 1 1 1 1 7 1 1 1 1 7 7 7 7 7 7 7 7 7 7 8 7 8 8 8 8 w w j l l g g l z z Z Z Z Z I P P P Q 0.a.a.a.a.g.g.k.k.`.`.`._.hXsXVXJXFXFXFXFXHXbXfXyX^.).)._.`./.(./.l.f.f.f.f.f.u.t.t.t.>.>.*.*.{ ^ ^ ^ ^ ( ..............O.O.O.O.O.O.O.O...O.O.O.O.O.O.O.O.O.O.O.O.O.O.X.O.O.O.O.O.O.O.O.O.O.#.#.#.#.#.#.#.#.#.#.#.X.) ` ` ` ` #.%.#.%.,.<.%.%.%.%.<.<.<.<.%.%.<.<.<.<.<.<.2.V.V.2.<.<.%.%.%.%.%.%.%.%.%.%.%.%.%.%.%.%.%.%.%.%.$.$.%.%.+.+.@.+.@.+.2.2.C.V.C.2.<.<.<.<.<.<.<.<.<.<.<.<.<.%.<.<.<.<.<.V.V.V.V.V.2.2.V.V.V.V.V.V.V.V.V.V.V.V.V.V.V.V.b.1.#.' _ ] ] ] ] ] _ %.%.%.%.<.<.<.,.,.<.<.<.<.<.<.<.<.<.<.<.,.%.%.%.%.#.#.X.` ` ` X.` ` ` ` ` X.X.X.X.....` ` ` ` ` ` ` ....X.O.O.) ( / ) ..` ..........) ) ` ` ` ....{ ................-.-.:.:.:.r.t.t.t.u.f.d.s.d.d.j.j.U.U.].].{.{.|.|.|.|.uXgXbXJXFXFXFXFXJXVXgXaX^.~.~.^.k.k.x.k.k.k.s.s.s.q.q.w.w.w.7.7.=.J J J H D G G G F A A A A A A A A V V V V V N N N n 0 0 0 0 0 - 9 M M M u u u 0 u u u 0 0 0 u u y y 9 9 9 9 9 9 y y y 5 5 5 5 5 5 5 5 ",
"* * * , * % , * * % * + % + % = < < < < < < < < < < 6 6 6 6 6 6 6 6 1 1 1 1 1 7 1 1 1 1 7 7 7 7 7 7 7 8 8 8 8 8 w w w 8 g l l l l z x Z Z K Z I P P P P P P w.a.a.a.a.a.g.~.`.`.aXgXNXJXFXFXFXFXJXmXgXuX~ ~.~.~.`.k.k.f.f.s.a.a.t.w.=.=.=.=.*.=.=.=.{ ^ ^ ^ ^ ^ ^ ^ ^ ^ ^ ^ ^ ^ ^ ^ ( / ( ( ( / / / / / / / / ( ( ( ( ( ( / / / / / / / / / / / ) ) ) ) ) ) ) ) ) ) ) ) ) ` ` ` ) ) ) ` ) ) _ ` _ _ _ _ _ _ _ _ _ _ _ _ _ _ _ _ _ _ _ ' ' _ _ _ _ _ _ _ _ _ _ +.@.@.@.@._ _ _ _ _ _ _ +._ _ @.+.+.+.+.+.@.@.@.@._ @.@.@.@.@.+.+.@.@.@.@.@.@.@._ _ _ @._ _ @.@._ _ _ _ _ _ _ _ _ _ _ ` ` _ _ _ ` _ ] ] _ _ _ _ _ _ ] ] ] ] _ _ _ _ _ _ _ _ _ ) ) _ _ _ _ _ _ _ _ _ _ _ ) ) ` ) ) ) ) ) ` ` ` ) ) ) ) ) ) ` ) ) ) ) ) ) / / / / / / / / / X.O.) / ( ( ( ( ( ( ( ( ^ ^ ^ ( ( ( ( ( ^ ^ ^ ^ ^ ^ ^ ^ ^ ^ ^ { [ { [ =.*.=.=.*.>.t.t.a.a.f.s.f.f.f.k././././.(.aXgXmXJXFXFXFXFXJXNXgXuX! ! ! ! a.a.a.a.a.a.w.=.P P P P P I K Z Z z z x l l l l j j g 8 8 8 8 8 8 8 8 8 8 8 7 7 7 7 7 7 0 0 0 0 6 = = - = = = = = = @ @ @ + + + + + + + + + + + O O O O O O O O O X O O ",
"5 5 5 5 5 r 5 5 4 4 < < < 6 < 6 6 6 6 6 6 6 1 1 1 1 9 q q 7 q q 9 9 9 9 9 9 9 9 0 0 j 0 l j j j j j l l M z N N c A N A A A A A D D J J P P =.P =.7.w.w.a.a.a.a.a.g.k.k.`.`.`.`.uXgXbXJXFXFXFXFXJXBXsXhX^.^.~.~.`./.l.f.f.f.f.f.f.t.t.t.t.>.>.*.=.*.*.*.*.{ { { { ( (  .( ( ( / / / ( ( / / / / / / / / / / / / ( ( / / / ) ) ) ) ) ) ) ) ) ) ) ` ` ` ` ) ) ) ` _ X.X.X.X.#.%.#.#.X.' _ _ X.#.#.#.#.#.#.#.#.#.#.#.#.#.#.#.#.#.#.' ' _ _ _ _ _ _ _ _ +.+._ _ _ +.+.+.+.+.+.+.+.+.@.@.+.@.@.+.+.+.+.+.+.+.@.+.+.+.+.+.+.+.+.+.+.+.+.+.+.+.+.+.+.+.+.+.@.@.@.@.+.+.@.+.+.@.@.@._ _ _ _ _ _ @.@.@.@._ _ _ _ _ _ _ _ ] ] ] ] ] _ _ _ _ _ _ _ ` ` ` ` ' ` ' ' ' _ _ _ ` ` _ ) _ ) ` ) ` ` ` ` ` ` ` ` ` ` ` ) ) ) ) ) ) ) ) ) ) ) ) ) / / ) ) ) / ) / / / / / / ( ( ( / / / / / / ( ^ ( ^ ^ ^ ^ ^ ^ ^ ^ { { { { *.*.*.*.=.=.=.>.t.t.t.f.s.s.f.f.k.k././.`.`.|.hXgXBXJXFXFXHXFXJXbXfXyX! ! ! ! a.a.a.a.a.a.=.=.P P P P I I K K Z N z z l l l l l l 0 w 0 0 8 8 8 8 8 8 8 8 8 7 7 7 7 0 0 0 0 0 0 1 - 6 - - - - = = - - < , < < % + % + + + + + O O O O O O O O O X O O ",
"* 2 % % % , 4 4 4 < < < < < , < < < < < < < 6 6 6 1 1 1 1 1 6 1 1 1 7 7 7 7 7 7 9 0 0 0 0 8 0 0 0 0 0 0 8 g j j g l l l l z z z A K D K K K P P P P =.w.Q Q a.a.a.a.a.g.g.`.`.^.5XfXzXFXFXFXFXFXHXAXfXfX'.~.^.~.`.`.f.k.f.f.s.s.a.a.t.>.>.>.*.=.=.*.*.{ *.{ ( ( { { { { ....O.O.......` ................X.X.....` ` ..) ..X.X.X...X.X.X.X.X.X.X.X.X.X.X.X.X.#.#.O.#.#.%.#.#.#.#.%.%.#.%.#.%.%.#.%.%.%.%.%.%.%.%.%.%.%.$.$.%.%.%.%.%.+._ _ _ _ _ ' +.+._ _ @._ @._ @.@.@._ _ @.@.@._ @.@.@.@.@.+.@.@.@.@.@.@.@.@.@.@.@.@.@.@.@.+.+.+.+.+.+.+.+.+.+.+.+.+.+.+.+.+.+._ _ _ _ _ _ ] _ _ _ _ ] _ _ _ ' _ _ _ _ _ _ _ _ _ _ _ ] _ _ ' ' +.#.%.<.<.<.,.<.<.<.<.<.<.<.<.%.,.%.#.#.#.X.X.#.` ` ) ) ` ` ) ) ) ) ) ) ) ) ) ` ) ) ) ) ) ) ) ) ) ) / / / / / / / / / / ( ( ( ( / / / / / ^ ^ ^ ( ( ( ( ^ ^ ^ ( { { { { *.{ *.*.*.>.>.t.t.t.f.s.f.f.f.f.l././.].|._.1XfXdXAXHXFXFXHXFXHXzXfX9X! ~.~.a.a.a.g.a.a.a.a.w.w.7.Q P P P K K Z z z z Z N N N z N N z N l l l l M M M j j l l l l j j 0 n 0 0 0 0 u 0 0 0 0 0 9 9 0 9 9 9 9 9 9 9 9 5 5 1 5 5 4 + O O O % 5 5 5 5 5 5 ",
"* % % % % + + O + + + + + + + < < 6 6 6 1 6 6 6 6 6 6 6 < 6 1 1 1 6 6 6 ; 1 1 1 1 1 7 7 7 0 0 0 0 0 0 j j j l l g l z z z z z z z K K K K P P P P P 7.w.a.a.a.a.a.g.k.k.`.`.`.`.1XfXkXDXHXFXFXFXFXFXlXfX#X~.~.`.`./.(././.l.f.f.f.f.f.u.u.t.:.>.-.-.-.-.-.....................O.O.O.X.O.O.O.O.X.O.O.O.X.X.O.O.X.X...` / ) O.O.%.%.%.%.%.%.%.%.%.#.#.#.#.#.#.#.#.#.,.,.,.,.,.%.<.<.<.<.<.<.<.<.<.<.<.<.<.<.<.<.<.<.<.<.<.<.$.%.%.#.%.#._ _ _ _ _ _ +.#.#.%.<.<.<.2.2.2.2.2.2.2.2.2.2.2.2.2.2.<.<.2.2.2.2.2.<.2.2.<.<.%.%.$.#.#.#.#.#.+.+.+.+.+.+.+.+.@.+.+.+.@.@.+.2.V.V.V.V.V.V.V.V.V.V.V.V.V.C.C.A.A.A.A.A.C.C.C.C.C.A.C.C.C.C.C.A.A.A.A.A.C.C.C.C.C.C.C.C.C.C.C.C.C.C.C.V.<.%.%.#.) #.<.1.1.<.1.1.1.<.,.<.<.<.,.,.,.,.,.,.,.,.v.v.,.,.,.,.v.v.,.,.,.,.,.,.,.,.,.,.;.;.;.;.;.r.;.;.;.;.;.r.;.o.{ ( { *.*.*.r.y.F.F.F.U.U.U.U.Y.}.}.}. X=X=X=X;X1X3X3XyXfXlXFXHXFXFXFXFXDXkXfX#X^.`.^.`.(.(.(.z.z.z.l.l.k.h.h.s.s.q.7.Z Z Z K 7.7.7.7.T T 4.J J J J J J J J H H H H H F F F F F F F V V V V V V V V V V V V B B B B B B B B B d d d d d y < * O O y p d d d p p ",
"e a a e e 5 5 3 4 4 < 6 3 9 9 u u u u u p u u u u u u u u u n M M M 0 6 1 1 1 1 7 0 N N H F F H H H H H H G G H D H J J J J } } =.} 7.8.w.w.q.q.u.u.s.s.h.j.l.l.l.(.(.{.{.*X*X*X1XdXdXVXJXFXFXFXFXJXbXgXyX~.)._.|.-X=X X}.}.}.}.[.Y.Y.U.U.P.F.F.M.y.y.y.y.y.r.r.;.;.;.o.O.X.O.;.r.v.n.n.n.n.v.v.v.v.v.v.v.,.O.X.X...../ ..,.b.b.b.b.b.b.m.m.m.b.b.b.b.b.b.b.b.b.b.m.m.m.m.V.C.C.V.C.C.V.V.V.V.V.C.C.C.C.C.C.C.C.C.C.C.C.C.C.C.V.2.%.#._ _ _ _ #.V.V.A.Z.Z.Z.Z.A.Z.Z.Z.Z.Z.Z.S.S.S.Z.Z.Z.Z.Z.S.S.Z.Z.Z.Z.Z.Z.S.S.S.S.S.S.Z.Z.Z.Z.C.C.C.C.Z.C.Z.Z.Z.C.2.#.+.+.@._ <.S.S.Z.S.S.Z.S.S.S.S.S.S.S.S.S.S.S.S.S.A.Z.A.A.A.A.A.A.A.A.A.A.A.A.A.A.A.A.A.C.C.C.C.C.C.C.C.C.C.C.C.C.C.S.C.%.#.#.` m.C.C.C.C.m.C.C.m.m.m.m.m.m.m.m.m.m.m.m.m.b.b.b.b.b.b.b.v.b.b.b.b.v.v.v.b.b.b.b.v.v.v.v.v.v.v.v.v.n.n.n.M.:.{ { *.*.n.G.I.I.I.U.Y.Y.Y.R.}.}.}.}. X=X=X;X;X1X3X3XpXgXbXJXFXFXFXFXJXVXdXdX).^.`.`.`.(.(.(.{.z.z.l.l.h.h.h.s.u.q.w.K Z z Z 7.4.4.J T T 4.} J J J J J J J H H H H H F F F F F F F V V V V V V V V V V V V B B B B B B B B B d d d d d u 6 4 * % y p p p i i i ",
"r r r r 5 9 a y y y y y y u u u u u u u u u u u u p n u n n n n M M M 1 6 1 1 1 0 F N N V F V F F F A A A A H H H H H J H J J } =.=.7.7.7.w.w.w.q.q.s.s.s.h.k.l.l.l.(.{.{.{.|.|.=XaXsXmXJXFXFXFXFXJXNXgXaX^.).%X*X=X=X;X;X=X}.}.}.}.Y.Y.U.U.I.I.P.F.F.M.M.M.M.M.n.n.n.n.n.v.n.n.v.v.v.v.v.v.v.v.v.b.b.m.m.m.v.X.O...` ( X.b.v.v.b.v.b.b.b.b.b.b.b.b.b.b.b.b.b.b.m.m.m.V.V.V.V.V.V.V.V.V.V.V.V.V.V.V.V.V.V.V.V.V.C.C.C.C.V.C.V.V.C.V.%._ _ _ _ <.S.Z.C.C.C.C.Z.Z.C.C.C.C.C.C.C.C.C.C.C.C.C.C.C.C.C.C.C.C.Z.Z.Z.Z.Z.Z.Z.Z.Z.Z.Z.Z.Z.Z.Z.Z.S.Z.S.Z.S.Z.S.V.@.@.+._ <.S.C.Z.Z.A.Z.Z.Z.Z.Z.Z.A.A.A.A.A.A.A.A.Z.Z.A.A.A.A.A.A.A.A.A.A.A.A.A.A.A.A.A.A.A.C.C.C.C.C.C.C.C.C.C.C.C.C.C.%.#.#.` b.m.m.C.C.m.m.m.m.m.m.m.m.m.m.m.m.m.m.m.m.b.b.b.b.b.b.v.v.v.v.v.v.v.v.v.v.v.v.v.v.v.v.v.v.n.n.v.n.n.r.n.n.v.{ { { *.M.F.F.P.P.U.Y.Y.Y.R.R.}.}.}. X=X=X=X;X3X3X3XaXgXNXJXFXFXFXFXJXNXsXaX^.^.^.`.`.(.(.(.(.z.l.l.j.h.h.s.u.u.u.0.K Z z K 7.4.4.J T T 4.J J J J J J J J H H H H H H F F F F F F V V V V V V V V V V V V B B V B B B B B B d d d d d p 6 , 2 4 y p p p i i i ",
"e 5 a a 5 5 9 y y a y y y y u u u u u u u u u u u u M u n n M n M M M 9 1 1 1 1 N N N N V A F F A H H A A A A H H H H J H H J } } =.7.7.7.w.w.w.w.u.q.s.s.s.j.l.l.l.(.{.{.{.|.*X*XuXgXbXJXFXFXFXFXHXVXsXdX&X).&X|.=X=X;X;X}.}.}.}.R.Y.Y.U.U.P.I.P.F.F.M.M.M.M.n.n.n.n.n.v.v.n.v.n.n.v.v.v.v.v.v.b.b.b.v.m.m.m.O.X.../ ( X.m.v.v.v.v.b.b.b.b.b.b.b.b.b.b.b.b.b.b.m.m.V.V.V.V.V.V.V.V.C.V.V.V.V.V.V.V.V.V.V.V.V.C.C.C.C.C.V.V.V.V.C.C.%._ _ _ _ C.Z.C.C.C.C.C.Z.C.C.C.C.C.C.C.C.C.C.C.C.C.C.C.C.C.C.C.C.Z.Z.Z.Z.Z.S.Z.Z.Z.Z.Z.Z.Z.Z.Z.Z.Z.Z.Z.Z.Z.Z.Z.Z.Z.#.+.+._ <.S.C.Z.Z.Z.A.C.Z.Z.Z.Z.A.A.A.A.A.A.A.A.Z.Z.Z.A.A.A.A.A.A.A.A.A.A.A.A.A.A.A.A.A.A.A.C.C.C.C.C.C.C.C.C.C.C.C.C.%.#.#.` m.m.C.C.V.m.m.m.m.m.m.m.m.m.m.m.m.m.m.m.m.b.b.b.b.b.b.v.v.v.v.v.v.v.v.v.v.v.v.v.v.v.v.n.n.n.v.n.n.n.n.n.n.n.-.{ { -.F.F.P.P.P.U.U.Y.R.R.}.}.}.}.=X=X=X=X;X1X3X5XdXdXVXJXFXFXFXFXJXbXgXyX^.^.^.`.`.(.(.(.z.l.l.l.l.h.h.h.u.u.t.0.K Z z K 7.4.4.} T T 4.J J J J J J J J J H H H H H F F F F F V V V V V V V V V V V V V B B B B B B B B B d d d d d d 4 4 < < y p p p p i i ",
"r r r r y y 9 y y y y y 9 y u u u u u u u u u u u u n n n n m n M M N 9 1 1 1 7 N V N A N N F F F H A A H H H H H H H J J J J } } =.7.7.7.w.w.w.q.q.q.s.s.h.k.j.l.l.(.(.{.{.*X-X*XyXfXlXFXHXHXFXFXFXDXlXfX<X)._._.*X=X=X X}.}.}.}.}.R.R.Y.U.I.I.P.F.F.M.M.M.M.M.n.n.n.n.v.v.n.n.n.v.v.v.v.v.v.n.v.v.b.m.b.b.m.%.X.) / ( X.b.v.b.v.v.v.b.b.b.b.b.b.b.b.b.b.b.b.b.m.m.V.V.V.V.V.V.b.V.V.V.V.V.V.V.V.V.V.V.V.C.C.C.C.V.C.C.C.C.V.V.C.C.$._ _ _ +.C.C.C.C.C.Z.C.Z.Z.C.C.C.C.C.C.C.C.C.C.C.C.C.C.C.C.C.C.C.Z.Z.Z.Z.Z.S.Z.Z.Z.Z.Z.Z.Z.Z.Z.Z.Z.Z.Z.Z.Z.Z.Z.Z.S.%.@.+._ <.S.Z.Z.S.Z.Z.Z.Z.Z.Z.Z.Z.Z.Z.A.A.A.Z.Z.A.A.Z.Z.A.A.A.A.A.A.A.A.A.A.A.A.A.A.A.A.A.A.A.C.C.C.C.C.C.C.C.C.C.C.C.%.%.#.X.C.m.C.m.m.C.m.m.m.b.m.m.m.m.m.m.m.m.m.m.m.m.b.b.b.b.b.b.v.v.v.v.v.v.v.v.v.v.v.v.v.v.v.v.v.v.v.n.n.v.v.v.n.n.-.[ { -.F.F.G.P.Y.Y.Y.Y.[.}.}.}.}.}.=X=X=X;X1X1X3XyXfXlXDXFXFXHXFXFXFXlXfX5X^.^.^.`.(.(.(.T.z.x.l.l.h.h.h.s.u.u.q.q.K Z z K 7.7.4.} T 4.4.T J J J J J J J J H H H H H F F F F F F F V V V V V V V V V V V B B B B B B B B B d d d d d p < 4 4 < f f p p p i i ",
"r r r r r y 9 y y y y y y y y u u u u u u u u u u u n n n n n M M M N 9 1 7 1 0 V N N V N F F F F H A A H H H H H H H J J J J } } } *.7.7.8.w.w.w.q.q.s.s.s.h.j.j.l.z.(.{.{.*X=X*X5XfXdXAXHXFXFXFXFXHXbXfXyX^._.%X*X=X=X;X X}.}.}.}.R.R.Y.U.U.I.F.G.F.M.M.M.M.M.n.n.n.v.v.n.n.n.n.n.v.v.v.v.n.m.m.v.m.m.m.b.m.,.X./ ( ( X.b.v.v.v.v.b.b.b.b.b.b.b.b.b.b.b.b.b.m.m.m.V.V.V.V.V.V.b.V.V.V.V.V.V.V.V.V.V.V.C.C.C.C.V.V.C.V.C.C.V.V.C.C.$._ _ _ +.C.C.C.C.C.C.C.Z.C.C.C.C.C.C.C.Z.C.C.Z.C.C.C.C.C.C.C.Z.Z.Z.Z.Z.Z.Z.Z.Z.Z.Z.Z.Z.Z.Z.Z.Z.Z.Z.Z.Z.Z.Z.Z.Z.Z.Z.2._ +._ <.S.Z.Z.Z.Z.Z.Z.Z.Z.Z.Z.Z.Z.Z.A.Z.A.Z.Z.A.A.A.A.Z.A.A.A.A.A.A.A.A.A.A.A.A.A.A.A.A.A.A.A.C.C.C.C.C.C.C.C.C.C.C.%.#.#.X.m.m.C.m.m.m.m.m.m.m.m.m.m.m.m.m.m.m.m.m.m.m.b.b.b.b.b.b.v.v.v.v.v.v.v.v.v.v.v.v.v.v.v.v.v.v.v.n.n.v.v.n.n.n.r.-.{ -.G.F.F.I.Y.Y.Y.}.}.}.}.}.}.}.;X=X;X;X1X1X3XuXfXbXHXFXFXFXFXHXAXdXfX&X^.`.`.`.`.(.{.{.z.l.l.l.h.h.h.s.u.u.q.q.K Z Z K 7.4.4.} 4.4.4.T J J J J J J J J H H H H H F F F F F F F V V V V V V V V V V V B B B B B B B B B d d d d d u < 4 4 4 y f f p f i p ",
"5 5 y y y y y y a y y y y y y u u u u u u u u u u u n n n n n M M M M 9 6 1 1 9 V N V N A A F F F H A A A H A D H H H J J J J } } } *.7.8.8.w.w.w.q.u.s.s.h.h.h.j.l.l.(.{.{.*X*X*X,XhXgXBXJXFXFXHXFXJXmXsXaX^.)._.*X=X=X;X X}.}.}.}.}.Y.Y.Y.Y.Y.I.G.G.N.M.M.M.M.n.n.n.n.n.n.n.n.v.n.n.v.v.v.n.m.v.v.m.v.m.m.m.v.X./ / ( X.b.b.b.b.b.b.b.b.b.b.b.b.b.b.b.b.b.b.m.m.m.b.b.V.V.V.V.V.V.V.V.V.V.V.V.V.V.V.V.C.C.C.C.V.V.V.V.C.C.C.C.V.C.<._ _ _ +.C.C.Z.Z.C.C.C.C.Z.C.C.C.C.Z.Z.Z.Z.Z.Z.Z.Z.C.C.C.C.Z.Z.Z.Z.Z.Z.Z.Z.Z.Z.Z.Z.Z.Z.Z.Z.Z.Z.Z.Z.Z.Z.Z.Z.Z.Z.Z.S.2.@.@.@.<.S.Z.Z.A.Z.S.Z.A.A.Z.Z.Z.Z.A.A.Z.Z.Z.Z.A.A.A.A.Z.Z.A.A.A.A.A.A.A.A.A.A.A.A.A.A.A.A.A.A.A.C.C.C.A.C.C.A.C.C.C.%.%.#.X.C.C.C.C.m.m.m.m.m.m.m.m.m.m.m.m.m.m.m.m.m.m.b.b.b.b.b.b.b.v.v.v.v.b.b.b.v.v.v.v.v.v.v.v.v.v.n.n.n.v.v.n.M.n.n.y.*.-.G.I.G.Y.Y.Y.Y.Y.}.}.}.}.}.}.;X;X;X;X1X1X1XaXsXmXJXFXFXFXFXHXBXsXaX^.^.^.`.(.(.(.{.z.z.l.l.l.j.j.h.s.u.u.q.q.K Z Z K 7.4.4.} 4.4.4.T T J J J J J J J H H H H H F F F F F F F V V V V V V V V V V V B B B B B B B B B d d d d d u < 2 4 , y p p p p i i ",
"5 5 5 5 r y y y y y y y y y y y u u u u u u u u u n n n n n n M M M M 9 6 1 1 0 V N N V N V F A F H H H A H A D H H H J J J } } } } =.*.8.w.w.w.w.q.u.s.s.s.h.h.l.l.l.{.{.{.{.*X*X=XaXgXbXHXFXFXFXFXHXVXgXdX&X)._.|.*X=X;X X X}.}.}.}.Y.Y.Y.Y.Y.Y.I.G.G.M.M.M.M.M.n.n.n.n.n.v.b.n.n.n.v.v.v.v.m.v.v.m.b.b.v.m.v.X./ / ( X.b.b.b.b.b.b.b.b.b.b.b.b.b.b.b.b.b.b.m.m.b.b.V.V.V.V.b.V.V.V.V.V.V.V.V.V.V.V.C.C.C.C.C.V.V.V.V.C.C.C.C.C.C.<._ _ _ +.C.Z.Z.Z.C.C.C.Z.Z.C.C.C.Z.Z.Z.Z.Z.Z.Z.Z.Z.Z.Z.C.Z.Z.Z.Z.Z.Z.Z.Z.Z.C.Z.Z.Z.Z.Z.Z.Z.Z.Z.Z.Z.Z.Z.Z.A.Z.Z.Z.S.2.@.+.@.<.S.A.A.A.Z.Z.Z.Z.Z.Z.Z.Z.Z.A.Z.Z.Z.Z.Z.A.A.A.A.Z.Z.Z.A.A.A.A.A.A.A.A.A.A.A.A.Z.A.A.A.A.A.A.C.C.C.A.C.C.C.C.C.%.%.#.X.C.C.C.C.m.C.m.m.m.m.m.m.m.m.m.m.m.m.m.m.m.m.m.b.b.b.b.b.b.v.v.b.v.b.b.b.v.v.v.v.v.v.v.v.v.v.v.n.v.v.v.n.n.n.n.y.*.-.F.I.G.Y.Y.Y.Y.}.}.}.}.}.=X X;X;X1X;X1X1X5XdXdXVXJXFXFXFXFXHXbXgXuX^.^.`.`.(.(.(.{.z.z.l.j.l.j.h.s.s.u.q.q.q.D Z Z K 7.7.4.4.4.4.4.T T J J J J J J J H H H H H F F F F F F F V V V V V V V V V V V B B B B B B B B B d d d d d f , 2 4 4 y d p p p i i ",
"5 5 r r a a y y y y y y y y u u u u u u u u u u u u p n u n n M M M M 9 6 1 1 8 V N N V N V F F F F F A A H A G H H G J J J J } } } } *.7.7.w.w.w.q.u.u.s.s.h.h.l.l.l.(.{.{.|.*X=X*XyXgXzXFXFXFXFXFXHXDXkXfX,X^._.|.-X=X=X=X=X}.}.}.}.}.Y.Y.Y.Y.U.F.G.G.M.M.M.M.M.n.v.v.n.n.v.n.m.n.n.v.v.v.b.b.b.b.m.m.m.m.m.v.X.( / / O.b.b.b.b.b.b.m.b.b.b.b.b.b.b.b.b.b.m.m.m.m.V.V.V.V.V.V.V.V.V.V.V.V.V.V.V.V.C.C.V.V.V.V.C.C.V.C.C.C.C.V.C.C.<._ _ _ #.C.Z.Z.Z.Z.C.C.C.C.Z.Z.C.C.C.C.C.C.Z.Z.C.C.C.Z.Z.Z.Z.Z.Z.Z.Z.Z.Z.Z.Z.Z.Z.Z.Z.Z.Z.Z.Z.Z.Z.Z.Z.Z.Z.Z.Z.Z.Z.S.2.@.+.@.<.S.Z.Z.Z.Z.Z.Z.Z.Z.Z.A.A.Z.Z.Z.Z.Z.Z.Z.A.A.A.A.A.A.Z.Z.A.A.A.A.A.A.A.A.A.A.A.A.A.A.A.A.A.A.A.A.C.C.C.C.C.C.C.%.%.#.X.V.C.C.m.m.m.m.m.m.m.m.m.m.m.m.m.m.m.b.m.b.m.m.b.b.b.v.b.b.v.v.v.v.v.v.v.b.v.b.v.v.v.v.v.v.v.M.B.n.n.n.n.m.M.n.y.*.:.G.I.Y.Y.Y.Y.Y.[.}.}.}.}.=X;X=X=X1X;X1X3XyXfXlXDXHXHXFXFXFXFXzXfX9X^.).).).).(.{.{.z.l.l.l.l.h.h.s.s.u.q.q.q.K Z Z K 7.4.4.4.4.4.J J J J J J J J J H H H H H H H F F F F F F C V V F V V V V V V V B B B B B B B B B B B d d d y < 4 4 4 y d p p p i i ",
"5 5 r r a a y y y y y y y y u u u u u u u u u u u u p n n n n M M M M 9 6 1 1 0 V N N V A F F F F F A A A H G G H H G J J J } } } } } *.7.7.w.w.w.w.q.u.s.s.h.h.l.l.l.(.{.{.|.*X=X*X5XfXfXAXHXFXFXFXFXHXbXgXyX^._.|.*X=X;X;X X=X}.}.}.}.Y.Y.Y.Y.Y.I.G.G.G.M.M.M.M.n.n.n.n.v.b.n.n.n.n.n.v.v.b.b.b.b.m.m.m.m.m.v.O.( / / X.b.b.v.b.b.b.m.b.b.b.b.b.b.b.b.b.b.m.m.m.V.V.V.b.V.V.V.V.V.V.V.V.V.V.V.V.V.C.C.C.V.V.V.C.C.V.V.C.C.C.C.C.C.<._ _ _ #.C.Z.Z.Z.Z.C.C.C.C.Z.Z.C.C.C.C.C.C.Z.Z.C.C.C.C.Z.Z.Z.Z.Z.Z.Z.Z.Z.Z.Z.Z.Z.Z.Z.Z.Z.Z.Z.Z.Z.Z.Z.Z.Z.Z.Z.Z.Z.S.2.@.+.@.<.S.S.Z.Z.Z.Z.Z.Z.Z.Z.A.Z.Z.Z.Z.Z.Z.Z.Z.A.A.A.A.A.A.A.Z.Z.A.A.A.A.A.A.A.A.A.A.A.A.A.A.A.A.A.A.A.C.C.C.C.C.C.V.%.%.#.X.C.C.C.m.C.m.m.m.m.m.m.m.m.m.m.m.m.m.m.b.m.m.m.b.b.b.v.v.v.b.v.v.v.v.v.v.b.v.b.v.v.v.v.v.v.n.n.n.n.n.n.n.M.M.n.n.*.:.I.I.Y.Y.Y.Y.R.}.}.}.}.}. X=X;X=X;X;X3X3XuXdXbXHXFXFXFXFXHXDXfXfX#X^.).`.`.(.(.{.{.z.l.l.l.j.h.h.h.s.u.q.q.q.K Z z K 7.4.4.4.4.4.J J J J J J J J J J J H H H H H F F F F F F V V V V V V V V V V V B B B B B B B B B B d d d d y < 4 4 4 y p p p p i i ",
"e 5 r r 5 9 y y y y y y y y y u u u u u u u u u u u u u n n n M M M M 9 1 7 1 0 V N N A A F F F A A A A H H G G H H G J J J J } } } } *.7.7.8.w.w.w.q.u.u.s.s.h.j.j.l.(.{.{.{.*X-X*X1XhXgXBXJXFXFXFXFXJXNXgXaX).)._.*X=X=X;XOX=X}.}.}.}.[.Y.Y.Y.Y.P.G.G.G.G.M.M.M.M.M.M.M.n.n.n.b.n.n.m.v.v.b.b.n.m.m.m.m.m.m.v.X.( / / X.b.b.b.b.b.b.b.b.b.b.b.b.b.b.b.b.b.m.m.m.V.V.V.V.V.V.V.V.V.V.V.V.V.V.V.V.V.C.C.C.C.V.V.C.C.C.V.V.V.C.C.C.C.2.@._ _ #.C.Z.C.C.Z.C.C.Z.Z.Z.Z.Z.C.Z.Z.C.Z.Z.Z.C.C.Z.Z.Z.Z.Z.Z.Z.Z.Z.Z.Z.Z.Z.Z.Z.Z.Z.Z.Z.Z.Z.Z.Z.Z.Z.Z.Z.Z.Z.Z.Z.S.2.@.+.@.<.S.Z.Z.Z.A.Z.Z.Z.Z.Z.Z.Z.Z.Z.Z.Z.Z.Z.Z.Z.A.A.A.A.A.Z.Z.Z.Z.A.A.A.A.A.A.A.A.A.A.A.A.A.A.A.A.A.A.A.A.C.C.C.C.V.%.%.#.` C.C.C.C.m.C.C.m.m.m.m.m.m.m.m.m.m.m.m.m.m.m.m.m.b.b.b.v.v.b.v.b.b.v.v.v.v.v.b.v.v.v.v.v.v.n.n.n.n.n.M.M.M.M.n.n.*.:.I.I.Y.Y.Y.Y.}.}.}.XX}.=X X;X;X;X1X1X1X3XaXgXNXJXFXFXFXFXJXBXsXaX^.^.`.`.`.(.(.{.{.z.l.l.l.j.h.h.h.s.u.q.q.q.G Z z K 7.4.4.4.4.T J J J J J J J J J J J H H H H F F F F F F V V V V V V V V V V V V V B B B B B B B B B d d d d y < 4 4 4 y p p p p i i ",
"e 5 e 5 5 9 y y y y y y y y y u u u u u u u u u u u u n n n n M M M M 9 1 7 1 0 V N N A A F F F H A A A H H G H H H G J J J J } } } } 7.7.7.8.w.w.w.q.u.u.s.s.h.h.l.l.l.{.{.{.*X-X=X=XaXgXbXHXFXFXFXFXHXAXdXfX<X)._.*X X=X=X;X=X}.}.}.}.}.Y.Y.Y.Y.I.I.G.G.G.M.M.M.M.M.n.n.M.n.m.n.n.m.b.v.n.b.b.n.m.m.m.m.m.m.v.X.( / ( X.b.b.b.b.b.b.b.b.b.b.b.b.b.b.b.b.b.m.m.V.V.V.V.V.V.V.V.V.V.V.V.V.V.V.V.V.V.C.C.C.C.V.V.C.C.V.V.V.C.C.C.C.Z.2._ _ _ #.C.C.C.C.C.C.C.Z.Z.Z.Z.Z.C.Z.Z.Z.Z.C.C.C.Z.Z.Z.Z.Z.Z.Z.Z.Z.Z.Z.Z.Z.Z.Z.Z.Z.Z.Z.Z.Z.Z.Z.S.Z.Z.Z.Z.Z.Z.Z.Z.S.2.@.+.@.<.S.S.S.S.Z.Z.Z.Z.Z.Z.Z.Z.Z.Z.Z.Z.Z.Z.Z.Z.Z.A.A.A.A.Z.Z.Z.Z.Z.A.A.A.A.A.A.A.A.A.A.A.A.A.A.A.A.A.A.C.C.C.C.C.V.%.%.%.` C.C.C.m.C.m.m.m.m.m.m.m.m.m.m.m.m.m.m.m.m.m.m.m.b.b.b.v.v.b.b.v.b.v.v.v.v.v.b.v.v.v.v.v.v.n.n.n.n.n.n.n.M.M.n.n.-.:.I.Y.Y.Y.Y.Y.}.}.}.}.}.=X X;X;X;X1X1X=XeXfXdXAXHXFXFXFXFXHXbXfXuX^.).).`.`.(.(.{.(.z.l.l.l.j.h.h.s.u.u.q.q.w.K Z z K 7.4.4.4.4.T J J J J J J J J J J J H H H H F F F F F F F V V V V V V V V V V V V B B B B B B B B B d d d d y < 4 4 4 y p p p p i i ",
"e 5 y y 5 9 y y y y y y y y y u u u u u u u u u u n n n n n n M M M N 9 1 1 1 0 V N V A V V A A H H A A H H H H H H J J J J J } } } } 7.7.7.8.8.w.w.t.u.u.u.s.h.h.l.l.l.{.{.{.*X-X=X=XyXfXlXFXFXFXFXFXFXFXlXfXyX^._.|.|.=X;X=X=X=X}.}.}.}.Y.Y.Y.Y.Y.P.G.F.F.M.M.M.M.M.M.N.n.n.m.m.n.n.m.n.b.b.b.v.m.m.m.m.n.m.v.X./ / / X.b.v.v.b.b.b.b.b.b.b.b.b.b.b.b.b.m.m.m.V.V.b.V.V.b.V.V.V.V.V.V.V.V.V.V.V.C.C.C.C.C.C.C.C.C.C.V.C.C.C.C.C.Z.2.@._ _ +.C.C.C.C.C.Z.Z.Z.Z.Z.Z.Z.Z.Z.C.C.C.C.C.C.Z.Z.Z.Z.Z.Z.Z.Z.Z.Z.Z.Z.Z.Z.Z.Z.Z.Z.Z.Z.Z.S.S.S.S.Z.Z.Z.Z.Z.Z.Z.S.2.+.@.@.<.S.S.S.S.Z.Z.Z.Z.A.A.Z.A.A.A.Z.Z.Z.Z.Z.Z.Z.A.A.A.A.A.Z.A.A.A.A.A.A.A.A.A.A.A.A.A.A.A.A.A.A.A.A.A.C.C.C.C.C.V.%.%.%.` C.C.C.m.C.C.m.m.m.m.m.m.m.m.m.m.m.m.m.m.m.m.m.m.b.b.b.b.v.b.b.v.v.v.v.b.v.b.v.v.v.v.v.v.v.n.n.n.n.n.M.n.M.M.n.n.-.:.Y.Y.Y.Y.Y.Y.}.}.}.}.=X=X;X;X;X,X1X1X3XuXfXlXFXFXFXFXFXHXFXlXfX8X^.).).).(.(.(.{.z.z.l.l.l.j.h.s.u.u.u.q.q.w.K Z z G 7.4.4.4.4.4.4.T J J J J J J J J H H H H H F F F F F H F V V V V V V V V V V V V B B B B B B B B B d d d d y < 4 4 4 y p p p p i i ",
"e 5 y y 5 9 y y y y y y y y y u u u u u u u u u u n n n n n n M M M N 9 1 1 1 0 V N V A V V A A H H A H H H A H H H J J J J J } } } } *.7.7.8.8.w.w.q.u.u.u.s.s.h.l.l.l.(.{.{.{.-X-X=X4XfXdXVXJXFXFXFXFXJXmXgXpX^._._.*X=X=X;X;X=X}.}.}.}.R.Y.Y.Y.Y.I.I.F.F.F.M.N.N.N.M.n.n.n.n.n.n.n.n.n.b.b.b.m.m.m.m.m.n.m.,.X./ / / X.b.v.b.b.b.b.b.b.b.b.b.b.b.b.b.b.m.m.V.V.V.b.V.V.V.V.V.V.V.V.V.V.V.V.C.V.C.C.C.C.C.C.C.C.C.V.C.C.C.C.C.C.C.2.@._ _ +.C.C.C.C.C.C.C.Z.Z.Z.Z.Z.Z.Z.Z.C.C.C.C.Z.Z.Z.Z.Z.Z.Z.Z.Z.Z.Z.Z.Z.Z.Z.Z.Z.Z.Z.Z.Z.Z.S.Z.S.S.Z.Z.Z.Z.Z.Z.Z.S.2.+.+.@.$.S.S.S.S.Z.Z.Z.Z.Z.A.Z.Z.A.A.Z.Z.Z.Z.Z.Z.Z.Z.Z.A.A.Z.Z.A.Z.A.A.A.A.A.A.A.A.A.A.A.A.A.A.A.A.A.A.A.C.A.C.C.C.V.%.%.#.` C.C.C.C.m.C.m.m.m.m.m.m.m.m.m.m.m.m.m.m.m.m.m.m.b.b.b.b.v.b.b.v.v.v.v.b.b.b.v.v.v.v.v.v.m.n.n.n.n.n.M.M.M.M.n.n.*.:.Y.Y.Y.Y.Y.R.}.}.}.}.OX;X;X;X;X,X1X1X1XaXgXmXHXFXFXFXFXHXAXdXfX_.^.).).(.(.(.{.{.z.z.l.l.j.j.h.s.u.u.q.q.q.7.K Z z K 8.4.4.4.4.4.4.4.J T J J J J J J J H H H H H F F F F H F V V V V V V V V V V V V B B B B B B B B B d d d d y < 4 4 4 i d p p p i i ",
"e 5 y r 5 9 y y y y y y y y u u u u u u u u u u u m n n n n M M M M N 9 6 1 1 7 N N V V V F A F H H H H H A A G H H J J J } J } } } =.7.7.*.8.8.w.w.q.t.u.s.s.s.h.l.l.l.(.{.{.-X*X=X<X,XaXgXmXHXFXFXFXFXJXVXgXdX&X)._.|.=X;X;X;X;XXXXX}.}.}.Y.Y.Y.Y.Y.I.G.F.G.M.N.M.M.M.M.n.n.n.n.n.n.n.n.b.v.n.m.m.m.m.m.m.m.,.../ / / X.b.v.b.b.b.b.b.b.b.b.b.b.b.b.b.m.m.V.V.V.V.V.V.V.V.V.V.V.V.V.V.V.V.C.C.C.C.C.C.C.C.C.V.V.V.C.C.C.C.C.Z.C.C.2._ ' _ +.C.Z.Z.C.C.C.C.C.C.C.C.Z.Z.C.C.C.C.Z.Z.Z.Z.Z.Z.Z.Z.Z.Z.Z.Z.Z.Z.Z.Z.Z.Z.Z.Z.Z.Z.Z.Z.Z.Z.Z.Z.Z.Z.Z.Z.Z.Z.Z.S.2.+.+.@.<.S.S.S.S.S.Z.Z.Z.Z.Z.Z.Z.Z.Z.Z.Z.A.Z.Z.Z.Z.Z.Z.Z.Z.Z.Z.A.Z.A.Z.Z.Z.Z.A.A.A.A.A.A.A.A.A.A.A.A.A.A.A.C.C.C.C.V.%.%.#.` C.C.C.C.m.C.m.m.m.m.m.m.m.m.m.m.m.m.m.b.b.m.m.m.m.b.b.b.v.b.b.v.v.v.b.b.b.b.v.v.v.v.v.b.m.m.n.n.n.M.M.M.M.M.M.n.*.r.Y.Y.Y.Y.Y.}.}.}.}.}.OX;X;X;X;X1X1X1X4XdXdXVXJXFXFXFXFXJXmXsXaX^.^.).).(.(.{.{.T.T.z.l.l.j.h.s.s.u.u.q.q.q.w.K c z K 7.4.4.4.4.4.4.J J T J J J J J J J H H H H H H F F F H F V V V V V V V V V V V V V B B B B B B B B d d d d y < 4 4 4 f d p p p i i ",
"e 5 r r 5 9 y y y y y y y u u u u u u u u u u u u m m n n n M M M M N 9 1 1 1 7 N N V V V F F H F H H A H A G G H H J J J J } } } } *.7.7.7.8.8.w.w.q.u.u.u.s.s.j.l.l.l.(.{.{.-X*X=X,X=XuXgXbXFXFXFXFXHXFXDXlXfX8X^.%X|.|.=X;X;X;X;XXXXX}.}.Y.Y.Y.Y.Y.I.G.G.G.M.N.M.M.M.N.n.m.n.m.n.n.n.n.b.v.m.m.m.m.m.m.m.m.,.` / ) / X.b.v.b.b.b.b.b.b.b.b.b.b.b.b.b.m.m.V.V.b.V.V.V.V.V.V.V.V.V.V.V.V.V.C.C.C.C.C.C.C.C.C.V.V.C.C.V.C.C.C.C.C.C.2._ ' @.+.C.Z.Z.C.C.C.C.C.C.C.C.C.C.C.C.C.C.Z.Z.Z.Z.Z.Z.Z.Z.Z.Z.Z.Z.Z.Z.Z.Z.Z.Z.Z.Z.Z.Z.Z.Z.Z.Z.Z.Z.Z.Z.Z.Z.Z.Z.Z.S.2.+.+.+.$.S.S.S.S.S.S.Z.Z.Z.Z.Z.Z.Z.Z.Z.Z.A.A.A.Z.Z.Z.Z.Z.Z.Z.Z.A.A.A.Z.Z.Z.Z.Z.A.A.A.A.A.A.A.A.A.A.A.A.A.A.C.C.C.C.V.%.%.#.` C.C.C.C.m.C.m.m.C.m.m.m.m.m.m.m.m.m.m.m.b.m.m.m.m.b.b.b.b.b.b.v.v.v.v.b.b.b.v.v.v.v.v.b.n.m.n.n.n.M.N.M.N.N.M.y.*.t.Y.I.Y.Y.Y.}.}.}.XX X;X;X;X=X;X1X1X=XyXfXlXDXFXFXFXHXFXHXzXfXyX^.).).).(.(.{.{.T.T.z.l.j.j.h.s.u.u.u.t.q.q.7.Z c z Z 8.4.4.4.4.4.4.J J T J J J J J J J H H H H H H F F F F F V V V V V V V V V V V V V B B B B B B B B d B d d y < 4 4 4 y d p p p i i ",
"5 5 y y r y y y y y y y y y y u u y u u u u u u u u m m n n M M M M M 7 1 7 1 7 N N V N F F F A A H A H H D A G H G J J J J } } } } =.7.7.7.8.8.w.w.w.q.u.u.s.s.j.k.l.l.(.{.{.{.*X=X=X=XeXfXfXDXHXFXFXFXFXJXbXgXuX)._._.*X=X;X;X;X;X}.}.}.}.R.Y.Y.Y.Y.I.G.G.G.M.N.N.N.N.N.n.m.n.n.m.n.n.n.n.m.m.m.b.m.b.m.m.m.,.` / ) / O.b.v.b.b.b.b.b.b.b.b.b.b.b.b.b.m.m.V.V.b.V.V.V.C.C.V.V.V.V.V.V.V.V.C.C.C.V.C.C.C.C.C.C.C.C.C.C.C.C.C.C.C.C.<.@.@._ +.C.C.C.C.Z.C.C.C.C.C.C.C.C.C.C.Z.Z.Z.Z.Z.Z.Z.Z.Z.Z.Z.Z.Z.Z.Z.Z.Z.Z.Z.Z.Z.S.S.S.S.S.Z.Z.Z.Z.Z.S.Z.Z.Z.Z.Z.S.<.+.+.@.<.S.Z.S.S.S.S.S.S.Z.Z.Z.Z.Z.Z.Z.Z.Z.A.A.A.Z.Z.Z.Z.Z.Z.A.A.A.Z.Z.Z.Z.A.A.A.A.A.C.A.A.A.A.A.A.A.A.A.A.A.C.C.C.V.%.%.#.` C.C.m.C.m.C.C.m.m.C.m.m.m.b.m.m.m.m.m.m.b.m.m.m.m.b.b.b.b.b.b.b.b.v.v.v.v.b.b.b.v.v.v.v.n.n.M.n.n.M.M.M.M.M.M.y.*.:.Y.Y.Y.Y.R.}.}.}.}.;X;X;X;X;X1X1X1X1XaXgXbXJXFXFXFXFXHXDXdXfX#X^.).)._.(.(.{.{.T.z.l.l.j.j.h.s.s.u.u.q.8.8.7.K Z z K 7.7.4.T T T T J J T J J J J J J J J H H H H F F F H F F V V V V V V V V V V V V V B B B B B B B B d d d d u < < 4 4 y p p p p i i ",
"a e y y r y y y y y y y y y u u u u u u u u u u u n n n M n M M M M M 7 1 1 7 7 N A A A F F F A A A A H H H H H G G J J J J } } } } =.4.7.7.8.8.8.w.w.t.u.u.s.s.j.j.l.l.l.{.{.{.-X=X=X,X1XhXsXNXHXFXFXFXFXJXBXgXdX&X).*X*X=X>X;X;X;X X}.}.}.}.Y.Y.Y.Y.I.I.G.G.G.N.G.N.N.N.M.n.m.m.m.n.n.n.m.n.b.m.n.m.m.m.m.m.%.../ ) / X.b.b.b.b.b.b.b.b.b.b.b.b.b.b.b.m.V.V.V.V.V.V.V.V.V.V.V.V.V.V.V.V.V.C.C.V.V.C.C.C.C.C.C.C.C.C.C.C.C.C.C.C.C.<.@.@.+.#.C.C.C.C.C.Z.Z.C.C.C.C.C.C.C.C.Z.Z.Z.Z.Z.Z.Z.Z.Z.Z.Z.Z.Z.Z.Z.Z.Z.Z.Z.Z.Z.Z.S.S.S.S.Z.Z.Z.Z.Z.Z.S.Z.Z.Z.Z.S.<.@.+.+.%.S.S.S.S.S.S.S.S.S.Z.Z.Z.Z.Z.Z.Z.Z.Z.Z.A.Z.Z.Z.Z.Z.Z.A.A.A.Z.Z.Z.Z.A.A.A.A.A.A.A.A.A.A.A.A.A.A.A.A.A.C.C.C.V.%.%.#.` C.C.m.C.m.C.C.m.m.C.C.m.m.m.m.m.m.m.m.m.b.m.m.m.m.m.b.b.b.b.b.b.b.v.v.v.v.b.b.b.v.v.v.v.n.n.n.m.M.n.N.N.M.G.M.M.-.y.Y.Y.Y.Y.R.}.}.XXOX;X;X=X;X;X1X1X1X5XdXsXBXJXFXFXFXFXJXNXsXaX).^.).)._.(.(.{.{.T.T.l.l.j.j.h.s.u.u.t.q.8.8.7.z Z z K 7.4.} 4.4.4.T J J J J J J T J J J J H H H H F F F F F F V V V V V V V V V V V V V B B B B B B B B d d d d y < < 4 4 y d d p p p i ",
"e e r y 9 9 a y y y y y y y y u u u u u 0 u u u u u n n n n M M M M M 1 1 1 1 7 N V A V V F A A H H A H H H H H H G J J J J } } } } =.7.7.7.7.8.8.8.w.q.u.u.s.s.s.j.j.l.l.(.{.{.*X*X=X,X=XuXgXbXHXFXFXFXFXHXDXkXfX5X^._.|.=X;X;X;X;X;XXXXXXX}.R.Y.Y.Y.Y.I.G.G.G.G.G.N.N.M.M.n.n.N.m.b.m.n.m.m.n.m.b.m.v.m.m.b.O.` / / / X.b.b.b.b.b.b.b.b.b.b.b.b.b.b.m.m.V.V.V.V.V.b.b.V.V.V.V.V.V.V.V.V.V.C.C.V.V.V.V.V.C.C.C.C.C.C.C.C.C.C.C.C.C.$.@._ _ #.C.C.C.Z.Z.Z.Z.Z.C.Z.Z.C.C.Z.Z.Z.Z.Z.Z.Z.Z.Z.Z.Z.Z.Z.Z.Z.Z.Z.Z.Z.Z.Z.Z.Z.Z.Z.Z.S.S.Z.Z.S.S.Z.S.S.Z.S.Z.Z.S.<.+.+.@.$.S.S.S.S.S.S.S.S.S.S.Z.Z.Z.Z.Z.Z.Z.Z.Z.Z.Z.Z.Z.Z.Z.Z.Z.Z.A.A.A.Z.A.A.A.Z.Z.Z.A.C.A.A.A.A.A.A.A.A.A.A.C.C.C.V.%.%.%.) V.C.C.C.C.C.C.C.m.C.m.m.m.m.m.m.m.m.m.m.m.m.m.m.m.b.m.b.b.b.b.b.b.v.v.v.v.b.b.b.v.v.v.v.n.m.n.N.N.M.N.N.M.G.M.M.:.y.Y.Y.Y.R.}.}.XXXX;X;X;X;X;X1X1X1X,XyXfXkXDXHXFXHXFXFXHXbXfXyX^.).).)._.(.*X{.{.T.z.l.l.j.j.h.s.u.u.u.q.q.8.7.c z x K 7.4.4.4.4.4.4.J J T J J J T J J J J H H H H F F F F F F F V V V V V V V V V V V V B B B B B B B B d d d d y < < 4 4 y d p f f p i ",
"5 5 y y 5 5 9 y y y y y y y y u u u u u 0 u u u s u n n n n M M M M j 1 1 7 1 7 N V V V V F F A H H A A D H H H H J J J J J J } } } } =.7.7.7.8.8.w.8.w.u.u.u.s.s.j.j.l.l.{.{.}.*X-X=X=X*X5XfXdXDXHXFXFXFXFXJXbXdXuX)._.|.=X=X;X;X;X;XOXXXXX}.}.Y.Y.Y.Y.I.G.G.G.F.G.M.N.N.M.M.N.m.n.m.m.m.m.m.n.m.m.m.N.m.m.b.O.X./ / / O.b.b.b.b.b.b.b.b.b.b.b.b.b.b.m.m.V.b.b.V.V.V.C.C.V.V.V.V.V.V.V.V.C.C.C.V.V.V.V.V.C.C.C.C.C.C.C.C.C.C.C.C.C.$.@._ _ +.Z.Z.C.C.C.Z.Z.Z.Z.Z.Z.Z.Z.Z.Z.Z.Z.Z.Z.Z.Z.Z.Z.Z.Z.Z.Z.Z.Z.Z.Z.Z.S.Z.Z.Z.Z.Z.Z.Z.Z.S.S.S.S.S.S.S.S.S.Z.Z.S.$.@.+.@.$.S.Z.Z.S.Z.S.S.S.S.S.S.Z.Z.Z.Z.Z.Z.Z.Z.Z.Z.Z.Z.Z.Z.Z.A.Z.Z.A.A.A.A.A.A.Z.Z.Z.Z.A.A.A.A.A.A.A.A.A.A.A.A.C.C.V.%.%.%._ C.C.C.C.C.C.C.C.m.m.m.m.m.m.m.m.m.m.m.m.m.m.m.m.m.m.m.b.b.b.b.b.b.v.v.v.b.m.b.b.v.v.b.b.m.m.n.N.N.N.N.N.F.G.G.N.;.y.Y.Y.}.}.}.XXXXOX;X;X;X;X;X;X1X3X;XaXgXbXJXFXFXFXFXHXDXdXfX<X^.).).)._.(.{.{.{.T.z.l.l.j.h.h.s.u.u.u.q.q.8.7.c z x K 7.4.4.4.4.4.4.J J T J J J T J J J J H H H H F H F F F F F V V V V V V V V V V V V V B B B B B B B d d d d y < < 4 < y d p p p p i ",
"5 5 r y a a y y y y y y y y y u u u u u u u u u p p n n n n M M M N 0 1 1 7 7 1 N N V V F F A A H A H H A D H H H J J J J J J J } } } 7.7.7.7.8.8.w.8.w.t.u.u.s.s.j.j.j.l.{.{.{.|.=X=X,X=X|.hXgXNXJXFXFXFXFXKXBXdXdX_.)._.*X=X>X;X;X;X;XXXXX}.}.}.Y.Y.Y.I.G.G.G.G.G.M.N.N.M.M.M.N.n.m.m.m.m.n.n.m.m.m.m.b.m.v.O.' / ) / O.m.b.m.b.b.b.b.b.b.b.b.b.b.m.m.m.V.V.b.V.b.V.V.V.V.V.V.V.V.V.V.V.C.C.C.C.C.C.C.C.C.C.C.C.C.C.C.C.C.C.C.C.C.$._ _ @.#.C.Z.Z.Z.C.C.C.Z.C.Z.Z.C.Z.Z.Z.Z.Z.Z.Z.Z.Z.Z.Z.Z.Z.Z.Z.Z.Z.Z.Z.S.S.S.Z.Z.S.Z.Z.Z.Z.S.S.S.S.S.S.S.S.Z.Z.Z.Z.$.@.+.@.$.S.Z.Z.Z.Z.S.S.S.S.S.S.Z.Z.Z.Z.A.A.A.A.Z.A.A.Z.Z.Z.A.A.Z.Z.Z.Z.A.A.Z.Z.Z.Z.A.A.A.A.A.A.A.A.A.A.A.A.A.A.C.C.C.%.%.#._ V.C.C.C.C.C.C.C.C.m.m.m.m.m.b.m.m.m.m.m.m.m.m.m.m.m.m.b.b.b.b.v.v.b.v.b.b.v.v.b.b.v.b.b.m.N.N.M.M.M.N.M.G.G.F.F.:.y.Y.Y.}.}.XXXXXX;X;X;X;X;X>X;X1X1X4XdXsXBXJXFXFXFXFXJXNXsXhX).^.).)._.(.(.*X{.{.T.l.l.l.j.h.s.u.u.u.t.q.t.8.7.z z z A 7.4.} 4.4.4.4.T 4.T J J J J J J J J H H H H F F F F F F F V V V V V V V V V V V B V B B B B B B B d d d d y < < 4 4 y d p p i i i ",
"5 5 r r e a y y y 9 9 y y y y y u u u u u u u u p p n n n n M M M M 1 1 1 7 7 1 0 F F A F F H A H H H H H D H H H J J J J J J J } } } 7.7.*.7.8.8.8.8.w.w.t.u.s.s.h.j.j.l.U.{.{.|.|.=X=X|.`.uXgXbXHXFXFXHXFXFXFXlXfX9X^._.*X=X>X;X;X;X;XOXXXXX}.}.Y.Y.I.I.I.G.G.G.G.F.M.N.N.N.n.N.n.n.m.m.m.n.n.m.m.m.m.m.b.,.O.` / ) / X.m.m.b.b.b.b.b.b.b.b.b.b.b.m.m.V.V.V.V.V.V.V.V.V.V.V.V.V.V.V.V.C.C.C.C.C.C.C.C.C.C.C.C.C.C.C.C.C.C.C.Z.C.V.$._ _ _ +.C.Z.Z.Z.C.C.C.C.Z.Z.Z.Z.Z.Z.Z.Z.Z.Z.Z.Z.Z.Z.Z.Z.Z.Z.Z.Z.Z.Z.S.S.S.Z.Z.S.S.Z.Z.Z.S.S.S.S.S.Z.S.S.Z.Z.Z.S.Z.+.+.+.@.#.Z.Z.Z.Z.Z.S.Z.S.S.S.S.S.Z.Z.Z.A.A.A.Z.Z.A.Z.Z.Z.Z.A.A.A.Z.Z.Z.Z.Z.A.Z.Z.Z.A.A.A.A.A.A.A.A.A.A.A.A.A.A.C.C.C.%.%.#.) V.C.C.C.C.C.C.m.m.m.m.m.m.m.m.b.m.m.m.m.m.m.m.m.m.m.m.m.b.b.b.v.v.b.v.b.b.b.n.m.n.n.n.n.N.N.N.M.N.N.M.F.G.G.F.F.:.f.Y.Y.}.}.}.XXOX;X;X;X>X;X>X;X1X,XuXfXlXFXFXFXFXFXFXJXbXfXuX^.).).)._._.{.{.{.T.T.l.j.j.j.s.s.u.u.u.t.q.8.8.7.z z z A 8.4.} 4.} 4.4.J T T J J J J J J J J J H H H H F F F F F V V V V V V V V V V V V V V B B B B B B B d d d d y < < 4 4 s d p p i i i ",
"9 y 9 5 r y y y y y y u u u u u u u u u u u u n m m n n M M M M 0 7 6 1 6 7 7 1 7 V A A F A F F A A A A H S S H G G J J J J J J } } } } } *.7.7.8.8.8.w.w.u.u.s.s.j.j.j.l.{.{.{.}.-X=X=X'.`.9XkXdXDXHXFXFXFXFXJXbXgXaX)._.|.=X;X1X;X;X;X;XXXXX}.}.R.R.Y.Y.I.I.G.G.G.G.G.N.N.N.N.N.N.m.n.m.m.m.m.m.m.v.v.v.%.O.O.) / ) / ..v.m.b.b.b.b.b.b.b.b.b.m.m.m.m.V.V.V.V.V.V.V.V.V.V.V.V.V.V.V.V.C.C.C.V.C.C.C.C.C.C.C.C.C.C.C.C.C.C.C.Z.C.<.#.' @.@._ <.Z.Z.C.C.Z.C.Z.Z.Z.Z.Z.Z.Z.Z.Z.Z.Z.Z.Z.Z.Z.Z.Z.Z.Z.Z.Z.Z.S.S.Z.Z.Z.Z.S.S.S.S.S.S.S.S.S.S.Z.Z.S.S.S.Z.K.2.+.+.+.@.+.Z.S.Z.Z.Z.Z.Z.S.S.S.S.S.S.Z.Z.Z.Z.Z.Z.Z.Z.Z.Z.Z.Z.Z.Z.Z.Z.Z.Z.Z.Z.A.Z.A.A.A.A.Z.A.A.A.A.A.A.A.A.A.A.A.C.C.C.%.%.%.] <.C.C.C.C.C.C.m.m.m.m.C.m.m.m.m.m.m.m.m.m.m.m.m.m.m.m.m.b.b.b.v.v.v.b.v.v.b.m.m.n.v.n.m.N.n.N.N.N.N.N.N.G.I.G.F.:.d.Y.R.}.}.XXOX;X;X;X;X>X>X;X1X1X1XaXgXmXJXFXFXFXFXHXDXdXfX<X^.).)._._.(.{.{.{.z.z.l.l.j.j.s.u.u.u.u.t.q.8.8.7.z z z A 7.4.} 4.} 4.4.T T } J J J J J J H J H H H H H F F F V V V V V V V V V V V V V B V V B B B B B B B B d d d s < < 4 * f d p p i i i ",
"* * 4 5 5 5 5 5 5 3 3 3 3 5 9 9 a y u 0 9 u u u u 0 0 0 7 1 1 1 6 6 6 - 1 7 7 7 1 0 N N V A V H H H H H H H H J J J J } } } } J } } } } } *.*.*.*.7.8.8.w.w.w.u.s.s.q.s.s.f.l././.(.`./.`.`._.aXgXNXJXFXFXFXFXJXVXdXfX#X^._.|.|. X}.}.}.}.].Y.Y.U.U.F.F.F.M.M.n.y.;.;.;.;.,.v.v.v.,.;.;.O.O.O.O.O.O.O.O.O.X.O.X./ / / / ` O.,.m.b.b.<.<.b.b.b.b.b.b.b.V.V.V.V.V.V.V.V.V.V.V.V.V.V.V.V.V.V.V.V.V.C.C.C.C.C.C.C.V.C.C.C.C.C.C.C.V.<.$.+._ @.@.@.@.%.V.C.C.C.C.Z.Z.Z.S.S.S.S.S.S.S.S.S.S.S.S.S.S.S.S.S.S.S.S.S.S.S.S.S.S.S.S.S.S.S.S.S.S.S.S.S.S.S.Z.Z.2.+.+.+.+.+.+.Z.K.S.S.S.S.K.S.S.S.S.S.S.S.S.S.S.S.S.S.S.S.S.S.S.S.S.S.S.S.S.S.S.S.S.S.S.K.K.S.S.S.Z.Z.Z.S.S.Z.Z.Z.Z.S.Z.C.%.%.%.] #.C.C.A.C.C.C.A.A.A.C.C.C.C.C.m.m.m.m.C.m.m.m.m.m.m.m.m.m.B.N.B.B.b.b.N.m.N.N.N.N.N.m.N.N.N.N.G.G.G.G.G.I.I.G.M.>.d.R.XXXXXX;X;X>X>X>X>X>X1X3X4X1XeXfXdXVXJXFXFXFXFXJXNXgXdX).^.).%X_._.|.-X}.{.{.T.T.l.j.j.h.s.s.s.u.u.t.t.t.7.z z z N 7.7.4.4.4.4.4.4.4.4.4.4.4.4.J T J J J T H H H H H H F H F F F F V V V E V V V V V V B B B B V B V B B d d y < < 4 + y d d d d d i ",
"O O X O O O O O O O O O O O + + + + @ % + + = = < = = = = = - - - - - - 1 1 7 ; ; ; 1 7 7 7 7 8 0 8 8 8 g g g g g g l l l l g g l z z z x x x x x Z Z K K K I I P P P P P =.a.a.a.a.a.`.`.`.`.uXfXbXHXFXFXFXFXFXFXzXfXyX~.`.`.].{.].].].].U.H.P.H.H.d.d.d.y.y.;.;.;.:.;.;.-.O.........X.X.......X.X.X.X.X.X.` ) / / / / ) ` X.X.X.X.X.X.X.#.#.#.X.#.#.#.#.#.#.#.#.#.#.#.#.%.%.%.#.%.%.#.%.%.%.%.%.%.%.$.%.%.%.%.%.%.#.#.#.#.+.+.#.@.@.@.@.@.+.@.@.@.+.+.+.+.+.+.#.#.#.#.$.$.%.%.<.$.<.$.$.$.$.<.<.<.<.<.<.<.<.<.$.$.<.<.<.&.&.&.$.$.<.$.$.<.$.$.$.$.+.+.@.@.+.+.@.$.<.<.<.2.2.2.<.<.<.<.<.2.2.2.<.<.<.<.<.<.<.<.<.<.<.<.<.<.<.<.<.<.<.<.<.<.<.%.%.%.#.#.+.#.#.#.X.#.#.#.#.X.` #.%.#.) ) ` X.X.X.X.X.X.X.X.X.X.X.X.X.X.` X.X.` ` X.X.X.X.X...............................:.....o.-.;.;.:.:.;.:.r.y.G.G.y.t.f.d.f.P.H.].].].].].|.|.|.|./.yXfXzXFXFXFXFXFXFXHXbXfXyX~ ^.^.~.^.^.k.k.k.k.s.q.q.w.w.w.=.=.=.=.P P P P D z z z x l x N z z N N N z N N N N z l l j j l j 0 0 0 0 0 0 0 0 0 0 9 9 9 7 9 9 9 9 7 1 1 1 1 1 3 6 6 6 < < < < 4 % < < < < + + < 4 4 4 4 * ",
"$ O O O O O O O + + + + + + @ * % + @ = = = , < < < 6 6 < 6 < - 6 6 6 6 1 1 7 7 1 ; 1 ; ; ; ; ; ; ; > ; > > > > 7 > 8 8 8 8 8 8 g g w l l l x z x Z Z K K K K I P P P P w.a.a.a.a.k.`.`.`.`.`.1XfXdXAXHXFXHXFXFXJXmXgXaX~.~.~.`././././.l.f.f.f.f.f.t.t.:.:.:.*.*.*.{ { { { { ( ` ` ( / ( ( ( ( ( ( ( ( ( / ( / ) ) ) ) ) / / ) ) ) ) ) ) ) ) ) ) ) ) ) ) ) ` ` ` _ ` ` _ ` _ ] ` ' ' ' _ _ _ _ _ _ _ _ @.@.@.@.+.+.+.+.+.#.#.#.#.#.#.#.%.%.#.#.+.+.+.+.#.#.#.#.$.$.$.$.+.+.+.+.$.$.+.$.$.$.+.@.+.+.@.@.@.+.+.@.+.@.+.+.+.+.+.+.+.+.$.+.+.+.+.+.+.+.$.+.+.+.+.+.+.+.+.@.@.+.+.+.@.@.+.@.@._ @.@.@.@.@.@._ @._ _ @.@._ _ _ _ ] ] ] ] ] ] ] ] ] ] ] ] ] ] ] ] ] ] ] ] ] ] ] ] ] ) ' _ ] ] ] ) ) ) ) ) / / / ] / / / / / / / / / / ( / / / / ( ( ( ( / ( ( ( ( ( ( ( ( ( ( ( ( ( ^ ( ( ( { { { { =.-.y.F.y.>.>.>.>.f.f.a.f.f.f.f./././././.aXsXNXJXFXFXFXFXHXAXdXfX'.! ~ ! ! a.a.a.a.w.=.P P P P I I Z Z Z x x x x x l l Z c z 8 8 8 8 > > > > > > > ; ; > ; ; ; ; ; ; : ; ; - - - - ; : = 1 7 1 7 1 6 6 6 6 6 6 6 6 6 < < < < < < < < 4 < < < 2 2 * O O O % % % * ",
"4 4 4 * , 4 < 3 3 3 3 3 6 6 6 6 6 6 1 1 7 9 9 9 0 0 0 0 0 0 9 9 9 9 9 0 0 0 0 0 0 0 0 0 0 0 j j j j j l z z N N N z A c z z z z z x z z c z K D D D D =.=.=.=.w.w.w.w.a.s.s.f.l.l./.(././.(._.|.aXgXmXJXFXFXFXFXHXDXdXfX#X~.`././.{.].].].U.U.H.f.f.d.d.y.y.y.;.:.:.:.-.-.........O...............` ` ) ) ) ` ..X.X.X.X.` ` ` ` ` ` ` ` ` ` ` ` ` ` X.X.X.X.#.#.X.#.#.#.#.#.#.#.%.%.%.%.#.#.#.#.#.#.#.#.%.%.%.%.%.%.%.%.%.%.%.%.%.%.%.%.%.%.%.%.<.%.%.%.$.$.$.$.%.$.$.$.$.$.$.$.$.<.$.<.$.$.$.$.+.+.+.$.$.$.$.$.$.$.$.$.$.$.$.$.&.$.$.$.$.$.&.&.&.2.2.2.2.&.$.$.$.$.2.2.2.2.2.2.2.2.2.2.2.2.2.2.2.2.2.2.2.2.2.2.%.+.@.+.+._ ] ] ] ] ] ] ] _ _ _ ] ] ] ] _ _ _ ] ] _ ] ] ] ] ] ] ) ) ] ] ) ] ) ) ) ] ] ] ] ] ) ) / / / / / / / / / / / ( ( ( / ) ) ` ) ) ) ) ) ` ) ` ` ` ` ` ........*.*.-.-.:.-.:.:.:.y.y.t.f.f.f.f.f.l././././././.`.2XfXfXAXHXFXFXFXFXJXmXgXaX~ ~ ~ ! a.a.a.a.a.a.a.=.=.=.=.=.=.P P P D D K K Z z K A A z z l l g g g g g g j g 8 w 8 8 8 8 8 8 8 7 7 7 9 0 0 7 1 6 0 0 0 0 0 0 0 9 9 9 q 1 1 1 6 < 6 6 6 6 6 6 < < < < 4 4 4 % % * 4 * 4 4 * ",
"5 5 5 3 5 3 5 5 9 9 9 9 y y 9 9 9 9 y 9 9 0 0 0 0 0 0 0 0 0 0 u M n j j j n n n M M M M M z N N N N N z N N A A N N A c z z c c c c A c A K K K K K D } =.*.=.7.w.q.q.q.s.s.f.l.l.l.l./././.|.`.yXfXzXFXFXFXFXFXFXJXbXfXuX^.`._.|.|. X X}.].[.].H.U.F.d.d.y.y.;.y.y.n.y.v.v.r.v.,.;.;.X.X.X.O.O.O.X.X.X.X.X.O.O.X.O.X.X.X.X.X.X.X.X.X.X.' X.X.#.#.X.X.X.X.X.#.#.#.#.#.#.#.#.#.' ' ' +.+.+.#.#.#.+.+.+.+.#.#.#.#.+.+.+.+.+.+.+.+.+.+.+.+.#.#.#.#.#.#.#.$.%.%.%.%.%.%.$.$.$.$.$.$.$.$.$.$.$.$.$.$.$.+.@.$.$.$.$.$.$.$.$.$.$.$.$.$.$.$.$.$.$.$.$.$.&.&.&.&.$.$.$.+.$.$.$.$.$.$.$.$.$.$.$.%.%.$.$.$.$.$.$.$.$.%.%.%.#.+.@.@.+._ ] ] ] _ ] ] ] ] ] ] ] ] ] ] ] ] ] ] ] ] ] ] ] ] ] ] ] ] ] ] ] ) ) ) ) / / / ) ) ) / ) / / / / / ] ) ) ) / / ) ` ` ) ) ) ) ) / ) ) ) ) ` / ` ` ` ` ..` ....-.-.-.*.*.:.:.:.y.f.f.f.f.f.l.H.].].].].].{..X/.uXfXbXHXFXFXFXFXFXFXzXfX9X~ ~.~.~.~.a.g.k.f.s.a.a.w.w.w.7.7.=.P J J J J J D K A A A A c z c z z z z z z z k l l l l l j j j l j j 0 0 0 0 0 7 0 0 0 0 9 9 7 9 9 9 9 9 9 9 9 1 < < < 1 1 5 5 3 3 6 6 6 6 6 4 5 y y y y y y ",
"* O % % % % % * < 4 < < 4 4 6 6 6 6 6 1 6 1 1 1 1 1 9 9 7 7 7 9 9 7 7 7 7 9 0 0 8 8 8 8 0 8 8 8 8 g 8 j j j l g j g g l g z z z z z z c c z z K K D J P =.=.7.w.w.t.q.a.s.f.f.l.l.(././.{.|. X|.5XfXsXVXHXHXFXFXFXJXVXsXfX#X)._.|.=X;X;X;XOXXXXX}.[.Y.d.y.d.y.M.G.G.G.G.N.N.N.N.N.m.m.m.n.m.v.b.b.v.v.v.v.v.v.v.b.b.b.b.b.b.<.,.,.%.%.%.<.1.1.<.1.1.<.,.%.%.#.#.%.%.%.%.#.' _ _ ` _ _ _ _ _ _ _ _ _ _ _ _ _ _ _ _ _ _ _ _ _ @.@.@._ _ _ _ _ _ _ _ @.@.+.+.+.+.+.%.$.$.$.$.$.$.$.$.$.$.$.$.$.$.$.$.$.] @.+.+.+.+.$.$.$.$.$.+.$.$.$.$.$.$.$.$.+.+.+.+.@.@.@.@.+.+.@.@.@.@.+.+.+.+.+.+.+.+.+.+.+.+.@.@.+.+.@.+.@.@.+.+.+.+.+._ ] ] ] ] _ @.@.@.@.@._ _ _ _ ' @.+.+._ _ _ _ _ _ _ _ _ _ ` ' #.%.#.#.%.%.#.%.%.%.,.,.<.<.<.1.<.<.<.<.,.,.,.,.v.b.b...) O.v.v.,.,.,.v.v.v.,.v.v.v.v.n.n.n.n.M.M.F.F.F.F.F.Y.Y.Y.Y.[.[.}. X X;X=X=X;X1X1X1X4XfXsXVXJXFXFXFXFXJXVXsXfX'.~ ^.~.`.`.(.{.{.(.(.l.j.j.s.s.u.u.w.w.w.8.8.8.7.*.=.} } } } } J J J J H H D H H D H H H A H F F A F F F V V N N 0 0 0 0 9 0 M M M M M M M M B B B B M d B B B B d m d d d u u u s f f f u y i i ",
"4 4 * * % * * * 4 4 < < < 6 6 6 3 6 6 6 6 6 6 5 1 1 9 q 7 7 7 9 9 7 9 7 7 9 0 0 8 8 8 8 0 0 0 0 8 8 8 8 8 8 j j j j g g z l l z z z l z z z D *.*.8.8.8.8.8.t.u.u.s.s.s.j.j.l.T.].{.|. X X-X=X,X=XaXgXbXJXFXFXFXFXFXFXzXfXyX^.|.|.=X;X;X;XOXOXXXXX[.E.d.:.d.y.y.I.G.G.G.N.N.N.M.m.m.m.b.v.v.b.b.v.v.v.b.b.b.v.b.b.b.b.b.b.m.m.m.b.b.b.C.m.m.m.V.m.C.C.C.V.C.V.b.V.V.V.V.<.X.` ` _ _ #.%.%.$.<.<.<.<.<.<.<.<.<.<.<.<.<.<.<.<.<.<.<.2.<.<.<.<.<.<.<.<.2.2.2.2.2.2.2.<.<.2.2.2.2.2.2.2.<.<.$.$.$.$.+.+.] @.+.+.2.2.2.D.2.C.D.D.D.2.D.2.D.D.D.2.2.2.2.2.2.<.$.$.$.$.$.$.$.<.<.<.<.<.2.2.2.2.2.<.<.<.<.$.<.<.<.<.$.+.+.+.+.+.+.+.] $.<.2.2.V.D.D.D.C.V.V.V.V.V.D.D.Z.C.C.V.V.V.V.V.V.V.V.V.V.V.V.V.V.V.V.V.V.V.V.b.b.b.V.b.b.<.1.b.b.b.b.1.b.b.b.,./ ` m.N.b.m.m.b.N.N.N.m.N.N.N.N.N.N.N.G.G.G.I.I.I.Y.Y.Y.XXXXXXXXOX;X;X>X1X1X2X4X3X4X1XuXfXlXFXFXFXFXHXFXJXbXgXuX~ ^.^.~._._.|.*X{.{.{.T.l.j.j.j.j.s.u.u.t.t.t.t.q.8.8.8.8.8.7.8.4.4.} } 4.4.4.4.4.J J T H J T J J T J J H J H H H N 0 0 0 6 N V V V V V V V V V B B B B B B B B B d d d d d u u u u p u f y y y y ",
"y y y y 5 4 % % < 2 < < < < 6 3 5 1 1 1 1 1 1 1 q 5 q q 9 7 7 9 9 9 9 8 9 9 7 7 7 7 8 0 0 j j l z z N N N N N A N N c z z z z h z z l z z A *.} *.*.*.8.8.8.w.t.u.u.s.s.j.j.l.l.{.{.{.|.-X-X=X=X=XyXfXfXDXHXFXFXHXFXHXmXgXhX_._.|.=X;X;X;X;XOXXXXX}.[.d.t.d.y.M.I.G.G.G.G.N.N.N.m.m.m.m.m.m.v.v.v.v.v.b.b.b.b.b.b.b.b.b.b.b.b.b.b.b.b.b.b.b.m.m.m.V.V.V.V.b.b.V.V.V.V.V.C.#._ ` _ +.%.2.C.Z.S.Z.Z.Z.Z.Z.Z.Z.Z.Z.Z.Z.Z.Z.Z.Z.Z.Z.S.S.S.S.S.S.S.S.S.S.S.S.Z.Z.Z.Z.S.S.S.S.S.S.S.S.S.S.S.Z.Z.2.$.$.] ] ] @.+.D.S.S.S.S.S.S.S.S.S.S.S.S.S.S.S.S.S.S.S.S.S.K.S.S.S.S.S.S.S.S.S.S.K.S.S.S.S.K.K.K.S.S.S.S.S.S.S.S.S.C.%.+.+.+.@.@.%.Z.C.C.C.C.D.V.C.C.C.C.C.V.V.D.V.V.C.C.V.V.V.V.V.V.V.V.V.V.V.V.V.V.V.V.b.V.b.b.b.b.b.b.b.b.b.b.1.1.b.<.1.b.,.` ) ) X.m.b.b.m.v.b.m.m.m.m.m.N.m.N.N.N.G.G.G.G.G.G.I.Y.Y.Y.XXXXXXXX;X;X;X;X1X1X2X2X3X4X5XhXsXmXJXFXFXHXFXHXDXdXkX#X! ^.a.'._.{.{.{.{.{.{.l.l.j.j.s.u.u.u.t.t.t.w.8.8.8.8.8.8.8.7.7.7.4.} 4.J 4.T 4.J J T T J J J H J J H H H H F F F F 0 0 7 1 V V V N N V V V V V B B M B B M d B d d d d d d u u u s p u i y y i y ",
"y y y y y y * * < 4 < < 6 y s s s s d B B B B B B B B B V N V N V N V V N N N M N N N F F F H H J H J J J J J J } J J } J J D A z z z l z K } } *.*.8.8.8.8.w.w.t.u.u.s.s.s.j.U.{.].{.|.|.-X=X=X=X1XhXsXNXJXFXFXFXFXHXDXdXkX9X`.|.|.=X;X;X;XOXOXXX}.[.F.f.F.y.d.I.G.G.G.G.N.N.M.N.m.m.m.n.n.v.n.b.v.v.b.b.v.b.b.b.b.b.b.b.b.b.b.b.b.b.b.b.b.m.V.m.V.V.V.V.b.V.V.V.V.V.V.C.<._ ` _ @.<.A.C.C.A.Z.C.Z.C.C.Z.C.C.C.C.C.C.Z.Z.Z.Z.Z.Z.Z.Z.Z.Z.Z.Z.Z.S.Z.Z.Z.Z.Z.Z.Z.Z.Z.S.S.S.S.Z.Z.Z.S.S.S.S.S.2.$.] ] ] ] $.S.S.S.S.S.S.S.S.S.S.S.S.S.S.S.S.S.S.S.S.S.S.S.S.S.S.S.S.S.S.S.S.Z.Z.Z.Z.S.S.S.Z.S.S.Z.Z.Z.S.S.S.S.S.S.Z.#.+.+.+._ 2.D.V.V.C.V.V.C.C.C.C.C.C.C.D.V.V.C.V.V.V.C.V.V.V.V.V.V.2.V.V.V.V.V.V.V.V.V.b.b.b.b.b.V.b.b.b.<.b.1.b.b.1.b.%.) ` ) X.m.b.b.v.m.b.N.N.N.m.N.N.N.N.N.G.G.G.G.G.I.I.I.Y.Y.Y.[.XXXXOX;X;X>X1X1X2X3X3X4X3XyXfXdXDXHXFXHXFXFXJXmXgXhX^.~.^.~.`._.|.*X}.{.{.{.l.j.j.j.s.u.u.u.t.t.e.q.8.8.8.8.5.7.7.7.4.4.4.4.4.4.J T 4.} J J } J J J J J J J H H H H F F F 0 0 1 7 V V V V V V V V V B B B B B B B d d d d d d d d u u u s u y f y y i i ",
"y y y y y y 3 % 4 < < 4 y d s d m d B B B B B B B B B V V V V V V V V V V F F F F H H H H H H H H H H J J J J J J J J J } } } } z z k l z D } } *.*.8.8.8.8.w.t.t.u.u.s.s.j.j.l.U.{.{.}.|. X-X=X;X-XuXfXzXFXFXFXFXFXFXJXbXgXaX)._.*X#X1X;X;X;XXXXXXXXXH.d.F.>.M.I.G.G.G.G.G.N.N.n.n.N.m.m.m.m.v.b.b.b.b.v.v.v.v.b.b.b.b.b.b.b.b.b.b.b.b.b.b.m.m.V.V.V.V.V.b.V.V.V.V.V.V.C.<._ _ _ +.V.A.C.A.A.Z.C.C.Z.Z.Z.C.C.C.C.Z.C.C.C.C.Z.Z.Z.Z.Z.Z.Z.Z.Z.Z.Z.Z.Z.Z.Z.Z.Z.Z.Z.Z.S.S.S.S.S.S.Z.S.S.S.S.S.V.$.] @.] ] 2.S.S.S.S.S.S.S.S.S.S.S.S.S.S.S.S.S.S.S.S.S.S.S.S.S.S.S.S.S.S.S.S.S.S.S.Z.Z.S.S.S.S.Z.Z.Z.Z.S.S.S.S.S.S.S.<.+.+.+.@.2.D.V.V.V.C.C.C.V.C.C.C.C.C.D.V.V.V.V.C.V.V.V.V.V.V.V.V.V.V.V.V.V.V.V.V.V.V.V.b.b.b.b.b.b.b.b.b.b.<.b.b.<.b.%.` ) ) X.m.m.b.b.b.m.m.N.m.m.N.N.N.N.G.G.G.G.G.G.I.I.Q.Y.E.R.XXXXXXOX;X;X>X1X2X4X3X4X4X4XaXgXbXJXFXFXHXFXHXFXlXfXyX^.~.~.~.`.*X{.{.{.{.{.T.l.j.j.j.s.u.u.u.t.t.t.t.8.8.8.8.8.4.4.4.4.4.4.4.} J T T } } J J J T J J J J J J H H H H F F F 0 0 6 7 V V V V V V V V V B B B B B B B B B d d d d s s s u u s f f f y y i i ",
"y y y y y y 5 % 4 < < < f d d d m d B B B B B B B B B V V V V V V V F V V V F F F H H H H H H H H H H J J J J J J J J } } } } } A z z z z D } } *.*.8.8.8.8.8.w.t.u.u.u.s.j.j.U.U.].{.{.}. X-X=X=X-X4XfXgXVXJXFXFXFXFXHXAXdXkX,X).|.=X1X>X;X;XOXXXXXXXH.d.F.y.F.E.I.G.G.G.G.G.N.N.N.N.m.m.n.m.m.b.b.b.b.v.v.b.n.b.b.b.b.b.b.b.b.b.b.b.b.b.m.m.m.V.V.V.V.b.V.V.V.V.V.V.V.C.<._ _ _ +.V.C.C.A.A.C.C.C.Z.Z.Z.C.C.C.Z.C.C.C.C.Z.Z.Z.Z.Z.Z.Z.Z.Z.Z.Z.Z.Z.Z.Z.Z.Z.Z.Z.Z.Z.S.S.S.S.Z.Z.Z.S.S.S.S.S.V.$.] ] ] ] 2.S.S.S.S.S.S.S.S.S.S.S.S.S.S.S.S.S.S.S.S.S.S.S.S.S.S.S.S.S.S.S.S.S.S.S.S.Z.S.S.Z.S.Z.Z.Z.Z.Z.S.S.S.S.S.S.V.+.+.+.@.2.D.V.V.V.C.D.D.C.C.C.C.C.C.D.C.V.V.V.C.V.V.V.V.V.V.V.V.V.V.V.V.V.V.V.V.V.V.V.b.b.b.b.b.b.b.b.b.b.<.b.b.<.b.%.` ) ) X.m.m.b.m.m.N.N.N.N.N.N.N.N.N.G.G.G.G.G.G.I.I.E.E.E.XXXXXXXX;X;X;X>X1X4X3X3X4X3XyXfXdXAXJXFXHXFXFXHXVXsXfX&X^.~.~.a.).*X|.}.-X{.T.U.U.j.j.j.s.u.u.u.t.t.8.8.8.8.8.8.8.4.4.4.4.4.4.} } J J T 4.T J J J T J J J J J J H H H H F F F 0 0 - 7 V V V V V V V V V B B B B B B B B B d d d d s d s u u s f f f y y i i ",
"y y y y y y 5 * 4 < < 4 s p m s p d d B B B B B B B B V V V V V V V V V F V F F F F H H H H H H H H H J J J J J J J J J J J } } A z g z z D } } *.*.*.8.8.8.8.e.t.u.u.s.s.s.j.l.U.U.{.{.}. X X=X=X X=XaXgXbXHXFXHXFXFXFXHXbXgXuX).|.*X;X;X1XOX;XOXXXXXP.d.H.y.F.E.I.I.G.G.G.G.G.N.N.N.m.m.m.m.m.m.v.b.b.v.b.b.b.b.b.b.b.b.b.b.b.b.b.b.b.b.m.m.m.b.b.V.V.V.V.V.V.V.V.V.V.C.<._ _ _ +.C.C.C.A.C.C.Z.Z.C.Z.C.C.Z.Z.Z.Z.Z.C.Z.Z.Z.Z.Z.Z.Z.Z.Z.Z.Z.Z.Z.Z.Z.Z.Z.Z.Z.Z.Z.Z.Z.Z.Z.Z.Z.Z.S.S.S.S.S.S.Z.$.@.@.@.] 2.S.S.S.S.S.S.S.S.S.S.S.S.S.S.S.S.S.S.S.S.S.S.S.S.S.S.S.S.S.S.S.S.S.S.S.S.Z.Z.Z.Z.Z.Z.Z.Z.Z.Z.S.S.S.S.S.S.Z.+.@.@.@.2.D.V.V.V.D.D.C.C.C.C.C.C.C.D.D.V.V.V.V.C.V.V.V.V.V.V.V.V.V.V.V.V.V.V.V.V.V.V.b.b.b.b.b.b.b.b.b.b.<.b.b.1.1.<.X.) ` X.m.m.m.m.m.N.N.N.N.N.N.N.N.G.G.G.G.G.I.I.I.I.E.E.E.XXXXXXXX;X;X;X1X4X3X1X4X4X4XaXfXbXHXFXFXFXFXFXHXbXgXuX^.^.~.~.a.`.|.{.}.{.{.T.U.l.j.j.s.i.u.u.t.t.t.8.8.8.8.8.8.8.4.4.4.4.4.4.4.} } J J J T J J J T J J J J J J H H H H F F F 0 0 - 7 V V V V V V V V V B B B B B B B B B d d d d d d s u u u p f f y y i i ",
"y y y y y y 5 @ 4 < 2 3 s d d d m d d B B B B B B V B V V V V V V V V V V V F F F F H H H H H H H H H J J J J J J J J J J J } } A z g g z D } } } *.*.*.8.8.8.8.t.t.u.u.s.d.j.j.l.U.U.{.{.}.}.-X=X X-XrXkXdXAXHXFXFXFXFXJXVXsXfX#X).#X=X1X1X;X;XOXXXXXH.F.H.:.F.E.I.I.G.G.G.G.G.N.N.N.N.N.m.m.m.m.m.b.b.b.b.b.b.b.b.b.b.b.b.b.b.b.b.b.b.b.m.m.m.b.b.V.V.V.V.V.C.V.V.V.V.C.<._ _ _ +.C.C.A.A.C.C.C.C.C.C.C.C.Z.Z.Z.Z.Z.Z.Z.Z.Z.Z.Z.Z.Z.Z.Z.Z.Z.Z.Z.Z.Z.Z.Z.S.Z.Z.Z.Z.Z.Z.Z.Z.Z.S.S.S.S.S.S.S.Z.$.@.@.@.] 2.S.S.S.S.S.S.S.S.S.S.S.S.S.S.S.S.S.S.S.S.S.S.S.S.S.S.S.S.S.S.S.S.S.S.S.S.S.Z.Z.Z.Z.Z.Z.Z.Z.Z.Z.Z.S.S.S.S.Z.#.@.@.@.2.D.V.V.V.D.D.D.C.C.V.C.C.C.D.D.V.V.V.V.V.V.V.V.V.V.V.V.V.V.V.V.V.2.V.V.V.V.V.V.b.b.b.b.b.b.b.b.b.<.1.b.b.1.<.#.) ) O.m.m.m.m.m.m.N.N.N.N.N.N.N.G.G.G.G.I.I.I.Q.Y.E.E.XXXXXXXXXX;X:X:X1X2X3X4X4X3XeXfXsXVXHXFXFXFXFXHXAXdXfX#X^.).~.~.a.`.{.}.}.{.{.T.l.l.j.j.s.i.u.t.t.t.t.8.8.8.8.8.8.7.4.5.4.4.4.4.} } } } J J J J J J T J J J J J J H H H H F F F j 0 ; 7 V V V V V V V V V B B B B B B B B B d d d d d d s u u u p f f y y i i ",
"y y y y y y y + < < 2 3 s d d d B B B B B B B B B V V V V V V V V V V V V V F F F F H H H H H H H H H J J J J J J J J J J J } } S g z z z J } } } } *.*.8.8.8.8.t.u.u.u.s.s.j.j.l.U.U.{.{.}.}.-X-X=X X=XaXsXbXJXFXFXFXFXFXFXzXfXuX).#X,X,X>X;X;X;XXXXXU.P.F.t.I.E.I.I.I.G.G.G.G.G.N.N.N.n.N.N.m.m.m.b.b.b.b.b.b.b.b.b.b.b.b.b.b.b.b.b.b.b.m.m.b.b.V.V.V.V.V.V.V.V.V.V.V.C.,._ _ _ %.C.C.A.C.C.C.C.C.C.C.C.C.C.Z.C.C.Z.Z.Z.Z.Z.Z.Z.Z.Z.Z.Z.Z.Z.Z.Z.Z.Z.Z.Z.Z.Z.Z.Z.Z.Z.Z.Z.S.S.S.S.S.S.S.S.S.S.$.@.@.@.@.2.S.S.S.S.S.S.S.S.S.S.S.S.S.S.S.S.S.S.S.S.S.S.S.S.S.S.S.S.S.S.S.S.S.S.S.S.S.S.Z.Z.Z.S.S.Z.Z.Z.Z.Z.Z.S.S.S.S.#.@.@.@.2.D.D.D.D.D.D.D.C.C.V.V.V.V.C.C.V.V.V.V.V.V.V.V.V.V.V.V.V.V.V.V.V.V.V.b.b.b.V.V.b.b.b.b.b.b.b.b.b.b.b.b.b.1.,.%.` ) O.m.m.m.N.N.m.m.m.N.N.N.G.G.G.G.G.G.I.I.I.E.E.E.R.XXXXXXXXOX:X;X>X1X4X4X4X4X3XaXfXzXFXFXHXFXFXFXHXbXdXaX^.^.`.~.a.a.`.*X}.}.{.T.U.l.U.j.j.s.u.u.t.t.t.e.8.8.8.8.8.8.8.5.5.4.4.4.4.} } } 4.J } J J J J T J J J J J J H H H H F F F M 0 1 7 V V V V V V V V V B B B B B B B B B d d d d d d d s s u p y y y y i i ",
"y y y y y y y % < < 2 6 d d p d d B B B B B B B B V V V V V V V V V V V V V F F F F H H H H H H H H H J J J J J J J J J J J } } J g c c z } | } } } } *.8.8.8.8.e.t.u.u.u.s.j.j.j.U.U.{.{.{.}. X=X-X=X XyXkXdXDXHXFXFXFXFXJXBXsXfX#X_.#X=X>X;X;XOXXXXXH.P.U.f.Y.E.Y.Y.I.I.G.G.G.G.G.N.N.N.N.N.N.m.m.m.b.b.b.b.b.b.b.b.b.b.b.b.b.b.b.b.b.b.m.m.b.b.b.V.V.V.V.V.V.V.V.V.V.C.,._ ` _ %.C.C.A.C.C.C.C.C.C.C.Z.Z.C.C.Z.Z.Z.Z.Z.Z.Z.Z.Z.Z.Z.Z.Z.Z.Z.Z.Z.Z.Z.Z.Z.Z.Z.Z.Z.Z.Z.Z.Z.S.S.S.S.S.S.S.S.S.S.$.@.@.@.] 2.S.S.S.S.S.S.S.S.S.S.S.S.S.S.S.S.S.S.S.S.S.S.S.S.S.S.S.S.S.S.S.S.S.S.S.S.S.S.S.Z.Z.Z.S.Z.Z.Z.Z.Z.Z.Z.S.S.S.$.@.@.@.2.V.D.D.D.D.V.D.D.D.V.V.V.V.C.C.V.V.V.V.V.V.V.V.V.V.V.V.V.V.V.V.V.V.V.b.b.b.V.V.V.b.b.b.b.b.b.b.b.b.b.b.b.1.%.%.` ) O.m.m.m.m.m.N.m.m.N.N.N.G.G.G.G.G.G.I.I.E.E.E.E.R.XXXXXXXX;X;X:X1X1X4X4X4X4XeXdXsXBXHXFXFXFXFXHXDXdXfX9X~.).^.~.~.a.(. X{.{.{.T.U.U.l.j.j.s.u.u.t.t.t.e.8.8.8.8.8.8.8.8.5.4.4.4.4.4.} } 4.J 4.J J J J T J J J J J J H H H H F F H j 0 1 7 V V V V V V V V V B B B B B B B B d d d d d d d d s s u p i i y y i i ",
"y y y y y y y * < < 2 6 d d d d d B B B B B B B B V V V V V V V V V V V V F F F F F H H H H H H H H H J J J J J J J J J } } } } J g c A z D } } } } } } *.8.8.8.e.t.t.u.i.s.d.j.j.l.U.{.{.{.}.}. X X X X1XdXsXNXJXFXFXFXHXHXFXlXfXuX).|.=X;X1X;X;XOXXXU.P.P.f.Y.E.E.I.I.I.I.G.G.G.G.G.N.N.N.N.N.m.m.m.b.b.b.b.b.b.b.b.b.b.b.b.b.b.b.b.b.m.m.V.b.V.V.V.V.V.V.V.V.V.V.V.V.C.<._ _ _ %.Z.C.A.C.Z.Z.Z.Z.Z.Z.C.Z.C.C.Z.Z.Z.Z.Z.Z.Z.Z.Z.Z.Z.Z.Z.Z.Z.Z.Z.Z.Z.Z.S.S.S.S.Z.S.Z.Z.S.S.S.S.S.S.S.S.S.S.D.$.] ] @.] 2.S.S.S.S.S.S.S.S.S.S.S.S.S.S.S.S.S.S.S.S.S.S.S.S.S.S.S.S.S.S.S.S.S.S.S.S.S.S.S.S.Z.Z.S.S.Z.Z.Z.Z.Z.Z.Z.S.S.%.@.@.@.2.D.D.D.V.V.V.V.D.D.C.C.V.V.D.C.C.C.C.V.D.V.V.V.C.V.V.V.V.V.V.V.V.V.V.2.2.V.V.V.V.b.b.b.b.b.b.b.b.b.b.b.b.1.%.,.X.) O.m.m.N.N.m.m.m.N.N.N.G.G.G.G.G.G.I.Y.E.E.E.E.R.XXXXXXXXOX;X;X>X1X2X3X4X4X3XpXfXlXFXHXHXFXFXFXJXmXgXhX`.^.).`.g.a.a.(.}.{.{.{.T.U.U.j.j.s.i.u.u.t.t.e.e.8.8.8.8.8.8.8.5.4.4.4.4.4.} } } 4.T 4.} J J J T J J J J J J H H H H F F F 0 0 7 7 V V V V V V V V V B B B B B B M B d d d d d d d s s s u p i y y y i i ",
"y y y y y y y < < < 2 5 d p d d d B B B B B V B B V V V V V V V V V V V F F F F F F H H H H H H H H H J J J J J J } J J J } } } S z c S z D } } *.} } } *.8.8.8.8.t.t.u.u.s.s.j.j.l.U.].{.{.{.}.}.}. X=X XuXfXlXFXHXFXFXFXFXJXNXsXdX#X_.*X;X1X;X;X;XXX].f.F.f.Y.E.E.E.I.I.I.G.G.G.G.G.G.N.N.N.N.m.m.b.m.m.b.b.b.b.b.b.b.b.b.b.b.b.b.b.b.m.b.V.V.V.V.V.V.V.V.V.V.V.V.V.V.C.<._ _ _ %.Z.C.A.C.C.Z.Z.C.C.Z.C.C.C.C.Z.S.Z.Z.Z.Z.Z.Z.Z.Z.Z.Z.Z.Z.Z.Z.Z.Z.Z.Z.S.S.S.S.S.S.Z.Z.Z.S.S.S.S.S.S.S.S.S.D.$.] ] ] ] 2.S.S.S.S.S.S.S.S.S.S.S.S.S.S.S.S.S.S.S.S.S.S.S.S.S.S.S.S.S.S.S.S.S.S.S.S.S.S.S.S.Z.Z.S.S.Z.S.Z.Z.Z.Z.Z.S.S.$.@.@.@.2.D.D.D.V.V.V.V.D.D.D.C.C.C.C.C.C.C.C.V.D.V.V.V.D.V.V.V.V.V.V.V.V.V.2.2.2.V.V.V.V.b.b.b.b.b.b.b.b.b.1.b.b.<.%.,.X.` O.N.m.N.N.m.m.N.N.N.N.G.G.G.G.G.I.I.Y.E.E.E.R.XXXXXXXXXXOX;X;X1X2X2X3X3X3XeXdXsXNXJXFXFXFXFXFXFXlXfXyX^.).`.`.g.g.a.(.}.{.{.T.T.U.U.j.j.s.u.u.u.t.q.8.e.8.8.8.8.8.8.5.4.4.4.4.4.4.} } } } J 4.4.J J J T J J J J J J H H H H F F F 0 0 7 7 V V V V V V V V V B B B B B B M B s d d d d d f s s u u p y y y y i i ",
"y y y y y y y 4 4 < 4 5 d d s d d B B B B B B B B V V V V V V V V V V V F F F F F H H H H H H H H H H J J J J J J J J J J } } } S j A A z D } } } } | *.*.*.8.8.8.e.t.t.u.s.s.j.j.U.U.U.].{.{.}. X}. X=X X1XdXsXNXJXFXFXHXFXFXFXlXfXyX).#X=X;X;X;X;XOX].f.d.f.Y.XXE.E.E.I.I.I.G.G.G.G.G.N.N.N.N.m.m.b.m.m.m.b.b.b.b.b.b.b.b.b.<.b.b.b.b.b.m.m.m.V.V.V.V.V.V.C.C.V.V.V.V.A.<.] _ _ #.C.Z.A.A.Z.A.C.C.C.C.C.C.C.C.C.C.Z.Z.Z.Z.Z.Z.Z.Z.Z.Z.Z.Z.Z.S.Z.Z.Z.Z.Z.Z.Z.S.S.S.S.S.S.S.Z.Z.S.S.S.S.S.S.C.$.@.@.@.@.2.S.S.S.S.S.S.S.S.S.S.S.S.S.S.S.S.S.S.S.S.S.S.S.S.S.S.S.S.S.S.S.S.S.S.S.S.S.S.S.S.S.S.S.S.Z.Z.Z.Z.Z.S.S.S.S.<.@.+._ 2.D.V.V.D.D.D.D.C.C.V.V.V.V.V.C.C.C.C.V.D.V.V.V.V.V.V.V.V.V.V.V.V.V.<.b.b.V.V.V.b.b.b.b.b.<.b.b.b.1.1.b.b.<.%.%.X.] O.N.N.N.m.m.N.N.N.N.G.G.G.G.G.J.Q.Q.Y.E.E.E.XXXXXXXXXXOX;X>X:X1X2X3X4X4X3XpXfXlXFXFXFXFXFXFXHXNXsXdX_.^.^.`.`.a.a.a.].}.}.{.T.l.U.l.j.j.i.u.u.u.t.e.t.e.8.w.w.8.8.4.4.4.4.4.4.} 4.} } } } J J J J J J T J J J J J T H H H F F F F 0 0 1 7 V V V V V V V V V B B B B B B B M d B d d d s s u u u s f f y y y i i ",
"y y y y y y y 4 , < 4 5 d d s s d B B B B B B B B V V V V V V V V V V V V V F F F H H H H H H H H H H J J J J J J J J J } } } } S g A S z D } } } } } } *.8.8.8.8.t.t.t.u.u.s.j.j.j.U.U.U.{.{.{.}.}. X}.=X XuXfXzXFXFXHXFXFXFXJXNXsXdX#X_.,X,X>X;X;X;X].f.f.d.[.XXE.E.E.Q.I.I.G.G.G.G.G.N.N.N.N.m.N.m.b.m.m.b.b.b.b.b.b.b.b.b.b.b.b.b.b.b.m.m.m.V.V.V.V.V.V.C.V.V.V.V.V.C.<._ ` _ #.C.C.A.A.Z.C.Z.Z.C.C.C.C.C.C.Z.Z.C.Z.Z.Z.Z.Z.Z.Z.Z.Z.Z.Z.Z.Z.Z.Z.Z.Z.Z.Z.Z.Z.S.Z.S.S.S.S.Z.Z.S.S.S.S.S.S.D.$.@.] ] ] 2.S.S.S.S.S.S.S.S.S.S.S.S.S.S.S.S.S.S.S.S.S.S.S.S.S.S.S.S.S.S.S.S.S.S.S.S.S.Z.Z.Z.S.S.S.Z.Z.Z.Z.Z.Z.S.S.S.S.%.@.+.@.2.D.V.V.D.D.D.D.C.C.V.V.V.V.C.C.C.C.V.V.C.V.V.V.V.V.V.V.V.V.V.V.V.V.b.b.b.V.V.V.b.b.b.b.b.b.b.b.b.1.b.1.1.<.%.%.X.) O.m.N.N.m.N.N.N.N.N.G.G.G.G.G.L.I.Q.E.E.R.XXXXXXXXXXXX;X;X:X1X2X2X2X4X3XeXdXsXNXJXFXFXFXFXFXFXzXfXyX^.^.`.(.`.a.a.a.].{.T.T.T.U.j.j.j.j.i.u.u.u.t.e.8.e.8.8.8.8.8.8.4.4.4.4.4.} 4.} } } } J T T J J J T J J J J J J H H H F F F F 0 0 1 7 V V V V V V V V B B B B B B B M B B m d d d d s u u u u f f f y i i i ",
"y y y y y y y 4 , < < 5 d d s s d B B B B B B B B V V V V V V V V V V V V V F F F H F F H H H H H H H J J J J J J J J } } } } } S z A A z J } } } } } } } *.8.8.8.8.t.t.u.u.s.s.j.j.U.U.U.{.{.{.}.}.}. X X-X2XfXsXBXJXFXFXHXFXFXFXlXfXyX).#X,X1X;X;X;X.Xf.H.f.[.XXR.E.E.E.I.I.G.G.J.G.G.G.N.N.N.m.m.m.b.m.m.m.b.b.b.b.b.b.b.b.b.b.b.b.b.b.b.m.m.V.V.V.V.b.b.V.V.V.V.V.V.C.<._ ` _ #.C.C.C.A.Z.Z.Z.Z.Z.C.Z.Z.C.Z.Z.Z.Z.Z.Z.Z.Z.Z.Z.Z.Z.Z.Z.Z.Z.Z.Z.Z.Z.Z.Z.Z.Z.Z.Z.Z.Z.Z.Z.Z.Z.Z.Z.Z.S.S.S.S.C.$.@.] ] ] 2.S.S.S.S.S.S.S.S.S.S.S.S.S.S.S.S.S.S.S.S.S.S.S.S.S.S.S.S.S.S.S.S.S.S.S.S.Z.Z.Z.Z.Z.S.S.Z.Z.Z.Z.S.S.S.S.S.S.%.@.+.@.2.C.V.V.V.D.C.C.C.C.V.V.C.C.C.D.D.V.V.V.C.V.V.V.V.V.V.V.V.V.V.V.V.2.V.V.V.V.V.V.b.b.b.b.b.b.b.b.b.b.b.b.b.b.,.,.' ) O.m.m.m.N.m.N.N.N.J.G.G.G.G.G.I.I.E.E.E.R.XXXXXXXXXXOX;X;X:X1X2X2X4X5X3XpXgXlXFXFXFXFXFXFXHXBXsXfX_.^.`.`.(.(.a.a.f.].}.T.T.U.U.j.j.j.s.u.u.u.u.t.t.8.e.8.8.8.8.8.} } 4.4.4.4.4.4.} } } 4.T T T J J J J J J T J J H H H H F F F V 0 0 1 7 V V V V V V V V B B B B B B B B B d p d d d d s u u u u f p p y i i i ",
"y y y y y y y 4 < < < 5 d s s s B B B B B B B B B V V V V V V V V V V V V V F F F H H H H H H H H H H J J J J J J J J } } } } } D k S A z D } } } } } } } *.8.8.8.8.t.t.u.u.s.s.s.j.j.U.U.U.{.{.}.}.}. X=X=X-XpXfXzXFXFXFXFXFXFXJXNXsXdX#X_.|.,X;X;X;X[.H.H.f.Y.XXXXR.E.E.E.Q.G.G.G.G.G.G.N.N.N.m.m.m.m.b.m.m.b.b.b.b.b.b.b.b.b.b.b.b.b.b.b.m.m.V.V.V.V.b.b.V.V.V.V.V.V.C.<._ ` _ #.C.C.C.A.A.C.Z.Z.Z.C.Z.Z.Z.Z.Z.Z.Z.Z.C.Z.Z.Z.Z.Z.Z.Z.Z.Z.Z.Z.Z.Z.Z.Z.Z.Z.Z.Z.Z.Z.Z.Z.Z.Z.Z.Z.Z.Z.S.S.S.S.V.$.@.] ] ] 2.S.S.S.S.S.S.S.S.S.S.S.S.S.S.S.S.S.S.S.S.S.S.S.S.S.S.S.S.S.S.S.S.S.S.S.Z.Z.Z.Z.Z.Z.Z.Z.Z.Z.Z.S.S.S.S.S.S.S.#.@.+.@.2.C.V.V.V.C.C.C.C.C.V.C.C.C.D.D.V.V.V.V.V.V.V.V.V.V.V.V.V.V.V.V.V.2.V.V.V.V.V.b.b.b.b.b.b.b.b.b.b.b.b.b.b.b.,.,.O.) O.m.m.m.N.m.N.N.N.G.G.G.G.G.I.I.I.E.E.E.XXXXXXXXXXXX;X;X:X2X2X4X4X4X4XeXfXsXNXJXFXFXFXFXFXFXzXfXuX^.^.`.`.(.(.a.k.f.U.}.T.U.U.U.j.j.s.s.u.u.u.t.t.8.8.8.8.8.8.8.8.} } 4.4.4.4.4.4.} } } 4.T T T J J T J J J T J J H H H H F F F V 0 0 1 7 V V V V V V V V B B B B B B B B d d p d d d d s u u u p f p y y i i i ",
"y y y y y y y < 4 < < 5 d d d d B d B B B B B B B V V V V V V V V V V F V V F F F H H H H H H H H H H J J J J J J J J } J J } } D g c c k J } } } } } } } *.8.8.8.8.t.t.t.u.s.s.s.j.U.U.U.U.{.{.{.}.}. X=X=X X4XfXsXBXJXFXFXFXFXFXFXlXfXuX).#X,X;X;X;X.X].H.f.Y.XXXXE.R.E.E.E.I.G.G.G.G.G.G.N.N.N.N.N.m.b.m.m.m.b.b.b.b.b.b.b.b.b.b.b.b.b.b.m.m.V.V.V.V.b.b.V.V.V.V.V.V.C.%._ ` _ +.C.C.C.A.A.Z.Z.Z.Z.Z.Z.C.C.C.C.C.C.C.Z.Z.C.Z.Z.Z.Z.Z.Z.Z.Z.Z.Z.Z.Z.Z.Z.Z.Z.Z.Z.Z.Z.Z.S.S.Z.Z.Z.Z.S.S.S.S.C.$.@.] ] ] 2.S.S.S.S.S.S.S.S.S.S.S.S.S.S.S.S.S.S.S.S.S.S.S.S.S.S.S.S.S.S.S.S.S.S.Z.Z.Z.Z.Z.Z.Z.Z.Z.Z.Z.Z.S.S.S.S.S.S.Z.+.@.+.@.2.C.D.D.D.D.C.V.V.V.C.C.C.C.C.V.V.V.V.C.V.V.V.V.V.V.V.V.V.V.V.V.V.V.V.V.V.V.V.b.b.b.b.b.b.b.b.<.b.b.b.1.b.b.,.%.%.) ;.N.m.m.N.N.N.N.G.G.G.G.G.G.I.Q.I.E.E.E.XXXXXXXXXXOX;X;X:X1X1X4X4X4X3XpXfXlXFXFXFXFXFXFXJXBXsXfX#X^.`.`._._.`.a.k.f.l.{.U.U.U.U.j.j.j.u.u.u.t.t.e.8.e.8.8.8.8.8.8.} 4.4.4.4.4.4.4.} } } 4.} } } J J T J J J J J J H H H H F F F N 0 0 1 7 V V V V V V B V V B B B B B B B B B p d d d d s u u u f i y i y i i i ",
"y y y y y y y < 4 < < 5 d d d d B d B B B B B B B V V V V V V V V V V F V V F F F H H H H H H H H H H J J J J J J J J } J J J } S g g k g G } } } } } } } | 8.8.8.8.8.t.t.u.u.s.s.s.j.U.U.U.U.{.{.{.}.}. X=X;X=XuXgXzXHXFXFXHXFXFXHXNXsXfX#X_.|.=X;X;X.X].H.f.U.XXXXXXR.E.E.E.I.G.G.J.G.G.G.G.G.N.N.N.m.m.b.m.m.b.b.b.b.b.b.b.b.b.b.b.b.b.b.b.m.m.V.b.V.b.b.V.V.V.V.V.V.C.%.] ` _ #.C.C.C.C.A.C.Z.Z.Z.Z.Z.Z.C.C.C.C.C.C.Z.Z.C.C.Z.Z.Z.Z.Z.Z.Z.Z.Z.Z.Z.Z.Z.Z.Z.Z.Z.Z.Z.Z.S.Z.Z.Z.Z.Z.S.S.S.S.2.$.@.] ] ] 2.S.S.S.S.S.S.S.S.S.S.S.S.S.S.S.S.S.S.S.S.S.S.S.S.S.S.S.S.S.S.S.S.S.Z.Z.Z.Z.Z.Z.Z.Z.Z.Z.Z.Z.S.S.S.S.S.S.S.C.+.+.+.@.2.D.D.D.C.D.C.V.V.V.C.C.C.C.V.V.V.V.C.C.V.V.V.V.V.V.V.V.V.V.V.V.V.V.V.V.V.V.b.b.b.b.b.b.b.b.b.<.b.b.b.b.b.b.,.,.,...;.N.m.m.N.N.N.N.G.G.G.G.G.I.Q.Q.E.E.R.R.XXXXXXXXOX;X;X:X:X1X2X4X4X3XeXfXsXNXJXFXFXFXHXFXHXzXfXuX^.`.).`._.(.(.f.f.s.l.{.U.U.U.j.j.j.s.u.u.u.u.t.8.8.8.8.8.8.8.7.8.} 4.4.4.4.4.} } } } } 4.} J J J J T J J J J J J H H H H F F F V 0 0 1 7 V V V V V V V V V B B B B B B B B B d d d d d s u u u f f y y y i i i ",
"y y y y y y y * 4 < , 5 d d d d B d d B B B B B B V B B V V V V V V V V V V F F F H H H H H H H H H H J J J J J J J J J J J } } S g g g z } } } } } } } } | *.8.8.8.e.e.t.u.u.s.s.s.d.j.U.U.].{.{.{.}.}. X X;X=X4XkXsXBXJXFXFXFXFXFXFXzXfXuX_.|. X;X;X.Xl.H.f.].XXXXXXXXE.E.E.Q.I.G.G.G.G.G.G.N.N.N.N.m.m.m.m.m.m.b.b.b.b.m.b.b.b.b.b.b.b.b.b.m.m.m.V.V.V.V.V.V.V.C.V.V.C.%._ ` _ #.C.C.C.C.A.C.C.C.Z.Z.C.C.C.C.C.C.C.C.Z.Z.C.C.C.C.S.Z.Z.Z.Z.Z.Z.Z.Z.Z.Z.Z.Z.Z.Z.Z.Z.S.S.S.Z.Z.Z.S.S.S.Z.S.2.$.@.@.] ] 2.K.S.S.S.S.S.S.S.S.S.S.S.S.S.S.S.S.S.S.S.S.S.S.S.S.S.S.S.S.S.S.S.Z.Z.Z.Z.Z.Z.Z.S.Z.Z.Z.S.S.S.S.S.S.Z.Z.Z.C.+.@.+.@.2.D.C.C.D.D.C.V.V.V.C.C.D.D.V.V.V.V.C.V.V.V.V.V.V.V.V.V.V.V.V.V.V.V.V.V.V.V.b.b.b.b.b.b.b.b.b.<.<.b.b.<.b.1.#.,.,.X.O.N.m.m.m.m.N.N.G.G.G.G.G.Q.Q.E.E.E.E.XXXXXXXXXX;X;X:X>X1X1X4X4X4X3XaXdXzXFXFXFXFXHXFXJXBXsXfX#X^.`.`._.(.(.{.f.f.a.j.T.U.U.j.j.j.j.i.u.u.t.t.e.8.8.8.8.8.8.8.8.5.} 4.4.4.4.} } } } } } J J J J J J T J J J J J J H H H H F F F V 0 0 1 9 V V V V V V V V B B B B B B B B B B d d d d d d u u u f f f f y i i y ",
"y y y y y f y * 4 < , 5 d d d d B d d B B B B B B V B B V V V V V V V V V V F F F H H H H H H H H H H J J J J J J J J J J J } } A g g g k S } } } } } } } | *.8.8.8.e.e.t.t.u.u.s.s.d.j.U.U.U.U.{.{.}.}.}. X=X;X=XuXfXzXFXHXFXFXHXFXHXBXsXfX,X_. X;X;X]./.].f.].;XXXXXXXXXR.E.E.I.I.G.G.G.G.G.G.N.N.m.N.N.m.b.m.m.b.b.b.m.m.b.b.b.b.b.b.m.b.b.m.m.m.V.V.V.V.V.V.V.V.V.V.C.%.) ` _ #.C.C.C.C.C.A.C.C.C.C.C.C.C.C.C.C.C.Z.Z.Z.C.C.C.C.Z.Z.Z.Z.S.Z.S.Z.Z.Z.Z.Z.Z.Z.Z.Z.Z.Z.S.S.Z.Z.Z.Z.S.S.Z.S.2.$.@.@.] ] 2.K.S.S.S.S.S.S.S.S.S.S.S.S.S.S.S.S.S.S.S.S.S.S.S.S.S.S.S.S.S.S.Z.Z.Z.S.S.Z.Z.Z.S.Z.Z.Z.S.S.S.S.S.S.Z.Z.S.V.@.+.+.@.2.D.C.C.C.C.C.V.V.V.D.D.D.D.D.V.V.V.C.V.V.V.V.V.V.V.V.V.V.V.V.2.2.V.V.V.V.V.b.b.b.b.b.b.b.b.<.<.1.b.<.b.b.b.X.X.,...O.N.m.m.N.N.N.G.G.G.G.I.I.Q.Q.E.E.R.R.XXXXXXXXXX;X;X:X>X1X2X4X4X3XyXfXsXBXHXFXHXFXFXFXFXzXfXuX^.).)._.(.(.|.(.f.s.a.l.T.U.U.j.j.j.j.i.u.u.t.t.e.8.8.8.8.8.8.8.4.| } 4.4.} } } } } } } J J J J J J J T J J J J J J H H H H H F F N 0 0 1 9 V V V V V V N V B B B B B B B B B s d d d d d d u u u f y f f y i i y ",
"y y y y y y 9 % 2 4 * 6 d d d d B B M M B B B B B V V V V N V V V V V V F V F F F H H H H H H H H H H J J J J J J J J J J J } } c g g g g S } } } } } } } } *.*.8.8.8.t.t.t.u.u.u.s.s.j.U.j.U.U.U.{.}.}.}. X X;X=X4XfXsXBXJXFXHXFXFXFXHXzXgXaX_.|.=X;X}./.].f.].OXOXXXXXXXE.R.E.Q.I.Q.G.G.G.G.G.N.N.N.m.m.m.m.b.m.m.b.v.b.b.b.b.b.b.b.b.b.b.b.m.m.b.V.V.V.V.V.V.V.V.V.V.C.,.) _ _ #.C.C.C.C.C.A.C.C.C.C.C.C.C.A.C.C.C.C.C.C.C.C.Z.C.C.Z.Z.Z.Z.Z.Z.Z.Z.Z.Z.Z.Z.Z.Z.Z.Z.Z.Z.Z.Z.Z.S.S.S.S.S.S.<.$.@.] @.] V.S.S.S.S.S.S.S.S.S.S.S.S.S.S.S.S.S.S.S.S.S.S.S.S.S.S.S.S.S.S.S.S.S.Z.Z.Z.S.Z.Z.Z.Z.S.S.Z.S.S.S.S.Z.Z.Z.S.2.@.+.+.@.<.D.C.C.C.C.C.C.C.V.V.V.V.V.V.V.C.C.V.V.V.V.V.V.V.V.V.V.V.V.V.V.V.V.V.V.V.b.b.b.b.b.V.V.b.1.b.b.b.b.b.b.b.b.X.) ` ` ;.N.m.N.N.N.N.G.G.G.G.G.Q.I.I.E.R.R.XXXXXXXX;X;X;X:X:X2X2X2X4X3X4XaXdXbXHXFXFXFXFXFXJXBXsXfX#X^.).'._.(.(.{.].s.s.a.j.U.U.j.j.j.d.s.i.u.u.t.t.8.8.8.8.8.8.8.4.4.} 4.4.4.} } } } } J J T J J J J J J J J J J J J J J H H H H F F N 0 0 1 7 V V N V V V B B V B B B B B M B B d d d d d s d s s u p y f y i i i y ",
"y y y y y y 5 % < 4 * 6 u d d m B B B B B B B B B V V V V V V V V V V F F V F F F H H H H H H H H H H J J J J J J J J J J J } J c j g g g S } } } } } } } } *.*.8.8.e.8.t.t.u.u.d.d.s.d.j.j.U.U.U.{.}.{.}. X X=X,X=XpXfXlXFXFXFXFXFXFXJXVXgXkX9X_. X=X}.].].f.].>XOXXXXXXXXXR.R.E.E.I.G.G.G.G.G.N.N.m.N.N.m.m.m.m.m.m.b.b.b.m.m.b.b.b.b.b.b.b.b.m.m.V.V.V.V.V.b.V.V.V.V.C.%.) _ _ +.V.C.C.C.C.A.C.C.C.C.Z.Z.C.C.C.C.C.C.C.Z.C.C.Z.C.C.Z.Z.S.Z.Z.Z.Z.Z.Z.Z.Z.Z.Z.Z.Z.Z.Z.Z.Z.Z.S.S.S.S.S.S.Z.$.$.@.@.] @.Z.S.S.S.S.S.S.S.S.S.S.S.S.S.S.S.S.S.S.S.S.S.S.S.S.S.S.S.S.S.S.S.Z.Z.Z.Z.Z.S.Z.Z.Z.S.S.S.S.S.S.Z.Z.Z.Z.Z.S.<._ @.+.@.<.D.C.C.C.C.C.C.C.V.V.V.V.V.V.V.C.V.2.V.V.V.V.V.V.V.V.V.V.V.V.2.V.V.V.V.V.b.b.b.b.b.b.b.b.1.b.b.b.b.b.<.b.v.O.X.` ` ;.m.N.N.N.N.G.G.G.G.G.I.Q.Q.E.E.E.XXXXXXXX;X;X;X;X:X:X1X2X4X4X3XyXfXgXVXJXFXFXFXFXFXFXlXfXuX^.).`._.(.(.{.{.U.s.s.a.j.U.U.j.j.j.s.i.i.u.u.u.t.8.8.8.8.8.8.8.8.5.} 4.4.4.4.} } } } } } J } J T J J T J J J H J J H J H H F H F F V 0 0 1 7 V V V V V V V V V B B B B B B B B M s d d d s s s s s u y y y y i y y ",
"y y y y y y 5 * < < % < y d d d m d B B M B M B B B V V V V V V V V V F V V V F F F F F F H H H H H H H J J J J J J J J J J J } c j g g g A } } } } } } } } } *.*.8.8.8.e.t.u.u.u.d.s.s.j.j.j.l.U.U.{.}.{.}. X=X=X=X4XdXsXNXJXFXFXFXFXFXHXbXgXaX_.|. X].].].l.].OXOXoXXXXXXXE.E.E.E.I.G.G.G.G.G.N.N.N.N.N.m.m.m.m.m.m.b.b.v.b.b.b.m.b.b.b.b.b.b.m.m.m.V.b.b.V.b.V.V.C.b.C.<.) _ _ +.V.A.A.C.C.Z.A.A.A.C.Z.Z.Z.Z.Z.Z.C.Z.Z.Z.Z.Z.Z.C.C.C.C.Z.Z.Z.Z.Z.Z.Z.Z.Z.Z.Z.Z.Z.Z.Z.Z.Z.Z.Z.S.S.S.Z.K.2.$.$.] ] ] ] 2.S.Z.S.S.S.S.S.S.S.S.S.S.S.S.S.S.S.S.S.S.S.S.S.S.S.S.S.S.S.S.Z.Z.Z.Z.Z.S.Z.Z.Z.Z.S.S.S.S.S.S.Z.Z.Z.Z.C.S.%.] @.+._ 2.Z.V.V.C.V.C.C.V.V.D.V.V.D.C.V.V.V.C.V.V.2.V.V.V.V.V.V.V.V.V.V.V.V.V.V.V.V.b.b.b.b.b.b.b.1.1.b.b.b.b.b.b.,.X.#.` ` X.N.m.N.N.G.N.G.G.J.I.I.Q.E.E.XXE.XXXXXXXX;X;X>X:X>X:X2X2X4X4X4XhXsXbXHXFXFXHXFXFXJXNXsXfX&X^.).'.).(.{.{.{.l.a.s.a.j.U.j.j.j.j.s.u.u.u.u.t.e.8.8.8.8.8.8.8.5.5.| 4.4.4.4.4.} } } } J J J J J J J T T J J J J J H H H H F F F F N 0 0 6 9 F V V N V V N V B B B B B B B d d m d d d d s s s u u p i y y i i y y ",
"y f y y y y 4 + 4 < * 4 5 s d B B B B B B B B B B B V V V V V V V V V F F F F H H H H H H H J H J J J J J J J J J J J J J J J J z g g g g z } } } } } } } | | *.8.8.8.8.8.e.t.u.u.i.s.s.d.j.j.U.U.U.{.}.}.}. X=X=X1X=XuXfXlXDXFXFXFXFXFXHXAXdXfXyX). X{.].].f.f.OX>X;XOXoXoXXXXXXXE.E.Q.Q.J.J.G.G.G.G.N.N.N.m.m.m.m.N.N.m.m.m.m.m.m.V.m.m.V.m.m.m.C.C.C.C.C.C.C.V.C.C.V.C.#.) _ ) ` <.C.A.Z.A.A.S.S.S.Z.Z.Z.S.Z.Z.Z.Z.Z.Z.Z.Z.Z.Z.Z.Z.A.A.Z.S.S.S.S.S.S.S.S.S.S.S.S.S.S.S.S.S.S.S.S.S.S.Z.$.%.+.] ] ] ] +.S.K.S.K.K.K.S.S.S.S.S.S.S.S.S.S.S.K.K.K.K.K.S.S.S.S.S.Z.S.S.K.S.S.S.S.K.K.S.S.S.S.S.S.S.S.S.Z.S.S.S.S.V.+._ _ +._ <.Z.V.D.D.C.C.C.Z.Z.Z.Z.Z.D.D.C.C.C.V.V.V.V.V.V.V.V.V.V.V.V.V.V.V.V.V.V.V.V.V.V.b.V.b.b.b.b.b.b.b.b.m.b.m.;.` ` ` ` X.N.N.G.G.J.J.G.J.Q.Q.Q.E.E.E.XXXXXXXX;X;X>X>X:X:X:X2X2X4X4X3XuXkXdXAXHXFXFXFXFXFXDXlXfXyX^.`.)._.(.(.{.{.{.f.a.a.a.f.U.j.j.j.j.s.i.i.u.u.u.e.e.8.8.8.8.8.8.8.5.} 4.4.4.4.4.} } 4.} } J } } } J } T T J J J J H J J H H F F F H V 0 7 6 7 V V V V V V V V V B B B B B B B B m d B B B d s d f p f p p p p i p p ",
"5 5 5 5 5 4 * * < , , % < 6 5 9 y y y u 0 0 s s s s s u s s 0 M M s M M M M M M M M M M N N V V H H H H J J J J J J } } } } J D g k g k g g c D  . . .} } } } } *.*.8.8.8.8.t.t.t.u.u.d.s.s.f.j.U.U.U.].}.}. X X X=X=X4XdXsXmXJXFXFXFXFXFXJXmXsXdX|.`././.]./.f.]. X}..X[.[.[.H.I.I.G.G.F.M.M.M.v.v.,.v.,.;.,.,.;.,.,.;.,.,.,.,.,.,.%.,.%.%.,.%.,.,.,.,.,.,.,.,.,.,.,.,.#.) ] ] ) ] ' #.%.<.<.<.<.<.<.<.<.<.<.<.<.<.<.<.<.<.<.<.<.<.<.<.<.<.<.<.2.2.<.2.<.<.<.<.2.2.2.2.2.2.2.2.<.2.<.<.%.$.+.] @.] ] ] @.$.2.2.2.2.2.2.2.2.2.2.2.2.2.2.2.2.2.<.2.C.Z.Z.Z.Z.Z.Z.Z.Z.Z.Z.2.2.2.2.2.2.2.2.2.<.<.<.2.2.<.<.<.2.<.%.+.@._ @._ @.#.2.2.2.2.2.2.2.2.V.2.2.2.2.2.<.<.<.2.<.$.<.<.<.<.%.,.,.<.<.,.%.%.%.%.%.%.,.,.,.,.,.,.,.,.#.#.#.#.,.,.,.X.` ` ` ` ....;.N.N.N.N.G.G.G.G.I.Q.Q.Y.Y.E.[.XXXXXXOXOXOXOX;X;X:X>X1X>XwXdXsXmXHXFXFXHXFXFXKXmXsXdX).^.`.).(.`./.{.].U.s.a.a.w.t.s.d.d.s.s.u.u.u.t.e.8.8.8.8.8.*.*.*.4.} } } } 4.} 4.} } } J J J J J J J J J J J H J H J H H H F F F F V N M 7 6 - - 0 M M M N M M M M M s s s s u u y y 9 y y y 5 5 9 5 5 5 5 5 5 4 4 4 4 ",
"* % % * * , 4 4 4 < , 4 < < = < < < < < < < < 6 6 6 6 6 6 1 1 1 1 1 1 1 7 7 7 7 7 7 7 7 7 7 7 7 8 8 8 8 j j l l l z z z z z l g g g j g g g g z z z z z z z z z c c v K D D D P P =.=.=.=.=.=.a.a.a.s.f.f.f././././.|./.yXkXdXDXHXFXFXFXFXHXDXkXfXuX~.`./.].].].f.f.f.f.f.f.y.>.>.:.:.:.:.*.:.*.*.{ { ` ( / / ( / ( ( ( ( ( / ( / ( ( / / / / / ) ) ) ) ) ) ) ] ) ] ) ) ) ) ) ] _ ] ] ] ] ] ] ] ] _ ] _ ] ] _ ] _ _ _ _ ] ] ] ] _ _ ] ] ] ] ] ] ] _ @.@.] ] ] ] ] ] ] ] ] ] ] ] ] ] _ @.@.] ] ] @._ @.@.@.] @.@.@.@.@.@.@.@.@.@.@.@.@.@.@.@.@.@.@.@.@.@.@.@.@.@.@.@.@.@.@.@.@.@.@.] ] ] ] ] ] ] ] ] ] @.] @.] ] @._ _ _ _ _ _ @.@.@._ _ _ _ _ @.@.@.@._ _ _ _ _ _ _ _ _ ] _ _ _ ] ] ] ] _ ) ) ) ) ) ) ) ) ) ) ) ) ) ) ) ) ) ) ) ) ) ` ` ` ..` ` ........:.:.:.:.:.;.;.y.y.y.y.d.F.H.H.P.H.H.H.].].].]..X]./.uXfXlXDXFXFXFXFXFXHXDXdXkX9X~ ~.~.a.a.a.a.a.f.s.a.a.a.>.>.=.=.=.=.=.P P D D D K v v c c c c c z z z z z z k z h h z z l g g g g g j g g g 8 g 0 8 8 8 8 0 0 8 8 8 7 0 7 - - 6 < < - - < - - = = = = @ = + + + + + + + + + O + O O O O O O O O O O O ",
"% * * , 4 4 4 4 4 4 < 2 < 6 < < < < < < < < < 6 < 6 6 6 6 6 6 1 1 1 7 7 7 7 7 7 7 7 7 7 7 7 7 7 8 8 8 8 8 8 8 8 8 8 8 8 8 8 g g g g g g g g g g g h h h z z z z c c Z v v D D D P P P =.=.=.=.=.a.a.a.a.a.f.k./././././..XhXsXbXJXFXFXFXFXFXHXBXsXkX$X~./.].].].].].].H.f.H.f.d.d.d.y.y.:.:.:.:.:.:.:.........` ..` ` ` ` ` ) ) ) ) ) ) ) ) ) ) ) ) ) ) ) ) ) ) ) _ _ ) _ _ _ ) _ _ ' #.#.%.%.#.%.%.%.%.%.%.%.%.<.<.<.<.%.%.%.<.<.<.#._ +.+.+.+.#.%.$.$.$.$.$.$.$.$.$.$.$.$.$.$.$.$.$.$.$.+.+.+.+.+.+.+.@.+.+.@.+.+.+.+.+.@.+.+.+.+.+.+.+.+.+.+.+.+.@.+.+.+.+.+.+.+.+.@.@.@.+.+.@.@.@.@.@.@.@.@.@.@.@.@.@.@.@.+.+.@._ _ _ +.+.#.#.#.+.+.+.#.#.#.#.#.#.#.#.#.#.#.#.#.#.#.#.#.#.#.#.#.#.#.#.#.#.#.X.X.X.X.X.X.X.X.X.` X.X.` ` X.X.X.` X.X.;.X.;.;.;.;.;.;.;.:.:.:.:.;.>.y.y.d.f.d.H.H.H.H.H.].].].].].].{.].2XkXsXBXJXFXFXFXFXFXJXbXgXaX^.~.~.~.~.a.a.f.f.f.s.s.f.a.>.=.=.=.=.=.=.=.P P D D K K c c c c z c z z z h z z k g g g j z k j g g g g 8 8 0 8 8 0 j 0 0 0 0 0 0 0 0 0 0 0 0 1 7 7 9 9 9 9 9 9 9 q q 7 7 q 1 5 5 5 5 5 5 5 3 3 3 3 3 3 3 4 5 4 4 4 4 4 4 ",
"* * 4 4 , 4 4 4 , , < < < < < < < 4 < < < < 6 6 6 1 1 1 1 1 1 1 1 1 7 7 7 7 7 7 7 7 8 7 8 8 8 8 8 8 8 8 8 g g g l g g g g g g g g j j j g g z z z z z z z z c c c c c K K D D D P P P =.=.=.=.=.w.a.a.s.a.f.f././././..X/.rXkXgXVXJXFXFXFXFXFXHXbXdXaX~.`./.].].].].].].].H.H.H.H.H.d.y.y.>.:.:.:.:.:.:.:.:...` ` ` ` ` ` ` ` ` ` ` ` ` ` ` ` ` ` ` ` ` ` ` ` ` X.` _ ' X.` X.' ' #.%.%.%.%.%.$.%.%.%.%.%.%.%.$.<.<.<.<.%.%.%.<.$.<.#.@.+.' +.+.#.#.$.$.$.%.%.%.%.%.%.%.%.%.%.$.$.%.$.$.#.+.+.+.$.$.$.+.+.#.$.$.+.+.+.+.+.+.+.+.$.$.+.+.@.+.+.+.+.+.+.+.+.+.+.+.+.+.+.#.$.%.<.%.%.%.%.%.$.$.$.%.%.%.<.%.%.<.#.$.%.%.$.#.#.%.%.%.%.%.$.$.#.%.#.#.#.#.#.#.#.#.#.#.#.%.%.#.#.#.%.+.#.#.%.#.#.#.#.#.%.%.,.,.%.#.X.X.X.X.X.X.X.X.X.O.O.O.O.O.;.;.;.;.,.;.;.;.;.;.;.;.;.y.y.M.M.H.H.H.H.].[.[.[..X.X.X}.}. X X.XaXdXbXHXFXFXHXFXFXJXVXgXkX#X~ ~.~.~.`.`.k.k.f.f.f.s.f.f.t.w.=.=.=.=.=.*.=.=.D D D D D K A A A A A c c c z z c z g k A A A A A A A N N z z z l l j j l l j j 0 0 0 0 8 0 0 0 l M M m M n n n n m M M M p s s s s p u u u u u y y y 4 % 4 5 a y y y y r ",
"% % % * % 4 4 4 , , , , < < < < < < 6 6 6 1 1 1 1 1 9 1 q 7 7 1 7 7 7 7 7 7 7 9 8 0 0 0 0 8 0 8 8 8 8 8 g l l j j j j j j g k k g z z z z z z c z c c c c c c A D D D D D D P =.=.=.=.=.=.=.=.=.>.w.s.s.f.f.l./.].{.{.|.|.|.aXdXzXHXFXHXFXFXFXHXAXdXkX9X~./.]..X].].].].H.H.H.H.H.F.d.d.y.;.;.;.:.:.:.;.;.;.;.X.......` ..O.X.X.X.X.X.X.X.X.X.X.#.#.#.X.X.#.#.#.#.#.#.#.#.#.%.%.%.%.#.#.%.#.#.#.#.#.#.#.#.%.%.%.%.#.%.%.%.%.#.#.%.%.$._ ' @.+.#.#.#.#.#.%.$.$.$.$.$.$.$.$.$.$.$.$.$.$.$.$.$.$.$.$.$.$.$.$.$.$.<.$.$.$.$.$.$.$.$.$.$.$.$.$.$.$.$.$.$.$.$.+.+.@.@.] <.Z.Z.Z.S.S.S.S.S.S.S.S.Z.Z.Z.Z.Z.Z.Z.Z.Z.C.C.C.C.C.C.C.C.C.C.C.C.C.C.C.C.V.2.2.<.2.2.2.V.V.C.C.C.C.C.V.C.V.%.#.' ) #.<.V.V.V.V.C.C.C.C.V.b.b.b.b.<.<.b.b.b.b.b.b.m.m.m.m.m.m.N.N.G.G.G.G.G.G.G.I.I.E.E.E.XXXXXXOX;X:X;X;X;X>X X X X].yXkXdXAXJXFXFXFXFXFXHXbXfXaX^.).).)._.`.{.{.}.}.{.U.U.U.j.j.s.s.s.s.u.u.u.t.t.e.8.8.8.8.8.8.8.8.*.*.} } } J c z z z g S } J J J J J J J J H H G H H A H H F F F F V V V V V V V V N N N N V V B B B B B B B M d d B s s s d s s s u + O O 5 d p p p p i ",
"5 5 5 5 5 5 5 5 5 5 5 5 5 1 5 5 5 5 1 6 6 6 1 1 9 9 0 0 0 M n n j 0 9 7 7 7 7 7 7 0 l M N N N N N N V N A A A A A A A A A S S S A S S S S S S  . .}  .[ } } | | | *.*.*.*.8.e.e.t.t.t.u.t.=.=.=.=.w.a.f.f.U.{. X X=X=X,X1X=XeXkXgXNXJXFXFXFXFXFXKXmXsXfX|._.=X;XOXOXOXOXOXOXXXXX[.Y.U.F.F.H.M.y.n.;.;.;.;.;.:.;.X.X...` X.O.O.O.%.%.,.,.,.,.,.,.<.<.<.<.<.<.<.<.<.<.<.<.<.<.<.<.<.<.<.<.<.<.<.<.2.2.2.2.2.2.V.V.V.2.2.2.2.2.2.2.<.%.#.+._ @.+.2.C.C.C.C.C.C.C.C.D.D.C.C.C.D.D.D.D.D.D.D.C.D.Z.Z.D.D.D.D.D.D.D.D.D.D.D.D.D.D.D.D.D.D.D.D.D.D.D.D.D.D.2.2.$.+.@.] ] <.S.Z.Z.Z.Z.Z.Z.Z.Z.Z.C.C.C.C.Z.Z.Z.Z.C.C.C.C.Z.Z.Z.Z.Z.Z.Z.Z.C.C.C.C.Z.Z.Z.Z.Z.A.Z.Z.C.C.C.C.A.C.C.C.C.C.A.<.#._ ) #.C.V.V.V.V.V.b.V.b.b.m.m.m.m.m.m.m.m.m.m.m.m.m.N.N.A.N.N.G.G.G.G.G.G.G.I.Q.Q.E.E.@XXXXXXXoX;X:X:X:X:X2X4X2X X XOXdXgXmXHXFXFXFXHXFXJXBXsXfX<X).)._._._.|.|.}.}.}.{.T.U.U.U.j.j.j.d.j.s.i.i.u.u.t.e.e.t.8.8.8.8.8.8.8.8.8.4.5.} c z z g S } } J J J J J J J H H G H H H H H H H F F F F V V V V V V V N N N N V V B B M B B B B d d B s s s d s u s s * + O e d f p p i i ",
"a y y y y y y y u u u u u u u p p s s u u u u M m M M M M N M N N N M 7 7 7 7 7 7 l V F F H H H A H H H A G S H G G G G J G S  .} } } } }  .}  .} } } } } } | | | *.*.8.8.e.e.e.t.t.t.i.i.t.=.=.=.>.t.j.{.}.}.=X=X;X;X1X1X3X1XpXfXlXDXFXFXHXHXFXFXFXlXfXuX_.,X1X2X4X2X2X2X2X;X;X+XXXXXXXE.E.Q.I.I.G.G.G.G.N.;.;.;.X.X.` X.O.,.b.b.m.m.m.b.m.m.m.b.b.b.m.m.m.b.b.V.V.V.V.V.V.V.V.V.V.V.V.V.V.C.C.C.C.C.C.C.C.C.C.C.C.C.C.C.C.C.C.C.2.#.@.+.+.#.C.C.C.C.C.D.C.C.C.D.D.C.D.C.C.C.D.C.C.D.D.D.D.Z.Z.Z.D.D.D.D.D.D.D.D.D.D.D.D.D.D.D.D.D.D.D.D.D.D.D.D.D.D.S.2.$.@.] ] <.S.Z.Z.S.Z.Z.Z.Z.Z.C.C.C.C.C.C.C.C.C.C.C.C.C.C.C.Z.Z.Z.Z.C.C.C.C.C.C.Z.Z.A.A.A.A.C.C.C.C.C.C.C.C.C.C.C.V.C.<.#._ / #.C.V.V.V.V.V.V.V.V.V.m.m.V.m.m.m.m.m.m.m.m.m.m.N.N.N.N.N.G.G.G.J.G.G.J.Q.Q.Q.E.[.XXXXXXXX;X;X:X:X:X2X2X2X2X;X{.uXfXlXFXFXFXFXHXFXHXFXlXfXuX^.).)._._._.|.{.}.}.}.T.T.U.U.U.j.j.d.j.d.i.i.u.u.u.t.e.8.8.8.8.8.8.8.8.8.8.5.4.4.5.S z k g D } } J J J J J J G H G G H H H H H H H H F F F F V V V V V V N N N N B B B B B B M M B d d M s s d d s u s y + + O y d f p p i i ",
"r y y y y y y y y y u u u u u p p p s u m m n M m m M M M M M N M N N 0 7 7 7 7 8 N F V V F F A A A A H A A A A A G G G G G S S S J J } } } } } } } } } } } } | | | *.8.8.8.e.e.e.t.u.t.u.u.=.=.=.=.t.U.{.{.}.}. X=X;X1X1X1X3X4XdXsXmXJXFXFXFXFXFXJXBXsXfX5X_.,X1X4X2X2X:X:X:X;XOXOXXXXXE.E.Q.Q.Q.G.G.G.G.G.G.;.;.X.X...X.,.m.m.b.b.m.b.b.b.b.b.b.b.1.b.b.b.b.b.V.b.b.b.b.V.V.V.V.V.V.V.V.V.V.V.V.V.V.V.V.V.V.V.V.V.C.C.C.C.V.V.C.V.#.' ' ' #.C.C.C.C.C.C.C.C.C.C.C.C.D.C.C.C.C.D.Z.Z.D.Z.Z.Z.Z.D.Z.Z.D.D.D.D.D.D.D.D.D.D.D.D.D.D.D.D.D.D.D.D.D.D.Z.D.D.D.$.@.] ] <.S.Z.Z.Z.Z.Z.Z.Z.C.C.C.C.C.C.C.C.C.C.C.C.C.C.C.Z.Z.Z.Z.C.C.A.C.C.Z.Z.Z.Z.A.C.A.C.C.C.C.C.C.C.C.A.C.C.C.C.C.<.#._ ) #.C.V.C.C.V.V.b.b.V.V.m.m.V.m.m.m.m.m.m.m.m.m.N.N.N.N.N.N.G.G.G.J.G.G.J.Q.Q.E.E.@XXXXXXX+X:X:X:X2X2X2X4X1X4X=XrXkXsXVXJXFXHXFXFXFXJXmXsXdX_.^._.)._.|.|.|.}.}.}.{.T.U.U.U.P.j.j.j.d.d.i.i.u.u.u.t.e.8.8.8.8.8.8.8.8.8.4.4.4.4.5.J k k z S } } J J J G J J H H G G H H H H H H H H F F F F V V V V V N N N N V B B B B B B M B B d d M s s s d s u d 9 O + O y d p p p i i ",
"r y y y y y y y u u u u u u u p p p s n n n n M m M m M M M M N M N N 0 7 7 9 7 0 N N N V A A A A A A A A A A S A S S S G G G S S J J G } } } } } } } } } } | } | | *.*.8.8.e.8.e.p.t.t.t.i.=.=.=.=.a.U.U.}.}.}.=X X=X;X1X1X1X1XuXfXdXAXHXFXFXFXHXFXJXbXgXhX#X*X1X4X4X2X2X2X:X;X;XoXoXXXE.E.E.E.I.I.I.G.G.G.J.n.;.;.;...X.v.m.m.m.b.m.m.b.b.b.b.b.b.b.b.b.b.V.V.V.b.b.b.b.V.V.V.V.V.V.V.V.V.V.V.V.V.V.V.V.V.V.V.V.C.C.C.V.V.V.V.V.C.%._ _ _ #.V.C.C.C.C.C.C.C.C.C.C.C.C.D.D.D.D.C.D.D.D.D.D.Z.Z.D.D.Z.D.D.D.D.D.D.D.D.D.D.D.D.D.D.D.D.D.D.D.D.D.D.D.D.D.D.$.+.] ] <.S.Z.Z.Z.Z.S.Z.Z.C.C.C.C.Z.Z.C.C.C.C.C.C.C.C.C.C.Z.Z.Z.Z.C.C.C.Z.Z.Z.Z.A.A.A.C.C.C.C.C.C.C.C.C.C.C.C.C.C.A.<.#.` / #.C.V.V.b.V.V.V.V.V.V.m.m.V.m.m.m.m.m.m.m.m.m.N.N.N.N.N.N.G.G.J.J.J.G.I.I.Q.E.E.XXXXXX+XOX;X:X2X2X2X4X4X4X4X2XhXgXbXJXFXFXFXFXFXHXAXdXkX9X^.).)._._.|.|.|.}.}.}.T.T.U.U.U.P.j.d.j.d.i.i.u.u.u.u.t.t.8.e.8.8.8.8.8.8.8.5.4.} 5.5.J g j g S } J J J J J J J H H H G H H H H H H H F F F V V V V V V V V V V V V B B B B B B M B B d d s s s p d s u d 5 O + O y d p p p i i ",
"a y y y y y y y y u u u u u u p s p s u u M m n m n M M M M M N M N N 0 7 7 7 9 0 N V V V A A H A A A H H A A S G S G G G G S S S G } G } }  .} } } } } } } | | | | | *.*.8.8.e.e.e.p.t.t.y.=.P =.=.t.U.U.}.}.}.}. X;X;X1X1X1X3X3XaXgXbXHXFXFXFXFXFXHXDXdXfXuX_.,X3X4X2X2X2X2X:X;XOXoXXXXX@XE.E.Q.I.Q.G.G.G.G.G.;.;.;...X.v.m.m.m.m.m.m.m.b.b.b.b.b.b.b.b.b.b.V.V.b.b.b.b.V.V.V.V.V.V.V.V.V.V.V.V.V.V.V.V.V.V.V.V.V.V.C.C.C.V.V.C.C.%.%.+._ #.V.C.C.C.C.C.C.C.C.C.C.C.C.D.D.D.C.C.C.D.D.D.D.Z.Z.D.D.D.D.D.D.D.D.D.D.D.D.D.D.D.D.D.D.D.D.D.D.D.D.D.D.D.D.D.$.#.] ] <.S.S.Z.Z.Z.Z.Z.C.C.C.Z.C.Z.Z.C.Z.C.C.C.C.C.C.C.C.Z.Z.Z.Z.C.C.Z.Z.Z.Z.Z.A.A.A.C.C.C.C.C.C.C.C.A.C.C.C.V.V.C.<.#._ ) #.C.V.V.b.V.V.V.V.V.m.m.m.m.m.m.m.m.m.m.m.m.m.N.N.N.N.N.A.G.G.G.J.G.I.Q.Q.E.E.@XXXXXXXOX>X;X:X2X2X4X4X4X4X4XuXfXdXDXHXFXFXFXFXHXHXbXdXaX).)._._._.|.*X|.}.}.}.}.{.T.U.U.P.j.d.d.s.i.i.i.u.u.u.e.e.8.8.8.8.8.5.5.8.8.4.4.4.} | 5.D g l g S } J J J J J J J H H H G H H H H H H H F F F V V V V V V V V V V V V B B M B B B M B B d d s s s s s s u d 5 O + O y d p p p i i ",
"a y y y y y y y y u u u u u u p u u s u u s m M M M M M M M M N N M N 0 7 7 7 7 0 N V V A H A A A A A H H H A S H G G G G G G S D J G J G G }  .} } } } } } } } | | | 8.*.8.8.8.e.e.e.t.t.t.=.=.=.=.t.U.U.U.].}.}. X X;X;X1X1X1X1XeXkXsXNXHXFXFXFXFXFXJXNXsXfX5X*X1X3X4X4X2X2X:X:XOXOXXXXX@XE.E.E.Q.G.G.I.G.G.G.:.:.:...;.n.m.m.m.b.m.m.m.m.b.b.b.b.b.b.b.b.b.V.V.V.b.b.b.V.V.V.V.V.V.V.V.V.V.V.V.V.V.V.V.V.V.V.V.V.V.C.C.C.C.C.C.V.%.%.+._ #.C.C.C.C.C.C.C.C.C.C.C.C.C.D.D.C.C.C.C.C.D.D.D.D.Z.Z.Z.D.D.Z.Z.D.D.D.D.D.D.Z.Z.D.D.D.D.D.D.D.D.D.D.D.D.D.D.D.#.$.] ] <.S.S.Z.Z.Z.C.Z.Z.C.C.C.C.Z.Z.Z.Z.Z.Z.C.C.C.C.C.C.C.C.Z.C.C.C.C.C.Z.A.A.A.A.C.C.C.C.C.C.C.C.C.C.C.C.C.C.C.C.V.#.) ) #.C.V.V.V.V.V.V.V.m.m.m.m.m.m.m.m.m.m.m.m.N.N.N.N.N.N.N.G.G.J.J.G.I.I.I.Q.E.E.@XoXoX+XOX:X2X2X4X4X4X4X4X3XyXkXsXNXJXFXFXFXFXFXJXNXsXkX<X^.)._._._.|.*X X}.}.}.}.T.U.U.U.j.j.d.s.i.i.i.u.u.u.t.e.e.8.8.8.8.8.5.5.8.*.4.4.4.4.4.5.A g j k S } J J J J J J J H H H G H H H H H H H F F F V V F V N N V N V N V N B B B B B B M B B d d M s s s s s s d 3 O % O y d p p p i i ",
"a y y y y y y y y u u u u u u p p p s n n M M M m m M N N M M N N N N 0 7 7 7 7 0 N V V A A A A A A A H H A A A H S G G H G G S S  .S G } } } } } } } } } } } } | | | | | 8.8.8.8.e.e.e.t.t.=.P =.=.t.j.U.U.U.}.}.}. X=X;X1X1X1X3X1XuXfXdXDXHXFXFXFXFXFXGXbXgXhX*X,X3X4X4X4X2X:X:XOX+XXXoXXX[.E.E.E.Q.Q.I.G.G.G.;.:.:.:.;.b.m.m.m.m.m.m.m.m.b.b.b.b.b.b.b.b.b.V.V.V.b.b.b.V.V.m.V.V.V.V.V.V.V.V.V.V.V.V.V.V.V.V.V.V.V.V.C.C.C.C.C.C.%.+.' ' #.C.C.C.C.C.C.C.C.C.C.C.C.C.D.D.C.C.C.C.C.C.D.D.Z.Z.Z.D.D.D.D.Z.D.D.D.D.D.D.Z.D.D.D.Z.Z.D.D.D.D.D.Z.D.D.D.D.D.$.$._ ] <.S.Z.Z.Z.C.C.Z.Z.C.C.C.Z.Z.Z.Z.Z.Z.Z.Z.C.C.C.C.C.C.C.Z.C.C.C.C.C.C.A.A.A.C.C.C.C.C.C.C.C.C.C.C.C.C.C.C.C.C.V.X.) ) #.C.C.b.b.V.V.V.V.m.m.V.V.m.m.m.m.m.m.m.N.N.N.N.N.G.N.A.G.J.J.J.I.Q.Q.Y.E.[.[.XXoXoXOX:X:X:X2X2X4X4X4X4XeXhXgXbXHXFXFXFXHXFXHXDXdXfXyX^.).)._.%X|.*X-X=X=X}.}.T.T.U.U.P.j.d.d.s.i.i.u.u.u.t.t.e.t.8.8.8.8.8.5.5.5.*.*.4.4.4.7.5.A g j g S } G J J J J J J H H H G G H H H H H H F F V V V V V N N V V V V V N B B B B B B M B B d d s s s s d s u d 5 O % O y d f p p i i ",
"y y y y y y y y y y y u u u u p p p s u p M m m M M M M m M M N N N N 0 7 7 7 7 0 N V A V A A A A A H H H A A S H S G G G G S S S  .J } J } } } } } } } } } } } } | | | | *.8.8.8.e.e.e.e.t.=.P =.=.w.j.U.U.U.}.}.}. X=X;X;X;X1X1X1X4XdXsXbXHXFXFXFXFXFXGXDXdXfXuX_.,X3X4X4X2X2X:X:X:X+XoXXXXXE.E.E.E.Q.I.G.I.I.v.:.:.;.;.b.N.N.m.m.m.m.m.m.m.b.b.b.b.b.b.b.b.b.V.V.V.V.V.V.V.V.V.V.V.V.V.V.V.V.V.V.V.V.V.V.V.V.V.V.V.V.V.C.C.C.C.C.%._ ' ' #.C.C.C.C.C.C.C.C.C.C.C.C.C.C.C.C.C.D.D.C.C.C.D.D.D.Z.Z.C.D.D.Z.D.D.D.D.D.D.D.D.D.D.D.D.D.D.Z.D.D.D.D.D.D.Z.C.%.+.@.] <.S.Z.Z.C.C.C.Z.Z.C.C.C.Z.Z.Z.C.C.C.C.C.C.Z.Z.Z.C.C.C.Z.Z.Z.Z.A.A.A.A.A.C.C.C.C.C.C.C.C.C.C.C.C.C.C.C.C.C.C.V.#.] ] #.C.V.V.V.C.m.m.m.m.m.V.m.m.V.m.m.m.C.m.N.N.N.N.G.N.G.G.G.J.J.I.I.Q.Q.E.E.@XXXXXoXOX;X:X:X:X4X4X4X4X4X4XaXfXdXDXHXFXFXFXFXFXHXbXsXhX).).)._._.|.*X*X X=X}.}.}.T.U.U.U.P.d.d.d.i.i.i.u.u.u.u.e.e.8.8.8.8.5.8.5.5.8.5.5.5.4.4.4.5.A g k g S } J J J J J J G H J H G H H H H F F F F F F V V V V V V V N N N V V V V M M B B M B B d B M s d s d s u d 5 O + O y d p p p i i ",
"a y y y y y y y y u y u u u u p p p s u p M m m M M M M M M M N N N N 0 7 7 7 7 8 N V V V A A A A A H H H A A S H S G G G G S S S  .J } } } } } } } } } } } } } } | | | | | *.8.8.e.e.e.e.t.=.P P =.w.j.U.U.U.R.}.}.}.;X=X;X;X;X1X1X;XyXkXsXVXJXFXFXFXFXFXJXNXsXkX8X*X1X4X4X4X2X:X:X:XOXXXoXXXXX@XE.E.Q.Q.G.G.I.n.:.:.:.;.m.N.N.N.m.m.m.m.m.m.m.b.b.b.b.b.b.b.V.V.V.b.b.V.V.V.V.V.V.V.V.V.V.V.V.V.V.V.V.V.V.V.V.V.V.V.V.V.V.C.C.C.C.%.' ' ' #.C.C.C.C.C.C.C.C.C.C.C.C.C.C.C.C.C.D.D.D.C.C.C.D.D.D.Z.C.C.D.D.D.D.D.D.D.D.D.D.D.D.D.D.D.D.Z.D.D.D.D.D.D.Z.C.#.@.] ] <.S.Z.C.C.C.C.C.Z.C.C.C.Z.Z.Z.C.C.C.C.C.C.Z.Z.C.C.C.C.Z.Z.Z.Z.A.A.A.A.C.C.C.C.C.C.C.C.C.C.C.C.C.C.C.C.C.C.C.V.<.` / #.C.C.V.V.C.m.m.m.m.m.V.m.m.V.m.m.m.m.N.N.N.N.G.G.G.J.J.J.Q.Q.Q.Q.Q.E.E.E.E.XXXXXX+X>X:X:X2X2X4X4X4X4XyXkXsXNXJXFXFXFXFXFXJXBXsXkX9X^.)._._._.|.*X-X X}.}.}.}.U.U.U.j.P.j.d.d.i.i.i.u.u.t.e.e.e.8.8.8.8.8.8.5.5.8.5.5.5.4.4.4.5.A g k g S } J J J J J J G H H H G H H H H F F F F F F V V V V V V V N N N V V B B M M B M M B B d d M s d d s u u d 5 O % O y d p p p i i ",
"a y y y y y y y y y u u u u u p p p s u u s m m M M M M M M M N N M N 0 7 7 7 7 8 N V V V V A A A A A H H A A A G S G G G G G S S G J G  .} G  .} } } } } } } } } } | | | *.*.8.8.8.e.e.e.t.=.P P P =.j.P.U.U.U.T.}.}. X;X;X;X;X;X1X1X;XaXfXkXDXHXFXFXFXFXFXJXbXgXdX<X,X3X4X4X2X2X:X:XOXOXoXXXXXXXE.E.E.Q.Q.G.I.M.:.:.:.:.b.N.N.N.N.m.m.m.m.m.m.b.b.b.b.b.b.b.V.b.b.b.b.V.V.V.V.V.V.V.V.V.V.V.V.V.V.V.V.V.V.V.V.V.V.V.V.V.V.V.C.C.C.%.' ' ' #.C.C.C.C.C.C.C.C.C.C.C.C.C.C.C.C.C.D.D.C.C.C.C.D.D.D.Z.Z.D.Z.Z.D.Z.Z.D.D.D.D.D.D.D.D.D.D.D.D.D.D.D.D.Z.D.Z.C.@.] ] ] <.S.Z.Z.Z.C.C.C.C.C.C.C.C.Z.Z.Z.C.Z.Z.C.Z.Z.Z.C.Z.A.C.Z.Z.Z.Z.A.A.A.C.C.C.C.C.C.C.C.C.C.C.C.C.C.C.C.C.C.C.C.V.<.` / #.C.C.C.C.C.C.C.b.m.m.m.m.m.m.m.m.m.N.N.N.N.J.J.J.G.J.J.I.Q.Q.Q.Q.E.E.E.@XE.XXoXXXOX:X:X:X2X4X4X4X4XeXfXsXbXHXFXFXHXFXFXHXDXkXfXuX^.).)._._.|.|.=X=X=X}.}.}.T.U.U.U.j.j.j.s.s.i.i.u.u.u.e.e.e.e.8.e.8.8.8.5.5.5.8.5.5.5.4.4.4.4.A g g g S } J J J J J J H H H H G H H H H F F F F F F V V V V V V V V N N V V B B M B B M M B B d d M d d M d s u p 5 O + O r d p f p i i ",
"a y y y y y y y y u u u u u p p p p s u u s m m M M M M M M M N M n N 0 7 7 7 7 8 N V V V V A A A A A H H A A A G G G G G G G S S S J J G G G  . .} } } } } } } } } | | | | | *.8.8.e.e.e.p.=.P P P =.j.P.P.U.U.T.}.}.}. X;X;X;X;X;X1X1X2XdXsXbXJXFXFXFXFXFXHXDXdXfXuX&X,X3X4X4X2X:X:X:XOXXXoXXXXX@XE.E.E.Q.I.I.N.:.;.:.;.m.G.N.N.N.m.m.m.m.m.m.m.b.b.b.b.b.b.b.b.b.b.b.V.b.b.V.b.V.b.V.V.V.V.V.V.V.V.V.V.V.V.V.V.V.V.V.V.V.V.V.C.C.%.' ' ' #.C.C.C.C.C.C.C.C.C.C.C.C.C.C.C.C.C.D.D.C.C.C.C.D.D.Z.Z.Z.D.Z.Z.Z.Z.Z.Z.D.D.D.D.D.D.D.D.D.D.D.D.D.D.Z.D.D.D.C.@.] ] ] <.S.Z.Z.Z.C.C.C.C.C.C.C.C.Z.Z.Z.Z.Z.Z.C.Z.Z.Z.Z.Z.C.C.C.C.A.A.A.A.C.C.C.C.C.C.C.C.C.C.C.C.C.C.C.C.C.C.C.C.C.V.<.X./ #.C.C.C.C.V.C.C.C.m.m.m.m.m.C.m.m.m.N.N.N.J.J.J.G.J.J.J.Q.Q.I.Q.E.E.E.E.XXXXXXXXOX;X:X:X:X2X4X4X4X4XaXfXlXDXHXFXFXFXHXFXJXbXgXdX_.^.)._._._.|.|.=X=X}.}.}.}.T.T.U.P.P.j.d.i.i.i.i.u.u.u.e.e.e.e.8.e.8.8.8.5.5.8.5.5.5.5.4.4.4.4.A g g g D } J J J J J J H H H H H H H H H H F F F F F F F V V V V V V N N V B B B M M B M M B B d d M s s s d s u d 5 + O O r d p p p i i ",
"a a y y y y y y y u u u u u u p p p n n u n m m m M M M M M M N N N N 0 7 7 7 7 8 N V V V V F F A F H H H A H A A A G G G G G G S S J J } }  . .} } } } } } } } } } | | | | | *.*.8.8.e.e.e.=.D D P =.d.P.P.U.U.U.}.}.}. X X;X;X;X;X1X1X3XyXkXsXVXJXFXFXFXFXFXJXBXsXkXyX*X1X4X4X2X:X:X:X:X+XoXoXXXXX@XE.E.E.Q.E.G.;.;.;.;.N.G.G.N.N.N.m.m.m.m.m.m.m.b.b.b.b.b.b.b.b.V.V.V.V.b.b.V.V.V.V.V.V.V.V.V.V.V.V.V.V.V.V.V.V.V.V.V.V.V.V.V.C.%._ _ _ #.C.C.C.C.C.C.C.C.C.C.C.C.C.C.C.C.C.D.C.C.C.C.D.D.D.Z.Z.Z.Z.Z.D.D.D.D.Z.D.D.D.D.D.D.D.D.D.D.D.Z.Z.D.D.D.Z.D.C.@.] ] ] <.Z.Z.C.Z.Z.C.C.C.C.C.C.C.C.C.C.C.C.Z.Z.Z.Z.Z.Z.Z.Z.C.Z.A.A.A.A.C.C.C.C.C.C.C.C.C.C.C.C.C.C.C.C.C.C.C.C.C.C.V.<.#.) #.C.V.C.C.m.C.m.m.m.m.m.m.m.m.m.m.m.N.N.N.G.J.G.G.J.J.I.Q.Q.Q.E.E.E.@XXXXXXXXXXXOX;X:X:X2X2X4X4X4XuXkXsXBXJXFXFXFXFXFXJXBXsXkX9X^.).)._._.|.|.|.=X=X}.}.}.{.T.U.U.P.P.j.s.i.i.i.u.u.u.t.e.e.e.e.8.8.8.8.8.5.8.8.4.4.4.4.4.4.4.5.A g k g D } J J J J J J H G G G H H H H H H H F F F F V F V V V V V V V V M B B B B B B M M B B d d M s s s s s s s 5 O + O e d p d p i i ",
"a a y y y y y y y u u u u u u u p p n u u n m m m M m M M M N M M N N 0 7 7 7 7 8 N V A V V F F A F F A H A A S A A G G G G G G S S  .J } } G } } } } } } } } } } } | } | | | | *.| 8.e.e.e.[ D D P =.d.j.P.U.U.U.T.}.}.}. X X;X;X;X;X1X1X1XaXfXlXDXHXFXHXFXFXFXJXbXsXdX,X*X3X4X2X2X2X:X:XOXXXXXoXXXXX@X[.E.E.E.G.;.;.;.;.G.G.G.N.N.N.m.m.m.m.m.m.m.b.b.b.b.b.b.b.b.b.V.V.V.b.b.V.V.V.b.V.V.V.V.V.V.V.V.V.V.V.V.V.V.V.V.V.V.V.V.V.V.%._ _ _ #.C.C.C.C.C.C.C.C.C.C.C.C.C.C.C.C.C.C.C.C.C.C.C.D.D.C.Z.Z.Z.Z.D.D.D.D.D.Z.D.D.D.D.D.D.D.D.D.D.Z.D.D.D.Z.Z.Z.C.+.] ] ] <.Z.Z.Z.Z.C.C.C.C.C.Z.C.C.C.C.C.C.Z.Z.Z.Z.Z.Z.Z.Z.C.C.A.A.A.A.C.C.C.C.C.C.C.C.C.C.C.C.C.C.C.C.C.C.C.C.C.C.C.V.<.#.) #.C.V.V.C.C.C.m.m.m.m.m.m.m.m.C.m.N.N.N.G.J.J.G.J.J.I.Q.Q.Q.E.E.E.@XXXXXXXoXXXOX+X;X:X2X2X2X4X4XeXdXsXbXJXFXFXFXFXFXHXDXlXfXuX^.).'._._._.|.|.}.=X}.}.}.T.U.U.U.P.j.j.j.i.i.i.i.u.u.u.t.e.e.e.e.8.8.8.8.8.8.8.8.5.4.4.4.4.4.4.5.A g k g S } J J J J J J H G G G H H H H F H H F F F V V F V V V V V V V V N B B B B B B M M B B d M M s s d s p u s y + + O y p p p p i i ",
"a 9 y y y y y y y u u u u u u u p p n n u n m m M M M M M M N M N N N 0 7 7 7 7 0 N V V V V F F A A A A A A A S A A S G G G G G S S  .J } } J } }  . . .} } } } } } | | | | | | *.| *.*.e.e.[ D D D =.d.d.j.P.U.U.T.}.}.}.}. XOX=X;X=X;X;X;XwXdXgXbXJXFXFXFXFXFXFXFXlXfXaX<X,X3X4X2X2X:X:XOXOXXXXXXXXXXX@XE.E.E.G.;.;.:.,.G.G.G.G.N.N.m.m.m.m.m.m.m.m.b.m.m.b.b.b.b.m.m.V.V.b.b.V.b.V.V.V.V.V.V.V.V.V.V.V.V.V.V.V.V.V.V.V.V.V.V.V.V.$.@._ _ #.C.C.C.C.C.C.C.C.C.C.C.C.C.C.C.C.C.C.C.C.C.C.C.C.C.C.C.Z.Z.D.C.D.D.D.D.D.Z.Z.D.D.D.D.D.D.D.D.D.D.D.D.D.Z.Z.C.+.@._ ] <.Z.Z.Z.Z.C.C.C.C.Z.Z.Z.Z.C.C.C.C.C.C.Z.Z.C.C.C.C.C.A.A.A.C.C.C.C.C.C.C.C.C.C.C.C.C.C.C.C.C.C.C.C.C.C.C.C.C.V.<.#.) #.C.V.V.m.C.m.m.m.C.C.m.m.C.C.m.N.N.N.J.J.J.G.J.J.I.Q.Q.Q.E.E.E.XXXXXXXXoXXX+X>X:X:X:X2X2X2X4X4XhXfXlXFXFXFXHXFXFXFXJXbXsXfX_.^.).).(._.|.|.-X=X}.}.}.}.U.U.U.U.P.j.j.j.i.i.i.u.u.u.u.t.p.e.e.8.8.8.8.8.8.8.8.4.4.4.4.4.4.4.4.8.A g g g S } J J J J J J H G G G H H H H F H H F F F V V V V V N V N N V V N B B B B B B M B B B d M M s s s s p p s d 9 O + y p p p p i i ",
"a 9 y y y y y y y u u u u u u u p p n n p m m m M M M M M N N N N N n 9 7 7 7 7 0 N V V V V F F A A A A H A A S A A S G G G G G S S  .J } } J } }  . . .} } } } } } } | | | | | *.| 8.*.*.e.[ D D D =.s.d.j.j.U.U.U.T.}.}.}.}.}. X X;X;X1X1X=XyXkXsXBXJXFXFXHXFXFXJXVXdXkXuX*X1X4X2X2X:X:X:X;X+XXXoXXXXXXX[.E.E.G.y.;.;.v.J.G.G.G.N.N.N.m.m.m.m.m.m.m.m.m.b.b.b.b.b.m.m.m.V.b.b.V.V.V.V.V.V.V.V.V.V.V.V.V.V.V.V.V.V.V.V.V.V.V.V.V.V.$.+.' _ #.C.C.C.C.C.C.C.C.C.C.C.C.C.C.C.C.C.C.C.C.C.C.C.C.C.C.C.C.Z.D.D.D.D.Z.D.D.D.Z.D.D.D.D.D.D.D.D.D.D.C.D.Z.Z.Z.C.+.@.@.] <.Z.Z.Z.Z.C.C.C.C.Z.Z.Z.Z.Z.C.C.C.C.C.C.C.C.C.C.C.C.A.A.A.C.C.C.C.C.C.C.C.C.C.C.C.C.C.C.C.C.C.C.C.C.C.C.A.A.V.<.#.) #.V.V.C.m.C.m.m.m.m.C.C.C.C.C.N.N.N.J.J.J.G.J.I.J.Q.Q.E.E.E.E.@XXXXXoXoXXX>X+X>X:X:X2X2X2X4X4XpXfXdXAXJXFXFXFXFXFXJXBXsXkX9X^.).)._.(.|.{.|.=X=X}.}.}.R.U.U.U.U.P.d.d.s.i.i.u.u.u.u.t.e.e.e.e.8.8.8.8.8.8.8.8.4.4.4.4.4.4.4.4.8.A g k g S } J J J J J J H G G G H H H H H H H F F F V V V V V N V N M N B N V V B B B B M B B B d M M s s p s d s u u * + O y f p p p i i ",
"a a y y y y y y y u u u u u p u p p u u u n m m M M M M M M M M N N n 9 9 0 7 7 0 N V N V N V A H F F H H H A A A H G G G G G G S S S S G } } } } } } }  . .} } } } } | | | | | | o.*.8.e.-.[ D D D =.d.d.d.d.P.U.U.U.T.}.}.}.}.}.OX;X;X;X1X1X;XaXfXkXDXHXFXFXFXFXFXJXNXsXfX8X*X3X4X2X2X2X:X>X+X+XXXoXXXXXXX@XE.G.y.3.;.n.G.G.G.G.G.N.N.N.m.m.m.m.b.b.m.m.m.m.m.b.b.b.m.m.V.V.b.b.V.b.V.V.V.V.V.V.V.V.V.V.V.V.V.V.V.V.V.V.V.V.V.V.V.$.$.#._ #.2.C.C.C.C.C.C.C.C.C.C.C.C.C.C.C.C.C.C.C.C.C.C.C.C.D.D.C.C.C.D.D.D.D.D.D.D.C.D.D.D.D.D.Z.Z.D.D.C.C.D.D.D.Z.C.+.@.+._ <.Z.Z.C.C.Z.A.Z.C.C.C.C.C.C.C.Z.Z.Z.Z.Z.C.C.C.A.A.A.A.A.C.C.C.C.C.C.C.C.C.C.C.C.C.C.C.C.C.C.C.C.C.C.C.C.A.A.V.<.#.) #.C.C.C.C.C.m.C.m.m.m.C.C.N.N.N.A.N.A.G.G.G.J.I.I.Q.Q.E.E.E.XXXXXXoXXXXX+XOX;X;X:X:X2X2X4X3XyXkXsXNXJXFXFXFXHXFXFXDXdXfXuX^.`.)._._._.|.|. X}.}.}.}.}.Y.U.U.U.P.P.d.d.i.i.u.u.u.u.t.t.e.e.8.8.8.8.8.8.8.5.8.5.5.5.5.5.4.4.} 4.5.A g g g S } J J J J J J H H H H H H H H H F F F F F V V V V V V V V V V V B B B B B B M M M B d d s s s s s s u u d 5 O $ O y f p p p y i ",
"a a y y y y y y y u u u u u u u p p s u n n m m M M M M M M M M N N M 7 7 0 0 7 0 N V V A N A A A A H H A H A A A H H G G G G G S S S S G } } } } } } } }  .} } } } } } | | | | | | | *.e.-.[ D D D =.i.d.d.d.j.P.U.U.U.}.}.}.}.}.}. X;X;X>X1X1X4XdXsXbXHXFXFXFXFXFXFXHXbXsXdX1X,X3X4X2X1X:X:X;XOX+XXXoXoXXX@X@XF.y.y.;.n.L.L.G.G.G.N.N.N.N.m.m.m.m.m.m.m.m.m.m.m.m.b.m.m.m.V.V.b.b.b.V.V.V.V.V.V.V.V.V.V.V.V.V.V.V.V.V.V.V.V.V.V.V.#.#.#.' #.C.C.C.C.C.C.C.C.C.C.C.C.C.C.C.C.C.C.C.C.C.C.C.C.C.D.D.C.C.C.D.D.D.D.D.Z.Z.D.C.D.D.D.D.Z.D.D.D.C.C.Z.Z.D.D.C.+.@.+._ <.S.C.C.C.C.A.Z.C.Z.Z.C.C.C.C.Z.Z.Z.Z.Z.Z.C.C.A.A.A.A.C.C.C.C.C.C.C.C.C.C.C.C.A.C.C.C.C.C.C.C.C.V.C.C.C.A.A.C.<.X.) #.C.C.m.C.V.V.C.C.m.m.C.N.A.A.A.N.N.J.J.J.J.J.Q.Q.Q.E.E.E.XXXXXXoXoXoX+X+X>X:X:X:X2X2X4X4XeXfXsXbXHXFXFXHXHXFXFXHXbXgXhX_.^.)._._.|.|.{.}.}.}.}.}.}.T.U.U.U.P.P.j.d.i.i.i.i.u.u.u.t.e.e.e.8.8.8.8.8.5.5.5.8.5.5.5.| 5.4.4.5.} 4.A g g g S } J J J J J G G H G G H H H H H H H F F V V V F V V V V V V V M B B B M B B M M M B d d s s s s s s d u d 3 O % O y f f p p p y ",
"e a y y y y y y y u u u u u u u p p s n n n m m M M M M M M N N M N n 9 7 0 0 7 0 N V V N V A A A A A A A H A A S G G G G G G G S S S S G J } } } } }  . . .} } } } } } } } | | | | | *.*.*.[ D D D [ i.i.d.d.j.P.P.U.U.T.}.}.}.}.}.OX;X;X>X1X1X1XyXkXsXmXJXFXHXFXFXFXHXDXlXgXaX*X,X4X2X2X2X:X:X:XOX+XXXoXXXXXXXH.n.y.y.n.L.G.J.G.G.J.N.N.N.N.m.m.m.m.m.m.m.m.m.m.m.b.b.m.m.m.V.V.V.V.V.V.V.V.V.V.V.V.V.V.V.V.V.V.C.V.V.V.V.V.V.V.2.#.#.#.` #.C.C.C.C.C.C.C.C.C.C.C.C.C.C.C.C.C.C.C.C.C.C.D.D.D.D.D.D.D.C.D.D.D.Z.Z.Z.Z.D.C.Z.Z.D.Z.D.D.D.D.Z.Z.Z.Z.Z.D.V.+.@.+._ <.Z.C.Z.C.C.Z.C.C.C.C.C.C.C.C.C.C.Z.Z.Z.Z.Z.Z.A.A.A.C.C.C.C.C.C.C.C.C.C.C.C.C.C.C.C.C.C.C.C.C.C.V.V.C.A.A.C.C.<.X./ #.V.V.m.V.V.V.C.C.C.m.C.N.A.A.N.J.J.J.G.G.J.I.Q.Q.Q.E.E.E.XXXXoXXXoX+X+X+X:X:X:X2X2X2X4X4XaXfXlXDXHXFXFXFXFXFXJXNXsXkX,X^.).)._._.|.{.}.=X}.}.}.}.R.U.U.U.P.P.j.d.d.i.i.i.u.u.u.u.t.e.e.8.8.8.8.8.8.5.5.5.4.5.5.5.| 5.4.4.4.4.4.A g g g A J J J J J J G H G G G H H H H H H H F F F V V V V V V V V N N N V B B M B B M M M B d d M s s s s s s u p < O % O y d u p p i i ",
"a a y y y y y y y u u u u u u u u p s n n n m m M M M M M M N N N N M 9 7 0 n 7 0 N N V V A A A F A A A A H A A A G G G G G G G S S S G G J }  .J } }  . . .} } } } } } } } | | | | | *.*.*.D v D D [ i.i.i.d.d.P.P.U.U.U.T.}.}.}.}.}.OX;X;X>X1X1X1XpXfXdXAXJXFXFXFXFXFXJXVXdXfXuX*X1X2X2X2X:X:X:X>XOX+XXXoXoXXXH.M.y.y.n.Q.J.L.J.G.G.N.N.N.N.N.m.m.m.m.m.m.b.m.m.m.b.b.m.m.m.V.V.V.V.V.V.V.V.V.V.V.V.V.V.V.V.V.V.V.V.V.V.C.V.V.C.<.#.%.+.` #.C.C.C.C.C.V.C.C.C.C.C.C.C.C.C.C.C.C.C.C.C.C.C.D.D.D.C.D.D.C.C.C.D.Z.Z.Z.Z.D.D.D.Z.Z.D.D.D.D.D.Z.Z.C.Z.C.Z.2.+.@.+._ <.Z.C.Z.C.Z.C.C.Z.C.C.C.C.C.Z.C.C.C.C.Z.Z.A.A.A.A.C.C.C.C.C.C.C.C.C.C.C.C.C.C.C.C.C.C.C.C.C.C.C.C.C.C.A.C.C.m.<.' / #.C.m.m.m.V.C.m.m.m.m.C.N.A.A.J.J.J.J.I.J.I.Q.Q.E.E.E.E.XXXXoXXXoX+X+X>X:X:X:X4X2X2X4X4XaXfXdXVXJXFXFXFXFXFXHXAXdXkXyX^.)._._._.|.|.{.}.=X}.}.}.R.Y.U.U.U.P.P.F.d.i.i.i.u.u.t.u.t.e.e.e.e.8.8.8.8.8.5.5.5.5.5.5.| | 4.4.4.4.4.4.c g g g A J J J J J J H H H G G H H H H H H H F F V V V V V N V V N V V N V B B M B B M M M B d d M s s s s s u u p < O + + y d f p p i i ",
"a a y y y y y y y u u u u u u u p p s n s m M M M M M M M M M N N N M 7 7 0 M 0 0 N N V V V V F F A A A A H A A A H G S G G G G G G G J J  . . .J }  . .}  .} } } } } } } } | | | | | *.o.*.D D D D [ i.i.i.d.d.d.P.P.U.U.Y.R.}.}.}.}.}.;X;X;X1X1X1X4XaXdXzXFXFXFXFXFXFXFXJXNXsXkXyX*X3X4X2X2X:X:X:X>X+X+XXXoXXXH.H.y.y.M.Q.L.J.J.J.G.G.G.N.N.N.N.m.m.m.m.m.m.m.m.m.m.b.m.m.m.V.V.m.V.V.V.V.V.2.V.V.V.V.V.V.V.V.V.V.V.V.V.V.V.V.C.<.#.#.+._ #.V.V.V.C.C.C.C.C.C.C.C.C.C.C.C.C.C.C.C.C.C.C.C.C.C.C.C.C.C.D.D.D.Z.Z.Z.D.D.D.D.Z.Z.Z.Z.D.D.D.D.Z.Z.Z.C.C.Z.2.+.+.+._ <.Z.C.C.C.C.C.C.C.C.C.C.C.Z.Z.C.C.Z.Z.C.A.A.A.A.C.C.C.C.C.C.C.C.C.C.C.C.C.C.C.C.C.C.C.C.C.C.C.C.C.C.C.C.C.C.m.<.` / #.C.C.m.m.C.m.m.m.C.A.N.A.A.J.J.G.J.G.J.I.Q.Q.Q.E.E.@XXXXXXXoXXX+XOXOX:X:X:X:X2X4X4X4XyXkXsXmXJXFXFXHXHXFXFXFXzXdXaX^.).)._._.|.|.{.}.}.}.}.}.R.Y.U.U.U.P.j.j.d.d.i.i.i.u.u.p.p.p.e.e.e.8.8.8.8.8.5.5.5.5.5.4.4.} 4.} 4.4.4.} 4.A g g g S J J J J J J H G G G G H H H H H H F F V V V F F V N V V V V N N V V B B B B M M M B d d M s s s s s s u d < O + + y p f p p i i ",
"a a y y y y y y y u u u u u u p p p p n p m M M n M M M M M M M M N 0 7 7 0 n 0 7 N N V V V V F F A A A A H H A A A H S G G G G G G G J J J  . .G  . . .} }  .} } } } } } } | | | | | | | | v D D D [ u.i.i.i.d.d.P.P.U.U.U.Y.R.}.}.}.}.XX;X;X>X1X1X3XeXfXsXbXJXFXFXFXFXHXFXHXbXsXdX5X*X4X4X2X2X:X:X:X>X+XoXoXXXH.H.d.n.n.I.Q.G.J.G.J.G.G.N.N.N.N.N.m.m.m.m.m.m.m.m.m.m.m.m.m.m.V.m.V.V.V.V.V.V.V.V.V.V.V.V.V.V.V.V.V.V.V.V.V.C.C.<.#.#._ ` #.V.V.V.C.C.C.C.C.C.C.C.C.C.C.C.C.C.C.C.C.C.C.C.C.C.C.C.C.C.D.D.D.Z.C.Z.D.D.D.D.Z.Z.Z.Z.D.D.D.D.Z.Z.Z.C.C.Z.<.+.+.+._ <.S.Z.C.C.C.Z.Z.Z.Z.C.C.C.C.Z.A.C.Z.Z.A.A.A.A.C.C.C.C.C.C.C.C.C.C.C.C.C.C.C.C.C.C.C.C.C.C.C.C.V.V.C.C.C.C.C.m.<.` ] #.C.m.m.m.C.m.m.m.C.A.N.A.J.A.G.J.G.J.J.Q.Q.Q.E.E.E.XXXXoXoXXX+XOX+X:X:X:X2X2X2X4X4XeXdXsXbXHXFXHXFXFXHXFXHXbXsXfX'.^._.)._._.|.|. X}.}.}.}.{.R.U.U.U.U.P.j.j.d.i.i.i.u.u.p.p.e.p.e.8.e.8.8.8.8.8.5.5.5.5.5.4.4.} 4.4.4.4.4.4.} A k k g S } J J J J J H H G G H H H H H H H F F V V F F V V N V N V V N V B V B B B B M M M B d d M s s s s s s u p 4 O + O y p p p p i i ",
"5 5 y y y y y y y u u u u u u u u p u s p p M M n M M M M M M M N N 0 7 7 0 0 9 9 M A V V A N V F A A A A H H A A A A S G G G G G G G J J J J } } }  . .} } } } } } } [ } } | | | | | | 8.} v D v D D t.i.i.i.i.d.P.P.P.U.U.U.Y.R.}.}.}.}.;X;X;X1X1X4X3XuXkXsXBXJXFXFXFXFXFXHXFXlXdXaX<X,X4X2X2X2X:X:X:X>X+X+X[.H.H.d.y.H.G.Q.Q.I.J.J.G.G.G.N.N.N.N.m.m.m.m.m.m.V.m.m.m.m.m.m.m.V.V.b.V.V.V.V.V.V.V.V.V.V.V.V.V.V.V.V.V.V.V.C.C.2.$.#.X._ ` X.C.V.V.V.V.C.C.C.C.C.C.C.C.C.C.C.C.C.C.C.C.C.C.C.C.C.C.C.C.C.C.C.C.C.C.D.D.D.Z.Z.Z.Z.Z.Z.D.D.D.Z.C.C.C.C.C.#.+.+.+._ %.S.C.C.C.Z.C.Z.C.Z.C.C.C.C.Z.C.C.C.A.A.A.C.C.C.C.C.C.C.C.C.C.C.C.C.C.C.C.C.C.C.C.C.C.C.C.V.C.V.C.C.C.C.C.A.m.<.` ) O.A.m.C.V.m.N.A.A.N.N.N.G.G.J.G.J.G.J.Q.Q.Q.Q.E.E.E.XXXXoXoXoX+X>X:X:X:X:X2X2X4X4X4XhXgXlXFXHXFXFXFXFXFXJXBXsXkX9X~ `._._._.|.|.}.}.}.}.}.R.R.U.U.U.P.P.P.d.d.d.i.i.i.u.t.p.p.p.e.e.e.8.8.8.8.8.8.5.5.| | 5.5.} } 4.} } 4.| 5.} A z z g A } J J J J J H H G G H H H H H H F F F F F V V V N N V N N V V V B B B B B B M M M B d s d d s s s s s u s 5 O + + y p p p p i i ",
"5 5 5 5 y y y y u u u u y y u u u p p s p u M M m M M M M M M M N n 7 7 7 7 9 7 7 j N V A A V F H A A A H H H A A A A S G G G G G G S J J G J } }  . . .} } } } } } } | | | | | | | | | | v D D D D D } u.i.i.d.d.F.P.P.U.U.U.U.[.}.}.}.=X;X;X;X>X1X4X4X4XaXfXdXAXHXFXFXFXHXFXHXAXdXfXuX*X1X4X4X2X2X2X:X:X:XOXH.H.H.H.y.M.H.N.G.J.G.J.J.G.G.J.G.N.N.N.N.C.m.m.C.C.V.m.V.m.m.m.m.V.C.V.V.V.m.V.V.V.V.V.V.V.C.C.V.V.V.V.V.V.V.<.<.%.#.#._ _ _ _ <.V.C.C.C.C.C.C.C.C.C.C.C.C.C.C.C.C.C.C.C.C.C.C.C.C.C.C.D.D.D.Z.Z.C.D.Z.Z.Z.Z.Z.Z.Z.Z.Z.Z.Z.Z.Z.Z.D.D.Z.<.#.+.+.+.' _ V.S.Z.Z.Z.Z.Z.Z.Z.Z.Z.Z.Z.Z.Z.Z.S.S.Z.A.A.C.C.Z.Z.Z.Z.Z.Z.Z.A.A.A.A.A.A.C.A.A.A.A.A.A.C.A.A.A.A.A.S.S.S.b.#.` ) ] #.C.C.C.A.A.A.A.A.A.J.J.G.J.J.J.J.J.Q.W.E.E.E.E.XXXXoXoXoXoX>X:X:X:X2X2X2X4X4X2X4XaXfXdXAXHXFXFXHXFXFXJXAXdXfXuX~ ~.^.|._.|.|. X XXX}.}.}.R.R.Y.U.U.P.P.P.d.d.d.i.i.i.u.t.t.p.p.e.e.e.e.8.8.8.8.8.5.5.5.5.5.8.4.8.5.4.4.5.5.4.4.A k j g A } } } J J J J J H H H H H H H H H F F F F F F V V V V V V V V V V V V B B B B M B B B B B B d d d d d u d 5 + + O e d d d i p i ",
"% % % % * * 2 < < 4 3 < 2 2 < 6 3 5 5 5 1 1 9 9 7 9 q q 9 9 9 9 9 9 7 7 7 7 7 7 7 7 0 0 0 0 0 0 j j j j j j j l l l l l l z z z z z z z z z z z c c c c c c c c c c c c c c S A S S S v v v c v D D D D [ *.*.t.t.u.s.d.d.s.d.j.U.U.U.U.[.}.}.}. X=X;X;X1X2XaXdXzXFXFXFXFXFXFXFXJXBXsXkXyX_.OX:X;X:X;X;XOX[.[.H.H.H.H.d.y.H.M.H.n.n.n.3.,.1.,.1.1.1.1.,.,.,.;.O.#.#.O.#.#.O.#.#.#.#.#.#.#.#.#.%.<.<.%.<.<.<.%.%.%.%.#.#.#.#.#.#.#.#._ _ _ _ _ X.%.<.<.<.<.<.<.<.<.<.<.<.<.<.<.<.<.<.<.2.<.<.<.<.<.%.%.<.<.<.<.2.2.2.2.2.2.2.2.2.2.2.2.2.2.2.2.2.2.<.%.#.+.+.+.+.+._ @.%.<.<.<.<.<.<.<.<.<.<.<.<.<.<.<.<.<.<.<.<.<.<.<.<.<.<.<.<.<.<.<.<.<.<.<.<.<.<.<.<.<.<.<.<.<.1.<.1.<.X.) / ] ) ) ` 1.m.m.C.m.m.N.N.N.N.N.J.J.G.G.G.J.L.Q.Q.Q.Q.E.E.E.E.[.XXXXXXOXOXOXOXOXOX;X;X XuXkXsXBXJXFXFXFXFXFXFXFXzXgXaX^.~ ~.~._.|.|.{.}.}.}.}.R.Y.R.U.U.P.F.P.d.i.i.i.i.u.t.t.e.e.e.8.e.e.8.8.*.| | | | } | | | | } } } J J S S D J } } z g g g j A A A A A A N N N N N N N N N N N M M M N M M M M M 0 j M s s s 0 s s s 0 0 9 y 9 9 9 9 9 9 9 9 9 5 1 1 < * % % + % 4 4 5 5 5 5 ",
"% % * * % % % % * , < < < < 6 < < < 6 6 6 6 6 6 6 1 1 1 1 1 1 1 7 7 7 7 7 7 7 7 7 7 7 7 7 8 7 8 8 8 0 8 8 8 8 8 8 g j j j j g g g g j j g g g k k k k z z z z z z k k h c L c c c c c c b v v S S D D D D D D P P =.=.=.=.=.>.>.t.a.s.s.f.f.f.f././.]./..X/.1XfXsXbXJXFXFXHXHXFXFXJXmXsXkX9X`.].[.].].].].].H.H.H.H.H.d.f.y.y.y.>.;.:.:.:.:.;.:.:.:...` ` ` ` ` ` ` ) ` ) ) ) ) ) ` ) ) ` ) ) ) ) ) ) ] ] ) _ _ _ _ _ _ _ _ _ _ _ ` _ ` _ _ _ _ _ _ ' _ _ _ _ _ _ _ _ _ _ _ _ _ _ _ _ _ _ _ +._ @.+.+.+.@._ _ _ _ _ +._ @.@.@.+.+.+.+.+.+.+.+.+.@.@.+.+.+.+.+.+.' +._ _ _ _ @._ ` ` ' ' ' ' ' _ ` _ _ _ _ ` ` _ _ ` ` ` _ _ _ ` _ ` ` ` ` ` ` ` ` ` ` ` ` ` ` ` ` ` ` ` ) ) ` ` ) ` ` ` ` ` X.X.X.` ..X.;.:.:.:.:.:.:.:.:.:.;.;.;.y.y.y.f.H.H.H.H.H.H.].].].].]..X].qXkXsXmXJXFXFXFXFXFXFXJXbXsXkX'.~.~.~.~.a.g.f.f.f.f.s.s.f.a.t.>.=.=.=.=.=.P P P D D D D b b c c c c c L z z z z z k k k k k k h g g g g g g g g g 8 8 8 8 8 8 8 8 8 8 8 8 8 8 7 7 7 7 7 7 7 7 ; 7 7 1 7 ; 1 1 1 6 6 6 6 6 < - - 6 < < = , = = % + + + + + + % + + + + * % + % + + O O O O O ",
"% % * % 4 < , 4 4 , 2 < < < 6 3 6 6 6 6 1 1 1 1 5 1 1 7 q q q q q 9 9 9 9 7 7 9 0 0 0 0 8 0 8 0 8 0 0 8 0 8 j j g j j j j j j j z k z z z z z z z z z z z z z z z c c c c c c c c c c c c v S S D D D [ [ [ =.=.=.=.=.=.=.=.t.t.a.f.s.f.f.f.f.f.l./.].]..X|.(.yXkXsXNXJXFXFXFXHXFXFXHXbXsXfX$X`..X]..X].].].].H.f.H.H.d.d.f.y.>.>.>.:.:.:.:.:.:.:.:.:.......` ` ` ..X.X.X.X.X.X.X._ X.X.X.X.X.X.+.+.' ' ' ' +.#.' ' ' ' ' ' ' ' ' +.#.#.+.+.+.+.+.#.#.+.' ' ' _ +.#.#.#.#.#.#.#.#.#.+.' +.+.@.+.#.#.+.+.+.#.#.%.$.$.$.%.$.+.+.+.+.+.+.+.+.+.+.+.@.@.@.@.@.@.' X.+.+.+.+.+._ ' ' ' +.' ' ' ' ' ' @.' ' ' ' ' ' ' _ _ _ _ _ _ _ ` _ ` ` ` ` _ _ _ _ _ _ ` ` X.' _ X.` X.` ` ' ` ` ` ` ` ` ` ` ` ` ......X.....:.:.:.:.:.:.;.;.;.y.d.d.f.H.H.H.H.H.].].].].]..X X X].2XkXsXbXHXFXFXFXFXFXFXJXNXsXkX9X~ ^.~.~.a.~.f.f.f.f.s.s.t.a.t.>.=.=.=.=.=.=.P P D D D D c c c c c c k c c k k k k h h k g g g g g g g g g g g g g g g g 8 8 8 8 8 8 8 8 8 8 8 8 8 7 7 7 7 7 7 ; 7 7 7 7 1 1 1 1 1 7 1 6 1 1 1 1 1 1 6 6 6 6 6 < < < < < < < < < < , , < * * * * * * % + + O O ",
"% % , , < * < * + @ % % , < < < < < 2 < < 6 6 6 6 6 6 1 1 1 1 7 9 9 9 7 7 9 9 7 0 0 0 0 8 8 8 8 8 8 0 8 8 g g j g j j j j j j j g g g g g k z z z z z z z z z z z c k c c c c c c c c c b c v S S D D D D [ [ =.=.*.=.*.*.>.>.t.t.f.f.f.f.f.l.l./.].].{.|. X X|.uXfXdXVXJXFXFXFXFXFXHXFXlXdXhX|./..X X$X.X[..X[.].].H.H.H.H.H.y.y.y.;.3.3.3.;.;.;.;.;.;.;.;.;.;.,.;.X.X.X.X.X.X.X.` X.X.X.X.X.X.+.+.' ' ' ' ' ' #.#.#.#.+.X.#.X.#.#.#.#.#.#.#.#.#.#.#.#.+.+.#.#.#.#.#.#.#.#.#.#.#.$.#.#.%.#.$.#.#.#.#.#.<.2.V.V.V.2.V.V.V.$.#.#.+.+.+.+.+.+.+.+.#.#.+.+.+.+.#.#.#.#.#.+.+.+.' ' ' ' ' ' ' ' ' ' #.%.$.#.$.#.#.#.#.#.#.#.#.#.#.#.#.#.X.X.' ' X.#.#.#.#.X.` ` ` _ ` ` ` ` ) ` ` ` ` ` ` ` ` ` ....X.X.X.:.;.;.;.:.:.;.;.;.;.;.y.y.d.F.U.H.I.H.H.].].].[..X X X X X,XdXgXlXFXHXFXFXFXFXFXJXVXdXkXyX~.~.~.~.~.`./.k.f.f.f.f.f.f.f.t.t.t.=.=.=.=.=.[ =.[ [ [ D D D D D D D K D v c c c c c c c c z z z z z z z k k k k z z z z k z l l l j l j j j j j j j j 0 0 0 0 0 0 0 9 7 7 7 7 0 0 0 0 0 0 0 0 0 0 9 9 9 9 9 9 9 9 9 9 9 q q q 1 5 5 5 5 5 5 5 3 5 3 4 4 4 4 4 ",
"4 4 4 4 4 2 < + + , @ @ + + % = = = , < < < < < < < < - 6 6 6 6 6 1 1 1 1 7 7 7 7 7 7 7 7 7 7 8 7 7 8 8 8 8 8 8 8 8 8 8 g g 8 8 8 g 8 g g g z z z z z z z z c c c c c c c c c c c c c v v v S S S D D D D [ [ [ =.=.=.=.*.t.t.u.f.d.f.d.j.j.l.l.U.U./.].].]..X.XOXaXfXkXDXFXFXFXFXFXHXHXDXfXfXaX|. X;XOXOXOXOXXXXX[.[.[.Y.L.I.I.G.G.G.H.N.M.m.m.n.n.1.1.,.,.,.,.,.,.,.,.,.,.X.` ) ` X.X.X.X.X.X.X.X.X.#.' #.#.#.#.#.#.#.+.#.#.#.#.#.#.#.#.#.#.#.+.#.#.#.#.#.#.#.#.%.%.<.<.V.V.V.V.V.C.C.C.C.C.+.+.$.#.+.<.%.%.$.%.$.$.$.$.%.%.$.$.$.%.%.%.%.%.%.%.%.%.$.$.%.%.%.%.%.%.#.#.#.#.#.#.+.+.+.+.+.#.$.#.#.#.#.#.#.#.#.#.#.%.#.#.%.#.#.%.%.<.<.<.%.%.%.#.#.%.%.,.<.<.<.,.,.,.,.%.<.<.,.,.,.1.,.,.,.,.,.,.1.b.b.1.m.N.N.N.G.G.G.G.G.I.I.L.Y.L.H.[.Y.].[.].OX;X2X2X4X4X4XhXgXdXAXHXFXFXHXHXFXHXDXkXfXaX`.`.'._.`.`./.].{.].].U.U.U.d.d.d.d.d.y.u.u.u.u.i.i.y.p.e.=. . .D D D D } [ } } } } } } } } } } } } } } } D S D D K A A A A A c A A z z N N z z z z z z l l l j j j M j n n 0 j 0 0 0 9 9 0 0 9 9 9 9 9 9 9 9 9 9 q q q 5 q q 5 5 1 3 5 3 3 3 3 3 3 3 4 4 4 4 4 4 ",
"4 4 4 4 4 4 < + < 5 4 + < 5 y u u u u s u s n M m M M M M M M M M M N N N N N N N N N N V V V A F F F F A H H H G A A A G S A A z 8 8 g g g D } } } } } } } } } } } } } } | | | | | | | | | *.*.*.8.-.e.e.e.t.t.t.i.i.i.d.F.P.U.U.U.U.Y.[.}.}.}.}.}.}.]./.].]..X=X2XdXsXbXFXFXFXFXFXFXFXJXVXdXfXuX|.,XOX:XOXOXOXOXOXXXXX[.[.Y.I.I.G.G.G.N.G.N.N.N.m.m.b.,.,.,.,.1.,.,.,.,.,.X.` ` X.X.,.,.1.<.1.b.b.b.b.<.<.<.<.<.<.<.<.<.<.<.<.<.<.<.<.<.<.<.<.<.<.<.<.<.V.C.V.C.C.C.A.A.C.A.C.A.C.A.C.C.C.C._ @.$.+.] %.%.#.%.%.%.%.$.%.$.%.%.$.$.$.$.$.$.$.$.$.$.$.<.<.2.2.V.V.2.V.2.2.V.V.V.V.V.V.V.2.2.2.2.2.2.2.2.2.2.<.<.#.#.#._ _ +.<.V.V.V.V.C.V.V.V.V.b.b.V.V.C.C.C.C.A.S.C.C.C.C.C.C.A.A.A.A.A.A.A.A.J.J.J.J.J.J.J.J.Q.Q.E.E.E.E.XXXXoXoXoXXXY.[.].].$XwXwXwX4X4X4XaXfXdXVXJXFXFXFXFXFXFXHXzXsXdX#X)._._.*X|.|.|. X;X X}.}.}.R.Y.U.U.U.U.P.P.P.j.d.i.i.i.i.p.i.*.D D S S  .e.e.e.e.8.8.8.8.5.5.5.5.*.8.5.5.| } } 4.4.} } } } } T T J } J J J J J J J J J H H H H F F F F F F F V M 0 9 1 1 6 9 0 0 n M M M M M M s s s s s u s s s u s u y y y y y y y a a a y r e e ",
"a y y y 5 , 2 % < 3 < + 9 m d d s B B B M B M M B B N N V B B V V N V V V V V V F F F F H H H H H H H H H J H G G G H J J J J J J g 8 g 8 z } } } } } } } } } } } } | | | | | | | | | 5.| | e.e.e.e.e.e.p.p.y.i.y.i.i.i.d.F.F.F.P.P.U.U.Y.}.}.}.XXOX;X]./.].].].OX=XyXlXsXbXJXFXFXFXFXFXFXJXNXsXkXuX*X4X2X4X2X2X2X2X:X:X+XXXoXXX@XE.E.Q.I.Q.Q.Q.Q.I.J.J.N.N.m.b.1.1.,.,.,.,.X.` ` X.,.S.A.A.C.C.A.A.A.C.C.C.C.C.C.C.V.V.C.C.C.C.C.C.C.C.C.C.C.C.C.C.C.C.C.C.C.C.C.C.C.C.C.C.C.C.C.Z.C.C.C.A.C.+.#.$._ _ %.%.2.V.V.V.V.V.V.V.V.V.C.C.C.C.Z.Z.Z.S.Z.Z.Z.Z.S.S.S.Z.Z.S.S.S.S.S.S.S.S.S.S.Z.Z.Z.Z.Z.A.A.Z.Z.Z.Z.A.C.<.#._ _ _ _ C.V.V.V.V.V.V.V.V.V.V.V.V.V.V.V.V.C.C.C.C.C.C.C.C.C.A.C.A.A.C.A.J.J.J.J.J.J.J.J.J.Q.Q.Q.W.W.E.E.@XXXoXoX+X+X[.[..X[.OX4X4X4XeX4XpXkXsXNXJXFXFXFXFXFXFXHXmXsXkX<X^._._._.|.|.|.=X}.XX}.}.}.}.Y.U.U.P.U.P.F.d.d.i.i.i.i.u.u.u.p.p.[ D S c  .e.8.8.8.8.8.8.| | 5.5.5.5.8.4.} } } } 4.4.} } } } 4.} } T } J J J J J J T J J J J J J H H H F H F F H H n 7 1 1 6 7 0 B V V V V V V V B B B V V B V B B B B d B d d d d d d d p f f i p p ",
"y y y u u 3 4 % 4 5 < < p s u p s M m B M M M M B M M M M B M M N N V V V V V V V F A F F F F F H H H H H H G G J H H J J J J J } z 8 g 8 z } } } } } } } } } } } } | | | | | | | | | | | | e.e.e.e.e.e.e.p.t.t.t.i.i.i.i.d.d.F.P.P.U.U.Y.Y.}.}.}.}.OX]./././.]. X4X1XuXkXsXNXJXFXFXFXFXFXFXJXmXsXkXyX<X4XwX4X4X2X2X2X:X>X+X+XoXoXXXXX@XE.E.Q.Q.Q.Q.Q.J.J.J.J.J.J.A.m.1.,.,.#.` ` ` 1.A.C.A.C.C.C.C.C.C.C.C.C.C.V.V.V.V.V.V.V.V.V.V.V.V.V.V.C.C.C.C.C.C.C.C.C.C.C.C.C.C.C.C.A.C.C.Z.C.C.C.C.C.#.+.#.] ] %.Z.S.S.Z.S.S.S.S.S.S.S.S.A.Z.Z.Z.Z.Z.Z.Z.Z.Z.Z.Z.Z.Z.Z.Z.Z.A.A.A.A.S.A.A.A.A.A.A.A.A.A.A.A.A.C.C.C.C.C.C.%.#._ ] X.C.V.V.C.V.V.V.V.V.V.V.V.V.V.V.V.C.C.C.C.C.C.C.C.C.C.A.A.A.A.N.A.J.J.J.J.J.J.J.Q.Q.Q.E.E.E.E.E.XX@XoXXXOX>X+XXX[.[..X;XwXwX4X4XuXkXsXmXHXFXFXHXHXFXFXJXNXsXkXyX^._._._.|.|. X X X;XXX}.}.}.R.U.U.U.P.P.F.d.d.d.i.i.i.u.u.u.p.p.p.[ v S c  .e.8.8.8.*.8.| | | 5.5.} 5.5.4.5.} } 4.4.4.} } } } } } } } } } J J J J J J J J J J H H H H F F F F F F H N 9 1 1 1 1 M V V V V V V B B B B B B B B B B B d d d d d p d d d f p f f f i i i ",
"y y y y y a , % 4 3 4 < u s d s s s M B B M M M M M M M V V V M N V V V N N N N N V V V F F F H A H H H H H H G H H H J G J J J J A 8 g 8 z } } } } } } } } } } } | } | | | | | | | | 8.| | | e.e.e.e.e.e.e.t.t.y.y.i.i.i.d.d.F.P.F.U.U.U.Y.Y.}.}.}.XX].f././.].OX4X4X2XaXfXgXVXJXFXFXHXFXFXHXHXbXsXkXyX,X4X4X4X4X2X2X:X:X>X>XOXoXoX@X@XE.E.E.E.Q.Q.I.I.J.J.J.J.J.J.J.m.,.,.,.` ` X.b.A.C.C.C.C.C.C.C.C.C.C.C.C.C.V.V.V.V.V.V.V.V.V.V.V.V.V.V.V.C.C.C.C.C.C.C.C.C.C.C.C.C.C.C.A.C.C.C.C.C.C.A.%.#.#.] ] <.S.C.Z.Z.Z.Z.A.A.A.Z.Z.Z.Z.Z.Z.Z.Z.Z.Z.A.A.A.Z.Z.Z.Z.Z.A.A.Z.Z.Z.Z.Z.Z.Z.A.A.A.A.A.A.A.A.A.C.C.C.C.C.C.A.<.#._ ] ' V.V.V.V.V.V.V.V.V.V.V.V.V.V.V.V.C.C.C.C.C.C.C.C.A.A.A.A.A.A.A.A.J.J.J.J.J.J.J.Q.Q.E.E.E.E.XXXX@XoXoXoX+X+X:XXX[.XX[.;X4XeX4XyXfXsXbXJXHXFXFXHXFXFXJXVXgXkXuX^.)._._.|.|.|. XOXOXXX}.}.}.R.Y.Y.U.U.P.F.P.j.d.i.i.i.u.t.u.p.p.p.p.[ v D c D e.8.8.8.8.| | | | | | 5.5.8.5.5.} } 4.4.4.} } } } } } } } } J J J J J J J T J J H H H H H H F H F F F F V 0 0 7 6 7 M V V V V V V B V V V B B B B B d d B d d d d d d d p p p p p p i i i ",
"y y y y y y < % 4 3 4 4 d s s s s s M B B M M M M M M M V V V N V V V V N N N N V F V V F F F H H H H H H H H G H H H J J J J J J A 8 g 8 z } } } } } } } } } } } | } } | | | | | | | | | | | e.e.e.e.e.e.e.e.t.t.t.y.y.i.y.d.d.F.F.P.U.U.Y.Y.[.}.}.XXU.f.l././.OX4X2X3X4XaXfXfXDXHXFXFXFXFXFXFXFXbXsXfX5X,XeX4X4X4X2X2X:X+X>X+XoXoXoXXXXXE.E.E.E.Q.Q.J.I.Q.J.J.J.J.J.N.,.1.,.` ` X.b.A.C.C.C.C.C.C.C.C.C.C.C.C.C.C.V.V.V.V.V.V.V.V.V.C.V.V.V.V.C.C.C.C.C.C.C.C.C.C.C.C.C.C.C.C.C.A.C.C.Z.C.C.<.#.#.] ] V.S.Z.Z.Z.Z.Z.Z.Z.Z.Z.Z.Z.Z.Z.Z.Z.Z.Z.Z.A.Z.A.Z.Z.Z.Z.Z.A.A.A.A.Z.Z.Z.Z.A.A.A.A.A.A.A.A.A.A.C.C.C.C.C.C.A.<.#._ ] ' V.V.V.V.V.V.V.V.V.V.V.V.V.V.V.C.C.C.A.C.C.C.C.C.A.A.A.A.N.N.A.J.J.J.J.J.J.J.Q.Q.E.E.E.E.XXXX@XoXoXoXoX>X+X2XOX[. X X>XeX4XyXdXgXbXFXHXFXFXFXFXFXHXAXdXfXaX).)._._.|.|.|. X=X;XXX}.}.}.R.Y.Y.U.U.P.P.P.F.d.i.i.i.i.u.t.u.p.p.p.e.[ v S b D e.8.8.8.*.| | | | | 5.5.5.4.4.5.} } 4.4.4.} } } } } } } } } 4.J J J J J J T J J H H H H H H F H F F F F V 0 0 0 1 7 M V V V V V V B V V V B B B B B d B B d d d d d d d p p p p p p i i i ",
"y y y y y y < + < 5 , 6 m p s s s s M B B M M M M M M M B V V N V V V V V N V V V V F F F H H H H H H H H H H G G H H J J J J J J A 8 g 8 z } } } } } } } } } } } | | | | | | | | | | | | | | 8.8.e.e.e.e.e.e.p.t.y.y.y.y.i.i.d.d.F.F.F.U.U.Y.Y.}.}.}.U.f.f.l./.OX2X1X2X3X4XdXdXlXDXHXFXFXFXFXFXHXDXlXdXdX5X3X4X2X4X4X2X2X:X:X+XoXoXoXoXXXXXE.E.E.E.Q.Q.Q.I.Q.J.J.J.J.N.1.,.,.` ` X.m.A.C.C.C.C.C.C.C.C.C.C.C.C.C.C.C.V.V.V.V.V.V.V.V.V.V.C.V.V.V.C.C.C.C.C.C.C.C.C.C.C.C.C.C.C.C.C.C.C.Z.Z.Z.<.#.+.] ] <.Z.Z.S.Z.Z.Z.Z.Z.Z.Z.Z.Z.Z.Z.Z.Z.A.Z.A.Z.Z.Z.Z.Z.Z.A.A.A.A.A.A.A.A.Z.A.A.A.A.A.A.A.A.A.C.C.C.C.C.C.C.C.A.<.#.#.] X.V.V.V.V.V.V.V.V.V.V.V.V.V.V.V.V.C.C.C.C.C.C.C.A.A.A.N.N.A.A.G.J.J.J.J.J.L.Q.Q.Q.E.E.E.XXXXXXoXoXoX+X>X:X:X2X:XOXOXOX1X4XeXdXgXlXDXHXFXFXFXFXFXHXDXlXdXhX_.)._._.|.|.|. X X;XOXXX}.}.}.R.U.U.U.U.P.j.F.d.i.i.i.i.i.u.t.u.p.p.p.p.} S S b [ e.8.*.5.8.| | | | 5.4.5.5.4.4.} } } 4.4.4.} } } } } } } T } T J J J J J J T J J H H H H H H F F F F F F V n 0 0 1 7 M V V V V V V B V V V V B B B B B B B d d d d d d d p p p p p p i i i ",
"y y y y y y 4 % , 3 < 4 s s s s s s M M B M M M M M M M V V V N V V V V V N V V F F F F F H H H H H H H H H H G G H H G J J J J J A 8 g 8 z } } } } } } } } } } } | | | | | | | | | | | 5.5.| 8.8.8.6.e.e.e.e.p.p.y.y.i.y.i.i.i.d.d.F.F.P.U.U.Y.Y.}.}.U.f.l.f./.OX1X>X1X4X1XeXfXsXbXHXFXFXHXHXFXFXHXDXkXfXhX3X3XwX2X2X2X2X:X:X:X>XoXoXoXoXXXXXE.E.W.Q.E.Q.Q.Q.J.J.J.J.A.1.,.;.` ..X.m.A.C.A.C.C.C.C.C.C.C.C.C.C.C.C.C.C.V.V.V.V.V.V.V.V.V.V.V.V.V.V.C.C.C.C.C.C.C.C.C.C.C.C.C.C.C.A.C.C.C.Z.C.<.+._ ] ] <.S.Z.C.Z.Z.Z.Z.Z.Z.Z.Z.Z.Z.Z.Z.Z.Z.A.A.Z.Z.Z.Z.Z.A.Z.Z.A.A.A.A.A.A.A.A.A.A.A.A.A.A.A.C.C.C.C.C.C.C.C.C.A.<.#.%._ _ V.C.V.V.V.V.V.V.V.V.V.V.V.V.V.C.C.C.C.C.C.C.C.A.A.A.N.N.J.G.J.J.J.J.J.J.L.Q.Q.W.E.@XXX@XXXoXoXoX+X>X>X:X2X2X2X+XOXOX;XeXhXdXkXDXHXFXFXFXHXFXFXHXbXsXkX#X^._._._.|.|. X XOXOXXX}.}.}.R.R.U.U.U.P.F.d.d.i.i.i.i.i.u.t.p.p.p.e.e.e.} S S b S e.8.5.5.5.| | | | 4.5.5.5.4.4.} } } 4.4.4.} } } } } } } T } J J J J J J J J J J H H H H H H F F F F F F F M 0 0 6 7 M V V V V V V B V V V V B B B B d B B d d d d d d d p p p p p p i i i ",
"y a y y y u < % + @ + 3 p p p s s s s s B B B B M B B M M N V N N V V V V N N V V V F F F F F F H H H H H H H G G G H H J J J J J A 8 g 8 z } } } } } } } } } } } } | | | | | | | | | | | | 5.8.| 8.8.e.e.e.e.p.p.p.y.y.i.y.i.i.i.d.F.F.P.P.U.Y.Y.Y.}.P.j.f.f.f.OX;X>X1X1X4X3XyXkXsXbXHXFXFXFXHXFXFXJXAXdXfXaX1X4X4X2X2X2X2X:X:X>X>X+XoXoXoX@XXXXXE.E.E.Q.Q.I.J.J.J.J.G.1.1.;.` X.X.C.A.A.A.A.C.C.C.C.C.C.C.C.C.C.C.C.C.V.V.C.V.V.V.V.V.V.V.V.V.V.V.V.C.C.C.C.C.C.C.C.C.C.C.C.C.C.C.A.C.C.C.A.<.] ] ] ] 2.S.Z.Z.Z.Z.A.Z.A.A.Z.Z.Z.Z.Z.Z.Z.Z.Z.Z.Z.Z.Z.Z.Z.A.A.A.Z.Z.Z.Z.A.A.A.A.A.A.A.A.A.A.C.C.C.C.C.C.C.C.C.C.A.<.#.%._ _ V.V.V.V.V.C.V.V.V.V.V.V.V.V.V.C.C.C.C.C.C.C.A.A.A.N.A.A.J.J.J.J.J.Q.J.I.Q.Q.E.W.E.XXXX@XoXoXoXoX>X>X:X2X2X2X2X2XOX;X2XhXfXdXAXJXFXFXFXFXFXFXJXbXsXfX9X^._._._.|.|. X X;XOXXXXX}.}.}.R.Y.U.U.P.F.F.d.i.i.i.i.i.i.p.p.p.p.e.e.e.e.} v S c S e.*.*.| 5.| | | | 4.4.4.4.| | } } } 4.4.} } 4.} } } } T T T J J J J J J J J J J H H H H H H F F F F F F F M 0 9 6 7 M V V V V V V B B B B V V B B B d d d d d d d d d d p p p p p p i i i ",
"y y y y y u 3 % + + + 5 p p u s s s s s B B B B B B B M M N V N N V V V V N N V N N F F F F F F H A H H H H H H G G H H J J J G J A 8 g 8 z } } } } } } } } } } } } | | | } | | | | | | | | | *.| | 8.8.e.e.e.e.e.p.p.y.y.y.y.y.i.M.F.F.F.P.U.U.Y.Y.}.j.f.f.f.f. X;X;X1X2X1X4X3XuXkXsXmXJXFXFXFXFXFXFXJXVXdXfXaX1X4XwX2X2X2X2X:X:X>X>X+XoXoXoX@XXXXXE.E.E.Q.Q.I.J.J.J.J.1.1.;.:.X.X.C.A.A.A.A.A.C.C.C.C.C.C.C.C.C.C.C.V.V.V.C.V.V.V.V.V.V.V.V.V.V.V.V.C.C.C.C.C.C.C.C.C.C.C.C.C.C.C.A.C.C.C.A.<.] ] ] ] 2.S.Z.Z.Z.Z.A.A.A.A.A.Z.Z.Z.Z.Z.Z.Z.Z.Z.Z.Z.Z.Z.A.A.A.A.Z.Z.Z.Z.A.A.A.A.A.A.A.A.A.C.C.C.C.C.C.C.C.C.C.C.A.<.#.%._ X.V.V.V.V.V.V.V.V.V.V.V.V.V.V.C.C.C.C.C.C.A.A.A.A.A.A.J.J.J.J.J.J.J.J.Q.Q.Q.W.W.E.XX@X@XoXoXoXoX+X>X:X:X2X2X2X2X2XOX,XaXkXdXVXJXFXFXFXFXFXFXKXmXsXkXyX^._._._._.|.|. X XOXXXXX}.}.}.Y.Y.U.U.P.P.F.d.d.i.i.i.i.i.i.t.t.p.p.e.e.e.e.[ v S c S 8.*.*.8.8.| | | | 4.4.5.4.| | } } 4.4.} } } 4.} } } } T T T J J J J J J J J J J H H H H H H F F F F F F F M 0 7 6 7 M V V V V V V B V B B V V V B B d d d d d d d d d d p p p p p p i i i ",
"y y y y y u 3 % + @ + 5 p p u s s s s s B B M M M M M M M N V V N N V V V N N V N N F F F F F F H H H H H H H H G G H H J J J G J A 8 g 8 z } } } } } } } } } } } } } } | | | | | | | | | | | 5.| | 8.8.e.e.e.e.e.p.p.p.y.y.y.y.i.i.F.F.F.P.P.U.U.Y.Y.j.f.f.f.f.XXOX;X:X;X1X1X4X1XuXkXsXBXJXFXHXHXFXFXFXJXBXgXfXaX,X4XwX2X2X2X2X2X:X>X>XoXoXoXoXoX@X@XE.E.W.Q.Q.Q.J.J.J.1.1.;.:.X.X.m.S.A.A.A.A.A.A.A.C.C.C.C.C.C.C.C.C.V.V.V.V.V.V.V.V.C.V.V.V.V.V.V.V.C.C.C.C.C.C.C.C.C.C.C.C.C.C.C.C.C.C.A.<._ _ ] ] <.S.A.A.Z.Z.Z.Z.Z.Z.Z.Z.Z.Z.Z.Z.A.Z.Z.Z.Z.Z.Z.Z.A.A.A.A.Z.Z.Z.A.A.A.A.A.A.A.A.A.C.C.C.C.C.C.C.C.C.C.C.C.A.<.#.%._ X.V.V.V.V.V.V.V.V.V.V.C.V.V.C.C.C.A.A.A.A.A.A.A.A.J.J.J.J.J.J.J.J.J.Q.Q.Q.E.E.E.@X@XoXoXoXoX+X>X>X:X:X2X2X2X2X2X2X1XaXfXdXBXJXFXFXFXFXFXFXJXNXsXkXyX^.'._._.|.|.|.|.OXOXOXXXXX}.}.R.Y.Y.U.P.P.F.F.d.i.i.i.i.i.i.i.p.p.e.p.e.e.e.e. .v S c S e.*.8.8.8.| | | 5.8.8.5.} | } } } 4.4.} } } } } } } J T T T J J J J J J J J J J H H H H H F F F F F F V F M 0 9 6 7 M V V V V V V B V B B B B V B B d B B d d d d d d d p p p p p p i i i ",
"y y y y y u 3 * , < + 5 p p u s s s s s B B M M M M M M M N V N N N V V V N N V N N F F F F F F H H H H H H G H H H H H J J J G } A 8 8 8 z } } } } } } } } } } } } } } } | | | | | | | | | | | o.| 6.| o.e.e.e.e.e.p.p.y.r.y.y.i.i.M.F.F.F.P.P.U.U.Y.d.f.f.f.f.}.;X;X;X;X>X1X4X2X4XaXfXgXVXJXFXFXFXHXFXFXJXNXsXkXaX1X4XwX4X2X2X2X2X:X:X>X+XoXoXoXoX@X@XE.E.E.Q.Q.J.J.J.1.1.;.;.;.;.m.J.A.A.A.A.A.A.A.A.C.C.C.C.A.C.A.C.C.V.V.V.C.V.V.V.V.V.V.V.V.V.V.V.V.C.C.V.C.C.C.C.C.C.C.C.C.C.C.C.A.C.C.2.<.<.] ] <.S.A.A.Z.Z.Z.Z.Z.Z.Z.Z.Z.Z.Z.A.A.Z.Z.Z.Z.Z.Z.Z.Z.Z.A.A.A.Z.A.A.A.A.A.A.A.A.A.C.C.C.C.C.C.C.C.C.C.C.C.C.A.<.#.#._ ' V.V.V.V.V.V.V.V.V.V.C.C.C.C.C.A.A.A.A.A.A.A.A.J.J.J.J.J.J.J.J.J.L.Q.W.W.E.E.XX@XoXoXoXoX+X>X>X:X:X2X2X2X4X4X2X2XaXkXsXNXJXFXFXHXFXFXFXJXVXgXkXuX^.)._._._.|.|. X=X;XXXXX}.}.}.Y.R.Y.U.U.P.P.F.F.d.i.i.i.i.i.i.u.p.p.p.p.e.e.e.e. .v S c S 8.*.8.8.8.| | 5.5.8.8.8.} | } } } 4.4.} } } } } } } } T T 4.J J J J J J J J J J H H H H H F F F R F F V F M 0 0 6 1 M V V V V V V B V B B B B V B B d B B d d d d d d d p p p p p p i i i ",
"y y y y y u 5 % 3 5 % 5 p p p s s s s M B B M M M M B M M M B B N V V V V V N V V V V F F F F F H H H H H H G G G G G G J J J J } A 8 g 8 z } } } } } } } } } } } } } | | | } | | | | | | | | | | | 6.6.6.e.e.e.e.e.e.p.y.y.y.y.i.i.i.M.F.F.P.P.U.U.Y.d.t.t.f.f.}.OXOX;X;X;X>X1X2X2X4XaXfXdXAXJXFXFXHXHXFXFXJXNXsXkXpX1X4X2X4X2X2X2X2X:X:X:X+X+XoXoX@X@XXXE.E.W.Q.Q.Q.J.n.m.1.;.;.;.N.J.A.A.A.A.A.A.A.A.A.C.C.C.C.C.C.C.C.C.C.C.V.V.V.V.V.V.V.V.V.V.V.V.V.V.C.C.C.C.C.C.C.C.C.C.C.C.C.C.C.C.A.<.<.<._ ] 2.Z.Z.A.A.A.Z.Z.Z.Z.Z.Z.Z.A.A.Z.Z.Z.Z.Z.Z.A.A.A.Z.Z.Z.Z.A.A.A.A.A.A.A.A.A.A.C.C.C.C.C.C.C.C.C.C.C.C.C.A.A.<.#.%._ _ V.V.V.V.V.V.V.V.V.C.C.C.C.C.C.C.A.A.A.A.A.A.K.J.J.J.J.J.J.J.J.Q.E.E.W.E.@XXX@XoXoXoX+X>X:X:X:X2X2X2X2X2X2X4X2XuXkXsXNXJXFXFXHXFXFXFXJXAXdXfXaX).`._._._.{.|. X XOXOXXXXX}.}.}.Y.R.Y.U.P.P.F.F.d.d.i.i.i.i.i.t.u.u.p.p.e.e.e.e.e.} v v L S 8.8.8.8.8.| | 5.5.5.5.5.} 5.} } } 4.4.} } } } } } } J } J 4.} } J J J J J J J J H H H H H F F F F F F F H M 0 u 1 1 B V V V V V V V V V V B B B B B B B B d d d d d d p p p p p p p i i i ",
"y y y y y u 5 % < 5 + 5 p p p s s s s M B B M M M M B M M M B B N V V V V V N V V V F F F F F F H H H H H H H G G G G G J J J J J A 8 g 8 z } } } } } } } } } } } } } | | | } | | | | | | | | | | | 5.6.6.e.e.e.e.e.e.e.p.p.y.y.y.i.i.M.F.F.F.P.F.U.Y.f.>.t.t.f.[.XXXXOX;X;X;X1X1X2X2XwXhXfXfXAXHXFXFXFXFXFXFXJXmXsXkXuX,X4X2XwX2X2X2X:X:X:X:X>X+X>XoX@X@X@XE.E.W.Q.Q.L.m.m.1.;.;.;.G.J.J.A.A.S.A.A.C.A.A.A.C.C.C.C.C.C.C.C.C.C.V.V.V.V.V.V.V.V.V.V.V.V.V.V.V.C.C.C.C.C.C.C.C.C.C.C.C.C.C.C.A.2.<.<._ ] 2.Z.Z.Z.A.A.Z.Z.Z.Z.Z.Z.A.A.Z.Z.Z.Z.Z.Z.A.A.A.A.Z.Z.Z.Z.A.A.A.A.A.A.A.A.A.C.C.C.C.C.C.C.C.C.C.C.C.C.C.C.A.<.#.#.' ' V.V.C.V.V.V.V.V.C.C.C.C.C.C.C.A.A.A.A.A.A.S.J.K.J.J.J.J.J.J.L.Q.W.W.E.@XXX@XoXoXoX>X>X+X:X:X:X2X2X2X2XwX2X4XuXkXsXmXJXFXFXFXHXFXFXHXAXdXfXaX_.)._._._.|.|.|. X;XOXXXXX}.}.}.Y.Y.Y.Y.U.P.P.F.F.d.i.i.i.y.i.i.i.u.p.p.p.e.e.e.e.e. .v v L S 8.8.8.8.8.| | 5.5.5.5.4.} 5.} } } 4.4.} } 4.} } } } J } J 4.J J J J J J J J J J H H H H H H F F F F F F F u 0 0 6 1 B V V V V V V V V V V B B B B B B B B d d d d d d p p p p p p p i i i ",
"y y y y y u 5 % 3 5 @ 5 p u p s s s s M B B M M B B M M M M N V M V V V V V N V V A F F F F F F H A H H H H H H H G G G H J J J J A 8 g 8 z } } } } } } } } } } } } } | | | | | | | | | | | | | *.*.| | 6.6.e.e.e.e.e.e.p.y.p.y.y.i.i.i.F.F.F.F.P.U.U.f.>.>.t.t.Y.XXXXOXOX;X;X>X:X2X4X3XeXdXgXlXDXHXFXFXFXHXHXFXHXmXsXkXuX1X4X2X4XwX2X2X4X:X:X:X+X+XoXoXoXoX@X@XW.W.Q.J.m.m.1.;.;.;.J.J.J.J.J.S.A.A.A.A.A.A.C.C.m.C.C.C.C.C.C.C.V.V.V.V.V.V.V.V.V.V.V.V.V.V.V.V.C.C.C.C.C.C.C.C.C.C.C.C.C.C.C.V.<.%.] ] 2.Z.A.A.Z.A.A.Z.Z.Z.Z.Z.Z.Z.Z.Z.Z.Z.A.A.A.A.A.A.Z.Z.Z.A.A.A.A.A.A.A.A.A.C.C.C.C.C.C.C.A.A.A.S.S.A.A.S.S.S.<.#.#._ _ V.V.V.V.V.V.C.C.C.C.C.C.C.C.A.A.A.A.A.S.S.J.K.J.J.J.J.J.Q.Q.Q.Q.W.W.@X@X@XoXoXoX:X:X:X:X:X2X2X2X4X4X2X4X4XpXkXsXmXHXFXHXFXFXFXFXHXDXlXdXhX&X^._._._.|.|.|. X XOXXXXX}.}.}.Y.R.Y.U.P.P.P.F.F.d.M.i.i.i.y.i.y.p.p.p.e.e.e.e.e.e.e. .v v k S 8.8.8.8.8.*.| | 5.5.5.4.} 5.} } } 4.4.} } 4.} } } J T } J J J J J J J J J J J J H H H H H F H F F F F F F M 0 9 6 7 V V V V V V V V V B B B B B B B B d d d d d d d d p p p p p p p i i i ",
"y y y y y u 5 % 3 6 + y p u p u d s s M s B B M B B M M M N N V M V V V V V N N V V F F F F F F F A A H H H H H H H H H H J J J J A 8 8 8 z } } } } } } } } } } } } } | | | | | | | | | | | | | *.*.| | o.6.6.e.e.e.e.e.e.p.p.p.p.y.i.i.M.F.F.F.P.F.U.f.*.>.>.t.Y.}.XXXXXX;X;X;X:X1X2X4X1XeXdXdXlXFXHXFXHXFXFXFXFXJXmXsXkXuX3X2XwX4X4X4X2X2X2X:X:X+X:X>XoXoX@X@X@XE.W.Q.N.N.,.:.;.1.J.J.J.J.J.S.A.A.A.A.A.A.C.A.C.C.C.C.C.C.C.C.C.C.V.V.V.V.C.C.V.V.V.V.V.V.V.V.V.C.C.C.C.C.C.C.C.C.C.C.C.C.C.V.<.#.] ] 2.S.Z.A.Z.A.A.A.Z.Z.Z.Z.Z.Z.Z.Z.Z.A.A.A.Z.A.A.A.Z.A.A.A.A.A.A.A.A.A.A.C.C.C.C.C.C.C.C.A.S.S.S.S.A.A.A.S.S.<.#.` ) ' V.V.V.C.V.V.V.C.C.C.C.C.m.C.A.A.A.A.A.S.J.J.J.J.J.J.J.Q.Q.Q.Q.W.W.@X@X@X@XoXoX:X:X:X:X:X2X2X2X4X4X4XwX4XuXkXsXmXKXFXFXFXFXFXFXGXFXlXgXdX#X^._._._.|.|.|. XXXXXXXXX}.}.}.Y.Y.Y.Y.U.P.P.F.F.d.M.i.i.y.i.i.i.y.p.p.p.e.e.e.e.e.e.e. .v v k S 8.8.8.8.8.| | 5.8.5.5.} } 5.} } 4.4.4.} } } } } } } 4.} J J J J J J J J J J J J H H H H H F F F F F F F F s 1 1 1 7 V V V V V V V V B B B B B B B B d d d d d d d d d p p p p p p p i i i ",
"y y y y y y 5 % < 6 + y s s p u d d s M M B B M M M M M M V N V M M V V V V N N V N F F F F F F F H H H H H H H H G H H H J J J J A 8 g 8 z J J } } } } } } } } } } } | } } | | | | | | | | | | | | | | | 6.6.e.e.e.e.e.e.p.p.p.p.y.y.y.i.M.F.F.F.F.U.y.*.>.>.t.Y.}.}.XXXXOX;X;X;X>X>X2X4X3XyXfXsXzXFXHXFXFXFXFXFXFXJXbXsXkXuX3XwXwXwX2X2X2X2X2X:X:X:X>XoXoXoX@X@X@XW.Q.N.N.,.;.:.1.J.J.J.J.K.K.S.A.A.A.A.A.A.C.A.C.C.C.C.C.C.C.C.C.C.C.C.C.C.C.C.V.V.V.V.V.V.V.V.V.C.C.C.C.C.C.C.C.C.C.C.C.C.V.<.' ] ] 2.S.A.A.Z.Z.A.A.A.Z.Z.Z.Z.Z.Z.A.A.A.A.Z.Z.Z.A.A.A.A.A.A.A.A.A.A.A.A.C.C.C.C.C.C.C.C.C.S.S.S.A.A.A.A.S.S.S.1.X.` ) ' V.C.V.V.V.C.C.C.C.C.C.C.C.C.A.A.A.S.A.A.J.J.J.J.J.J.Q.Q.Q.Q.Q.W.@X@X@X@XoXoX>X:X:X:X2X2X2X4XwX4X4XwX4XpXkXsXmXHXHXFXFXFXFXFXHXFXzXgXfX#X^._._._.*X|. X XOXOXXXXXXX}.}.Y.Y.Y.Y.U.P.P.F.P.F.M.i.i.i.i.i.i.y.i.t.p.p.e.e.e.e.e.e.e. .v v h S 8.| | | *.*.| 5.8.8.8.} 5.} } } 4.4.} } } } } } } J 4.} } J J J J J J J J J J J H H H H H F F F F F H F F 0 1 6 1 9 V V V V V V V V V B B B B B B B B d d d d d d d d p p p p p p i i i i ",
"y y y y y y 5 % 3 6 @ y s s p u s d s M M B B M M M M M M M V V M M V V V V N N N N F F F F F F F H H H H H H H H G H H H J J J J A 8 g 8 z J J } } } } } } } } } } } | } } | | | | | | | | | | | | | | | o.6.6.e.e.e.e.e.e.p.p.p.y.y.y.i.i.M.F.F.F.F.t.=.*.*.>.U.R.}.XXXXXXOX;X;X;X;X1X4X4X1XyXkXsXbXHXFXFXFXFXFXFXHXJXbXsXkXuX3XwX4X4XwX4X2X4X2X:X:X+X+XoXoX@X@X@X@XQ.N.N.3.;.:.,.J.J.J.J.J.J.K.A.A.A.A.A.A.C.C.C.C.C.C.C.C.C.C.C.C.C.C.C.C.C.C.C.V.V.V.V.V.V.V.V.V.C.C.C.C.C.C.C.C.C.C.C.C.C.<.#.] ] 2.Z.A.A.A.A.A.A.Z.Z.Z.Z.Z.Z.A.A.A.A.Z.Z.Z.Z.A.A.A.A.A.A.A.A.A.A.C.C.C.C.C.C.C.C.C.C.C.S.S.S.S.S.A.A.S.S.S.1.X.) ) ' C.V.V.V.V.C.C.C.C.C.A.A.A.A.A.A.A.S.A.J.J.J.J.J.J.Q.Q.Q.E.E.E.@X@X@X@XoXoX:X+X:X:X2X2X2X2XwXwXwX4X4XpXkXsXbXHXFXFXFXHXFXFXHXHXbXsXkX9X^._._._.|.|.|. X}.;XXXXXXX}.}.Y.Y.Y.Y.U.P.P.P.P.F.F.M.i.i.y.i.y.p.p.u.t.p.p.e.e.e.e.e.e.e. .v A z S 8.| | | | 5.5.8.8.8.8.} } } } } 4.4.} } } } } } } 4.4.} } J J J J J J J J J J J H H H H H F F F H F F V V M 9 1 1 9 V V V V V V V V V B B B B B B B B d d d d d d d d p p p p p p i i i i ",
"y y y y y y 5 % 4 5 < y s u p u s s s s M B B M M M M B M M M V N N V V V V N N N N V V F F F F F H H H H H H H H G H H H J J J J N 8 8 8 z } J } } } } } } } } } } } } } } | | | | | | | | | | | | | | | o.o.6.e.e.e.e.e.r.e.p.p.p.y.y.y.i.M.M.F.F.F.t.=.*.*.>.U.Y.R.}.XXXXOXOX;X;X:X>X2X4X2X1XyXkXsXbXHXFXFXFXFXFXFXFXHXmXsXkXuX3X4XwX4XwXwXwX2X2X:X:X+X+X:XoXoX@X@XW.G.G.H.;.;.,.L.L.J.J.J.K.J.K.A.A.A.A.A.A.C.A.A.C.A.A.C.C.C.C.C.C.C.C.C.C.C.C.C.C.V.V.V.V.V.V.V.V.C.C.C.C.C.C.C.C.C.C.C.C.<.%.] ] 2.A.A.A.A.A.Z.Z.Z.A.A.Z.Z.A.A.A.Z.Z.Z.Z.Z.Z.Z.A.A.A.A.A.A.A.A.A.C.C.C.C.C.C.C.C.C.C.C.S.S.S.A.A.A.S.S.S.S.<.` ) ) ' C.C.C.C.C.C.C.C.A.A.A.A.A.A.A.A.A.K.J.J.J.J.J.Q.Q.Q.W.W.W.W.W.@X@X@XoXoX:X:X:X:X2X2XwXwXwXwX4X4X4XuXkXsXmXHXFXFXFXHXFXFXFXHXbXsXkX9X^.)._._.|.|.|. X}.OXXXXXXX}.R.Y.Y.Y.Y.Y.U.P.P.F.P.F.M.i.i.i.y.y.y.p.y.p.p.p.p.e.e.e.e.e.6.e.[ v v c S 8.| | | | 5.5.} 8.4.4.} } } } } 4.4.} } 4.} } } } 4.T T T J J J J J J J J J J J H H H H H F F F H F F V V l 0 7 6 9 V V V V V V V V V V B B B B B B B d d d d d d d d p p p p p p i i i i ",
"i a y y y y 3 % < 5 < y s s p p s d s s M B B M M M M B M M M V N N V V V V N N N N V V F F F F F H H H H H H H H G H H H G J J J z 8 g 8 z 4.J } } } } } } } } } } } } } } | | | | | | | | | | | | | | | o.o.6.o.e.;.e.e.e.e.p.p.p.y.y.y.i.i.M.M.F.F.t.=.=.*.>.U.Y.Y.}.}.XXXXXXOX;X;X>X>X1X4X4X2XuXkXsXbXHXFXFXFXFXHXFXHXHXmXsXkXuX3X4XwXeXwXwXwX2X2X2X:X+X+XoXoXoX@X@XG.J.H.;.;.3.Q.L.Q.J.J.J.J.J.J.A.S.A.A.A.A.A.C.C.A.A.C.C.C.C.C.C.C.C.C.C.C.C.C.C.C.V.V.V.V.V.V.V.V.V.C.C.C.C.C.C.C.C.C.V.<.<.#.] <.A.A.A.A.A.Z.Z.Z.A.A.A.A.A.A.A.Z.Z.Z.Z.Z.Z.A.A.A.A.A.A.A.A.C.C.C.C.C.C.C.C.C.C.C.C.C.S.S.S.A.A.A.S.S.S.S.<.` _ ) X.C.C.C.C.C.C.C.A.A.A.A.A.A.A.A.K.K.J.J.J.J.L.Q.W.Q.W.W.E.W.W.@X@XoXoXoX:X+X:X:X2X2XwXwXwXwXwXeX4XpXkXsXmXHXFXFXHXFXFXHXFXHXbXsXkX9X^.)._._.|.|. X-X}.OXXXXXXX}.R.Y.Y.Y.Y.U.U.P.P.F.F.F.M.i.i.i.y.i.p.p.y.p.p.p.p.e.e.e.e.e.e.e.e.[ v A c S 8.| | *.| 5.5.5.4.4.4.} } } } } 4.4.} } } } } } } 4.T T J J J J J J J H J J J J H H H H H F F F F F H V V j 0 1 6 9 N V V V V V V V V B V B B B B B B d d d d d d d d p p p p p p i i i i ",
"y y y y y y 4 % 4 3 3 y p s p p p s s s B B B M M M M M B M N N B N V V N V V N N N N V F F F A F A H A H H H H H H G H H H J J J g 8 8 8 z } J J } } } } } } } } } } } | | | | | | | | | | | 5.| | | | | | o.6.6.6.e.e.e.e.e.p.p.p.p.y.y.y.y.y.M.M.M.t.*.-.*.*.F.Y.Y.Y.[.}.XXXXXXXX;X;X1X1X2X4X4X1XuXkXsXbXHXFXFXFXFXFXFXFXHXmXsXkXuX4X4X4XeXwX4X4X2X:X:X+X>X:XoXoXoX@XL.G.H.:.;.n.Q.Q.L.J.J.Q.J.J.J.J.A.A.A.A.A.A.A.A.A.C.C.C.C.C.C.C.C.C.V.C.C.C.C.C.C.C.V.V.V.V.V.V.V.V.V.V.C.C.C.C.C.C.C.V.<.<.%.] <.A.C.A.A.A.A.Z.Z.A.A.A.Z.Z.Z.Z.A.Z.A.C.A.A.A.A.A.A.A.C.C.C.C.C.C.C.C.C.C.A.C.C.C.C.C.A.S.S.A.A.S.S.S.A.S.1.' ) ` ' C.C.V.C.C.C.A.A.A.A.A.S.A.A.J.J.J.J.J.J.Q.Q.Q.Q.Q.W.W.E.@X@X@X@XoX+X+X+X:X:X2X2XwXwX4XwXeXeXwXaXkXsXbXHXFXFXFXFXFXFXFXHXmXsXkXyX^.)._._.|.|. X X XOXXXXXXX}.[.Y.Y.Y.Y.Y.U.P.P.F.F.M.M.i.i.i.y.y.y.y.p.p.e.p.p.p.e.e.e.e.e.e.e.e. .v S c S 8.| | | | 5.5.5.4.4.} } } } 4.4.4.} } } } } } } 4.} } J J J J H J J J J J J J H H H H H H F F F F F F F V 0 0 6 1 9 M V V V V V V V V B B B B B B B B B d m m d d d d p p p p f p i i i i ",
"y y y y y y < % % < < y u p p p s s d d d M B M M M M M B B N V V M N V N V V N N N N V F F F F F F H H H H H H H G G H H H H J H g 8 8 8 z J } J } } } } } } } } } } } } } | | } | | | | | | | | | | | | | o.| 6.6.e.e.e.e.e.e.e.p.p.p.y.y.y.y.i.M.M.*.t.y.=.*.F.Y.Y.Y.Y.}.}.}.XXXX;X;X;X:X2X2X4X4X4XuXkXsXmXHXFXFXFXHXFXHXFXJXmXsXkXaX4X4X4XwXwX4X4X2X:X:X:X+X+X+XoXE.L.I.H.3.:.H.W.W.Q.Q.L.J.J.J.J.J.J.J.A.S.A.A.A.A.A.A.A.A.m.C.C.C.C.C.C.C.C.C.C.C.C.C.C.V.V.V.V.V.V.V.V.V.V.V.V.V.C.C.C.V.$.$.%.] <.S.A.A.A.A.A.A.A.A.A.S.Z.Z.Z.A.A.A.A.A.A.A.A.A.A.C.C.C.C.C.C.C.C.C.C.C.C.C.C.C.C.C.C.A.A.A.A.A.S.S.A.A.A.<.` ` #.` V.C.C.C.C.A.A.A.A.A.A.A.S.A.K.J.J.J.J.Q.Q.Q.Q.Q.W.W.W.@X@X@X@XoXoXoX+X:X:X:X2X2XwXwXwXeXeXwXuXkXsXbXHXFXFXFXHXFXFXFXHXmXsXkXyX^.)._._.|.|.|. X X;XXXXX}.}.R.Y.Y.Y.Y.Y.Y.P.P.P.F.M.M.i.i.i.y.y.y.y.p.p.p.p.p.p.e.e.e.e.e.e.e.e.e.D c S z c 8.| | | 5.5.5.4.5.} } } } } 4.4.} } } } } } } } 4.J J J J J J J J J J J J J J H H H H H F F F F F F F F V 0 0 9 6 7 M V V V V V B V V B B B B B B B B B d d d d d d p p p u p f i y p y y ",
"y y y y y e 4 * + % O 5 d s u p u p s s M s M M M M M M B M N N N M N N N N V N N V N N F F F F F H H H H H H H H H H H J H J J G 8 8 8 8 j } J J J } } } } } } } } } } } } | | | | | | | | | | | | | | | o.o.o.6.o.6.e.e.e.e.r.r.r.p.p.y.y.y.y.i.M.y.*.y.y.*.=.F.F.Y.Y.Y.Y.}.}.XXXXXX;X;X;X1X2X2X4X4X4XuXkXsXbXHXFXFXFXFXFXFXFXJXmXsXkXaX4X4XeX4X4X4X2X2X:X:X+X>X+X@XE.L.I.n.n.3.n.W.W.Q.Q.Q.Q.Q.J.J.J.J.J.J.J.A.A.A.A.A.A.A.A.A.C.C.C.C.C.C.C.C.C.C.C.C.C.C.C.V.V.V.V.V.V.V.V.V.V.C.V.V.V.A.<.%.2.%.] <.A.A.A.A.A.A.A.A.A.A.A.Z.Z.A.A.A.A.C.C.A.A.C.C.C.C.C.C.C.C.C.C.C.C.C.C.C.C.C.C.C.C.C.C.A.A.A.A.A.A.S.A.C.%.' ` #.` m.C.C.C.C.A.A.A.A.A.A.S.K.J.J.J.J.J.J.J.Q.Q.Q.W.W.W.@X@X@X@XoXoX+X+X:X:X:X2X2X4XwX4XeXwX4XaXkXsXmXJXHXFXFXFXFXFXFXJXmXsXkXyX^.)._._.|.|. X X XOXOXXXXX}.R.Y.Y.Y.Y.Y.I.P.F.F.F.M.M.i.M.y.y.y.y.y.p.p.p.p.e.e.e.e.e.e.e.e.8.8.6.6.S c v z c | *.| | | 8.5.8.} | } } } 4.4.4.} } } } 4.} T J J J J J J J J J J J H J J J J H H H H F F F F F F V F F N 0 0 0 1 1 M V V V V V V B V B B B B B B B d B d d d d d d p d p f f p i i i i f ",
"y y y y y 3 < % + % + < u p p p p d d B B B M B B B B B V N V V V V V V V V V V V V V F F F F H H H H H H H J H J H H H H H J J N 8 8 8 8 g } } J J } } } } } } } } } } } } 5.| | | | } } } | | | | | | | 5.6.6.6.o.6.-.-.-.e.e.;.e.e.r.p.y.y.y.y.r.*.*.-.y.=.=.F.Y.Y.Y.Y.Y.[.}.}.XXXXOX;X;X;X;X>X2X3X2X3XuXkXsXmXHXFXFXFXFXFXFXFXJXmXsXkXaX4X4XeXwXwX4X2X:X:X>X+X@XE.E.L.I.n.n.3.n.L.W.W.W.Q.Q.Q.J.J.J.J.J.J.J.A.A.A.A.A.A.A.A.A.C.C.C.C.m.C.C.C.C.C.A.C.C.C.C.C.C.C.V.V.V.V.V.V.V.V.V.C.V.A.#._ <.' ] %.A.C.C.C.C.A.A.A.A.A.C.A.A.A.A.A.A.C.C.C.C.C.A.A.A.A.A.A.A.A.A.A.A.A.A.A.S.S.S.S.S.S.A.S.A.A.A.A.S.S.C.%.#.` ` X.` 1.A.m.m.A.A.A.A.A.A.A.J.J.K.J.J.J.L.Q.W.Q.Q.W.W.@X@X@X@XoXoXoX:X>X:X:X:X2X2XwXwXwXwXwX4XaXfXsXmXJXFXFXFXFXFXFXFXHXmXsXkXyX^.)._._.|.|.*X XOXOXOXXXXX}.}.Y.Y.Y.Y.Y.I.P.F.F.F.M.M.i.i.i.y.i.i.y.y.p.p.p.e.e.e.e.6.e.e.e.5.8.6.5.5.S c A h h *.*.*.| 5.8.8.8.5.8.} 4.4.4.} } } } } } } } 4.T 4.J } } } J J T J T T J J J J J H H H H H R F H F H F F M 0 0 u 7 1 m V V V V V V B B B B B B B d d d B d p d p p p p p p p p p p i i i i ",
"4 4 4 4 , % % + @ + + + 5 5 9 9 9 9 9 9 9 9 9 0 0 u u u u 0 0 0 0 0 0 s M M M n j n M M M M M N M N N N N N N N N N N N V V N z 8 8 8 8 8 8 z z z z z z z z z z z z c c c c c c c c c c c c c c c c c c v v S S S v v v v v v v v v v ^  .[ { { { [ =.[ =.=.=.=.t.F.F.F.U.U.Y.Y.Y.[.[.[.[.[.}.}. XOX XOXOX XuXkXsXbXJXFXFXFXFXFXFXFXJXmXsXfXaX4X2X2X2X2X+XOX+XXX@XXXXX[.L.H.H.H.n.n.I.W.W.W.W.L.Q.J.Q.J.J.J.J.J.J.J.A.A.A.A.A.A.A.A.A.A.A.C.C.C.C.C.C.V.m.m.<.<.<.V.V.V.V.V.V.V.V.C.C.C.V.V.V.#.] ] ) ] +.<.V.C.C.C.C.C.A.A.A.A.A.A.A.A.C.C.C.C.A.A.C.V.V.V.V.V.V.V.V.V.V.V.V.V.V.V.V.V.V.V.V.b.b.b.m.b.V.<.1.%.#.#.` ` ` ` ,.K.A.A.A.A.A.K.K.K.J.J.J.J.J.Q.Q.W.W.W.W.W.W.W.@X@XoXoXoX+X:X:X:X:X2X2X2X2X4X4XeXwXeXaXfXsXmXJXFXFXFXHXFXFXFXJXmXsXkXyX^._._._.|.*X-X=X;X;XOXXXXXXXXX}.Y.Y.Y.Y.I.I.I.F.F.F.M.M.M.i.i.y.i.y.y.i.p.p.p.p.p.e.e.e.e.e.e.e.e.8.8.| A c c k k c  .} } } } } } } } } } } 4.4.} } } } } J H H H H G H G G A H H H H H H A F A A V V V V V V N V N N M l 9 9 0 0 1 6 0 M M B B B V V V V V V B B B d d d s d d p p p p f p p p i i i y y i ",
"O O O O O O O + + + + + + + + + + + + = = = = = , , = , < - - - = = = 6 6 6 6 6 1 1 1 1 1 1 1 7 7 ; ; > 7 ; 7 7 7 8 > 8 8 8 7 8 8 8 8 8 8 8 8 8 8 8 8 8 8 8 g 8 g g g g g g g g g g g g h h h k h h h h h h h h h L L L c b L c L b b v v v v D D D ^ ^ =.[ *.=.=.=.*.*.*.>.t.u.t.f.f.f.f.f.l.].].].].].|. X.XuXkXsXbXHXFXFXFXFXFXHXFXJXNXsXkXaX$X.X X$X[.[.[.[.[.[.H.H.H.H.H.H.H.3.n.n.3.3.3.3.,.,.,.;.;.;.;.;.;.;.;.;.;.X.X.X.X.X.X.X.X.X.X.X.X.X.X.` ` ` ) ) ) ) _ ' ' _ X.X.X._ _ _ _ ` _ _ ) ] ) ] _ _ _ ' +.+.+.+.+.+.+.+.' ' ' ' ' ' ' ' ' +.' ' ' ' +.@.X.X.X.X.' ' ' ' X.X.X._ X.X.X.X.X.X.` _ X.X.X.` ` _ ` ` X.` X.1.,.,.,.,.1.,.;.;.1.,.,.,.,.n.n.n.n.H.M.M.N.H.H.H.H.H.L.H.Y.[.[.[.[.$X X$XOXOX X;XaXfXsXNXKXFXFXFXFXFXFXFXHXmXsXkXjX~.~.~.`.`.`././././.H.H.f.f.f.f.f.f.u.t.t.>.>.-.*.*.=.*.*.*.[ [ [ [ [ [ [ [ D D v v v v v v v v c c c c c h h k h h g g g g g g g g g k g j z j j g g g g g g 8 8 8 8 8 8 8 8 8 8 8 8 8 8 7 7 7 7 7 7 7 7 7 7 1 1 1 6 1 ; 1 1 6 6 1 1 6 6 6 6 6 6 6 6 1 6 6 6 6 < < < < < 4 < < % < < % , % % % % % % * % * * ",
"% * % % * % * % % % % , < < < % % < < < < < < < 6 6 6 6 6 6 6 6 6 1 1 1 1 1 1 7 7 7 7 7 7 7 7 7 7 7 7 7 7 7 8 8 8 8 g g g g g g g g g g 8 g g g j j g z z z z z z z z h k g g g g g k k h c c k c c c c c c v v v v v v v v S v v v v v v D D ^ ^ [ { { [ =.[ =.=.*.=.*.*.>.>.>.t.f.f.f.f.f.f.l.l.].].].]..X.X|.uXkXsXbXHXFXFXFXFXFXFXFXJXBXdXfXgX,X.X$X.X[.[.[.[.[.[.H.H.H.H.H.H.H.H.H.H.M.H.n.n.3.,.,.;.;.1.1.,.,.;.;.;.;.X.X.X.X.X.X.` ) ) ) ) ` ) ) ) ) ) ) ) ) ) ) ] ) ) ) ) _ _ _ ] ) ) _ _ ) _ _ _ _ _ ) _ _ _ _ _ _ _ _ _ _ _ _ _ _ _ _ _ _ _ _ _ _ _ _ _ _ _ _ _ _ _ _ ) ) ) ) ) ) ) ) ) ) ) ` ` ) ` ` ` ` ` ` ` X.` ` ` ` ` ..;.;.;.;.;.:.:.:.:.;.;.;.3.3.3.3.n.n.H.H.H.H.H.H.H.H.[.[.].[.].].[.].OXaXfXdXBXKXFXFXFXFXFXHXFXHXbXsXkXjXa.~.~.~.a.a.k.f.f.f.f.f.f.f.t.t.>.>.*.*.=.=.*.=.=.[ [ [ ^ D D v v D v v b v b L L L L k h h h h h k h h k h k h k k h k g h g g g g g g g g g g g 8 8 8 8 8 8 8 8 8 8 8 8 8 8 8 8 8 8 8 8 8 8 7 8 7 7 7 7 7 7 7 7 1 1 1 1 1 1 6 1 6 6 6 6 6 < < 6 < - , , , = + = = = = = + + + + + + * + % % % $ O O O O O O O ",
"% % % % * % % % % * < , , , 4 4 4 4 < < 6 6 6 6 6 1 6 6 6 6 1 1 7 7 7 7 7 7 7 9 7 7 7 7 7 7 7 7 7 7 8 8 0 0 8 0 8 8 g g g g g g g g g g j g g j l j z c S S S S z z k z z k z z k k z z c c c c c c c c  .} { | | | | | | | | ^ v v v v v ^ [ [ [ [ [ [ { *.*.*.*.-.>.>.:.t.y.t.f.f.d.f.f.H.H.U.].].].]..X}. X X].uXkXsXbXHXFXFXFXFXHXFXFXJXVXdXfXdX2X.XOXOX[.[.[.XXXX@X@X[.[.[.E.L.L.I.L.G.G.G.G.N.N.H.n.1.1.1.1.1.1.,.,.,.<.,.1.,.,.,.,.O.X.X.O.#.#.%.#.#.X.X.#.#.#.#.#.X._ _ ) _ ) _ _ _ _ _ _ _ _ _ _ ' ` ' ' ' ' ' ' ' ' ' ' ' ' _ _ ` ` ` _ _ _ _ _ _ _ _ _ _ _ _ _ ) ) ) _ ` ) ) ) ) ) ) ` ` ` ` ` ` ` ` ) ` ` ` ` ` ` X.;.;.,.1.1.1.b.b.m.n.n.n.m.m.N.H.G.G.L.I.I.H.H.H.H.H.H.H.[.XXXXOXOXOXOXOXOX2XdXfXdXBXJXFXFXFXHXFXFXHXHXbXsXkXjX~.~.~.~.`././././.].].U.U.P.P.F.d.d.d.f.t.t.t.-.*.*.*.*.*.*.{ [ {  . . .[  .^ ^ ^ v v v v c b c v v c v c c c c c c z c z k k k z z z z z z z k k z g j k g g j j g g l j 8 8 8 g j l l j j l l l j w 0 0 0 0 0 0 7 7 1 7 7 7 7 1 1 1 1 1 6 6 6 6 6 6 < < 6 6 6 6 6 6 6 6 6 < < < < 4 < * + + % + + % 4 5 4 % O O ",
"5 5 5 5 5 5 5 5 5 9 9 9 9 9 9 9 9 9 9 9 9 9 9 9 1 9 5 1 1 1 1 6 1 7 1 1 7 7 7 7 7 7 7 7 7 7 7 0 0 7 7 8 7 8 8 8 8 8 8 8 8 g j l l z k z j j g j g z g g g k k k k k k k z k z z z z z h h c c c c c v S ^ ^ S ^ S ^ ^ ^ ^ ^ ^ ^  . . . .[ [ { { { { { *.*.-.-.:.e.e.t.r.y.y.d.d.d.F.F.P.U.U.Y.[.[.[.}.}.}. XOXOX X{.yXkXsXbXFXHXFXFXFXFXFXFXJXVXdXdXdXqX X$X$X[.[.[.[.[.[.[.H.H.H.H.H.H.H.H.N.H.H.3.3.,.,.,.1.1.;.1.;.;.;.1.,.;.O.O.#.,.,.,.,.,.O.#.#.O.#.#.%.#.#.#.%.%.#.#.X.X.X.X.#.X.X.X.#.#.#.#.#.#.#.X.' ' ' ' ' ' ' ' ' ' +.' ' ' ' ' ' ' _ ` ' ' ' ` _ ` _ #.%.,.,.,.%.<.<.<.%.,.,.,.,.,.<.<.<.<.1.,.,.,.,.,.,.,.,.v.1.b.b.b.m.m.N.N.N.N.N.G.G.G.J.J.L.L.L.W.W.@X@XoX@XH.H.H.H.OX2X:X2X2X4XwXwX4XyXdXdXdXVXJXFXFXFXFXFXFXFXHXbXsXkXyX^.'.).`.(.{.|. X X;XOXXXXX}.}.R.Y.Y.Y.Y.Y.I.P.F.M.i.t.*.-.*.[ *.*.e.e.;.e.e.e.-.*.| | | | | | | | | | | | | } }  . .D S S S D S S S S S S S S A A A A A A A A A G G G A k z z 8 g A N z V N N N N N N M N M M M N N N V N N N V V M M M B B B B B M M M B B B B B B B B d d d d d d d p s u y % + + O r p p p y r r ",
"a y y y y y y y y u u u u u u u p p p M M M M M M M M M M u m u 0 9 6 7 7 7 7 9 7 0 M N N N N N N N N N M M l l z N N N A A A S G G G G G G G H S S S S S S J J S S S S S  .} } } }  . .c h c c c c S S S ^ ^  .[ [ [ | | | | | | | { { { { { | *.*.*.-.-.-.-.-.e.e.t.t.y.y.f.d.F.F.F.U.Y.[.}.XXXXOXOX;X;XOX XOX X.X.XyXlXsXbXHXHXFXFXFXFXHXFXJXDXlXsXfXrX;X:X;X;X+X;XOXOXOXoXXX[.[.[.H.I.I.I.I.I.G.G.N.G.G.G.G.J.J.J.G.G.N.N.A.m.,.O.,.,.,.X.X.<.b.b.b.b.m.b.b.b.m.m.b.b.b.V.V.V.V.V.b.V.V.C.C.C.C.C.C.V.V.V.V.m.<.<.<.<.<.V.V.<.<.<.<.<.<.<.<.<.<.<.#.` ' _ ] ) V.A.V.C.C.C.C.C.C.C.C.C.C.C.C.C.C.A.A.A.A.A.A.A.A.A.A.K.J.J.J.J.J.J.J.J.J.Q.L.Q.Q.W.Q.W.W.W.@X@XoXoX+XoX+X+XH.H.H.].2X4X2X2XwX4XwX4XuXfXdXhXAXJXFXFXFXFXFXFXGXFXbXsXkXyX^.)._._._.|.|. X=XOX;XXXXX}.}.R.Y.Y.Y.Y.Y.F.P.F.F.F.F.F.*.*.D b { y.y.p.p.p.p.e.e.e.e.e.e.e.6.e.e.8.8.| | | | 8.8.8.| | | | | | | | 5.5.4.4.} } } } } } } } } } } } } J J A j z g g J J J T J T J J H J H H H H F F F F F F F F V V V V V V V V V V V B V B B B B B B B B d d d d d d p d s p d 3 + O + y p y i y y y ",
"a a y y y a y y y y u u u u u u u u p s p m u n u M M M M M M M N M 0 7 1 q 7 1 9 N N N N N V F V F F F F A H H H H H H H H H H G H G S G G G J  .D J } } } } } } } } } } } } } } } | | [ c c L z c S S | | | | | | 6.6.6.6.e.e.e.e.e.-.e.e.e.e.r.r.r.y.y.y.i.i.y.M.M.F.F.F.F.U.Y.Y.Y.Y.}.}.XXXXXXXXOX;X:X;X;XOX X.X.X].yXlXsXzXFXHXFXFXFXHXFXFXJXDXzXsXkXuX4XwXwX2X4X4X2XwX2X:X:X+X+XoXoXoXoX@X@X@XW.W.W.Q.Q.L.J.J.J.J.J.J.J.J.J.J.,.O.,.X.X.1.A.A.A.A.m.C.C.C.C.C.C.m.m.V.C.C.V.V.C.C.C.C.C.C.C.C.V.V.V.V.V.V.C.C.V.C.C.C.C.C.C.C.C.C.C.C.C.C.C.C.C.V.X.' _ ) _ V.V.V.C.V.V.C.C.b.C.C.C.C.C.C.C.C.C.C.C.C.A.A.A.A.A.A.A.A.J.J.J.J.J.J.J.L.Q.W.Q.W.W.W.W.W.@X@XoXoXoX+X+X+X:X[.H.H.[.2X2XwXwXwXwX4XuXkXsXlXDXJXFXFXFXFXFXFXHXFXbXsXkXyX^.)._._.|.|.|. X X;XXXXXXX}.}.R.Y.Y.Y.Y.Y.P.P.F.F.M.M.M.M.-.[ v b { y.p.p.p.p.p.e.e.e.e.e.e.6.6.e.8.8.| | | | | | | | | | | } } | } } } } 4.} } } } } } } J J } J J J J J J J z j j l J J J J J J J H H H H H H F F F F F F V V V V V V V V V V V V V V V B B B B B B B B d d d d d d d d u s u p 9 % + + a p y y y y i ",
"a a y y y y y y y u u u u u u u u u s s p p p m u M m m M M m m M M M q 1 q 9 7 0 N N N N N N N F V F F F F F F A H A H H H H G A G S S G G J J J J J S G } } } } } } } } } } } } } } } | c z c c c v [ | | o.o.| 6.| | o.o.6.6.e.e.e.e.e.e.e.e.p.r.y.y.y.y.y.i.M.M.M.F.F.F.F.G.P.Y.Y.Y.Y.Y.}.}.}.XXXXXX;X:X:X;X[.]..X.X].uXkXsXzXDXHXFXFXFXFXHXFXHXFXbXsXkXuX4XwX2X2XwX2X2X2X2X:X:X:X+XoXoXoX@X@X@X@XW.W.Q.L.L.J.J.J.J.J.J.J.J.J.J.,.;.O.X.X.1.A.C.C.m.m.C.C.C.C.C.m.m.C.m.C.C.C.C.C.C.C.C.C.V.C.C.C.C.V.V.V.V.V.V.V.V.V.V.V.C.V.V.V.V.V.V.V.V.C.C.V.V.,.' _ ) _ V.V.V.V.C.V.C.C.C.C.C.C.C.C.C.C.C.C.C.C.A.A.A.A.A.A.A.J.J.J.J.J.J.J.J.L.Q.Q.W.W.E.W.W.W.@XoXoXoXoXoX+X+X:X2XXX].]..XwXwX2XwX4XwXuXkXsXbXDXHXFXFXFXFXFXFXHXDXbXgXkX9X^._._._.|.|.|. XOXOXOXXXXX}.}.R.Y.Y.Y.Y.Y.I.P.F.F.F.F.M.M.M.e.[ v b { p.r.p.r.p.e.p.e.e.e.e.e.6.8.e.8.8.| | | | | | | | | | | 5.5.5.| } } | } } } } } } } } } } J } J J J J J J N l j l J J J J J J J H H H H F F F F F F F F V V V V V V V V V V V V V B V B B B B B B B B d d d d d d d s s f p p 5 < + O y i i y y y y ",
"y a y y y y y y y y u u u u u u u p s s s s s s p M M M M M M m M M M 0 1 1 1 7 l N N N N N N N V N N F F F F F A H H H H H G G G G G G G G G J J J J J G } }  .} } } } } } } [ [ } } } | S z c c c S | | | | o.| | o.o.6.6.6.6.e.e.e.e.e.e.e.e.e.r.r.p.y.y.y.y.i.i.i.M.F.F.F.F.F.Y.Y.Y.Y.Y.Y.}.}.XXXXXXOX;X;X;X.X].].}. X1XyXfXgXlXDXHXFXFXFXFXFXFXHXHXbXsXlXaX4X4XwXwX2X4X2X2X2X2X:X:X:X+XoXoX@X@X@X@X@XW.Q.Q.Q.Q.L.J.J.J.J.J.J.J.1.;.;.;.X.m.A.N.A.C.C.A.m.m.m.C.C.C.m.b.m.m.m.m.C.C.C.C.C.C.V.V.V.V.C.C.C.C.V.V.V.V.V.V.V.V.V.V.V.V.V.V.V.V.V.C.C.C.<.` ` ) ` V.C.C.C.C.C.C.C.C.C.C.C.m.C.C.m.C.C.C.C.A.A.A.S.A.A.J.J.J.J.J.J.J.J.J.Q.W.Q.W.W.W.W.W.@X@X@XoXoX+X:X:X:X:XwX$X].]..XwXwXeXwXwXaXkXsXbXFXHXFXFXFXFXFXFXHXDXlXdXfX5X^.)._._._.|.|. X}.OXOXXXXXXX}.R.Y.Y.Y.Y.Y.P.P.P.P.F.M.M.M.M.M.e.[ b b { r.r.r.r.r.e.e.e.e.e.e.6.6.8.8.8.e.| | 5.| | | | | | | | | | } } } } 4.4.} 4.4.} } } } } } J } } J J J J J N l j g J J J J J J J H H H H H F F F F F F F F V V V V V V V V V V V V B B B B B B B B B B B d d d d d p s s u u d 5 3 % % y p i y y y y ",
"a a y y y y y y y y u u u u u u u p p p s s u u p s M M M M m m M M M 0 1 7 7 7 M N N N N N V N V F F F F F F F A A A H H G G A G H G G S G G G J J G J J }  . .} } } } } } } } } } } } | S k z c h S | | | | | | | | o.o.o.o.6.6.-.e.e.e.e.e.r.e.p.r.p.r.y.y.y.y.y.M.M.M.F.F.F.F.U.Y.Y.Y.Y.Y.[.}.}.}.XXXX;X;X;X.X].]..X}.4X3XyXdXgXkXAXJXFXFXFXFXFXFXFXHXmXsXfXaXeX4XwX4XwXwX2X2X2X:X:X:X+X+XoXoX@X@X@X@X@XW.W.Q.Q.L.J.J.J.J.J.K.J.1.;.;.;.;.N.A.m.N.A.A.C.A.A.m.m.C.C.m.m.m.m.m.m.m.C.V.C.C.C.V.V.V.V.C.C.C.C.C.C.C.C.C.V.V.V.V.V.V.V.V.C.C.C.C.V.C.C.,.X.` ) ` C.C.C.C.C.C.m.C.C.C.C.m.C.C.C.A.C.m.A.A.A.A.A.A.A.A.J.J.J.J.J.J.J.J.Q.Q.Q.W.W.W.W.@X@X@X@XoX+X+X:X:X:X2X2XwX$X].[..XwXeX4XeXaXfXsXbXHXFXFXHXFXFXFXFXJXDXlXdXkX,X^._._._.|.|.|. X XOXXXXXXX}.}.R.Y.Y.Y.Y.Y.Y.P.P.P.P.F.M.M.i.M.M.e.[ b b [ r.e.e.e.e.e.e.e.e.e.6.8.5.*.8.*.8.| | | | | | | | | | | | | } } } | 4.4.} } } } } } } } } J } } J J J J J N l j g J J J J J J J H H H F H F F F F F F F V V V V V V V V V V V V V V B B B B B B B B B d d d d d d d s s u u p 5 3 % % y p i y y y y ",
"a y a y a a y y y u u y u u u u u p p s s u u u p p s m M M M m M M M 0 1 1 9 7 n N N N N V N N N V N F A F A A F A H A A H H H G G G G S G H H J G G J D D G G } } } }  .} } } } } } } } S k c c h  .| | | | | | | | o.o.o.o.6.6.e.;.;.e.e.e.e.e.e.r.r.p.y.y.y.y.y.n.M.M.M.F.F.F.F.F.Y.Y.Y.Y.Y.Y.}.}.XXXXXX;XXX].].].].}.:X4X3XeXdXdXdXVXJXFXFXHXFXFXFXFXJXNXgXfXdXeX4XwXwXwXwXwXwX2X2X:X:X:X:X+XoXoX@X@XE.W.E.W.Q.Q.Q.J.J.J.J.J.K.1.;.;.;.;.N.N.N.A.A.N.A.m.m.C.m.m.m.C.C.C.m.m.m.m.m.V.V.C.C.C.C.V.C.C.C.C.C.C.C.C.C.C.C.C.C.V.V.C.C.C.C.C.C.V.V.V.C.<.` ` ` ` m.C.V.C.C.C.C.C.C.C.C.C.C.C.C.C.C.A.A.A.A.A.A.A.J.J.J.J.J.J.J.J.J.Q.Q.Q.W.W.W.W.@X@X@XoXoX+X:X:X:X:X2X2X2XwX$X].[. XeXwXeXhXfXsXNXJXFXFXFXHXHXFXFXJXAXdXdXkX#X^._._._.|.|. X}. XOXXXXXXX}.}.R.Y.Y.Y.Y.Y.P.F.F.P.F.F.M.M.M.y.y.M.-.^ b L  .p.e.e.e.e.e.e.e.8.5.6.8.8.8.*.8.| | | | | | | | | | | | | } } } } 4.4.} } } } } } } } } } } J J J J J J J N l g g J J J J J H H H H H H F F F F F F F F V V V V V V V V V V B V V B B B B B B B B B B d d d d d d d s s p u d 9 3 % % y i i i y y i ",
"a a a a y a a y y y y y u u u u u p p p s M n u p s s m m M M m m M M 0 1 7 7 7 M N N N N N N N N A N N A F F A F H H A A H H H H G G S S S G G G G J J J S J }  .} } }  . .} } } } } } }  .k z c h S | | 5.| | o.| | o.o.6.o.6.6.6.;.e.;.;.e.e.e.e.e.r.r.r.r.y.y.y.y.n.n.M.F.F.F.F.F.F.Y.Y.Y.Y.Y.Y.[.}.XXXXXX}.].U.].].].>X2X4X1XeXdXgXdXVXJXFXFXHXFXHXHXFXJXVXfXdXdXyX4XeXwXwXwXwX2X2X2X:X:X:X+X+XoX@X@X@X@XE.E.W.Q.Q.Q.Q.L.J.J.J.1.;.;.;.;.J.J.A.A.A.A.N.N.C.A.m.C.C.m.m.C.C.m.m.m.m.m.m.m.m.C.C.V.C.C.C.C.C.C.C.C.C.C.C.C.C.C.C.C.C.C.C.C.C.V.V.V.V.<.` X.) ` C.C.V.C.C.C.C.m.m.m.m.C.m.m.A.A.A.A.A.N.A.A.J.J.J.J.J.J.J.J.J.Q.J.Q.Q.E.W.@XE.@X@X@XoXoXoX+X:X:X:X2X2X2XwXwX X[..X XeXyXdXdXdXBXJXHXFXFXFXFXFXFXJXVXdXfXhX#X^._._._._.|.|. X XOXXXXXXX}.}.Y.Y.Y.Y.Y.Y.I.P.F.P.F.F.M.M.i.M.y.y.y.-.D L L [ p.e.e.e.e.e.e.e.o.6.8.8.8.8.*.*.| | | | | | 8.| | | | | } } } } 4.4.} } } } } } } } } } } } J J J J J J J N l g 0 H J H J J J H H H H H F H F F F F F F V V V V V V V V V V V V V V V B B B B B B B B d d d d d s s s s p p p 5 3 % % y i i i i y i ",
"a a y y a y y y y u u u u s u u u u u u s p u n n n M M m M m m m M M q 1 7 1 q M N N N N N N N N N F V F F A A F F F A A A H H H G S S S S S G G J J J J J  .} } } } } } } } } } } } } } } c h c z  .8.| | | | o.o.| | o.o.o.o.6.6.6.e.e.e.o.;.e.e.e.e.r.r.r.r.p.y.y.n.y.i.M.M.F.F.F.F.F.Y.Y.Y.Y.Y.[.}.XXXXXX}.U.H.].].].;X1X2X4X4XeXaXfXgXNXJXFXFXFXHXFXFXFXJXAXlXgXfXuX4XwXeXwXwX4X2X2X:X:X:X:X+X+XoXoX@X@X@XE.E.W.Q.Q.L.Q.J.J.J.m.;.;.;.,.J.J.J.J.A.A.A.N.N.m.m.m.A.m.m.m.m.m.m.m.m.m.C.m.m.m.m.m.V.C.V.C.m.C.C.C.C.C.C.C.V.C.C.C.C.C.C.C.C.V.C.V.C.,.` X.) X.C.C.C.C.C.m.m.C.C.C.C.C.C.A.N.A.N.N.N.J.A.J.S.J.J.J.J.J.J.J.Q.Q.Q.Q.E.W.@X@X@X@X@XoXoX+X+X:X:X:XrX2XwXwX4XrX$X.X.X XuXkXdXdXAXJXFXFXFXFXFXFXFXJXBXgXfXaX#X^._._._.|.|.|.=X XOXXXXX}.}.R.Y.Y.Y.Y.Y.Y.Y.P.F.P.F.F.M.M.M.M.y.y.y.y.-.v L L  .r.e.p.e.e.e.e.e.e.8.e.8.8.8.8.5.5.| | | | | | | } | | | } } } 5.| } } } } } } } } J J J } } J J J J J J J N j g 8 J J J J J H J H H H F F F F F F F F F F V V V V V V V V V V B B V B B B B B B B B d d d d d d p s s f u p p 5 3 % + a i y i i i i ",
"a a y y a a y y y u y u u u u u u u u u u s u u n n M M m M M m m M M q 1 7 1 5 M N N N N N N N N N V V A F A A F F A A A A H H H H S S S S G G G J J J J G S }  .} J } } } } } } } } } } } c h z h S | | | | | | | | | | o.o.| o.6.6.o.e.e.e.e.e.e.r.e.e.r.r.r.r.y.r.y.y.M.M.i.M.F.F.F.F.P.Y.Y.Y.Y.Y.Y.[.}.XXY.H.l.].].].;X>X1X2X4X4X4XaXkXsXmXJXFXFXFXFXFXFXFXJXDXzXsXkXaXwXwXrXwX2X2X2X4X2X:X:X:X:X+XoXoX@X@XXXE.W.W.Q.Q.Q.Q.J.Q.N.;.;.;.;.J.J.J.A.A.N.A.A.A.N.C.C.m.m.m.m.m.m.m.m.m.m.m.m.m.V.V.V.V.m.V.m.C.C.C.C.C.C.C.V.V.C.C.C.C.C.V.C.C.V.C.V.C.,.` ` ) X.C.C.C.C.C.m.C.m.m.C.C.C.A.A.N.A.A.A.N.A.A.J.J.A.J.J.J.J.J.J.Q.Q.W.E.W.@X@X@X@X@XoXoXoX+X:X:X:XrX:XwXwXwXwXwX X.X.XuXkXsXzXDXHXFXHXFXHXFXFXFXJXmXsXkXaX_.)._._._.|.|. X X XOXXXXXXX}.R.Y.Y.Y.Y.Y.Y.Y.I.F.F.F.F.M.M.i.M.y.y.y.r.y.-.v L L  .p.e.e.e.e.e.e.e.e.8.e.e.*.| 5.5.5.| | | | | | | | | 5.} } } } } 4.} } } } } } } } J J J } J J J J J J J J N l g 8 J J J J H H H H H H F F F F F F F F F V V V V V V V V V V V V B B B B B B B B B B d d d d d d p s s p u p p 5 3 % + a i y i i i i ",
"a a y y a a a y y u u u y u u u u u u u u s p u p p n M n n M m m M M 7 1 7 7 7 M N N N N N N V N N F F A F F F F F A H A A A H H H H S H H G G G G J J J D D  . . . .} }  .}  .} } } } } | c h z h S | | | | | | o.| | | | o.| o.6.6.6.-.e.e.e.e.e.e.r.e.r.r.r.r.r.y.y.y.y.y.M.M.M.F.F.F.F.F.Y.Y.Y.Y.Y.Y.[.}.Y.f.f.H.].].;X:X>X1X2X4X4X2XaXkXsXbXFXHXFXFXFXHXFXFXHXFXbXsXkXaXeXwXwXwX2X4X2X2X:X:X:X:X+X+XoXoX@X@XXXE.E.E.Q.Q.Q.Q.Q.N.;.;.;.1.J.J.J.J.A.A.A.A.A.A.N.N.C.m.m.m.m.C.C.C.m.m.m.m.m.m.m.m.C.m.m.m.m.V.V.C.C.C.C.V.C.V.C.C.C.V.V.V.V.C.m.m.m.,.` ` ) X.m.C.C.C.m.m.m.C.C.C.C.C.A.A.N.A.A.A.N.A.J.J.J.J.J.J.I.Q.I.Q.Q.Q.E.E.E.XX@X@XoXoXoX+X+X:X:X:X:X2XwXwXwXwXwXeX X.XuXkXsXbXFXHXFXFXFXFXFXFXFXHXbXsXfXuX).)._._._.|.|. X XOXOXOXXXXXXX}.Y.Y.Y.Y.Y.Y.I.P.F.F.F.M.M.M.M.M.y.y.y.p.r.r.o.v L h ^ r.e.e.e.e.e.6.8.e.-.| 5.| | 5.| | | | | | | | | | | 5.4.} | 4.4.} } } } } } } } } } J J J J J J J J J J J G N l 8 J J J J H H H H H F F F F F F F F V V V V V V V V V V V V V B B B B B B B B B B B d d d d d d s s s p p p p 5 3 + + y i y i i y i ",
"a a y y a a a y y u y u y u u u u u u u u s p u p p p M n n m M m M M 1 1 1 7 7 M N N N N N N N N N N F F F F F F F A A A A A H H H A H H H G G G G G J J J D D  . .} J } }  . .} } } } } } c h z z  .| | | | | | | | | | | o.o.o.6.6.6.6.-.e.e.e.e.e.e.r.r.r.r.r.r.r.y.y.y.y.M.i.M.M.F.F.F.F.F.Y.Y.Y.Y.Y.Y.}.Y.f.f.f.l.U.OX;X;X>X:X2X2X4X4XuXkXsXbXFXHXFXFXFXFXFXFXHXHXmXsXfXhXeX4XeXwX2X2XwX2X2X:X:X>X:XoXoXoXoX@X@XXXE.E.W.Q.Q.Q.N.;.;.;.1.J.J.J.J.J.J.A.A.A.A.A.A.A.A.C.C.m.m.C.C.C.C.m.m.m.m.m.m.C.m.m.m.m.m.m.V.C.V.V.V.C.V.C.C.C.V.V.m.m.m.m.m.m.<.` ` ) X.m.m.C.C.m.m.m.C.C.C.A.A.A.A.N.A.N.A.A.J.J.J.J.J.J.J.J.Q.Q.Q.Q.E.W.E.E.@X@XoXoXoX+X:X:X:X:X:X2X2XwX2XwXwXwXwX:XaXkXsXmXHXFXFXFXFXFXFXFXHXFXbXsXkXuX).)._._._.|. X X=XOX;XOXXXXX}.R.Y.Y.Y.Y.Y.Y.P.P.P.F.F.M.M.M.M.M.y.y.y.y.r.p.r.-.v L h [ r.e.e.e.e.e.6.e.e.| | | | | | | | | | | | | | | | } 4.} } } 4.4.} } } } } } } } } } J J J J J J J J J J J H A g 8 J J J J H J H H H F F F F F F F F V V V V V V V V V V V V V B V B B B B B B B B B d d d d d d s s u p p p p 5 3 + + y i y i i y i ",
"a a a y y y a y y y y y y u u u u u u u u s u u p p n M M n n M m M M 1 1 7 7 7 M N N N N N N N N N N F V V F F F F A A A A H H H H H G G G G G G G G J J J J J } } J J } } } }  .} } } } } c k z h  .| | | | | | | o.o.| | | o.| o.o.6.6.-.-.e.e.e.6.e.;.r.r.r.r.r.r.r.y.y.y.y.i.i.M.F.F.F.F.F.F.Y.Y.Y.Y.Y.Y.U.d.f.f.f.H.OX;X;X;X1X>X4X4X4X3XuXkXsXzXDXJXFXFXFXFXFXFXFXJXBXdXdXfXyX4XwXwX4X2X2X2X:X:X:X:X+X+XoXoXoX@X@XE.E.W.E.E.Q.G.,.,.;.,.J.J.J.J.J.J.J.A.A.N.A.A.A.A.m.C.C.C.C.C.C.m.m.C.m.m.m.m.m.m.m.C.m.m.m.m.C.C.C.C.C.V.V.m.m.m.m.m.m.m.m.m.m.<.` ` ) X.C.m.C.C.C.A.A.m.m.A.A.A.A.N.N.A.A.J.J.J.J.J.J.J.I.Q.Q.Q.Q.W.E.W.W.@X@X@XoXoXoX+X:X:X:X:X:X2X2XwX4XwXwXwX4XyXdXdXdXNXJXFXFXFXFXFXFXFXJXDXzXsXkXyX^.)._._.|.|.|. X XOXOXXXXXXX}.}.R.Y.Y.Y.Y.Y.P.P.P.F.F.M.M.M.M.M.y.n.n.y.y.r.p.r.-.v L h [ e.e.e.e.e.8.8.8.o.| | | | | | | | | | | | | | | | 4.4.} } 4.4.} } } } } } } } } J J } J J J J J J J J J J H A j 8 J J J J H H H H H F F F F F V V V V V V V V V V V V V V B B B B V B B B B B B B d d d d d d d s s f p p p p 5 3 % + y i i i i y y ",
"a a a y y y y y y y y y y u u u u u u u u u u u p p n n M n n M M m n 1 1 1 7 7 M N N N N N N N N N N N V V V F F F A A H A H H H H H H G G S G S G G G G J D J J } } G J } } }  .} } } } } c k z h  .| | | | | | | | o.| | | o.| o.o.o.6.e.-.-.e.e.e.;.;.r.e.r.r.r.r.r.y.y.y.y.M.i.i.M.F.F.F.F.F.P.P.Y.Y.Y.Y.F.f.f.f.f.l.XX;X;X;X;X>X1X2X4X4X2XyXfXdXdXVXHXFXFXFXHXFXFXFXJXAXlXdXkXuX4X4XwX2X2X2X2X:X:X:X:X>X+X+XoXoXoX@XXX@XE.W.E.G.3.3.;.,.J.J.J.J.J.J.J.J.J.A.A.N.A.A.N.C.C.C.m.m.m.C.m.m.m.m.m.m.m.m.m.m.m.m.m.m.m.C.C.m.m.m.m.m.m.C.C.m.m.C.m.m.m.b.X.) ] X.C.m.m.C.A.A.A.m.A.N.N.A.A.A.A.J.J.J.J.J.J.J.Q.Q.Q.Q.Q.W.W.E.E.W.@X@XoXoXoX+X+X+X>X:X:X:X2X2XwX4X4XwXwX4XuXfXgXlXVXJXFXHXFXHXFXHXFXJXAXkXgXfX9X^.)._._.|.|.|. X XOXOXXXXXXXXX}.R.Y.Y.Y.Y.Y.P.P.P.F.P.F.M.M.i.i.M.n.y.y.y.y.p.p.p.-.v k h S e.e.e.e.e.5.8.8.| | | | | | | | | | | | | | | | 5.4.} } } 4.} } } } } } } } } } J J } J J J J J J J J J J G A z 8 J J J H H H H H H F F F F F V V V V V V V V V V V V V V B B V B B B B B B B B B d d d d d d d s s p p p p p 5 3 * O y i y i i y y ",
"a a a y y y y y y u y y y u u u u u p u u u s u u u u n M n n M M m n 1 1 1 7 1 M N N N N N N N N N N N N N V F F F F A A H H H H H H H A S S S S G G G J J J J D  .G G G } } }  . .} } } } z z z h  .| | | | | | | | | | | | | | o.o.o.o.6.6.-.o.-.;.;.e.e.e.e.r.r.r.r.r.y.y.y.y.M.i.i.M.F.F.F.F.F.F.F.Y.Y.Y.F.f.f.f.f.P.}.XXOX;X;X>X>X>X:X2X4X1XrXdXdXdXBXJXFXFXFXFXFXHXFXJXDXbXsXkXaXwX4XwX2X2X2X2X:X:X:X:X:X+XoXoXoXoXoXXXXXE.E.G.n.3.3.3.L.I.J.J.J.J.J.J.J.J.A.A.A.N.A.C.N.C.m.m.m.C.m.C.m.m.V.m.m.m.m.m.m.b.m.m.m.C.m.m.m.m.m.m.m.m.C.m.m.m.C.m.m.m.X.) ] O.A.m.m.C.A.A.A.A.A.N.N.N.A.J.J.J.J.J.J.J.I.I.I.Q.Q.Q.W.E.E.@X@X@X@XoXoXoXoX+X:X:X:X:X2X2X2X2X2XwX2X4XwXaXfXsXzXDXJXFXHXFXFXFXFXFXJXVXdXfXdX,X^._._._.|.|. X X=X;XOXXXXXXXXX}.R.Y.Y.Y.Y.Y.F.P.P.P.F.F.M.M.M.i.i.y.y.y.y.r.p.p.p.r.;.^ L h S e.e.6.6.6.5.8.e.| | 8.| | | | | | | | | | | | | 5.} } } } } } } } } } } } } } } J J J J J J J J J J H J J G A z 8 J J H H H H H H F F F F H F F V V V V V V V V V V V V V V B B B B B B B B B B B d d d d d d s s s p p f f u 5 3 * O y i y i y y y ",
"a a a y y y y y y y y y y u u u u u p u u u s p u u n n M M n M M m n 1 1 1 7 1 n N N N N N N N N N N N N A V F F F A F A H H H H H H H A S S S S G G G G G J J J J  .G G } } }  . . .} }  .k k z h  .| | | | | | | | | | | | | | | | o.6.6.6.e.-.-.e.e.e.;.;.e.r.r.r.r.p.r.y.y.y.y.M.i.M.M.F.F.F.F.F.F.Y.Y.Y.F.f.f.f.d.f.}.XXXXOX;XOX;X>X>X2X1X4X3XeXhXfXsXmXJXFXFXFXFXFXFXFXHXHXbXsXfXhXeX4XwX4X2X2X2X2X:X:X:X>X>X+XoXoXoXoX@XXXXXI.n.n.n.3.Q.Q.Q.I.J.J.J.J.J.J.J.N.N.N.A.N.A.N.A.A.m.m.m.m.m.m.m.V.m.m.m.m.V.b.b.m.m.m.m.m.m.m.m.m.m.m.m.m.m.m.C.m.m.V.O.` ) X.C.m.m.C.C.A.A.A.A.N.A.J.J.J.J.J.J.J.J.J.I.Q.Q.L.Q.E.E.E.@X@X@XoXoXoX+X+X:X:X:X:X2X2X2X2XwXwXwXwX4XeXhXkXsXbXFXHXFXFXHXFXFXFXFXHXNXsXfXaX#X^._._._.|.|.|. X;X;XXXXXXX}.}.}.Y.Y.Y.Y.Y.Y.F.F.P.P.F.F.M.M.M.y.y.y.y.i.r.r.p.p.p.p.p.-.^ L h S e.6.6.e.5.5.8.8.| o.| 5.| | 8.| | | | | | } | | 5.} | } } } } } } } } } } } } } J T J J J J J J J J J J J G A N 8 J J J H H H F F F F F F H F F F V V V V V V V V V V V V B B B B B B B B B B B d d d d d d d s s s p f p f u 5 3 * O y i i i y y y ",
"a a 9 a y y y y y y u u u u u u u u u u u u u s n u u u M M n n M B m 1 1 7 7 7 n N M N N N N N N V N N N F V F F F F F A A H H A H H H H G G H G S G G G J J J J D  . .G J }  . .}  . .| D z k z h S | | | 5.| | | | | | | o.| | | o.o.o.6.6.6.-.-.e.o.e.e.e.e.r.e.r.r.r.p.r.y.y.y.y.i.i.M.M.F.F.F.F.F.F.P.U.F.y.t.f.f.f.[.XXXXOXOX;X;X;X;X:X:X2X4X4X2XaXkXsXbXHXHXFXFXFXFXFXFXFXJXNXdXgXfXyX4XwX2XwX2X2X2X:X:X:X>X>X+X+XoXoXoXXX@XI.n.H.n.n.E.Q.Q.Q.I.J.I.J.J.J.J.J.N.A.A.A.N.A.N.C.m.m.C.m.m.C.C.C.m.m.m.m.m.C.m.m.m.m.m.m.m.m.m.m.m.m.m.m.m.m.C.m.m.C.#.) ) X.C.C.m.C.N.N.N.A.N.N.A.J.J.J.J.J.J.Q.I.Q.Q.Q.Q.E.E.E.E.W.@X@XoXoXoX+X:X:X:X:X:X:X2X2X4X4XwXwXwX4XyXdXdXdXNXJXHXFXFXFXFXFXFXHXHXbXsXkXaX_.^._._._.|.|.|. X;XOXOXXXXX}.}.}.R.Y.Y.Y.Y.Y.P.G.F.F.F.F.M.M.M.i.i.y.n.y.y.y.p.p.p.p.e.r.o.^ v U S e.e.e.8.e.e.e.| | | 5.5.| | | | | | | | | 5.5.} } } 4.4.| } } } } } } } } } } } } J J J J J J J J J H J T H N N 8 J J H H H H H H F F F F F F V V V V V V V V V V V V V V B V V B B B B B B B B d d d d d d d s s s p p u u u 5 5 * O y i i i y y y ",
"a a a y y y y a y y y y u u u u u u u u u u u s n u u p p M n n M m n 1 1 1 1 1 n N N N N N N N N N N N N F V A A F F F F A H A A H H H H G G G G S G G G G J J J D S  .} J } } } }  . .}  .k k z h S | | | | | | | | | | | o.o.| | | | 6.o.o.6.6.6.-.e.-.e.o.e.e.r.e.r.r.r.r.y.y.y.y.y.M.M.M.M.M.F.F.F.F.P.F.F.y.t.t.f.f.[.}.XXXXXXXX;X;X;X;X:X:X2X2X2X2XaXkXsXzXDXHXFXHXFXFXFXFXFXJXAXlXsXkXuXwX4XwX4X4X4X2X2X:X:X:X>X+XoXoXoXoXoXE.H.M.n.H.W.W.Q.E.Q.Q.I.I.J.J.J.J.J.J.A.A.A.N.A.N.N.C.m.m.m.m.m.C.C.m.m.m.m.C.m.m.m.m.m.m.m.m.m.m.m.m.m.m.m.m.m.m.m.C.O.) ) X.m.m.m.N.N.N.N.A.A.A.A.J.J.J.J.J.I.I.I.Q.Q.E.W.E.E.E.XX@X@XoXoXoX+X:X:X:X:X:X:X2X2X4XwXwXwXwX4XuXdXdXdXVXJXFXFXFXFXFXFXFXHXFXbXsXkXuX).)._._._.|.|.-X X;X;XOXXXXXXX}.}.Y.Y.Y.Y.Y.Y.P.P.F.F.F.F.M.M.M.M.y.y.y.y.y.r.p.p.p.p.r.r.r.| ^ v U S e.e.e.8.8.e.e.| | | | 5.| | | | | | | | 5.5.} } } } 4.4.} } } } } } } } J } } } J J J J J J J J J J J J J H N N 8 J J H H H H H F F F F F F V V V V V V V V V V V V V V V B V V V B B B B B B B d d d d d d d s s s p p u u u 5 3 * O r i i y y y y ",
"e a a 9 y y a a y y u y y y u u u u u u u u u s n n p p p s n n M m u 1 1 1 1 1 n N N N N N N N N N N N N A F A A A F A F H A H A A H H H H S S G S S G G G G J J J S  .J J G } } }  . .} S k z h h A | | | | | | | | | | | o.o.| | | | 6.o.o.6.6.6.e.e.e.e.6.6.6.e.e.e.r.r.r.r.r.y.y.y.y.i.M.M.M.F.F.F.F.F.F.d.y.t.t.t.f.Y.}.}.}.XXXXXXOX;X;X;X;X;X:X4X4X1XuXkXdXkXAXJXFXHXHXFXFXFXFXJXDXbXsXkXaXeXwXwXwXwX2X2X2X2X:X:X>X>XoXoXXXoXY.H.F.M.M.E.E.E.E.E.Q.Q.Q.I.G.J.J.J.J.J.A.A.N.N.N.C.N.A.m.m.C.m.m.m.m.m.m.m.m.m.m.m.m.m.m.m.m.m.m.m.m.m.m.m.m.m.m.m.C.O.) ) X.C.A.N.A.N.N.A.A.A.J.J.J.J.J.J.I.Q.Q.Q.Q.E.E.E.E.E.XX@XoXoXoXoX+X:X:X:X:X2X2XwX4XwXwX4XwX4XeXaXkXsXzXDXJXFXFXFXFXFXHXFXJXAXlXgXkXyX^._._._._.|.|. X X;XOX;XXXXXXX}.R.Y.Y.Y.Y.Y.Y.P.P.P.F.F.M.M.M.M.i.y.y.y.y.y.r.p.p.p.r.r.r.e.e.| ^ S h v 6.6.6.8.e.e.e.| | | | | | | | | | | | | | } } } } } } } } } } } } } } } J J } } J J J J J J J J J J J H H A N N 8 J J H H H H H F F F F F F F F F V V V V V V V V V V V B V B B B B B B B B B B d d d d d d d s s u u p u u u 5 3 % O e i i y y y y ",
"e a a 9 y y a a y y y y y y u u u u u u u u u u s n p p p M n n n M u 6 1 1 1 1 s V M N N N N N N N N N N A F A A A F F F F A A A A H H H G G S G G G G G G G J J J J J J J  .} } } } } } S k z z z v } | | | | | | | | | | | o.o.| | o.| | o.o.6.o.e.-.e.e.e.6.6.e.e.e.r.r.r.r.p.r.p.y.y.y.y.i.i.M.F.M.F.F.F.y.t.t.t.t.t.Y.Y.[.}.}.XXXXXXOX;X;X;X;X:X1X4X2X1XyXdXfXdXBXJXHXFXFXFXHXFXFXHXHXmXsXkXhXeX4XeXwX4X4X2X2X2X2X:X:X>X+XoXoXY.H.F.H.H.@XE.E.E.E.E.Q.Q.Q.I.J.J.J.J.J.J.A.N.A.N.N.N.N.m.m.m.m.m.m.m.m.m.b.m.m.V.V.m.m.m.m.m.m.C.C.C.C.m.m.m.m.m.m.m.O.` ` X.N.N.A.N.N.A.A.A.J.J.J.J.J.I.I.I.Q.Q.E.E.E.E.E.XX@X@XoXoXoXoX>X:X:X:X:X2X2XwXwXwX4XwXeX4XeXhXfXsXmXFXHXFXFXHXFXFXFXFXJXBXdXfXfX,X^._._._.|.|.|. X XOXOXXXXXXXXX}.}.Y.Y.Y.Y.Y.Y.P.P.P.F.F.M.M.M.M.M.i.y.y.y.y.y.r.p.p.p.r.r.r.e.;.| ^ ^ L v 6.6.6.8.e.8.| | 5.5.| | | | | | | | | | | } } } } } } } } } } } } } } } } J } } J J J J J J J J J J J H H A N N 8 H J H H H H H F F F F F F F F V V V V V V V V V V V V B V B B B B B B B B B B d d d d d d d s s p p p u u u 5 3 % O e i i y a y y ",
"e a a y y a a a a y y y y y u u u u u u u u u u s n n m p u M n n M 0 6 1 1 1 1 0 M M N N N N V N N N N N N N N N F F F F F A A A A H H G H H G G G G G G G G J J J D D J }  .} } }  . . .S k k k z c  .| | | | | | | | | | | | o.| o.| | | o.o.o.o.o.-.-.;.e.e.e.e.e.e.e.e.r.r.r.p.y.y.y.y.y.y.M.i.M.M.F.F.F.y.t.>.>.>.t.Y.Y.[.[.}.XXXXXXXXOX;X;X;X:X>X2X2X4X1XeXhXfXsXmXHXHXFXHXFXFXFXFXFXJXBXfXgXdXuX4XwXwXwX4X4X2X2X2X:X:X:X+X+XY.H.F.H.H.@X@XE.E.E.E.E.Q.Q.E.I.J.J.J.J.J.J.A.A.A.N.A.N.N.m.m.m.m.m.m.m.m.m.m.m.m.m.m.m.m.C.m.C.C.C.m.m.m.m.m.m.m.C.m.O.` ` X.N.A.A.A.G.A.J.J.J.J.J.J.I.I.Q.Q.E.E.E.E.E.E.XX@X@XoXoXoXoX>X:X:X:X:X2X2X4XwX4XwXwXeXwXuXdXdXdXNXJXFXFXFXFXFXHXFXFXHXmXsXfXaX#X^._._._.|.|.|. X}.OXOXXXXXXX}.}.R.Y.Y.Y.Y.Y.Y.P.P.P.F.M.M.M.M.i.M.y.M.y.y.y.r.r.p.p.p.p.e.e.e.e.e.{ S ^ L S e.6.o.| | | 8.| 5.5.| | | | | | | | | | | } } | } } } } } } } } } } J J } J J J J J J J J J J J J J H H H A N N 8 H J H H F H H F F F F F F F F V V V V V V V V V V V V B B B B B B B B B B B B d d d d d d d s s p p u u u u 5 3 % O 5 p y y a y y ",
"e a a a y y a a a y y y y y u u u u u u u u u u s n M m p u M n n M 9 6 1 1 1 1 9 V M M N N M N N N N N N N N N N F F F F F A A A A H H H H A H G G H G S G G G G J D D J }  . .J }  . .} c g k z k c S } | | | | | | | | | | | o.o.o.| | | | o.o.o.o.o.o.;.e.e.e.-.;.e.e.e.e.r.r.r.p.r.r.r.y.y.y.y.y.M.M.M.y.t.:.-.>.>.t.U.Y.Y.Y.[.}.XXXXXXXXOX;X;X:X:X>X:X1X4X2X4XaXkXsXbXFXJXFXFXFXFXHXFXFXJXDXzXsXkXaXeX4XwXwXwXwX2X2X2X:X:X:X:X[.H.H.H.U.XX@XXXE.E.E.E.E.Q.E.Q.I.I.J.I.J.J.J.A.N.N.A.N.A.N.m.m.m.m.m.m.m.m.m.m.m.m.m.m.m.m.m.C.C.C.m.m.m.m.m.m.m.A.m.X.` ` X.N.N.A.G.A.A.J.J.J.J.J.Q.Q.Q.Q.Q.E.E.E.E.XXXX@X@XoXoXoX:X>X:X:X:X2X2X2X4XwXwXwXeX4XeXaXkXgXlXAXJXFXFXFXFXHXHXFXHXFXbXsXkXaX_.`._._._.|.|.|. X}.OXXXXXXXXX}.}.}.Y.Y.Y.Y.Y.Y.P.P.P.P.F.M.M.y.i.i.y.y.y.y.y.y.y.p.p.p.e.r.e.e.e.e.e.[ v  .c v 6.o.| | | | | 5.| 5.| | | | | | | | | 5.} } } } } } } } } } } } } } } } J J J J J J J J J J J J J H H H H A N N 8 F J H H H H H F F F F F F F F V V V V V V V V V V V V B V B B B B B B B B B B d d d d d d d s s p p s u s u 5 3 4 O 5 p y y a y y ",
"e a a a y y y y y y y y y y u u u u u u u u u u u u p p s s p m M M 9 6 1 1 1 6 7 M M M N N N N N N N N N N N N V V F F F F F F A A A H H H H H G G H G S S G G G J J S D  .}  .} } } } } z k k k z A A D | | | | | | | | | | | | | o.o.| | | o.o.o.6.o.6.-.e.e.e.;.e.e.;.r.e.r.r.e.r.r.p.r.r.y.y.M.M.i.M.y.:.r.-.*.-.>.>.F.Y.Y.Y.Y.Y.}.}.XXXXXXOXOX;X;X;X:X2X2X4X2X4XuXkXsXlXAXJXFXFXFXFXFXFXFXHXFXbXsXfXhXeXwXwXwXwXwX2X2X2X:X:X+X[.H.H.H.I.oXoX@X@XE.E.E.E.E.Q.Q.Q.Q.I.I.J.J.J.J.A.N.N.A.N.N.A.N.m.m.m.m.m.m.C.C.m.m.m.m.m.m.m.m.m.m.m.m.m.m.C.m.m.C.m.X.` ` ..N.N.N.N.G.J.J.J.J.J.I.Q.E.Q.E.E.E.E.E.XXXXXXoXoXoXoX+X:X>X:X:X2X2X2X4XwX4XeXeX4XyXhXfXsXbXFXHXFXFXFXFXFXHXFXJXAXlXsXkXyX`.)._._._.|.|. X X XOXXXXXXX}.}.}.}.Y.Y.Y.Y.Y.P.P.P.F.F.F.F.M.M.M.M.M.y.y.y.y.r.p.p.r.p.e.r.e.e.e.e.e.e.[ v ^ L v e.o.| | | | | | | | | | | | | | | | 5.4.4.} } } } } } } } } } } } } } } J J J J J J J J J J J J J H H H H A N N 7 V J H H H H F F F F F V F F V V V V V V V V V V V V V B B V B B B B B B B m B d s d d d d s s p u s u u u u 5 5 4 O 4 p y i y y y ",
"a a a a y y y y y y y y y u u u u u p u p s s s s s M s M M M m n 9 6 1 1 6 1 1 1 9 M M N N N N N N N F N F N F F V F F F F H H H H H H H H G H G G G G S G J J J J J J  .} } } } } } D z z k z k k c A S S  .} } | | | *.| | | | | | | | | | o.o.6.6.6.e.e.;.e.e.e.e.e.e.r.r.r.r.r.r.r.r.r.y.y.y.r.r.e.:.-.:.t.-.=.*.*.>.:.U.Y.Y.Y.Y.}.}.XXXXXXXX;X;X;X;X:X:X:X2X4X2X3XyXfXfXdXBXHXFXFXFXFXFXHXFXFXJXNXdXdXdXuX4XwXwXwX4XwX2X2X2XOX[.[.H.H.Y.oXoXoXoXXXXXE.E.E.E.E.Q.Q.Q.Q.I.J.J.J.J.J.G.N.A.A.A.A.N.N.N.m.A.A.C.C.C.C.C.C.C.C.C.C.C.C.C.C.m.C.C.m.N.N.m.X...` ..N.N.N.G.J.J.J.J.J.I.Q.E.Q.E.W.E.E.E.E.XX@XoXoXoXoX+X>X:X:X:X2X2X2X4X4XwXwXeX4XuXdXgXdXmXJXHXFXFXHXHXFXFXFXJXBXdXdXfX5X)._._._.|.|. X X=X;X;X;XXXXXXXXX}.R.Y.Y.Y.Y.Y.Y.I.P.P.F.F.F.M.M.M.M.M.y.y.y.y.y.p.p.r.p.p.p.r.p.r.e.e.e.p.[ v ^ h c 6.| | | | | | | | | | | | | | | | | 5.5.} | } 4.} } } } } } } } } } } J J J J J J J J J J J J J H H H H J A N N 7 N T H H H H F F F F V V F F V V V V V V V V V V V V B V B V B B B B B B B B B d d d d d d d d p p s s u u u 5 3 % O * f i i y y y ",
"4 4 , 4 4 < 2 < < 3 3 6 3 3 5 5 6 3 1 1 5 q 9 u u s u u u 9 9 1 1 6 6 1 1 1 1 1 1 1 7 7 9 0 0 0 0 0 0 0 M N N N N N N N N N N N A V N N A A A A A A A A c z z z z z z z z z z z c c z k g k k k k k h c A c v v c v S S S [ S S S S S S ^ ^ ^ ^  . .[ [ [ } { { | | | | { { { { { | o.| | { { ..{ { { *.*.-.-.*.*.*.=.*.*.>.>.y.f.d.d.d.F.H.U.Y.}.XXXXXXOX;X;X;X:X1X2X2X1XrXhXfXsXmXHXHXFXHXFXFXFXFXFXJXAXlXsXlXaXwX4X4X2X2X2X:XOX[.[.[.[.H.H.XX>XoXXXXXXX@XE.Q.Q.Q.Q.Q.Q.L.L.G.G.G.J.J.N.N.N.N.m.N.m.m.m.m.b.m.m.m.m.m.m.m.m.m.m.m.m.m.m.b.b.b.b.b.m.N.,.X...` ` 1.J.J.J.J.J.J.J.Q.Q.Q.E.E.E.E.E.@X@X@XoXoXoXoX+X+X>X:X:X:X2X4XwXwXwXwXeX4XeXaXkXsXlXVXJXFXFXFXFXFXFXFXHXHXmXsXfXaX'.~._._._._.|.|.|. X}.XX}.}.[.[.Y.Y.U.U.U.F.F.F.F.d.d.y.i.i.y.y.y.y.r.r.e.e.e.e.;.;.;.;.o.o.o.o.| | | | | | | ^ v v h k | 8.e.5.5.5.| | *.*.| | | | | | | | } | } | } } } } } } } } } } } } } J } J J J J J H H H H H H H H H H H N A z 7 0 H J H H H H H F F F F F F V V V V V V V V V B M B M M B m M s s s s s s s s s u u f s s y y y y y y y y 9 6 + O O + 4 e e e r r ",
"$ $ $ + O + + + % * % % + * + + = + @ @ @ @ < < < < < < < < < 6 6 6 6 6 6 6 6 1 6 1 1 7 1 1 1 1 7 7 7 7 7 7 7 7 7 7 7 7 7 7 8 8 8 8 8 8 8 8 8 8 8 8 8 g g g 8 g 8 g g g g g g g g g g g g k k k z z z z z z z z h z z z z k L c c c L L L c L L L c L L L L b L L L b v v v v v v v ^ v v ^ ^ ^ ^  .{ { { { { =.=.=.*.=.*.*.*.>.:.>.>.t.t.t.f.f.f.f.f.l.H.U.].].]..X.X.X X|. XuXkXsXbXDXJXFXHXHXFXFXFXFXJXDXbXsXkXhX2X.X$X X$X[..X[.[.].U.H.H.H.H.H.H.H.H.H.y.n.3.;.;.;.;.;.;.:.:.:.:.:.:.:.............` ` ` ` ` ` ` ` ` ` ` ` ` ` ` ` ` ` ` ..` ` ` ` ` ..` ` ` ..;.:.;.;.;.;.;.;.n.n.n.n.M.H.H.H.H.H.H.H.U.H.H.[.[.[.[.[.[.$XOXOXOXOX.XrXhXkXsXbXDXJXFXFXFXFXFXHXFXJXDXbXsXkXuX^.~.~.~.~.~.`.`.f.f.f.f.f.f.f.t.>.>.>.>.*.=.=.=.*.=.=.=.[ ^ ^ ^ D D v v v b b b b b L L L L L L L h h h h h h h v v v L h k c c c c c c c c c c z z z k k k z z z z z z z z z l z j l k j j g j g g g g g g g 8 8 8 8 8 8 8 8 7 8 7 7 j 8 7 7 7 8 0 0 0 8 0 0 7 7 7 7 7 7 7 1 1 1 6 6 6 6 6 6 6 - 6 < - - - = = = = = = = = = + + + + + + + + + + + + O O + O O O O O O O O O ",
"4 % 4 , , 4 , 4 4 4 2 6 < 3 3 < < < < 6 6 6 6 6 6 6 6 6 6 6 6 1 1 1 5 9 9 q 9 9 9 9 0 0 9 0 0 0 0 0 0 9 0 0 0 0 0 0 0 0 0 0 0 8 8 0 8 8 8 8 8 8 8 g g g g l j k j l z z z z z z z z z z z z z z z z z c c c c c c c c c c c c c c c c c c v v v v A S v v v v v v ^  . . .[ { { { { | o...o.o.o.o.;.;.;.r.r.r.;.-.-.*.*.*.*.*.-.>.>.t.>.t.t.f.f.d.f.f.f.l.U.U.].].].]..X.X.X X XyXkXsXkXVXJXFXFXFXHXHXFXFXHXJXNXdXdXdXyX.X.X$X[..X[.[.].].H.H.H.H.H.H.H.H.f.y.y.y.>.;.;.:.:.:.:.:.:.:.:.:.:.....` ` ` ` ` ` ` ` ` ` ` ` ` ` ` ` ` ` ` ` ` ` ` ` ` ` ` ` ` ....:.:.:...:.:.:.:.:.:.:.:.:.:.:.>.y.y.y.y.H.H.H.H.H.H.H.].H.].].].[.[..X].].rXdXfXdXNXHXHXFXFXHXFXFXFXFXJXVXlXgXkXjX~.~.~.~.`.`.k.k.f.f.f.f.f.f.f.f.t.t.:.>.>.>.>.*.*.=.=.=.=.[ =.^ ^ [ [ v v b b b b b b L L L L L L L L L b b b L v v v v v L c L L L k k z z z z z k k k g g g g g g g g g g g 8 g 8 8 g g 8 8 8 8 8 g 8 8 8 8 8 8 8 8 8 8 8 8 8 8 8 8 8 7 7 7 7 7 7 7 7 7 7 7 7 7 7 7 7 7 7 7 7 7 7 1 1 6 6 6 6 < - 6 < 6 6 < < 6 6 6 6 6 6 6 6 < < < < < < , , < < < * * % * * + O O O O O O O ",
"* * 4 4 4 < 4 2 4 2 2 < 3 4 4 3 3 3 3 3 6 5 5 5 5 5 q q q q 9 9 q q 9 9 9 9 9 9 9 9 9 9 0 0 0 0 0 0 0 0 0 0 j j j j j l j j j j j j j 8 8 8 j j j j j j g j j j j j j z l z z h k z k k k z z z z z z z z z c c c c c c c c c c c v S v S c c c c v v A v v v v { | | | o.| { { { { { { { | | | o.o.-.-.-.;.;.-.-.-.*.*.=.=.*.*.>.>.>.t.t.t.f.d.f.f.f.f.P.H.U.].].].[.[..X.X X.X|.qXdXfXdXNXHXFXFXFXFXFXFXFXFXJXAXlXsXkXuX$X.X$X$X[.}.[..X[.[.[.[.H.H.H.H.H.d.H.y.y.y.;.y.;.;.:.:.:.:.:.:.:.:.:.:.....:.......` ` ` ` ` ` ` ` ` ` ` ` ` ` ` ..` ` ` ......:.:.;.:.:.:.:.:.:.:.;.;.;.;.y.M.M.H.H.I.I.Y.Y.[.[.[.[.XXXXXXOXOXOXOXOX+XOX;XuXkXsXlXAXJXFXFXFXFXFXFXFXFXHXNXdXfXdX#X~.`.`.`.`.`./.].].].[.Y.Y.U.U.U.U.F.F.d.d.d.y.y.y.y.r.t.:.:.-.-.*.*.-.o.| { { { { { { { { { { { { { { { [ { { { { [  .^ ^ ^ ^ ^ ^ ^ v S S S S S S S v A v v v v S c c c c c z z z k z z z g g z k z z z z z z z z z z z z z z z z z z z N N N z N N N N N M M M M M M M n n n n n j 0 0 0 0 0 0 9 9 9 9 9 9 9 9 9 9 q q q q q q q 5 5 5 5 5 3 3 3 3 3 3 3 3 3 3 4 2 4 4 4 4 4 4 4 ",
"4 , % * 4 * 4 < , + + + < < , < < < 6 6 6 6 6 6 6 6 1 1 1 1 1 7 1 7 7 1 7 7 9 9 9 9 9 9 9 7 9 9 0 0 0 0 0 0 0 0 0 0 0 0 0 0 0 j j j j j 8 8 l j z N A A A A A A A A z z z z c c c c A S S S S S S S S D D D D D  . . . . . .} } | | | | |  .c L h h h c v v c c e.e.e.e.e.e.-.| | | | | | o.o.| o.|  . . . .[  .[ [ =.*.*.*.*.=.*.*.>.>.>.t.t.f.f.d.f.f.f.P.j.l.H.U.].].].}..X.X X.XOXaXkXsXbXFXHXFXFXFXHXFXFXFXJXFXbXsXkXaXrX}. X$X[.[..X.X[.[.[.[.H.H.U.H.H.H.F.H.H.M.M.n.y.y.;.;.;.;.;.;.:.:.:.:.:.:.;.;.,.,.n.b.n.b.n.b.b.b.n.n.b.n.b.b.n.,.;.,.,.1.1.n.N.N.n.m.N.N.G.G.G.G.G.G.I.Q.E.E.@X@XXXXXoXoX+X+X+X+X:XOXOXOXOX:X+X2X2XeXhXfXsXbXFXHXFXHXFXFXFXFXFXHXFXbXsXfXaX#X^._._._.|.|.|. X X XOXXXXX}.}.[.}.Y.Y.Y.U.U.F.F.F.F.F.F.F.y.:.r.-.*.-.e.r.r.r.r.;.r.r.r.r.r.e.e.o.6.;.e.e.e.-.-.-.-.e.o.| | | | } | | | | | | | } } } } } } } } } } } } } } } J A z z z k z H H H S J J J J J J J J J J J J J J J H H H H H H H H H F H H F F F F V F F F V V V V V V N N V V V B M 0 9 9 9 9 0 s s s s s s s s u u u u u y y y y y y y y y y y y y y y e a a e e r ",
"r e e 3 , , * , % % + + < 2 3 a y y y u y y u u u u u u u u u u u u n n n n M M M M M M M n M M M M N N N N N N N N N A N V N N j j j j 8 8 j A G J H J J J J J } } J J } J }  .J } } } } } } } } } } } } } } } | | | | | | | | | | | | | | | | | [ v h c S c L 8.e.e.e.e.e.e.e.e.e.e.r.r.r.p.r.r.r.r.p.r.y.r.r.y.y.y.y.y.y.i.i.F.F.F.F.F.U.Y.U.Y.Y.Y.[.[.}.[.[.[.}.}..X].].}..X.X.X X4XuXkXgXlXAXJXFXFXFXFXFXFXFXFXJXBXdXgXkXuX2X2X2X2X2X:X:X:XOXOXOXOXOXoXoXXXXXXX@XE.E.E.I.I.G.G.J.J.G.G.,.:.:.:.:.:.,.G.J.J.J.J.J.J.J.J.J.J.J.J.J.J.J.J.J.J.J.A.J.J.J.J.Q.I.J.I.Q.Q.Q.E.E.E.E.E.XXXX@XoXoXoX>X>X:X>X:X:X:X:X:X2X:XOXOX$XOXwXuXfXdXdXNXJXFXFXFXFXFXFXFXFXJXAXzXsXkXuX_.)._._.|.|.|. X=X;X;X;X;XOXOXXXXX}.}.R.Y.Y.Y.Y.Y.Y.P.P.F.F.F.F.r.:.*.v *.y.y.y.r.r.r.r.r.r.r.e.e.e.o.o.-.e.e.e.;.e.e.6.o.o.6.o.o.o.*.| | | | | | | | | | | | | | } } } } } } } } } } z l j z J } 4.J } J J J J J J J J J J J H J H J J J J H H H H H H H H H F F F F F F F F F V V V V V V V V V V V V n 9 9 1 6 M V B B B B B B B B B B d B d d d d p u p p p f f i f f i i i i i i i ",
"5 e a y 5 % , 4 % + % * 4 5 u u u u u u u u u p n n p p p p m M m M M M M M M M M M M N N N N N N N N N N N V V A A V F V H A H z j j j 8 8 N G H H G G G G J J J G J J J J J J J J } } } } } } } } } } } } } } } | | | } } | | | | | | | | | | | 6.6.v L v c L 6.6.e.e.6.e.e.e.e.e.e.e.e.r.r.r.r.p.p.y.y.y.y.y.y.M.M.M.M.M.M.F.F.I.P.I.I.Y.Y.Y.Y.Y.}.XXXXXXXXXXOX;X;X:XOX].]..X.X}.2X4X3XyXdXfXdXNXJXHXFXFXFXFXFXFXFXJXAXzXsXkXaXeX4XwX2X4X2X2X2X2X:X:X:X:X+XoXoXoXoXoXoX@XXXE.E.Q.E.Q.Q.Q.I.;.:.;.:.:.N.Q.J.J.J.J.J.J.J.J.J.J.A.A.J.J.J.J.J.J.J.J.J.J.J.J.J.G.J.I.Q.I.Q.E.W.W.E.XXXXXXoXoXoXoX>X>X>X>X:X:X:X2X2X2X2XOXOX].2XaXfXsXzXAXJXFXFXFXFXFXFXFXFXJXBXdXgXfX5X^.)._._.|.|.|.-X=XOXOX;XOXXXXXXX}.[.}.Y.Y.Y.Y.U.Y.P.F.F.F.F.F.M.M.y.-.*.b | y.r.r.r.r.r.r.r.r.r.e.6.o.e.e.e.e.e.-.-.o.o.o.o.o.6.| o.| | | | | | | | | | | } | } | | } } } } } } } } } } z g g c } } } } J J J J J J J H J J J J J H H H J H H H H G H H H H H H F F H F F F F V V V V V V V V V V V V V B B 9 0 6 6 B B B B B B B B m m B s d d d d p d p p u p u p p i i u i y a a i i y ",
"a e e a a 2 * 4 % + % % 3 y y y u u u u u u u u u n m m p s s M m m M M M M M M M M N N N N N N N N N N N N N V V V A V F F A A A 0 j l 8 8 N H G G G G G H H J J J J G D J J J J J J J } } } } } } } } } } } } } | | | | | | | | | | | | | | | | | o.| c v b L o.e.e.e.e.e.e.e.e.e.e.e.e.r.r.r.r.r.p.r.r.y.y.r.y.y.M.M.M.M.M.M.M.F.F.P.F.I.Y.U.Y.Y.Y.Y.}.}.XXXXXXXX;X;X;X].].[.]..X1X4X2X3XeXaXfXsXbXFXJXFXFXFXHXFXHXFXHXFXmXsXgXdXuX4X4XwX2X2X2X2X2X2X:X:X+X+X+XoXXXoXoX@XXXXXE.E.E.E.Q.Q.Q.N.;.,.:.;.N.J.J.J.J.J.J.J.J.J.J.J.J.J.J.J.J.J.J.J.G.J.J.J.J.J.I.I.J.Q.I.Q.E.E.E.E.XXXX@XoXoXoX>X>X>X>X:X:X:X2X2X2X2X4X4X;XOXrXdXfXsXmXFXHXFXFXFXFXHXFXFXHXFXbXsXkXaX#X^._._._.|.|. X X XOX;X;X;XXXXXXX}.}.Y.Y.Y.Y.Y.Y.Y.U.F.F.F.F.F.M.M.M.y.:.[ v { y.r.r.p.e.r.r.;.e.e.e.e.;.e.;.e.-.-.-.-.o.o.6.o.o.| o.| | | | | | | | | | | | | | } | } } } } } } } } } } } z j g z } } J } } } J J J J J J J J J J J J J H H H H H H H H H H H H H F F F F F F F V V V V V V V V V V V V B B B 9 9 6 6 M B B B B B d B B B d d d d d p p d p p u p p p p y y u y i y a i i i ",
"e e a a a e * 4 + + + * 4 u u y u u u u u u u s u u u n n n n n m m M M M M M M M M M M N N N N N N N N N N V F A V A A A F A A A j j j 8 8 N H G G H H G H H J J G G J J J J  .J J J J J } } } } } } } } } } } } } | | } } } | | | | | | | | | | | | | L v c L o.e.e.e.e.e.e.e.e.e.e.e.e.e.r.r.r.r.r.r.r.p.y.y.y.y.M.M.M.M.M.M.M.M.F.P.F.P.P.Y.Y.Y.Y.Y.R.}.}.XX}.XXXX;X;X}.U.].].].:X2X2X4X2X4XaXkXsXlXAXJXFXFXHXFXFXHXFXFXHXVXlXsXkXaXeX4X4X2X4X2X2X2X:X:X:X:X>X+XoXoXoXoXXXXXXXE.E.E.Q.Q.Q.M.,.n.;.:.N.J.G.J.J.J.J.J.J.J.J.J.J.J.J.J.J.J.J.J.J.J.J.J.I.I.I.I.Q.Q.E.E.E.E.E.XX@XoXoXoXXXoX+X>X:X:X:X:X2X2X2X4X4XeX4X2XuXkXsXkXVXJXFXFXFXFXFXFXFXFXJXAXlXsXkXuX).`._._._.|. X|. X X;X;X;XOXXXXXXXXX}.R.Y.Y.Y.Y.Y.Y.I.F.F.F.F.M.M.M.M.M.y.-.[ b { r.r.r.r.e.r.r.e.e.e.e.e.e.e.6.6.o.-.e.6.o.o.o.o.o.o.o.| | | | | | | | | | | } | | | } } } } } } } } } } } J c g g z } J J J J J J J J J J J J J J J J J J H H H H G H H H H H H H F F F F F V V F V V V V V V V V V V V V B B B 0 9 6 6 B B B B B B B B B d d B B d d p p f p p p u u p i f y y y y y a i i y ",
"e e a a a e 4 4 % + + * < u u u u u u u u u u u u u u p n n n n p m M M M M M M M M M M N N N N N N N N N N N V V A A A V A A A A j j j 0 8 V H G G H G G H H J J J J J J G J } J J J J } } } } } } } } } } } } } } } | } } } | | | | | | | | | | | | | L v c L 6.6.e.e.e.e.e.e.e.e.e.e.e.e.e.r.r.r.p.p.p.r.r.y.y.y.y.y.y.M.M.M.M.M.F.F.F.P.F.P.Y.Y.Y.Y.Y.Y.R.}.XXXXXXXX;X}.U.U.H.].;X2X2X2X4X2X4XuXdXdXdXmXHXGXFXFXHXFXFXFXFXJXDXbXsXfXhXeX4X4XwX4X2X4X2X2X:X:X:X>X>X+XoXoXoXoX@XXXXXE.E.E.E.F.v.n.;.;.G.I.I.J.J.J.I.I.I.I.J.I.I.J.J.J.I.J.J.J.J.J.J.I.J.I.Q.Q.Q.E.E.E.E.XXXXXX@XoXoX>XoX+X>X:X:X:X2X2X2XwX2X2XwX4XyXaXkXsXbXDXJXFXFXHXHXFXFXFXFXJXNXsXdXfX9X)._._._.|.|.|. X X;X;X;XOXOXXXXXXX}.}.Y.Y.Y.Y.Y.Y.Y.P.F.F.F.F.M.M.M.M.M.y.y.-.D b { y.r.r.r.e.r.r.e.e.e.e.e.6.e.e.o.-.e.6.o.o.o.o.o.o.o.| | | | | | | | | | | | } | | | } } } } } } } } } } } } z j g z } J J J J J J J J J J J J J J J J J J H H H H H H H H H H H H F F F F F V V V V V V V V N V V V V V V B B V 0 0 1 6 B B B B B B B B B d d B B d d p p f p p p u u p f f y y y i y a i i y ",
"e e e a a a 4 * + + + % 6 u y y u u u u u u u u u u u p p p n n u m n M M M M M M N M M N M N N N N N N N N N V V V A A V A A A A j j j j 8 V H H G G G G G G J J J J J J J J } J J J } } } } } } } } } } } } } } } } } | | | | | | | | | | | | | | | | c v c L 6.6.6.6.e.e.e.e.e.e.e.e.e.e.e.e.r.r.r.r.r.p.p.r.r.y.y.y.y.y.M.M.M.M.M.M.F.F.P.F.I.Y.Y.Y.Y.Y.Y.R.R.}.XXXXXX}.P.H.U.].;X:X:X4X4X2X2X3XeXhXfXsXbXFXJXFXFXFXFXFXFXFXFXJXNXdXgXfXuX4X4X4X4XwX2X2X2X2X:X:X>X>X+XoXoXoXoXXXXX@X@XE.E.G.n.M.n.;.G.E.I.I.I.I.I.I.I.I.I.I.I.I.I.I.J.J.I.I.I.I.I.I.I.Q.E.E.E.E.E.E.XXXXXXoXoXoX>X>X>X:X:X:X2X2X2XwX2X4XwX4X4XuXfXdXdXNXJXHXFXFXFXFXFXFXFXJXDXbXsXkXaX#X^._._._.|.|. X X X;X;X;XXXXXXXXXXX}.R.Y.Y.Y.Y.Y.Y.Y.P.F.F.F.M.M.M.M.M.M.M.y.r.| v L { y.e.r.r.r.e.e.e.e.e.e.o.o.e.e.-.-.6.6.o.o.o.o.o.o.| | | | | | | | | | | | } } } } | } } } } } } } } } } } } z j g z } } } J J J J J J J J J J J J J J J J H H H H H H H H H H H F F F F F F F F F V V V V V V V V V V N N V V V 0 9 6 6 B B B B B B B B B d d B d d p p p p p p p u u p f f y i i i y y i i y ",
"e 5 e a a a 3 * + + + % 6 y y u y u u u u u u u u u u u p p u n n m m M M M M M M N M M M M N N N N N N N N N N V V V V A A A A A l j j j 8 A H H H G G G G G H J J J J J J J J J J J } } } } } } } } } } } } } } } } } | | | | | | | | | | | | | | | | c v c L 6.6.6.6.e.e.6.e.e.e.e.e.e.e.e.e.e.r.e.e.r.p.p.r.r.r.y.r.y.y.y.M.M.M.M.M.M.M.F.F.F.F.Y.Y.Y.Y.Y.Y.Y.}.}.}.XX}.j.H.H.].;X:X:X2X2X2X3X2X:X4XaXkXsXkXVXJXFXFXFXFXFXHXFXFXJXAXzXsXkXaXeX4X4X4X4X2X2X2X2X2X:X:X>X>X+XoXXXoXoXXX@X@XE.G.M.M.n.;.G.E.Q.Q.I.I.I.I.I.I.I.I.Q.Q.I.I.I.I.I.I.I.I.I.Q.Q.E.E.E.E.E.E.XXXXXXoXoXoX>X>X:X:X:X2X2X2X2X4X4XwX4X4XeXaXfXsXzXAXJXFXFXHXFXHXFXFXFXJXVXlXsXkXuX).`._._.|.|.|. X XOX;X;XOXXXXXXXXX}.}.R.Y.Y.Y.Y.Y.Y.Y.P.P.F.F.F.M.M.M.M.M.y.y.y.r.{ v b { r.e.e.e.e.e.6.6.e.;.e.o.-.e.-.6.6.6.6.o.o.o.o.o.o.| | | | | | | | | | | | } | } | } } } } } } } } } } } } } z j g z } } J J J J J J J J J J J J J J J J H H H H H H H H H H H H F F F F F F F F V V V V V N V V V V V M B V V B 0 9 6 6 B B B B B B B B d d d d d d p p p p p p u u u p f i y i i i y y y y y ",
"e 5 e a a y 3 * + + + % < y y y y u u u u u u u p u u u p p p p n m m M M M M M M N N N M N M N N N N N N N N N V V A A A A F F A l j j j 8 A G H H G G G G G H J J J J J J J J J J J } } } } } } } } } } } } } } } } } } | | | | | | | | | | | | | | | L v L L 8.8.6.6.e.e.e.e.e.e.e.e.e.e.e.e.e.e.r.e.r.p.r.p.r.r.r.r.y.y.y.M.M.M.M.M.M.M.F.F.F.P.F.P.Y.Y.Y.Y.Y.Y.R.}.}.}.f.j.P.U.OX;X;X;X:X1X2X4X4X2X1XyXdXfXgXmXHXHXFXFXFXFXFXFXFXHXFXmXgXdXdXuX4X4XwX4X4X2X2X2X2X:X:X>X>X+XoXXXoXoXXXXXXXI.H.G.M.;.G.E.E.E.E.E.E.E.E.E.Q.I.Q.Q.I.I.I.I.Q.Q.I.I.Q.E.E.E.E.R.E.E.XXXXXXoXoXoXoX+X:X:X:X:X2X2X2X4X4XwX4X4XuXfXdXgXmXHXHXFXFXHXHXFXFXFXHXHXmXgXfXdX9X^.)._._._.|.|. X=X;XOX;XXXXXXXXX}.}.}.R.Y.Y.Y.Y.Y.Y.P.P.F.F.F.F.F.M.M.M.M.M.y.y.y.p.| v L [ r.e.e.;.e.e.e.;.o.;.;.-.-.-.-.6.o.o.o.6.6.6.| | | | | | | | | | | | | | | | | | } } } } } } } } } } } } } J z j g z } J } J J J J J J J J J J J J H H J H H H H H H H H H H H H F F F F F F F F F V V V V V V V V V N N B B V B 0 9 6 < B B B B B B B B d d B d d d p p p p p p u u u u y i y i i y y y y y a ",
"e y y a y a 3 * + + + % 3 y y y y u u u u u u u u u u u p p u p n m m m M M M M M M N N M M M N N N N N N N N N N V A A V V F V A l j j 8 8 A G H H G G G G G H G J J J J J J J J J } } } } } } } } } } } } } } } } } } } } | | | | | | | | | | | | | | c v h c e.8.8.6.o.6.e.6.6.e.e.e.e.e.e.e.e.e.e.e.e.r.r.r.r.r.r.r.r.r.y.y.y.y.M.i.M.M.M.M.F.F.P.P.I.Y.Y.Y.Y.Y.Y.R.}.[.f.f.j.H.XXOX;X;X:X:X:X2X4X2X4X2XeXaXkXsXzXDXJXFXFXHXFXFXFXFXHXJXVXlXsXkXaXeX4XwX4X4X2X2X2X2X:X:X:X>X+X+XoXXXoXXX@XI.F.G.H.;.I.E.E.E.E.E.Q.Q.E.E.Q.Q.Q.Q.Q.Q.E.E.E.E.E.E.E.E.E.E.E.E.E.XXXXXXoXXXoXoX>X:X:X:X:X2X4X2X4X4XwX4XeXaXkXsXlXVXJXFXFXFXHXFXFXFXFXJXDXbXsXkXaX#X^._._._.|.|.|. X=X;X;XXXXXXXXXXX}.}.R.Y.Y.Y.Y.Y.U.Y.P.F.F.F.F.F.F.M.M.M.M.M.y.y.r.y.p.| ^ L [ r.e.r.r.;.e.e.e.o.;.-.-.-.-.6.o.o.o.o.6.6.| | | | | | | | | | | | | | | | | | } } } } } } } } } } } } } } J z j g z } J J J J J J J H J J J J J J J H H H H H H H H H H H H H F F F F F F F V V V V V V V V V V V V N V B B B B 0 9 6 < B B B B B B B B d d d d d p p p p u p p p u u u y y y i i y y y y y i ",
"e e e a a a 3 * + + + % 3 y y y u u u u u u u u u u u u u s u n p m m m M M M M M M M M M M N N N N N N N N N N N V V A V V F F F l j l 8 8 A H H H H G G G G G G J J J G G J J J J J J } } J J J } } } } } } } } } } } } } | | } } } | | | | | | | | | c v h v e.5.8.*.8.6.6.6.6.6.e.e.e.e.e.e.e.e.e.e.r.r.e.r.r.p.p.r.r.r.y.y.y.y.y.M.M.M.M.M.M.F.F.F.F.F.I.Y.Y.Y.Y.Y.R.[.f.f.f.P.XXXXOX;X;X:X:X:X1X4X2X4X4X4XuXfXgXdXBXJXHXFXFXFXFXFXFXFXJXFXbXsXfXdXyX4X4X4X2X2X2X2X2X2X:X:X>X>X+XoXXXoXoXH.H.H.H.y.I.XXE.E.E.E.E.E.E.Q.E.E.E.E.E.E.E.E.E.E.E.E.E.E.E.E.E.E.E.XXXXoXXXoX+X>X:X:X:X:X2X4X4X2X4X4X4XyXdXfXsXbXFXHXFXFXFXFXHXHXFXFXJXBXdXgXkXyX).)._._.|.|.|. X X;X;X;XXXOXXXXXXX}.}.[.Y.Y.Y.Y.Y.Y.I.F.F.F.F.F.M.M.M.M.M.y.y.y.y.y.y.y.r.|  .L  .r.r.r.;.;.e.e.e.e.e.o.-.-.6.6.o.6.o.o.o.| | | | | | | | | | | | | | | | | | | } } } } } } } } } } } } } J J z l g z } J J J J J J J J J J J J J J H H H H H H H H H H H H H F F F F F V V V V F V V V V V V V V V N N V B B B B 0 9 6 < B B B B B B B B d d d d d p p p p p p p p p u u y y i i y y y y y y i ",
"e e e a a a 4 * + + + % 3 y y y y u u u u u u u u u u s u s n n p m m m M M M M M m M M N N N N N N N N N N N N N V V V V V V F F j 0 j 8 0 A H H H H G G G H G H G J J J G G J J J J J J J J J J } } } } } } } } } } } } } } | } } } } | | | | | | | | k L g v e.5.8.*.e.6.6.6.6.6.6.e.e.e.6.e.e.e.e.e.e.r.r.r.r.p.p.p.r.r.r.r.y.y.r.y.M.M.M.M.M.M.M.F.F.F.F.P.I.Y.Y.Y.Y.Y.f.f.f.f.}.XXXXOX;XOX:X:X:X2X4X4X2X4X4XyXdXfXsXbXFXJXFXFXFXFXFXFXFXFXJXBXdXgXfXaXeX2XwX2X2X2X2X2X2X:X:X>X>X+X+XXXoXY.H.I.H.n.I.@X@XE.E.E.E.E.E.E.E.E.E.E.E.E.E.E.E.Q.E.E.E.E.E.E.XXXXXXXXoXXXoX+X>X:X:X2X2X2X4X4X4X4X4XeXaXkXdXlXBXJXFXFXFXFXFXFXFXFXHXFXbXsXfXhX,X^._._._.|.*X X=XOX;X;X;XOXXXXXXXXX}.R.[.Y.Y.Y.Y.Y.P.P.G.F.F.F.F.M.M.M.M.M.y.y.y.y.y.r.r.r.e.{ { L [ r.e.e.;.;.e.e.e.o.o.o.-.6.6.6.6.6.o.o.| | | | | | | | | | | | | | | | | | } 4.} } } } } } } } } } } } J J H l z g z } J J J J J J J J J J J J J J H H H H H H H H H H H H H F F F F F V F V V F V V V V V V V V V B N B B B B B 0 9 6 6 B B B B B B B B d d d d d p p p p p p p p p u u y y i y y y y y y y i ",
"e 9 e e a y 4 % + + + % 5 y u y y y u u u u u 0 u u u u u u u u p n m m m M M M M M M M M M N N M M N N N N N N N N V V V V A A F j 0 j 8 8 A H H H H H G G G G G G G J J J J J G J J J J J J J J J } } } } } } } } } } } } } } } | | | | | | | | | | | h h h v e.e.| | | 5.6.6.e.6.e.e.e.e.e.e.e.e.e.e.e.e.e.r.e.r.r.r.r.p.p.r.r.r.y.y.M.y.n.M.M.M.M.M.F.F.P.P.G.I.Y.Y.Y.Y.f.f.f.d.}.XXXXXXOX;X;X;X;X:X2X2X4X4X4X3XeXaXkXsXlXVXJXFXFXFXFXFXFXFXFXJXDXbXsXfXdXyX4X4X4X2X2X2X2X2X:X:X:X>XOX+XoX[.H.I.H.y.Y.oXE.W.E.E.E.E.E.E.R.R.E.E.E.E.E.E.E.E.E.E.E.E.E.XXXXXXoXXXoXoX>XOX:X:X:X2X4X4X2X4X4X4XuXhXfXsXbXDXHXFXFXFXFXFXFXFXFXJXVXlXsXkXuX&X)._._.|.|. X X=X=X;X;X;XOXXXXXXX}.}.}.Y.Y.Y.Y.Y.I.P.F.F.F.F.F.M.F.M.M.y.y.y.y.y.y.r.r.r.r.r.e.{ { L v r.e.e.e.e.o.6.-.6.e.e.6.6.6.6.6.6.o.| | o.| | | | | | | | | | | | | | | | } } } } } } } } } } } } } } J J D z l g z } J J J J } J J J J J J J J H H H H J H H H H H H H H F F F F F V F F F F V V V V V V V V V V B B B B B B B 9 0 6 6 B B B B B B B d d d d d p p f p p p p u u p p y y y y i i y y y y a i ",
"e 9 e e a a 4 % + + + + 5 y y y y y u u u u u u u u u u u u u u p n m m m M M M M M M M M M N N M N N N N N N N N N N V V V A A F j 0 j 8 8 F H H H H H G G G G G G G G J J J J J J J J J J J J J J J } } } } } } } } } } } } } | | | | } | | | | | | | h h h v e.e.8.8.8.8.e.| o.6.6.e.e.e.e.e.e.e.e.e.e.e.e.r.e.r.r.r.r.r.p.p.p.r.r.r.y.y.y.M.M.M.M.M.F.F.F.F.F.I.I.Y.Y.Y.t.t.f.f.[.}.XXXXXXXXOX;X;X;X:X:X2X2X4X4X4X4XuXdXdXdXmXHXHXFXFXFXFXFXFXFXHXJXBXdXgXkXaX4X4XwX4X2X2X2X2X:X:X;X+X+X+X[.H.H.H.H.Y.XXXXXXXXXX@XXXE.E.E.E.E.E.E.E.E.E.E.E.E.E.E.E.XXXXXXoXoXoXXX+X>X:X:X:X2X2X2X4X4X2XwXpXkXgXdXNXHXHXFXFXFXFXFXFXFXHXHXmXsXfXdX9X).).&X_.|.|. X=X=X;X;X;X;XXXXXXXXXXX}.R.Y.Y.Y.Y.Y.Y.F.F.F.F.F.F.F.M.M.M.y.y.y.y.y.r.r.r.p.p.r.r.e.{ { L v r.e.e.e.e.o.6.e.e.e.6.o.o.6.6.o.6.| | | o.| | | | | | | | | | | | | | | | } } } } } } } } } } } } } J J } D z j g z } J J J J J J J J J J J J H H H H H G H H H H H H H H F F F F F V F F F F V V V V V V V V V V B M B B B B M 9 0 6 6 B B B B B B B d d d d d p p p p p p p u u u p i p y y i i y y y y a i ",
"e 5 e e a a 4 % O + + % 9 y y u y y u u u u u u u u u u u u u n m n n m m M M M M M M M n M M M M N N N N N N N N N N V V V A A F j 0 j 8 0 F H H H H H H G G G H G G G G J J J J J J J J J } } J J J } } } } } } } } } } } } } } } | | } | | | | | | | h h h c e.e.e.e.8.8.8.e.6.e.e.e.e.e.e.e.e.e.e.e.e.e.e.e.e.e.r.r.r.r.r.p.r.r.r.r.y.r.M.M.M.M.M.M.M.F.F.F.F.P.P.P.Y.Y.t.t.t.f.Y.}.}.XXXXXXXXOX;X;X;X:X:X2X2X4X4X4X1XeXaXfXsXzXAXJXFXFXFXFXFXFXFXFXHXDXbXsXfXhXeX2X4X4X2X4X2X:X2X:X:X>X>X[.H.Y.U.H.[.XXXXXXXXXX@X@XXXXXXXXXE.E.XXXXXXXXXX@XE.XXXXXXXXXXXXXXoX>XXX>X>X:X:X:X:X2X2X4X>XeXhXfXsXbXDXJXFXFXFXFXFXFXFXFXJXAXzXsXkXaX#X)._._._.|.|. X=X=X;X;X;X;XXXXXXXXXXX}.}.[.Y.Y.Y.Y.Y.P.F.F.F.F.F.F.M.M.M.M.M.y.y.y.r.r.r.p.r.r.r.p.e.{ { L v e.e.e.e.-.6.6.e.6.6.o.o.o.| o.o.| | | | | | | | | | | | | | | | | | | | | } } } } } } } } } } } } } J J } D l j g z J J J J J J J J J J J J J H H H H H H H H H H H H F F F F F F F V F V F F V V N N V V V V V N B B B B V B M 9 9 6 6 B B B B B B B d d B d d p s p p p p p u u p p y p y y i i a a a y i i ",
"e e e e a a 4 % O + + % 9 y y y y y u u u u u u u u u u u u m m m n n m m n M M M M M M M M M N N M N N N N N N N N N V V V A A F j 0 0 8 8 H H H H H H H G G G H H G G G J J J J J J J J } } } J J J J } } } } } } } } } } } } } } } | } } | | | | | } h v c k | 5.e.8.8.5.8.8.8.6.6.e.e.e.e.e.e.e.e.e.e.e.e.e.e.e.r.r.r.r.r.r.r.r.r.r.r.y.y.y.M.y.M.M.M.M.M.F.F.F.P.F.I.F.:.>.t.t.Y.Y.Y.}.XXXXXXXXOX;X;X;X:X:X1X1X2X4X4X4X4XuXfXdXdXNXHXHXFXFXFXHXHXFXFXHXHXNXdXdXfXuX4X2X4X2X2X2X2X:X:X+X+X[.H.[.H.H.XX>XXXoXXXXXXXoX@XXXXXXXXXXXXXXXXXXXXXXXXXXXXXXXXXXXXXoXXX;X>X>X>X:X:X:X2X4X4X4XuXfXgXdXNXHXHXFXFXFXFXFXHXFXGXHXNXdXdXkXyX).)._._.|.|.*X X=X;X;X;X;XOXXXXXXXXX}.}.[.[.Y.Y.Y.Y.P.P.F.F.F.F.F.F.M.M.M.M.M.y.y.y.y.r.r.r.r.p.r.r.r.e.{ { L v e.e.e.e.-.e.-.e.6.o.o.o.o.o.o.| | | | | | | | | | | | | | | | } | | | | } } } } } } } } } } } } } J J J J D l j g z J J J J J J J J J J J J J H H H H J H H H H H H H F F F F F F V V F V F V V V N N N V V V V N N B V V B M B 0 9 6 < B B B B B B B d d B d d p p p p p p p u u p p p p i y i i a a y y i i ",
"e e e r a a 4 % O + + % 9 y y y y y u u u u u u u u u u u u u m u u n n m m M M M M M M M M N N N N N N N N N N N N N N V V A V V j 0 0 8 0 H H H A H H H H H G G G G G G G J J J J J J J J } } J J J J J } } } } } } } } } } } } } } | | | | | | | | } z ^ c k | | | 8.8.8.e.e.8.8.e.6.e.e.e.e.e.e.e.e.e.e.e.e.e.e.r.e.r.r.r.r.r.r.r.r.r.r.y.r.y.M.y.M.M.M.M.M.F.F.F.F.F.F.:.>.:.t.Y.Y.[.}.XXXXXXXXXXXXOX;X;X:X;X:X2X2X4X4X4X4XeXhXfXsXbXDXJXFXFXFXFXFXFXFXFXJXAXbXsXfXhXeX4X4X4X2X4X2X2X:X:XXX[.[.H.H.XX>XoXXXoXoXoXoXXXXXoXoXoXXXoXoXXXXXXXXX@XXXXXXXXXXXXXoX>X>X>X>X>X:X:X:X4X>XeXhXkXsXbXAXJXFXFXHXFXFXFXFXFXJXDXbXsXfXaX#X^._._._.|.|.|. X=X;X;X;X;XOXXXXXXXXX}.}.[.Y.Y.Y.Y.Y.P.F.F.F.F.F.M.M.M.i.M.M.M.y.M.y.r.r.r.p.p.r.r.p.r.r.e.{ { b v e.;.;.e.e.-.-.6.o.o.o.| 6.o.| o.o.o.| | | | | | | | | | | | | } } | | } } } } } } } } } } } } } } J } J J D l l g z J J J J J J J J J J J J J J H H H H H H H H H H H F F F F F F F F V V V V V V V N V V V V V V B B B B M B B 9 9 6 , B B B B B B d d d d d p m p p p p p u u u u p i y i y i i y y y y i i ",
"e e y e a a 4 % O + + % 9 y y y y y u u u u u u u u u u u u u m u u n n m m M M M M M M M M N N N N N N N N N N N N N N V V V V V 0 0 0 8 8 H H H H H H H H H H G G G H G G G J J J J G J J J } J J } } J J } } } } } } } } } } } } } } | | | | | | |  .z S c h | | | | 8.e.e.e.5.8.e.8.6.e.6.o.6.e.e.e.e.e.e.e.e.e.e.e.r.r.r.r.r.r.r.p.p.r.r.y.y.y.y.M.M.M.M.M.M.M.F.F.F.F.:.>.:.:.Y.Y.Y.[.[.}.}.XXXXXXXXOX;X;X;X;X;X1X2X2X4X4X4X4XaXkXgXkXBXJXHXFXFXFXFXHXFXFXHXHXNXdXdXkXpXwX2X2X4X2X2X2X2XXX[.[.[.H.XX>X>X>XoXoXoXoXoXXXXXoXoXoXXXXXXXoXoXoXoXXXXXXXXXXXXX>X>X>X>X:X>X:X2X:X2XuXfXdXdXNXHXHXFXFXFXFXHXFXFXFXJXBXdXgXkXyX`.)._._._.|.|.|. X=X;X;X;X;XXXXXXXXXXX}.[.Y.Y.Y.Y.Y.Y.P.F.F.F.F.F.F.M.M.M.M.M.M.y.y.y.y.r.p.r.r.p.r.r.r.e.r.6.{ { v v e.;.o.-.-.e.6.o.o.o.o.6.6.| | o.o.| | | | | | | | | | | | | | } } | | } } } } } } } } } } } } } J J J J J D l l g k J J J H J J J J J J J J H H H H H H H H H H H H H F F F F F F V V V V V V V V V V V V V V V V B B B B M B B 9 9 6 = d B B B B B d d d d d p p p p p p p u u u p i i y i i i y y y y a i i ",
"e e e e a a 4 % O + + , a y y y y y y u u u u u u u u u u u u u u u u u m m M M M M M M M M N N M M M N N N N N N N N N N V V V V 0 0 0 8 8 H H H H A A H H H G G G G G H G G H J G G G J J J J } } } } J J } } } } } } } } } } } } } } | | | | | | | D h S c L | | | | 5.8.e.e.| 8.| 8.6.6.6.o.6.6.e.e.e.e.e.e.e.e.e.e.e.r.r.r.r.r.p.r.p.p.p.r.r.r.y.y.M.M.M.M.M.M.M.F.F.F.-.-.-.:.Y.Y.Y.Y.Y.Y.}.}.XXXXXXXXXXOX;X;X>X:X:X2X2X4X4X4X4XyXdXfXsXbXDXJXFXFXHXFXFXFXFXFXJXAXzXsXkXhXyX4X2X2X4X2X2XOX[.}.[.H.OX:X:X>X+X>X>X>X+X+XoXoXoXoXoXoXoXXXoXoXoXoXXXoXXX>X;X>X:X>X:X:X:X:X:XrXhXfXsXbXAXJXFXFXFXFXFXFXHXFXJXDXbXsXfXdX#Xa.`._._.|.|.|. X=X;X;X;X;XOXOXXXXXXXXX}.}.Y.Y.Y.Y.Y.Y.P.F.F.F.F.M.M.M.M.M.M.n.M.y.y.y.y.r.r.p.r.p.p.r.r.r.e.e.e.{ | v v e.-.-.-.-.6.o.o.o.| o.| | | | | | | | | | | | | | | | | | | } } } } } } } } } } } } } } } } } } J J J J } D l l g z J J J J J J J J J J J J H H H H H H H H H H H F F F F F F F F F F V V V V V V V V V V V N V V B B B B B B B 0 9 6 = s B B B B B d d B d d p p p p p p p u p p p i i u i i y y y y a a a r ",
"e a e a e a 4 % + O + 4 y y y y y y y u u u u y u u u u u u u p s p u u m m n M M M M M M M N N M M N M N N N N N N N N N V N F N 0 0 0 0 8 H H H H A A H H H H G G G G G G G G J G G G J J J J } } } } J J J } } } } } } } } } } } } } } | | | | | | S L S c L | | | | | | e.e.| 5.5.8.e.6.o.o.6.6.6.e.e.e.e.e.e.e.e.e.e.e.r.r.r.r.r.p.r.r.p.p.r.y.r.y.y.y.M.M.M.M.M.M.M.F.-.-.-.t.F.Y.Y.Y.Y.Y.[.}.}.XXXXXXXXXXOX;X;X;X;X>X1X2X2X4X2X4XeXaXkXsXlXVXJXHXFXFXFXFXFXFXFXHXHXmXdXdXfXuXwX4X2X2X2XOX.X X.X].OX:X:X:X:X:X:X>X>X>X>X+X+X:X>X>X>X>XoX;XoXoX>X>X;X;X>X;X:X:X:X2X>X4XuXkXdXdXNXHXHXFXHXFXFXHXHXFXFXJXVXkXsXkXuX'.~.~.`.|.|.|.=X=X;X;X;X;X;XXXXXXXXXXX}.}.[.Y.Y.Y.Y.Y.Y.F.F.F.F.F.F.F.M.M.M.M.y.M.M.y.r.r.r.r.r.p.p.r.r.r.e.r.e.e.6.{ { L v e.-.-.-.-.o.6.o.o.o.o.| | | | | | | | | | | | | | | | | | } } } } | } } } } } } } } } } } } } J } J J J } D l j g z } J J J J J J J J J J J H H H H H H H H F H H F F F F F F F F F V V V V V V V V V V V V N V B B B B B B B B 9 9 6 = s B B B B d d d d d s m f p p p p p u p p p i i u i i y a y y a a a r ",
"e 9 5 y a a 4 % O O + 4 y y y y y u y y u u u u u u u 0 u u u u s s s n n m n M M M M M M M M M M m N N N N N N N N N N N V V F N 0 0 0 0 8 H H H H H H H H H H H G G G G G G G J J J J J  .J J J J J } } J J J } } } } } } } } } } } } } | | | } } | S k ^ c L | *.| | | | 5.e.*.5.8.8.e.*.o.e.6.e.e.e.e.e.e.e.e.e.e.e.e.e.e.e.e.r.r.r.r.r.r.p.r.r.y.y.y.y.y.M.M.M.M.M.M.F.-.*.*.-.F.G.I.Y.Y.I.Y.Y.[.}.}.XXXXXXXXXXOX;X;X;X:X:X1X2X2X4X4X4XyXdXfXgXbXFXJXFXFXFXFXFXFXFXFXJXAXzXsXkXhXeX1X2X4XOX$XOX}.[.OX2X:X:X:X:X:X:X:X:X:X:X>X>X>X>X>X>X>X+X>X+X>X>X>X>X:X:X:X:X:X:XrXhXfXsXzXAXJXFXHXFXFXFXFXFXFXJXFXmXsXfXfX9X`.~.~.`.`.|. X=X=X;X;X;X;X;XXXXXXXXX}.}.[.[.Y.Y.Y.Y.Y.Y.U.F.F.F.F.F.M.M.M.M.M.M.y.y.y.y.r.r.p.r.r.r.p.r.r.r.r.e.e.e.o. .| L v e.-.-.6.o.6.6.o.o.o.o.| | | | | | | | | | | | | | | | } | | | | | } } } } } } } } } } } } } } } J } J } } H j l g z } H J J J J J J J J J H H H H H H H H H H H H F F F F F F V F V V V V V V V N N V V V V N V V B B B B B B B 0 9 6 % s V B B B B d d d d p p p p p p p u u p u u y y p y y i y y y y i a a ",
"e e e e a 5 4 * O + + 4 9 y y y y y y y u u u u u u u u u u u u s s u u n M M M M M M M M M M M B M N N N M N N N N N N N N V V j 0 0 8 7 8 A H H H H H A H H H H G G G G G G G G J J J J J J J J J J J } } } } J } } } } } } } } } } } } } | | | | | A h S c z 5.| | 5.| | | *.o.6.8.| 8.8.o.6.6.6.e.e.e.e.e.e.e.e.e.e.e.e.e.r.;.e.r.r.r.r.r.r.p.p.r.y.y.n.M.y.y.M.M.M.M.M.*.*.*.-.F.F.Y.I.U.Y.Y.Y.Y.[.}.}.}.XXXXXXXXOX;X;X;X;X>X1X2X2X4X4X1XeXaXkXsXlXVXJXFXFXFXFXFXFXFXFXHXFXmXdXgXfXpXwX4XOX XOX X].;X4X2X2X:X2X:X:X:X:X:X:X:X:X:X:X:X:X>X>X;X>X>X>X:X:X:X:X:X;X2XuXkXgXdXNXFXHXFXFXFXFXFXFXFXHXHXVXlXsXkXuX_.).).~.`.~.`.=X X=X;X;X;X;XXXXXXXXX}.}.}.XX[.Y.Y.Y.Y.Y.Y.P.F.F.F.F.F.M.M.M.M.M.M.y.y.y.y.y.r.r.p.p.r.r.r.r.r.r.e.e.e.e.e.{ | L b e.6.*.6.o.o.o.o.o.o.o.| | | | | | | | | | | | | | | | | | | } | } } } } } } } } } } } } } } J } J } J J } S l j g l J J J J J J J J J J J H H J H G H H H H H H F F F F F F F F F F V V V V V V V V V V V V V N V V B B B B B M 9 9 6 @ s B M B B d d d d d p p p p p u u u u u u u y y y i i y y y i i i i i ",
"r e e e a 4 % * O O O % 5 y y y y y y y u u u u u u u u u u u u s s M M n m m m M M M M n M m M M M N N N M N N N N N N N N V N 8 0 0 7 7 0 F H H H H H H A H H H H H G G H G G S H J J J J J J J J J J J J J } J } } } } } } } } } } } } } } | } | | v g c k c | | 5.| | | 5.6.*.8.8.8.8.8.8.8.6.6.6.6.6.6.e.e.e.e.e.e.e.e.e.e.e.e.r.r.r.r.r.r.r.r.r.r.r.r.y.y.n.y.M.M.M.M.*.*.*.-.F.F.F.F.F.I.Y.Y.Y.Y.Y.[.}.XX}.XXXXXXXX;X;X;X;X>X1X1X2X2X4X2X4XuXfXfXgXmXFXJXFXHXFXHXFXFXHXFXKXAXbXsXfXhXyX X XOX$X.XOX4X4X4X2X:X2X:X:X:X:X:X:X:X:X:X:X:X:X:X:X>X:X:X:X:X:X:X;XrXhXfXsXbXAXJXHXFXFXFXFXFXFXFXHXFXmXgXfXdX9X^.)._.'.`./././. X X;X;XOXOXXXXXXX}.}.XX[.R.Y.Y.Y.Y.Y.I.I.I.F.F.F.F.F.M.M.M.M.M.M.y.y.y.r.r.p.p.p.p.p.e.r.r.r.r.r.e.e.e.e.8. .| c L e.o.o.o.| o.o.o.o.| | | | | | | | | | | | | | | | | | | | | | | } } } } } } } } } } } } } J J J J J J J J S j j 8 l } J J J H J H J J J H H H H H H H H H H H H F F F F F F F F F V V V V V V V V V V V V V M M B B B B B B B B 0 9 6 = s B B B B d d d d s p p p p p p u u u p u u y y i i i y y a i i i i i ",
"a e a a e , * , O + O , 2 5 a y y y u y u u u u u u u u u s s s M M p u n n m m M M M M M M M M n M N N M M N N N N N N N N N j 0 0 7 7 7 8 H H H H H H H H H H H H H J G G G G G G J J J J J G J J J J J J J } J D } } } } } } } } } } } } } | | | | S g h z c 5.5.5.5.5.5.| 5.| 8.8.e.e.8.8.8.6.6.6.6.6.6.6.e.e.e.e.e.e.e.e.e.e.e.e.r.r.r.r.r.r.r.r.r.r.r.y.y.y.y.M.M.M.n.{ *.{ *.F.F.F.G.F.G.I.Y.Y.Y.Y.Y.E.}.}.}.XXXXXXOX;X;X>X:X:X>X1X2X2X2X4X3XeXaXkXsXzXVXHXHXFXFXFXFXFXFXFXHXHXNXdXsXkXuX,X X X XOXwX2X4X4X4X4X4X4X2X2X:X2X2X:X:X:X:X:X:X;X:X:X:X:X2X;X2XuXfXgXfXNXHXHXFXFXFXFXFXHXFXHXJXVXlXsXkXaX#X^.)._._._.`.f.f./.;X;X;XOXOXXXXXXXXX}.[.[.[.Y.Y.Y.Y.Y.Y.F.F.F.F.F.F.F.F.M.M.i.i.M.y.y.y.r.r.p.p.p.r.p.r.r.r.r.r.e.e.e.e.e.e.-.[ [ v k o.6.6.6.6.6.6.6.6.6.5.5.8.8.| | | | | 5.8.8.5.8.| | | | | | | | 5.5.| | | } } } } } } } } } } J J J } } } A g j g j J J J J J J J J J J J J H H H H H H H H H H F F F F F F F F F V V V V N V V V V V V V V V V V V B M M B B M 9 9 6 + 9 B B B B d d d d p p p p p p p p p p p p p p i p i i i y y y i i i i ",
"4 4 % , % % % + O + O % % , 4 < 6 6 3 3 5 5 9 q q q q 9 q 9 9 q q q q q q 7 q q 9 q 9 9 9 9 9 9 9 9 9 9 9 0 0 0 0 0 0 0 0 0 0 7 9 7 7 7 7 8 j M V V V V N A A A A A A A A A A A H A A A A A H H G S D H D D D D J J J J J J G D } } } }  .} } } }  .S c k h c z A } } } | | | | | | | | | | | | | | | | | o.o.o.6.6.6.e.6.6.6.6.e.e.e.e.;.r.r.e.r.r.;.r.r.;.p.p.r.y.r.y.r.-.{ { { =.r.y.F.F.F.F.F.F.F.I.Y.Y.Y.Y.Y.[.[.}.}.XXXXXX X;X;XOX;X;X;X1X1X2X4X3XuXfXdXdXmXFXJXFXHXFXFXFXFXFXFXJXDXbXsXfXhXrX.X.X X4XwX4X4X4X4X4X4X4X4X2X4X2X2X2X2X2X:X2X2X:X2X2X:X>XeXhXfXsXbXAXJXFXFXFXFXFXHXFXFXHXFXmXgXfXkX9X^.)._._._._./././.f.l. X;XOXOXXXXXXXXX}.}.Y.Y.Y.Y.Y.Y.Y.Y.I.F.F.F.F.F.F.F.F.M.M.M.M.y.y.M.B.r.r.r.r.r.r.r.r.r.r.r.e.e.e.r.e.e.o.^  .{ v h S  .[ [ [ [ [  . . . . .[  . . . . . . . . . . .S S S S S S S S S S S S S S A S S S A A A A A A A A A A J A j j g g N H H H H H H H H H H F F F F F F F F F F V V V V V V V N N N N N V V N N M N M M M M M M M M M M M M M s 9 7 9 2 % < s d m d p s d s u u u u u u u u u u y y y y y y a a r e e r e e r r ",
"O O O O O O O O + + O + + + + @ , , % % % * % % + , < < < < < < < < < < < < < < < < 6 6 6 6 6 6 6 6 6 6 1 1 1 7 1 7 7 7 7 7 7 7 7 7 7 7 7 7 7 7 7 8 8 7 8 8 8 8 8 8 8 8 8 8 g 8 8 8 8 8 8 8 g 8 g g g g g g g g g g g g g g g g g g k k k k k k k h k h z h k k h k h k h L L L L L L L c L c L c c L L L L v v v v v v b v b v v v v v v ^ ^ ^ ^ ^ ^ ^ ^ ^ ^  .^ ^ ^ ^ [  .[ { { =.=.=.*.*.*.*.*.-.:.>.>.:.:.t.t.y.f.f.f.f.f.f.l.l.].].].].].].].]..X|.{.2XaXkXsXzXAXJXFXFXHXFXFXFXFXFXHXHXNXdXgXfXuX,X]. X;X;XOXOXOXOXOXOXOX X}.XXXX}.[.[.[.[..X.X.X.X}.uXkXgXdXNXHXHXFXFXFXFXFXFXFXFXJXVXzXsXkXuX'.a.~.~.~.~./.`.k./.f.H.f.f.U.U.H.P.F.F.d.d.d.d.y.y.y.y.r.y.t.:.:.-.-.-.-.-.-.*.*.| { { { { { { { {  .{  . . . .^ ^ ^ ^ ^ ^ ^ ^ v b L [  .^ h g U h U g h h h h h h g g U U g U g g g g g g g h k k k k g g g g g g g g g g g g 8 g 8 8 g g g 8 8 8 g g 8 g j 8 8 8 g g 0 0 8 8 8 8 8 8 8 8 8 8 0 0 8 0 0 0 7 7 7 7 7 7 7 7 7 7 7 7 7 7 1 1 1 1 1 1 1 1 1 6 6 1 6 6 6 6 6 < < < , < = = = < , < < < < , + + + + + + + + + % + + + + + + O O O O O O O O O O ",
"X O O O O O O O O O O O O O O O + + + + + + + + + + + + + + + + + = = = < < < 6 1 1 7 1 7 7 7 7 9 9 9 q 9 7 1 7 7 7 7 7 7 7 7 7 7 7 7 7 7 7 7 7 7 7 8 8 8 8 8 8 8 8 8 8 8 8 8 8 8 g 8 g 8 8 g g g g g j j j j j k k z z k z z k z z z z z c z z k k c c c c c c z z c c c c c c c c c c c c c c k L L L L L L L v L b b L b L L L v v v v v v v v v v v v v ^ ^ ^ ^ ^ ^ ^ [  .{ { { [ =.*.*.*.*.-.-.>.:.t.t.t.y.y.d.f.d.d.d.f.f.P.U.U.].].[.].]..X}.}. X X|. XyXkXdXdXmXFXJXFXFXFXFXFXFXFXFXJXDXbXsXfXdXrX.X.X.X.X.X.X]..X.X.X]..X.X].].].].].].[.[..X].uXkXsXbXDXJXFXFXHXFXFXFXFXFXHXFXmXsXfXkX9X~ a.~.~.a.~.~.k.f.f.f.f.f.f.f.f.f.f.f.>.>.>.>.:.:.:.*.*.*.=.*.*.=.=.{ { { { { { ^  .^ ^ ^ ^ v v v v b L L L L L L L L L L L L L h L h L [ { { ^ v c c v S S ^ ^ ^ ^ ^ S S v c L k k k k z c c h g h h L h g g g g g g g g g g g g g g 8 8 8 8 8 8 g g 8 8 8 8 7 > 8 8 8 8 8 8 8 8 8 8 8 7 7 7 7 7 7 7 7 7 7 7 7 7 7 7 7 7 7 7 7 7 7 7 7 1 1 1 1 1 1 1 1 1 1 6 6 6 6 6 6 6 6 < < = = < < = = + @ @ @ + + + + + + + + + + + + + + + + O O O O O O O O O O O O O ",
"$ $ $ % % % % % % % % % % % * * % % % % * * < , , , , < < < < < < < < = = = 6 9 9 0 0 9 0 0 0 0 0 0 0 0 9 7 1 1 7 7 7 7 7 7 7 7 7 7 7 7 7 7 7 7 7 7 7 7 8 8 8 8 8 8 8 8 8 8 8 8 8 8 8 8 g g g g g g j z z c c c A A c c z A c c c c A A A A c c c c c c c c c c c c c c v c A S A A v v v v v v c b v v v v v v v L b b L v b v v v v v v v v v v v v v v v v ^ ^ ^ ^ ^ ^ ^ ^ [ [ { [ { *.*.-.-.-.:.:.t.t.t.y.y.f.f.d.d.d.F.j.H.P.U.U.U.U.]..X}.}.}.}..X X X X X2XaXkXsXzXVXJXFXFXHXHXFXFXFXFXHXHXBXdXgXkXaX2X X X XOXOXOXOXOXOXOXOXOX X X X}.}.}.OX}.rXkXsXmXJXGXFXFXFXFXFXFXFXFXJXVXzXsXkXuX`.! a.a.a.a.a.a./.f.f.f.f.f.f.f.f.t.>.>.>.>.>.=.=.*.=.=.*.=.=.=.[ [ ^ ^ ^ D ^ ^ ^ [  . .^ ^ ^ ^ v ^ ^ ^ v v v v v v v v L h h h h h h h h h c v v v v v v v v v v v c c c v c c c c c z z z c c c h g g h h h k z z z k k k k k k g k g g g g g g g g 8 7 > > > ; > > 7 7 > > > ; 7 7 7 > > ; ; 7 ; ; ; 7 7 8 8 0 0 8 7 7 7 7 7 7 7 1 1 1 1 6 1 6 6 6 6 6 - 6 6 6 6 - - = = = = = = = < = < @ = , < < = = = , + + + + * + + + + + + + + + % + + + O O * % % % % * ",
"% % % % , , 4 4 4 4 2 4 2 2 4 < < < 6 6 3 3 3 3 3 3 5 5 5 5 5 5 1 q q 1 = = 9 1 6 9 9 0 0 0 0 0 0 0 0 0 9 1 7 7 7 7 7 7 7 7 7 7 7 7 7 7 7 7 7 8 7 8 8 8 8 8 8 8 8 8 8 8 8 8 8 g j j j k k j 8 8 g g g l z z z z z z z c c c c c c c c c c c A A A A A A c c c c A S S S A A v c c v v v v v v v v v v v v v v v v L L L L c b v v v v v v v v ^ ^ ^ ^ ^ ^ ^  . . . . . .{ { { { { { *.*.*.*.-.*.*.*.-.*.*.-.:.>.>.>.t.t.t.f.y.f.f.d.j.H.U.].]..X}. X X XOX;X;X1X;X1XuXfXfXgXmXFXJXFXFXFXFXFXFXFXFXHXDXbXsXfXdXyX;X;X1X;X1X;X;X;XOXOXOXOXOXOXOXOXOXOX}.uXfXzXHXFXFXFXHXFXHXFXFXJXFXmXgXfXfX9X! ! a.a.a.a.a.a.a.f.f.f.f.f.f.f.>.>.>.>.>.>.=.=.=.=.=.=.=.=.=.^ ^ ^ ^ D D v v v v v v  .^ ^ v v v v v v b b b L L c v v L L L L L L L L c c c c c c c c L L c L c c c c L L k k k k k z z z z z z k k g U h h h z c z c c z z z z z z z z z z z z z z z g g g g g 8 g g g g g 8 8 8 g g j j j j j j j j j j j j 0 0 0 0 0 8 7 7 7 7 1 7 0 0 M 0 0 0 0 0 0 0 0 0 0 0 0 9 0 9 9 9 9 9 u u s u 9 5 6 6 6 6 6 < < < < , 4 4 < < < < 3 4 3 3 4 , * % + O O % e r r r r e ",
"4 2 2 2 4 3 5 5 5 5 5 5 5 5 5 5 5 5 3 6 6 6 6 6 6 6 6 6 6 1 1 1 q 5 q q < 1 9 - 1 0 9 0 0 0 0 0 0 0 0 0 0 0 0 0 0 0 s s j j j j j n n n n n j n n j M M M M l j l z N N N N z k N N z z A z j g g g g z A S S S G G S S S S S S S S  . . . . . .} } } }  . .} } } } } } } } [ [  . . . . . . . . . . .[  . .S v v L L L L v | -.e.e.e.6.e.e.e.e.r.r.r.r.r.r.r.r.r.r.r.r.r.r.r.y.n.M.y.M.M.M.M.M.M.M.F.F.F.F.F.F.F.F.F.F.F.U.U.U.U.P.f.f.l.H.H..XXXOXOXOXOX;X;X2X2X2X;XrXaXkXsXlXVXJXFXFXFXFXFXFXFXFXHXJXBXlXsXkXaXrX;X:X2X:X;X:X;X;X;X+X+XOXOXOXOXOX;XaXgXmXJXFXFXFXHXHXFXFXJXVXlXsXkXuX'.! ~.~.`.`.`././.].].].].].[.].U.U.U.U.P.U.F.F.F.F.d.d.d.y.y.y.y.r.r.r.r.:.:.:.:.:.*.v b v ^  .-.;.;.r.r.e.e.e.e.e.e.e.e.e.e.e.e.e.e.e.e.e.e.e.e.e.e.e.e.e.e.e.e.e.e.e.5.5.5.5.5.8.8.8.8.5.5.5.5.5.5.5.| z g k k h A D S S S S S S S S D S S S S S A A A A A A A A A S H A A A A A A A A A N N N N N N N N N N N N N M M n 0 0 7 7 7 7 0 N V V V V V V V V V V V V V V V B B B B M M M d d B d B s p p s p p p u u u u u u u u y y y y u u y y 3 % % + + % e e e r r r ",
"5 5 5 e e e e 5 5 9 9 a a y y y y y y y a a y y y y y y y y 9 y 9 q 5 q 1 9 q = 6 9 9 0 u n n n M s 0 0 0 0 0 0 0 0 s s n j j j j n n n n n n j n n n n l M M M M N N N N V A A A A F A A A j g g g g A G G G G G G G G G S S S G S G G  .G G  . . .} }  .}  .} } } } } | } | } | | | | | } | | | | | | | | |  .v L L c L [ e.e.e.e.e.e.e.e.e.e.e.e.e.r.r.r.r.r.r.r.r.r.r.r.r.r.r.y.n.y.M.M.M.M.M.M.M.M.F.I.G.I.I.I.Y.Y.Y.Y.Y.Y.}.}.P.f.f.f.H.[.XX}. XOX;X;X;X1X1X1X2X1X4XuXfXdXdXmXFXHXFXFXFXFXFXFXFXFXJXFXbXsXfXdXyX1XOX;X:X;XOX;X;X;XOX;X;XOXOXoXXXaXdXmXJXFXFXFXFXFXJXFXbXgXfXdX9X^.^._.'._.|.|.|. X XOX;X;XXXXXXXXXXX}.}.R.Y.Y.Y.Y.Y.Y.Y.I.F.G.F.F.F.M.M.M.n.M.n.M.M.n.M. .b v ^ { r.r.r.r.e.e.e.e.e.e.e.e.e.e.e.e.e.e.e.e.e.e.e.6.6.6.6.6.o.| | | 8.8.| | | | | | | | 5.5.5.5.5.5.5.5.| | | } h z k k } } } } } } } } } } } } } } J J J J J J J J H H H H J J H H H J H H H H H H H H H H F F F F F F A F V V n 0 7 7 7 7 M V N V V V V V V V V M N M B B B B B B M M M M M M p M s p p p s s p p u u u u u u u y y y y y y y a y y 4 + + % % 5 e e r r e ",
"5 5 5 5 e e e r 5 9 9 9 a a a y y y y y y y u u u u u u u u u u u u 5 q q 9 9 @ 1 9 0 u M M M M M M M M M M s 0 0 s s 0 0 0 0 0 j 0 n M M N N N N M N N N N V V F F F F F H H H H H H H H A j 8 g g g A G A S A S G G G G S S S G G G G  . . . . .G } } } }  . .[ [ } } [ [ } } } } | | } } | | } | | { | | | { S v L L L | 6.e.e.e.e.e.e.e.e.e.e.e.e.e.e.e.r.r.r.r.r.r.r.r.r.r.r.r.y.r.n.M.M.M.M.M.M.M.M.F.F.F.F.F.F.Y.Y.Y.Y.Y.Y.Y.U.f.f.f.j.Y.}.}.}.XXOX;X;X;X;X;X1X1X1X>XeXaXfXsXlXVXJXHXFXFXFXHXFXFXFXFXJXVXlXsXkXaXrX;X;X;X;XOXOXOXOXOXOXOX;X;X}.uXfXlXFXHXFXHXHXJXVXlXsXkXuX#X^.`._.'./.|.|.|. X XOXOXXXXXXX}.}.}.R.Y.Y.Y.Y.Y.Y.Y.P.P.F.F.F.F.F.M.M.M.M.M.n.y.n.n.r.r.n.{ b b L  .p.r.e.e.r.e.e.e.e.e.e.e.e.e.e.e.e.e.e.e.e.e.6.6.e.8.5.6.| *.| *.8.| | | | | | | 5.5.5.5.| | | | 5.| | | | | c k k z } } } } } } } J J } J J J J J J J J J J J H H H H H H H H H H H H H H H H H F F F F F F F F F A A A V V N 0 7 7 7 7 N V N N V V V V V V V M M M M B B B B M M M M M M M s M p p p p s u p p u u u u u u u u y y y y y y a a y 5 O O $ $ 5 e r r r e ",
"e 5 e e e e e e e e 9 a a y a y y y y a 9 y y y y y u u u u u u u s 9 5 5 9 q @ 1 0 u n n n n M M M M M M N M M M M M M M M M M M N N N N N N N N N V N A F F F F F F F F F A F A A A A H H k 8 8 g g A G A A S S S G G G S S S S S G J J  . .D  . . .} } } }  . . .} } } [ [ [ } | | | | } } } } | | | | | | | S c L L L | e.e.e.e.e.e.e.e.e.e.e.e.e.e.e.e.e.e.;.r.r.r.r.r.r.r.r.r.r.y.y.n.y.M.y.M.M.M.M.M.F.F.F.F.F.P.Y.Y.Y.Y.Y.Y.U.t.f.d.f.Y.[.}.}.XXXXXXOX;X;X;X;X1X1X2X>X1XyXdXfXgXbXDXJXFXFXFXFXFXFXFXFXHXFXmXgXdXkXuX:X;X;XOX;X;X;X;XOXOXOXOXXX2XfXgXbXFXJXHXDXbXsXfXdX9X^.~.'.(./._.{.|.}. XOXOXXXXXXX}.XXXXXX[.Y.Y.Y.Y.Y.Y.Y.P.F.F.F.F.F.F.M.M.M.M.M.M.M.y.y.r.r.r.r.| L b L [ p.e.r.e.e.e.e.e.e.e.e.e.e.e.e.e.e.e.e.6.e.6.6.6.8.8.8.5.e.8.8.5.| 5.| | 5.5.5.5.5.5.5.5.| | | 5.5.5.| | 5.} c z g z } } } } } } } J } J J J J J J J J J J J H H H J H H G G H H H H H H H A H A F F F F F F F F V V V V V N V 0 7 7 7 7 M N N N V V V V V N M M M M B V B B M M M M M M M M s m p m p p u u u u u u u u y u u u y y y u y a a a a e + O $ $ 5 e r e r e ",
"e 5 e e e e e 5 e e a 9 a a a y a 9 y y u y y y y y u u u u u u u u u q q 9 7 @ q 9 u n n n n M M M M M M M M M M M M M N V N N N N N N N N N N N N N N A F V V V F F F F F F A A A H H H H k 8 g g g A A A S S S S G G G G G G S S S G  . . . . . .G  .} } } }  . .} } } } [ [ [ [ | [ } } } } } } | } | | | | ^ v b L c | 6.6.e.e.e.e.e.e.e.e.e.e.e.e.e.e.e.e.r.r.r.r.r.r.r.r.r.r.r.r.r.r.y.y.y.M.M.M.M.M.M.F.F.F.F.P.P.I.Y.Y.Y.Y.Y.t.t.f.f.U.Y.Y.}.}.}.}.}. XOX;XOX;X>X;X1X1X=XwXaXfXsXkXBXHXHXFXFXFXFXFXFXFXFXJXVXzXsXfXaXrX XOX:X;X;XXXOXOXOXOXOX}.uXkXgXlXbXbXlXgXkXuX'.~.`.`.`./.{.{.{.}.}.XXXXXX}.}.}.}.[.Y.Y.Y.Y.Y.Y.Y.U.F.F.F.F.F.F.F.F.M.M.M.M.y.y.y.y.y.r.r.r.r.r.o.L b L ^ r.r.r.e.e.e.e.e.e.e.e.e.e.e.e.e.e.e.6.o.6.6.6.5.8.8.8.| 8.| | | | | | 5.5.5.5.5.5.5.5.5.| | | | 5.5.| | | } c z k k J } } } } J J } } J J J J J J J J J J H H H H H H D G H H H H H H H H H F H F A F F V F F V V V V N V V N 0 9 7 7 7 N N N V V V V V V M M M M B B B B B M M M M M B M M m p p s s u u u u u u u u s u u u y y y y y y y a y y a * O $ $ 5 e r e e e ",
"5 5 e e 5 e 5 5 e e 5 9 5 9 9 9 9 9 9 y y y y y y y u u u u u u s u u q 1 q 6 @ 9 9 u n n n n M n M M M M M M M M M M M M M N N N N N N N N N N N N N N N A A A V A F F F F F A H A H H H H k 8 8 8 j A A A A A S A S S S G G G S S S S G  .G G S G G  .}  .} }  . .} } } } } [ [ [ } } } | } } | } | { | | | | [ v c L c | 6.6.6.6.6.6.6.6.e.e.e.e.e.e.e.e.e.e.e.e.e.e.r.p.p.r.r.r.r.r.r.r.r.r.y.y.y.M.M.M.M.M.M.F.F.F.F.P.P.I.U.Y.U.t.t.f.t.U.Y.Y.Y.[.}.}.}.XXXX XOXOXOXOX;X;X>X;X;XyXdXfXsXbXDXJXFXFXHXHXHXFXFXFXHXFXmXdXdXkXuXOX X;X;XOXOXOXOXXXOXOX}.qXfXfXfXgXfXhX#X~.~.`./.`./.].{.{.}.}.XXXXXX}.}.}.R.Y.Y.Y.Y.Y.Y.U.Y.P.G.F.F.F.F.F.M.M.M.M.M.y.y.y.y.y.r.r.r.r.r.r.r.-.L L h ^ p.e.e.e.e.e.e.e.e.e.e.e.e.e.e.e.e.e.o.o.| 8.8.8.e.o.-.| | 5.| | | | 5.5.5.5.5.5.5.| 5.5.| | | | 4.} } } 5.} c z k k } } } } J J } } J J J J J J J J J J H H H H J H H G H H H H H H H A H F F F F H F V F V N V V V V N V N N s 7 7 7 7 M N N N V N V V V M M M B B B B M M M M M M M d M p p p p p p u u u u u u u u y u u u y y y y y y y a y y y % $ $ $ 5 e r e e e ",
"5 5 e e 5 e 5 5 5 a 9 9 9 9 9 9 y y y y y y y y y y u u u u u u u u u 9 q 7 < = q 9 s n n n n M M M M m M M M M M M m N N M N N N N N N N N N N N N N N N N A A N V F F F A A A A H F H H H z 8 g 8 j A A S A A A A S S S G G G S S S S S G G G S S G  . .} } }  . .} } } } } } [ [ } [ | | } } [ [ } | { [ | |  .v L L c | 8.*.6.6.6.6.6.6.6.e.e.e.e.e.e.e.e.6.e.e.e.e.r.r.r.r.p.r.r.p.r.r.r.r.r.y.y.y.y.M.M.M.M.M.M.F.F.F.P.P.P.Y.P.t.t.t.y.U.U.Y.Y.Y.[.}.[.}.XXXX}.XXOXOX;XOX;X;X;X;X2XaXkXsXdXBXHXHXFXFXHXFXFXHXFXFXJXAXbXsXfXhXrXOXOXOXOXOXXXXXXXXXOX]..XqXuXuXrXOX/.`.`.`.`.(.].{.}.}.}.}.XX}.}.}.R.Y.Y.R.Y.Y.Y.Y.U.U.P.F.F.F.F.F.F.F.M.M.M.M.n.y.y.y.y.r.r.r.r.r.r.r.r.o.v k h ^ p.e.e.e.e.e.e.e.e.e.e.e.e.e.e.e.6.6.o.8.6.6.8.8.*.*.*.| 5.| | | | 5.5.5.5.5.5.| | | 5.5.| | | | 5.4.} } } } c z g k  .} } J } } J J J J J J J G G J J D H H H H H G G H H H H H H H A H F F F F F F F V V N V V V V N V V V V 0 7 7 7 7 N N N N V V V M M M M M B B B B M M M M M M B p s p p p p p u u u u u u u u u u u y y y y y y y y y a y y y * + $ $ 5 r r e e e ",
"5 5 5 5 5 e e 5 5 5 9 a a a a a 9 9 9 y y y y y y y y u u u u u u 0 u 9 1 5 , = q u m m n n n n n M M M n M M M M M M N N N M N N N N N N N N N N N N N N N N F N N N A A A A F F F H H H H z 8 8 8 j A H A A A A A S G G G G G S S S G S S S S  . . .G G G  .} } } } }  .[ } } } } } } } } } } | | } } } } | | [ c L c c | 6.8.8.5.5.6.6.e.e.e.e.e.e.e.e.e.e.e.e.e.e.e.e.e.r.r.r.r.r.r.r.p.r.r.r.y.y.y.M.y.M.y.M.M.M.M.F.F.F.F.F.U.F.t.t.t.u.F.F.U.U.Y.Y.Y.[.[.}.}.}.}.}.}.OX;X;X;X;X;X;X;XrXdXfXsXbXDXJXFXFXFXFXFXFXFXFXHXHXNXfXgXkXuXOXOXOXOXXX}.XXXXXX[.j.f.f.}.}.XX;X X{./.].].{.}.}.XX}.}.}.}.}.Y.Y.Y.Y.Y.Y.U.U.U.U.F.F.F.F.F.M.M.M.M.M.i.M.y.y.y.y.y.r.r.r.r.r.r.r.r.r.| ^ L h S e.e.e.e.e.e.e.e.e.e.e.e.e.e.6.6.6.e.8.8.e.e.e.8.*.| | 5.| | | | 5.5.5.5.5.5.| | | | 5.5.| | | | 4.4.} } 4.} z z k k } } J J } } J J J J J J J J J G H H G H H H G G H H G H H H H H H F F F F F F F F V A A V V V V V N V V V s 7 7 7 7 N V N V V V B M M M M B B B B B M M M M M M M s p p p p p p u p u u u u u u u y u u y y y y y y a y y y y a % O $ $ r r e e e e ",
"5 5 5 5 5 e e 5 5 5 9 9 a a a a 9 9 9 y y y y y y y y u u u u u u u u q 1 1 , = q u m m n n n n n M M M M M M M M M M N N N M M N N N N N N N N N N N N N N N F N N N A A A A A F F F H H H z 8 8 8 j A H A A A A A S S G G G G G G S S S S S S  . . .G G G  . .} } } }  .} } }  .} } } } [ [ } | | } } } } | | [ S c L c | 8.8.8.8.5.6.6.o.e.e.e.e.e.e.e.e.e.e.e.e.e.e.6.e.e.r.r.r.r.r.r.r.r.p.r.p.y.y.y.y.y.y.M.M.i.M.M.M.M.M.F.P.F.>.>.>.t.F.F.F.F.U.U.Y.Y.Y.[.}.}.}.}.}.}. XOXOX;X X;X;X X:XuXkXgXdXNXHXHXFXFXFXFXFXFXFXFXJXDXbXsXkXuX}. X}.XXXXXX}.}.].l.j.H.XX;XXXOXXXXX}.}.}.}.}.}.}.}.}.Y.Y.Y.Y.Y.Y.Y.U.U.P.P.F.F.F.F.F.F.M.M.M.M.M.y.y.y.y.y.r.r.r.r.r.r.r.r.r.r.r.r.| ^ L h ^ r.e.6.e.e.e.e.e.e.e.e.e.e.6.6.8.8.e.8.| e.e.5.5.| | | | 8.| | 5.5.5.5.5.5.| | | | | 5.5.} | | | 5.} 4.4.4.} z z k k D } J J J J J J J J J J J J G G H H H H H G G H H H H H H H H H H F F F F F F F V V A A A V V V N N V V V 0 7 7 7 7 M V M N V N V M M M M B B B B M M M M M M M M p p p p p p u p p u u u u u u y u u u y y y y y a y a y y y a % O $ O 5 r e e e 5 ",
"5 5 5 5 5 5 e e 5 5 9 5 9 9 a a a 9 y a y y y y y y y y y u u u u u u q 1 1 , = q u m p p p n u n n M M M M M M M M M M M M M M N N N N N N N N N V N N N N N N A A V V F F F F A A A A F H l 8 8 8 j A H A A A A A A A S S S S G G G S S G S S  . .G G G G  . .G }  . . . .} }  .} } } } [ [ [ [ } | | } [ [ | }  .c L c | | 8.e.8.5.8.8.o.6.6.6.6.e.e.e.e.e.e.e.e.e.e.e.6.e.e.r.r.r.r.r.r.r.r.r.r.r.r.y.r.y.r.y.y.y.i.M.M.M.M.M.F.F.*.*.>.>.F.F.F.F.F.U.Y.Y.Y.Y.[.[.}.}.}.}.}.XX X XOXOX X;XOX=XrXhXkXsXzXAXKXFXFXFXFXHXFXFXFXFXJXmXsXkX2X}.XXXX}.}.}.}.].j.f.j.XXXXXXXXXXXX}.}.}.}.}.}.}.Y.Y.Y.Y.Y.Y.Y.U.U.U.P.P.F.F.F.F.F.M.M.M.M.M.i.i.y.y.y.y.r.r.r.r.r.r.r.e.r.;.;.;.r.|  .L h ^ e.e.e.e.e.e.e.e.6.6.o.o.6.6.5.5.e.e.e.e.| 5.5.| | | | | 5.5.5.5.5.5.| | 5.5.5.5.| | | 4.| } | } } 4.4.} } } z z g k D } J J J J J J J J J J J J G H H H H H G G H H H H H H H H H H F F F F F F F F F A A A V V V V N N V V V 0 7 7 7 7 M V V N V V M M M M B M B B M M M M M M M M M m p p p s u u p u u u u u u y u u u y y y y y y y a a y y a a % O $ $ 5 r e e 5 5 ",
"5 5 5 5 5 5 e e 5 5 9 5 9 9 9 y a a 9 a y y y y y y y y y u u u u u u q 5 1 @ = 7 0 u u p p u n n n M M M M M M M M M M M M M M M N N N N N N N N N N N N N N N N A A A V F F F A F F F F H j 8 8 8 j A A A A A A A A A S S S S G G G S S S S S S  .G G G G  . .G G  . . . .} }  . .} } } } } [ [ [ | | } } } | }  .c L c | | 5.e.8.8.8.8.8.6.o.6.6.6.6.e.e.e.e.e.e.e.6.e.-.e.e.e.e.e.r.r.r.r.r.r.r.p.r.r.y.y.y.y.y.y.y.i.i.M.M.M.F.M.*.*.*.>.F.F.F.F.F.F.U.U.U.Y.Y.Y.[.[.}.}.}.}.}. X X XOXOXXXOX}.OXuXlXgXdXmXFXJXFXFXFXFXFXFXFXFXHXzXfXyX].XX}.}.}.}.}.U.f.f.f.}.XX}.}.}.}.}.}.}.}.[.Y.Y.Y.Y.Y.Y.U.U.U.P.P.P.F.F.F.F.F.M.F.M.M.i.y.y.y.y.y.y.y.r.r.r.r.r.r.r.r.r.r.;.e.;.r.{ ^ L h v e.e.e.e.6.6.e.e.6.o.o.6.8.5.5.5.e.e.e.| | | 5.5.5.| 5.5.5.5.5.5.5.| | | | | | 5.} } } } 4.} } 4.4.4.} } 4.J z z g k J J J J J J J J J J J J J H H H H H H G G H H H A A H H H H H F F F F F F F F F A F V V V V V V V V V V N 0 7 7 7 7 M V V V V V M M M B B B M M M M M M M M M M m m p p p p s p u u u u u u y u u u y y y y y y y a a a y a a a % $ $ $ 5 e e 5 5 5 ",
"5 5 5 5 5 5 e e e 5 5 a 9 9 9 9 a a a a 9 y y y y y y u y y u u u u u q 5 5 + = 7 0 p p p p n n n n n M M M M M M M M M M M N N M M N N N N N N N N N N N N N N N A V A A A F F A F F F F A j 8 8 8 j A A A A A A A A A S S S S S S G G G S S S S G G G  . . . .G S  . . .} } } } } }  . .} } } } } } } } } } } }  .c L c | | | | -.8.8.e.e.| o.6.6.e.e.e.e.e.e.e.e.6.e.e.e.e.e.;.e.e.e.e.r.r.r.r.r.r.r.r.r.r.y.y.y.y.y.y.y.M.M.M.M.i.=.=.=.*.y.d.d.d.F.F.F.F.U.U.U.Y.Y.Y.[.[.}.}.}.}.}.}.}.}. XOX X X}.rXhXfXsXzXVXHXFXFXFXFXFXFXFXJXmXgXuXa.].}.}.}.[.[.U.f.f.f.}.}.}.}.}.}.}.Y.Y.Y.Y.Y.Y.Y.U.U.U.P.P.P.P.P.F.F.F.F.F.M.i.M.i.i.y.y.y.y.y.y.y.r.r.r.r.r.r.r.r.r.;.e.e.e.e.e.{ ^ L U v e.e.e.e.6.6.e.6.6.6.6.8.8.8.-.o.-.| 5.5.| | | | 5.5.5.5.5.5.5.5.| | | | | 5.5.5.5.5.| } 4.4.4.4.} } } } 4.J z z k k D J J J J J J J J J J J G H H H H H G G H H H H H H H A H H F F F F F F F F N N F F V V V V N V V V V N N 0 7 7 1 7 N V V V V M M M M B B B B M M M M M M M s p p p p m p p p p u u u u u u u u u u y y y y y y a a y y y a a a % $ $ $ 5 e e 5 5 5 ",
"5 5 5 5 5 5 5 e e e 5 5 5 9 9 9 a a a a 9 y y y y y y u y y u u u u u q 5 5 = = 7 0 u u m p n n n n n M M M M M M M M M M M M N M M N N N N N N N N N V N N N N N N V V A A V F A A F F F A j 8 8 8 j A A A A A A A A A A S A S S S S G G G S S S S G G S  . . .G G  . .G  .} } } } }  .} } } } } } } } [ } } } }  .v k c | | | | | | 8.e.e.8.8.6.6.6.e.6.e.6.6.e.e.e.e.e.e.e.e.e.e.e.e.e.e.e.r.r.r.r.r.r.r.p.p.p.r.y.y.y.y.y.y.i.M.i.*.*.*.*.y.y.i.d.d.F.F.F.F.F.U.U.U.Y.Y.Y.[.[.[.}..X}.}.}.}.}.}. XOX}.;XuXkXdXdXmXFXJXFXFXFXFXFXJXbXgXuX! a.l.].}.[.Y.H.f.f.f.}.}.[.Y.Y.Y.Y.Y.Y.Y.U.Y.U.U.P.P.P.P.P.P.F.F.F.F.F.M.M.i.i.i.y.y.y.y.y.y.p.r.r.r.r.r.r.r.r.r.r.;.;.e.e.e.e.e.{ ^ L U v e.e.e.e.6.6.6.6.6.8.8.8.8.8.*.8.8.| 5.| | | 5.5.5.5.5.5.5.| | 5.| | | | | } 5.| 5.| } } 4.4.4.4.4.4.} } 4.} z z g k J } J J J J J J J J J H H H H H H G G H H H H H H H H H H F F A F F F F F N V V V V V V V N V V V V N N N 0 7 1 1 7 N V V V N M M B B B B B M M M M M M M d s p p p p p p p u u u u u u s u u u u y y y y y a a a y y y y a a a % $ $ $ 5 5 e e 5 5 ",
"5 5 5 5 5 5 5 5 e e 5 5 e e 9 5 9 a 9 9 9 9 y y y y y y y y u u u u u q 6 5 < = 1 0 u u m m n n u u n M M M M M M M M M M M M M M M M M M N N N N N N N N N N N N N N V A A A V V A F F F H j 8 8 8 j A A A A H H A A A A A A A S S S S G G G S S S S G G G G G  . .S  . . . .}  . . . . .} } } } } } [ [ [ } } | S S L L | | | | | | 5.e.e.e.8.8.8.8.6.o.6.6.e.6.e.e.e.e.e.e.e.e.e.;.e.e.e.e.e.r.r.r.r.r.r.p.p.p.p.p.p.p.y.y.y.y.y.y.=.=.=.=.r.y.y.y.d.d.d.F.F.F.F.F.U.U.U.Y.Y.Y.[.[.[.}.}.}.}.}.}.}.}.OX}.}.2XaXkXsXlXVXJXHXFXFXHXFXkXfX9X! g.a.k.U.[.Y.U.f.f.f.[.Y.Y.Y.Y.Y.Y.U.U.U.U.U.P.P.P.P.P.P.F.F.F.F.M.i.i.i.y.y.i.y.y.y.y.y.p.r.r.r.p.r.r.r.;.e.e.e.e.e.e.e.e.e.;.e.{ v k h v e.e.6.6.6.6.6.6.8.8.8.8.e.e.5.5.| | | | | | 5.5.5.5.5.| | | 4.5.| | 5.| } } } | } } 4.4.} } 4.4.4.4.4.4.} J z z g k J J J J J J J J J J G H H H H H H G H H H H H H H H H H F F F F F F F F F N V V V V V V N V V V V V N N N 0 7 1 1 1 N V V V N M M B B B M M M M M M M M M d p p p p p p p p p u u u u u u u u u u y y y y y y y a y y y a a a a % $ $ $ 5 5 5 e e 5 ",
"5 5 5 5 5 5 5 5 e e 5 5 5 e e 5 9 a 9 9 a 9 y y y y y y y y u 0 0 u u q 1 1 , = 6 9 u u u m n n u u n n M M M M M M M M M M M M V M M M M N N N N N N N N N N N N N N V A A V N N F F F F F j 8 8 8 j A A A A H H H A A A A A A A S S S S S G G S S S G S S S G  . .G G  . .S  . .D  . . . . .} [ } } } [ [ } | } S S L L | o.| | | | | | | e.8.8.8.8.8.o.o.6.e.6.6.6.6.e.e.e.e.e.e.e.e.;.e.e.e.e.r.r.r.r.e.p.p.p.p.p.p.p.y.p.y.y.M.y.[ [ =.*.r.y.y.y.y.d.d.d.F.F.F.F.F.U.U.U.U.Y.U.Y.[.R.}.}.}.}.}.}.}.}.}.}.}.}.yXfXfXsXbXDXHXHXDXbXgXdX~.a.a.g.f.l.U.Y.j.f.f.f.Y.Y.Y.U.Y.Y.U.U.Y.U.P.P.F.F.F.F.F.F.F.F.F.M.i.i.i.y.M.y.y.y.y.y.y.y.p.r.r.p.r.e.r.;.e.e.e.e.e.r.e.e.e.e.e.e.| L h h v 6.e.6.-.6.6.8.8.8.8.8.8.5.5.| o.| | | | 5.5.5.5.5.| | | | | 5.5.5.| | } 4.4.} } 4.4.} 4.} } } 4.4.4.4.4.} } z z g k D J J J J J J J J D G H H H H H G H H H G H H H H H A H F F F F F F V V F N V V V V V N N V V V V N N N N 0 1 1 1 1 N V V N M M M B B B M M M B M M M M s d p p p s p s p p u u u u u u u u u y y y y y y y y y a y y y a a a a % $ $ O 5 5 e e e 5 ",
"5 5 5 5 5 e 5 5 e e e 5 5 5 9 a a a a 9 a 9 y y y y y y y u u y u u u q 5 5 < + 1 9 u n u u s u u n u n n M M m M M M M M M M M M N N N N N N N N N N N N N N N N N N N N A A A V A A A F F j 8 8 8 0 A A A A A H A A A A A A A S S S G S S G G G G S S S S S S  .G G G  . . . . . . .J } } } } } }  .} } } } } [ ^ S c k | *.| | | | | 6.8.8.8.6.e.8.8.8.6.6.6.6.e.e.e.e.e.e.e.e.e.e.e.e.e.e.e.e.e.e.r.r.r.r.r.r.p.p.p.p.p.y.p.y.y.r.[ [ [ *.r.r.r.y.y.y.y.d.d.d.F.F.F.F.P.U.U.U.U.U.U.Y.Y.[.}.}.}.}.}.}.}.}.}.}.}.+XaXlXdXdXbXbXdXdXkX$X! a.g.a.f.f.U.Y.j.f.f.t.Y.U.Y.U.Y.U.U.P.P.F.F.F.F.F.F.F.F.M.F.F.i.i.i.y.y.y.y.y.y.y.y.y.p.p.p.p.p.e.p.r.e.e.e.e.e.e.6.;.e.e.e.e.e.e.{ h h U v e.-.6.e.e.8.e.e.e.e.8.*.o.| | | | 5.5.5.5.5.| | 5.| | } 5.5.5.| 4.} 5.5.} } 4.4.4.4.} } 4.4.4.4.4.4.} 4.} } z k g j G J J J J J J J H H H H H H H G H H H H A A H H H A H F F F F F F V F F F A V V V V V V V N N N N N N V V 0 1 1 1 7 N V M N M M B M M M M M M M M M M M M m m p p p p u p p u u u u u u y u u u y y y y y y y y a a y y a a a e % $ O O 5 e e e 5 5 ",
"5 5 5 5 3 3 5 5 5 e 5 5 5 5 9 a a a a a a a y y y y y y y y u u u u u 9 5 5 < + 6 9 u u u u u s p u n n n M M M M M M M M M M M N N N N N M N N N N N N N N N N N N N N N N A A V N N F F H j 8 8 8 0 A A A A A A A A A A A A A A S S S S S G G G G S S S S S G J G G G  . . . . . . .} } } } } } }  . .} } } }  .S S c z | | | 5.| | | 5.5.5.| e.8.8.8.8.e.6.6.6.6.6.6.e.e.e.e.e.e.e.e.e.e.e.e.e.e.e.e.e.e.e.e.e.r.p.p.p.p.p.p.p.y.p.[ [ [ =.e.r.r.r.r.y.y.y.i.i.d.d.F.F.F.F.F.U.U.U.U.U.U.Y.Y.Y.Y.[.[.}.}.}.}.}.[.}.}.rXhXfXfXfXfXhX.X! a.a.a.a.f.f.j.U.d.f.f.t.U.U.U.U.U.P.P.P.P.F.F.F.F.F.F.d.d.d.M.i.i.i.i.y.y.y.y.y.y.p.p.p.p.p.p.p.p.r.r.r.r.;.e.e.6.6.6.e.e.e.e.e.-.e.[ h h U v 6.-.6.6.e.e.e.8.| 5.5.| | | | | 5.5.5.5.5.5.| | | | 5.5.5.| | 4.} } } } } } } 4.} } } } 4.4.4.4.} } } } } } c k g g D J J J J J J H H G G H H H G H H H H H H H H H H H F F F F F F F V F A A V V V V V V V V V N N N N N V B 0 1 1 1 1 V V N M M M M M M M M M M M M M M M M m m p p s s p p u u u u u u u u y u y y y y y y y y y y a y a y a a e % O O $ 5 e 5 5 5 5 ",
"5 5 5 5 5 5 5 5 5 5 5 5 5 9 9 9 a 5 a a a 9 y y y y y y y y y u u u u q 6 q 6 + 6 q 0 u u n u s n n n n n n n M M M M M M M M M M M M M M M M M N N N N N N N N N N N N N N A A V V A A V N j 8 8 8 j A A A A A A A H A A A A A A A S S S S G S G G G G S S S S G G G  .G G  . . . . . . .} } } }  . . .[ } } }  .S S c z | | | 8.8.| | | | | | | | 8.8.*.8.e.e.6.6.6.6.6.6.6.e.e.6.e.e.e.e.e.e.e.e.e.e.e.e.e.e.e.e.r.p.r.p.p.p.r.r.r.[ [ [ [ :.:.r.r.r.t.u.y.y.y.d.d.d.d.d.F.F.F.F.U.U.U.U.U.U.U.U.Y.Y.Y.Y.[.Y.Y.R.[.Y.U.[.qXuXyXqX[.s.a.a.a.a.s.s.s.d.U.d.f.t.t.U.U.U.U.P.F.F.F.F.F.F.F.F.d.d.d.d.i.i.i.i.y.i.y.y.y.y.p.p.y.p.p.p.p.e.e.p.e.e.e.e.;.;.;.e.e.e.e.-.-.-.o.o.6.[ U h U v e.-.8.8.e.e.8.8.5.| | | | | | | 5.5.5.5.5.| | | | | | 5.| | | | } } } } 4.4.4.4.4.4.} } 4.4.} } } } } } } } z g g g H J J J G G H H H G H H H H H H H H H H H H H H H F F F F F F F F F F A V V V V N V V V V N N N N V V V N 0 7 1 1 1 M V M M M M M M B M M M M M M M M M m p p p p p u p u u u u u u u u y y u y y y y y a a y a y a y a y a a e % + $ $ 5 5 5 5 5 5 ",
"5 5 5 5 5 5 5 5 5 5 5 5 5 9 9 9 9 5 a 9 9 9 9 y a y y y y y y u u u u 5 6 q 6 = 6 9 9 u s u u u n n n n n n n M M M M M M M M M M M M M M M M N N N N N N N N N N N V N N N N N V V N V V N j 8 8 8 j A A A A A A A A H A A A A A A A S A A S S G G G G G S S S S G G G G  .G G  . . . .G G } }  . . . . .} } }  .S S c h | | | | 8.| | | | | | | | | | | 8.e.e.8.8.e.6.6.6.e.6.e.6.6.6.e.e.e.e.e.e.e.e.e.e.e.e.e.e.e.e.r.p.p.p.p.p.e.^ [ [ [ :.:.e.r.t.r.t.r.y.y.y.y.d.d.d.d.F.F.F.F.F.U.U.U.U.U.U.U.U.U.U.Y.U.U.Y.Y.Y.Y.U.U.U.U.U.U.Y.U.f.s.s.f.f.d.F.F.f.t.t.>.P.U.P.P.P.P.F.F.F.F.F.d.d.d.d.M.i.i.i.i.y.y.i.p.p.p.p.p.p.y.p.r.p.p.e.e.e.e.e.e.e.;.;.;.e.e.e.e.e.e.-.-.6.6. .U h U c e.8.8.5.8.| | | | | | 5.5.5.5.5.5.5.5.| 5.| | | | | 5.4.| | | } } } } } 5.4.4.4.4.} } } 4.} } } } } } } } } z g g g G J J J J H H H H G H H G H H H H H H H H H H H F F F F F F F F F N A V V V V V V V V N N N N N V V V N M 9 7 1 1 7 M V N M M M M M B M M M M M M s M M m p p p p p p u u u u u u u u y y y u y y y y y a a a a a a a a a a e e * O O $ 5 5 5 5 5 5 ",
"5 5 5 5 5 5 5 5 5 5 5 5 5 5 5 5 9 5 9 9 9 9 9 a a y y y y y y y y u 9 5 6 5 6 = 6 q 9 u u p m n s M u u n n n n M M M M M M M M M M M M M M M N N N N N N N N N N N N N N N N N A N V V V z 0 7 7 8 0 A A A A A A A A A A A A A A A A A A S S S S S G G G S S S S S S S G G G G G  .G  . . . . .}  .} }  . .[ [ S S S h c | | 5.| | | | | | | | 5.| | | 5.| e.e.8.8.e.-.-.6.6.6.6.e.e.e.6.e.e.e.e.e.e.e.e.e.e.e.e.e.e.e.r.r.p.p.p.p.-.v ^ ^  .;.;.e.e.e.r.r.t.r.t.y.y.y.y.d.d.d.d.d.F.F.F.F.U.U.P.U.U.U.U.U.U.U.U.U.U.U.U.U.Y.U.U.U.U.U.P.U.U.j.d.F.F.F.F.u.t.>.>.F.P.P.F.F.F.F.F.d.d.d.i.i.i.i.i.i.y.y.y.y.y.y.p.p.p.p.p.p.p.p.r.r.e.e.e.e.e.e.e.e.e.e.;.-.e.e.-.-.-.6.6.o.e.v U h U v e.*.8.8.5.| | | | | | | 5.5.5.5.5.5.| | | | 5.5.| | } } | } } 4.4.} } } 4.4.4.4.4.4.4.4.4.} } } } } } } 4.} z g g g A J G G J H H H G H H G G H H H H H H H H H H F H H F F F A F A N V V V V V V N V V N N N N N N N M N N M 9 1 1 1 1 M N N M M M M M M M M M M M M p s u p p p p p p p u u u u u u u u y y u y y y y y y y a a a a a a a a e e e * O O $ 5 5 5 5 5 5 ",
"5 5 5 5 5 5 5 e 3 5 5 5 5 5 5 5 a 9 a a 9 9 a a y y y y y y y y u u q 6 1 6 3 + 6 9 q 9 u u u u u u u n n n n M M M M M M M M n M M M M M M N M M N N N N N N N N N N N V V N N N N A A M M 8 8 7 8 0 A A A A A A A A A A A A A A A A A A A S S S S S G G G S S S S S S G G G G G G G  .G  . . . . .} }  .} }  .S S S h c | 5.5.| | | | | | | | | | | | | | 5.5.5.8.e.e.e.e.5.5.6.6.e.e.6.6.6.6.e.e.e.e.e.e.e.e.e.e.e.e.e.e.e.e.e.p.*.v v v [ -.-.-.e.e.e.e.r.r.t.t.y.y.y.y.f.d.d.d.d.d.F.F.F.F.P.P.P.P.P.P.U.U.U.U.U.U.U.U.U.U.P.U.F.F.F.F.F.P.F.F.F.d.F.u.w.>.>.F.F.F.F.F.d.d.d.d.i.i.i.i.y.y.y.y.y.y.y.y.y.p.p.p.p.p.e.e.r.e.e.e.e.e.e.e.e.e.e.e.-.-.-.-.-.-.-.6.6.6.o.o.e.v U h U v e.*.8.| | | | | | | 5.5.5.5.5.5.| | | | } | | 5.4.} } } 4.4.} } } } } } 4.4.4.} 4.4.4.} } } } } } } } } J 4.z g g g A J G H H H H H H H G H H G H H H H H H H H F F F H F F F F F F N N V V V V V N N N N N N N V V N V N M 0 9 1 1 1 7 M M M M M M M M M M M M M M s s s p p p p p p p u u u u u u y u u y y u y y y y y y a a y a a a r a a e e e % $ O O 2 5 5 5 5 5 ",
"2 5 5 5 5 4 4 5 3 5 3 5 5 5 5 5 9 9 9 a 9 9 y y 9 9 y y y y y y y 9 1 6 1 1 5 = < 9 9 q q q 9 9 9 9 0 0 0 0 u u u n n M M M M M M M M M M M M M M M M M M M M N N N N N N N N N N N N n M j 8 7 7 8 0 N A A A A A A A A A A A A H A A A A A A S S S S S G G G G G G S S S S S S G G G G G  . . . .S  .} } }  .S S S c h h } 5.| | | | | | | | | | | | | 5.5.| | | | 8.8.e.5.| | 5.6.6.e.e.e.6.6.-.6.e.e.e.e.e.e.e.e.e.e.e.e.e.e.p.p.[ v v v [ -.-.-.:.e.:.e.e.e.r.y.t.y.y.y.y.y.y.d.d.d.d.d.F.F.d.P.P.P.P.P.P.U.U.U.P.U.F.F.F.F.P.P.F.F.F.F.F.F.d.d.d.d.d.t.>.=.=.d.d.F.d.d.d.d.i.i.i.i.i.y.y.y.y.y.y.y.y.p.p.e.r.e.e.p.r.e.e.e.e.e.e.e.e.e.e.;.-.-.-.-.6.6.6.6.o.o.| o.| | o.c h h h v e.| 5.| | | | | | 5.5.5.5.5.5.5.| | | | | | 5.4.4.4.} 4.4.4.4.4.} } } } 4.} } } } } } } } } J J } } } } } J g g g j z A H J H H H H H G H H H H H H H H H H H F F F H H F F F A F F N V V V V N N N N N N N N N V V M M M 0 9 9 1 1 1 6 M M M M M M M M M M M M M s s s M p p p p p p p u u u u u u u u u u u y y y y y y y y y a a a a a a a e a 5 $ $ $ O & e 5 5 5 3 ",
"% % % % % % % % 2 2 , , 4 2 2 4 3 3 3 5 5 5 5 5 9 9 9 9 9 a 9 9 5 6 6 1 < 6 3 < < q 9 9 9 q 9 9 9 9 0 9 9 9 0 9 0 0 0 0 0 0 0 0 0 n n n n n l l n 0 0 u n n n M n n n n n n n M M j j j M j 7 7 8 7 8 N A A A A A A A A A A A H H H A A A A A A S S S S S G G G G G G S S S S  .G G G G  . . . .G G } }  .D S S S k k h h c 5.5.5.5.5.| 8.8.8.8.8.8.8.5.5.5.5.5.5.5.8.8.e.e.e.e.e.e.e.e.e.6.6.6.e.e.e.e.e.e.e.e.e.e.e.e.e.e.e.e.e.e.v v D D D -.-.-.-.-.;.;.e.e.e.r.r.t.t.y.r.y.y.i.i.d.d.d.d.d.d.d.F.F.F.F.F.P.F.P.P.F.F.F.F.F.F.F.F.F.d.d.d.d.d.i.d.d.d.t.=.*.=.d.d.d.i.i.i.y.i.i.i.y.y.y.y.i.y.y.y.y.p.r.r.r.e.e.e.r.e.e.e.e.e.e.;.e.e.e.e.o.6.6.o.o.6.o.o.o.o.o.| 6.| | | L h h h c 6.| | | *.8.8.5.5.5.5.5.8.| 5.5.5.5.5.5.5.5.8.8.5.5.5.5.4.4.4.5.4.4.} 4.4.4.4.4.4.} } } 4.4.4.} 4.4.} 4.4.A g g g g k z A G H H H H H H H H H G G H H H H H H H H H H F F F A F A F V F F V N N V N N M M M M M M n 0 0 0 9 0 q 1 1 1 6 9 M V N M B M M M M M M M M M B m m p p s p p p u p p p u u u u s u u y y u u y y y y y y y a y y a a e a 2 O O $ O % e 5 5 5 3 ",
"% % % % % % % % % % % % % % % % % % % % % % , , < , , , , , , , , 2 < < = , < = = 6 6 1 5 5 1 1 1 1 1 7 7 7 q 5 q q 7 q 7 9 7 9 9 9 9 9 9 9 8 8 0 0 8 0 0 0 0 0 0 0 0 0 0 0 0 0 0 0 j 0 0 7 7 7 7 7 8 j N N N N N N A A N N A A A A A A A A A A A A A A A A A S A A S S A S S S S S S S S S S S S S S S A A S c c g g h h h c S S D D  . .[  . . . . . . . . .[  .[  . .[ } } [ [ [ [ [ [ [ { { { | | | | | | | | | | | | | | |  .v v v v v v ^ { -.-.-.-.;.-.e.e.e.e.e.t.t.y.t.t.y.y.i.i.i.i.d.f.d.d.d.F.d.F.F.F.F.F.F.d.d.d.d.d.d.d.d.d.d.d.d.d.d.y.y.y.*.*.=.=.u.d.i.i.M.i.i.i.i.i.i.i.y.y.y.i.i.y.y.t.p.p.p.e.e.p.p.r.e.e.p.e.e.e.e.e.e.e.6.6.6.e.o.6.6.o.o.o.6.o.o.| o.[ h h h h h S | | | | | | | | | }  .D S S S D D  .D S S D D S S S D S S S S S A A A A A A A A S A G A H H H H H H H H l 8 g g g g k j k z z N N N N N N N V V N N N N N N N N N N N N M N N N n M M j M 0 0 0 0 0 0 0 7 7 0 9 9 9 9 9 9 7 1 6 1 1 1 6 7 0 0 0 0 0 u 0 0 0 0 9 9 y 9 9 9 9 9 9 9 9 9 9 5 9 9 5 q 5 9 5 5 5 5 5 5 5 5 5 5 3 3 3 5 3 3 3 3 3 4 % O O O $ O + 4 4 5 2 3 ",
"X O O O O O O O O O O O O O O O $ O O O O + + + + + + + + + + + + + + + + + + @ = = = = = , < - < < < - 6 6 < < < 6 6 6 6 6 6 6 6 6 6 1 7 1 1 1 1 ; ; ; 1 1 1 7 7 7 7 7 7 7 7 7 7 7 7 7 7 7 7 8 8 7 7 7 8 8 8 8 8 8 8 8 8 8 8 8 8 8 8 8 g g g g g g g g g g g g g j j j g g g g g g g g g g g k g g k k k k k k k g g g k k k h k k k k k k h h h h h h h h k k k k h h L L L h L L L L L L L L L L L L L L L L L L L L L L L L L v v b v v v v v D ^ ^ ^ ^ [ [ [ [ [ [ [ =.=.=.=.*.=.=.=.=.=.=.=.>.=.=.>.>.>.>.t.w.>.>.>.w.>.>.>.>.>.>.>.>.>.*.*.*.*.*.*.=.=.=.=.=.*.*.*.*.*.*.*.*.*.*.*.*.*.| *.*.| } { [ [ { [ [ [ [ [ [ [  .[ [ [ [  . . .^  .^ [ ^ v ^ v v v v v v v v L U h h h g U g k k g k k g g g g g g g > > > > > > > > 8 8 8 > > 8 8 8 8 > > > > 8 8 8 8 8 > > > > > > > 8 8 8 8 8 g g g g g g g g g g 8 8 8 8 8 8 8 8 8 8 8 8 8 7 8 8 7 7 7 7 7 8 7 7 7 7 7 7 7 7 7 7 7 7 7 7 7 7 7 7 7 7 7 7 1 1 1 1 1 = - 6 1 1 6 6 6 6 6 < - = < < < < < , < < = = < = = = = = = , + + = + + + + % % + + + + + % % + + O O + + O O O O O $ $ $ $ O O O O $ O O ",
"X X X X O O O O O O O O O X O O O O O O O O O O O O O O + + + + O + + + + + + + = = + + + + @ = = = = = = , = = , < < = - - - - 6 1 6 6 1 1 1 7 1 1 1 1 1 1 7 7 7 7 7 7 7 7 7 7 7 7 7 7 7 7 7 7 7 7 7 7 7 7 7 8 7 8 8 8 8 8 8 8 g 8 g 8 8 8 8 8 8 8 8 8 8 8 8 8 8 g g 8 8 8 g g g g g g g g k k g k z z z z k g g k k z g g k g k g g k k k h h h k c c c h h h h L L k h h h h h h h h h h h L L L L L L L L L L L L L v b v b b b b v v v v v v v D D D D D D D D D D [ D [ =.=.[ =.=.*.=.=.=.=.=.=.=.=.=.*.=.=.=.=.=.>.>.>.=.=.=.=.*.*.*.*.*.=.=.*.*.=.=.*.*.=.=.[ [ [ D D D D D D D D D D D D D D v D v b b v c c c c c v L L L L L h h h h h h h h h h h h h h h h k h h g h h g g g g g g g g g g g g g g g g g g g g g g g 8 g g 8 8 8 8 8 8 8 8 g 8 8 8 8 8 8 8 8 8 8 8 > 8 8 8 7 8 8 g j g g g g g 8 8 8 8 8 8 8 8 8 8 8 8 8 8 8 8 8 8 8 8 7 8 7 7 7 7 7 7 7 7 7 7 7 7 7 7 7 7 7 7 7 7 7 1 7 7 7 1 1 1 1 6 - - - = - 1 1 6 6 < 6 6 6 6 6 6 6 6 < < < < < < < , < , , , % = = % = = + + * % % % + % + + % % % + % + % + + + O O $ $ O O O O O O O O O X ",
"O O O O O O O X O O O O O $ O + + + + + + % + + + + + + + + + = % 4 , < < 6 < , < < < = , < < < < < < < 6 6 < < 6 6 6 6 6 6 6 1 1 1 1 6 1 1 1 1 1 1 1 1 1 1 7 7 7 7 7 7 7 7 7 7 7 7 7 8 7 8 8 8 8 8 8 8 8 8 8 8 0 j j j j j j j j j j z z z j l j j 8 8 8 8 8 8 g z z z g z z z z c c c c z c c c c c c c A c c c c c c c z k k g k z c c c c c c c c c v v c c v v c c c c L h h h h h k k c v v v v v v v v v v L L L b v v v v v v v v v v S D D D D [ [ [ [ [ [ [ [ [ [ [ =.=.*.=.=.=.=.=.=.=.=.=.=.=.=.=.=.=.=.*.*.*.*.*.=.*.*.*.=.=.*.=.*.=.*.*.*.*.=.=.=.[ =.[ [ [ [ [ [ [ [ [ [ [ [ [ [ [ D D D [ D v v v v v v b v b k h h h h h h h h h h k h h h h k h h h h k k g h g h g g g g g g g g g g g g g g g g g g g g g g g g 8 g g 8 8 8 8 8 8 > 8 8 g g g g g g g g g g g g g g g g g g g g g g 8 8 8 g 8 8 8 8 8 8 8 8 8 8 8 8 8 8 8 8 7 7 7 7 7 7 7 7 7 7 7 7 1 ; ; ; : : ; 1 1 1 1 1 1 1 1 1 1 1 6 6 1 6 6 6 = < - < - - - = = < < = , , = = = = = = @ @ + + + + + + + + % , % % , , < % % % % % % % , , , , , , % % % % % % % % % % % $ $ O $ $ $ $ ",
"% % % % % % + X X O O O % 2 4 , , 4 2 2 2 3 6 3 5 5 5 5 5 5 q 9 9 9 9 9 9 9 9 9 9 9 9 9 9 9 9 9 u u u u u 0 0 0 9 9 9 9 9 0 9 9 9 9 1 6 6 6 7 9 9 9 0 0 0 0 0 0 0 0 0 0 0 0 0 0 0 0 j j j j l j j l l l j l j j l l n j N N N N N N N z z z z z z z z j 8 8 8 8 k A A A A A c c c c c c c c A A c c A A A A A A A c A A A S c A c c A S S S S S S S S S S S S S S S S S v S c h h h L v v S ^ ^ S S ^ ^ ^ ^ ^ ^ ^ ^ ^ ^ ^ ^ ^ ^ S ^ ^ ^ v ^ ^ S ^ S [ D D [  .[ [ [ =.=.} [ [ =.*.=.[ *.*.*.*.*.*.=.=.=.=.=.=.=.=.=.=.=.=.=.=.=.*.=.=.=.[ =.=.=.=.=.[ [ [ [ D D D D D D D D D D D D v v v v v v v v v v v b b b b c v L b L L h h h h h h h h h U U h g U U U g g g g U U g g U U U U g g g g U U U U U > > > > U > > > > > > > 8 8 > 8 8 8 8 8 > > > > > > 8 8 > 8 8 8 8 8 g g g g 8 8 8 8 > 8 8 8 8 8 8 7 7 > 8 8 8 8 8 8 7 > 7 8 8 0 0 0 j j 0 j j 0 l 0 8 7 8 7 7 7 7 0 0 0 0 0 0 0 0 0 0 0 0 0 0 0 9 9 9 9 9 9 9 9 1 6 6 6 6 6 < < 6 < < - < , , , = = = = @ @ , , , , % + + + + = + < 3 6 3 3 3 5 5 5 3 3 3 3 3 3 3 3 3 3 3 3 3 3 4 4 2 2 2 2 2 2 2 , 2 2 ",
"2 % , , % % % % X X O X % , 4 4 3 5 5 5 5 9 9 y y y y y 9 y u u y u u y u u u s p u s n m s u u p m m m m M M n m M m m M 0 u 0 9 9 1 1 6 1 9 0 n M N N N N V V N V V V N N N N N V N V V V V V F F A H H A H H H H H H H H H H H H H H G G G G H N z N l 8 8 8 z z z A A A A A A A A A A A A A A c c c c c c c c c A A c c v A A A A S S S S S S A S S A v S S S S S S S S v k h h c  .} | | *.8.8.8.e.| | | | | | | | | | | | | | | | | | | | | | | | | | | { { { | { { | { | =.*.*.*.*.*.*.*.*.=.=.=.=.=.=.=.*.*.*.*.*.=.=.=.*.*.*.*.*.*.-.-.-.*.*.*.*.*.*.*.*.*.*.} | | | { { [ { { | } [ [  .[ [ [ [ [  . .[ v L L L L v D S S v v S S S v v v S S S v v v v v v v v v v v v c c c A c c c c c c c c c c c c c c c c c c c c c c c j g g > 8 z A A A A A A A A A A A A A H D H A A N N A A G A A H H H H G H H H H K A N N A A H H H H H H H H H H H H F 0 7 7 1 l F V V V V V V N N N V V V V V V V V V V N M M M M m M M M M m m M s n u s u u u u u u u u u u u u u u u 6 + + + + 3 3 3 9 y a y a a y y y y y 9 9 9 9 y 5 5 5 5 e e 5 5 5 5 5 5 3 3 5 4 ",
"3 3 3 3 2 % % % X X O O % 2 9 a y y y a a 9 y y a a y y y u y u y y u u u u u u p p u u u u u s u u m m m m m m M M M M B m M M 0 9 6 6 1 7 0 N N V V N N N V V V V N V V V V V V N V F V F F F F F F H H H H F H H H H H H H G H H H H H H H H J J z N z 8 8 8 k z A J J } } } J J J J } } } J J J } G D D D D S D S S S S S A A A v v A S S S  . . . .} } [  .S S S S S S S c h h S | 8.5.o.| 5.5.e.e.| 8.8.8.e.8.e.e.e.8.8.e.e.e.e.e.e.e.e.e.e.e.e.e.e.e.e.e.e.e.e.e.-.e.e.e.e.p.u.t.i.u.t.*.*.*.=.[ *.t.t.t.y.i.y.y.t.t.t.t.t.t.t.t.p.t.t.t.t.t.t.t.p.p.e.e.e.e.e.e.e.e.e.e.6.6.o.6.6.6.6.o.o.o.o.| | | | | | | c h L L S o.| o.o.o.o.| o.o.| o.| | | | | | | | | | | | | | | | | | | | | | | | | | | | } } } } } } } } } } } } } } c g g > z } } } } } } } J } } } } } } J } J J J J } } J J J J J J J J G J J J H H H H H J H H H H H H H F H F F F F F N 7 7 7 V N V N N N N N N N N N V M M N N N N N M N N M M B M m B M m M M M M M M m u u p s s s s s s u u u u u u 9 + + + = 3 9 u y y y y a a y y y a 9 9 9 9 9 5 9 5 5 5 e 5 5 5 3 5 5 5 3 3 3 3 ",
"5 3 3 3 3 2 % % O % O X , 5 a a 9 a a a a 9 9 y a y y y y y y u u u y u u u u u p p u u u u u u u u n m m m m m n n n m m m m M M 9 1 6 6 1 n N N V V N N N N V V N N N V V V N V V F V F F F F F F F F H H H H H H H H H H H S G H H H H H H H H J A z N j 8 8 z A J J J J J J J } J J J J J J J } } } } } } } } } } } } | } } } } } } } } } | | | | | | | | | | [ S A S S S c h h  .5.| | o.| 5.5.5.| | | 8.8.8.8.8.| 8.8.8.8.8.8.e.e.e.e.e.e.e.e.e.e.e.e.e.e.p.p.p.p.e.t.p.p.p.p.p.p.i.y.i.e.*.*.*.[ e.p.p.p.p.t.t.t.t.t.t.t.t.t.t.p.p.p.e.e.e.e.e.e.e.e.e.e.-.-.e.e.-.8.| o.o.o.*.*.*.*.| | | | | | | | | | | | } v k L [ | | | | | | | | | | | | | | | | | | | | | | | | } | } } } } } } } } } | | } } } } } } } J } } } } } } } } z g 8 8 c } } J J J J } J J J J J J J J J J J J J J H H J J J J J J H J H H H H H H H H H H H H F H H H H H F F F F F N 8 - 0 F V N N N N N N M N N N N N N N N N V M M M M M M M M M M m M B m m m n M u u u u u s u u u u u u u u u u u q = + % 5 y y y y y y a a y 9 a 9 9 5 9 5 5 5 5 e 5 5 3 5 3 5 e e e 5 3 3 4 4 ",
"5 3 3 3 3 3 % % O % O O 2 9 e a a a y y 9 a a a y y y y y y y y u u y y u u u u u u u u u u u u n n n n m M m m m n n M M M m M M 0 1 6 6 1 M V N V V V V N N N V V N N N V V V V V A A A F V V F F F F F H H H H H H H H H H H H H H H H H G G G H H z z l 8 8 z J J J J J J J J } } } J J J J J J } } } } } } } } } } } } } } } } } } } } } } } | | | | | | | | | } S S S S h k k  .5.| | | | | 5.5.| 5.5.| | | 5.5.8.8.8.e.e.e.e.e.8.8.e.e.e.e.e.e.8.8.e.e.e.e.e.e.p.e.e.e.e.e.p.p.p.t.t.u.e.*.=.=.[ e.p.p.t.t.t.t.e.p.p.p.p.t.t.t.e.e.e.e.e.e.e.e.e.e.e.e.e.e.e.e.-.-.*.| | *.| *.| | | | | | | | | | | | | | | |  .c h [ | | | | | | | | | | | | | | | | | | | | | | | | } | | } | } } } } } } } } } } } } } } } } } } } } J } } } c g 8 > A } J J } } } } J J J J J J J J J J J J J J J J H H H J H H H H H H H H H H H H H H H H H H H H H F F F F F F F 0 ; 0 V V N N N V N N N N M V V N N M N N V M N M M M M M B B B M M M m m M M M u u n s s s u u u u u u u u u u y 9 1 + , 9 y y y y 9 y y a y y a a 9 9 9 a a a 5 5 5 5 e e 5 5 5 5 5 3 3 5 4 4 ",
"2 3 3 3 3 3 , % O , O O 3 9 e 9 9 y y y 9 a a a y y y y y y y y y y y u u u y u u u u u u u u u u n n n p p m m m n n n M M m m M 0 7 6 6 1 n N N V V V V V N N V V V V N V N V V V V A N A F F V F F F F F H H H A H H H H H H H H H H H H H G H H H z z l 8 8 N J J J J J J J } J J } J J J } } J J J } } } } } } } } } } } } } } } } } } } } } } } | | | | | } | | } S S c g k k  .5.| | | | 5.| | | | 5.| | | | 5.5.| 5.5.5.e.e.8.8.8.8.e.e.e.e.e.e.8.8.e.e.e.e.e.e.e.e.e.e.e.p.p.p.p.t.u.e.} [ =.D e.e.e.e.e.e.e.e.e.p.p.e.e.e.e.e.e.e.e.e.e.e.e.e.e.e.e.-.-.-.*.-.*.o.| | | | | | | | | | | | | | | | | | | | | [ v h [ | | | | | | | | | | | | | | | | | | | | | | } | | | } } } } } } } } } } } } }  .} } } } } } } } J } } J } z g g > A } J J J } } J J J J J J J J J J J H J J J J J J H H H H G H H H H H H H H H H H H H H H H H F F F F F F F V V 0 ; 0 N N N N N N V N N N N V B N B M N V M M M M M M M B M B M M M m m M M M p u u n s s u u u u u u u u u u u y 9 1 + , 9 y y y y y y a y y 9 a 9 9 9 9 a e e 5 5 5 5 e e 5 5 5 5 3 3 3 4 4 4 ",
"2 3 3 3 3 3 2 % O , O O 5 5 5 5 9 9 y y 9 9 a a 9 y y y y y y y y y y u y u y y y u u u u u u u u u n m p p m m m m n n M M M m M u 7 6 6 1 n N M M N V V V N N N V V V N N N V V V V A A A N F V V F F F F F H F H H H H H H H H H H H H H H H H H H z z j 8 8 N H J H J J J J J } J J J J } } } } J J J J } } } } } } } } } } } } } } } } } } } } } } } } | | | } | | S S c k k k  .5.| 8.5.5.5.| | | | | | | | | 5.5.| | | | | | 5.8.8.8.8.8.e.e.e.e.8.8.8.e.8.8.e.e.e.e.p.p.e.e.p.p.p.p.t.e.[ [ [ D e.e.e.e.e.e.e.e.e.e.e.e.e.e.e.e.e.e.e.-.e.e.e.-.-.-.-.*.-.-.*.*.| *.| | | | | | | | | | | | | | | | | | | | }  .S h [ | | | | | | | | | | | | | | | | | | | | | | } } } } } } } } } } } } } } } } } } } } } } } } } J } } J J  .z g g > A } J J J J J J J J J J J J J H J J J J J J J J H H H H H H H H H H H H H H H F H H H H H H F F F F F F F F A V j ; 0 N N N N N N N N N N N N B M N N M M M M M M M M M M M M M M m p s s s p p p p n s u u u u u u u u u u u y y 9 1 + , 9 y y a a y y y y y 9 a a 9 9 9 5 e 5 5 5 e 5 e 5 5 5 5 3 3 3 3 5 4 4 ",
"2 5 3 3 3 3 2 % O % O O 5 5 5 9 5 5 y 9 9 9 a a 9 y y y y y y y y y u u y u y u y u u u u u u u u u u m p p m n m m m n n n M M m u 1 6 6 1 u V M M M M V V V N N N V V V N N N V V V V A A V V V V F F F H F F H H H H H H H H H H H H H H H H H G H z z j 8 8 N H J J J J J J J J J } J J J } } } J J J J J } } } } } } } } } } } } } } } } } } } } } } } } } | } } |  .S c g k h  .5.| *.5.5.5.| | 5.5.| | | | | 5.5.| | | | | | | | 5.8.| 8.8.e.e.e.8.8.8.e.8.8.e.e.e.e.e.e.e.e.p.e.e.e.e.e.[ [ [ D *.e.e.e.e.e.-.-.e.e.e.e.e.e.e.e.e.e.-.-.-.-.-.-.*.*.8.| | | *.| | | | | | | | | | | | | | | | | | | | | | | }  .S h  .| | | | | | | | | | | | | | | | | | } | | } } } } } } } } } } } } } } } } } } } } } } } } J G G J J G D J c g g > A } J J J J J J J J J J J J H G J J J J J J J J H H H H H H H H H H H H H H H H H H H H H F F F F F F F V V F V j ; 9 N N N V N N N V N N M N N N N M M N N M M M M M M M M M M M m p s s p p p p u s u u u u u u u u u u u y y y 9 1 + , 9 y y y a a a y y y y a a 9 9 9 5 5 5 5 5 e e e 5 5 5 5 3 3 3 5 5 4 4 ",
"2 2 5 3 3 3 3 % O % O O 5 5 9 9 5 5 5 a 9 a a a 9 a y a y y y y y y y y y y y u u u u u u u u u u u u m p m u n p m m m n n M M B u 1 - 6 1 p N M M N N N V V V V N N V V V V N V V V V V V V V N F F F V F F F H H H H H H H H H H H H H H H H H H H z l l 8 8 N H H H J J J J J J J J } J J } } J J J } } } } } } } } } } } } } } } } } } } } } } } } } } } } | | | | D S c g k k S | | | 5.5.5.| | 5.5.5.| 5.| | 5.| | | 5.5.| | | | | 5.| | | 5.5.8.8.8.e.e.8.e.e.e.e.e.e.e.e.e.e.e.e.e.e.e.[ [ [ D *.e.-.-.*.-.-.-.-.-.-.-.-.-.-.-.-.-.-.-.*.*.*.*.| 5.| | | | | | | | | | | | | | | | | | | | | | | | | | | | |  .S k  .| | | | | | | | | | | | | | | | } | | | | } } } } } } } } } } } } } } } } } } } } } } } } } J J } J J S J z g g > A } J J J J J J J J J J J J J J J J H J H J J H H H H H H H H H H H H H H H H F H H H H F F F F V F N F F V V N n ; 9 V N N N N N V N N N N N N N M M M M M M M M M M M M M M M m m M s M u u u s s s u u u u u u u u u u u u u u 9 5 + % 5 y y y a a y y a 5 9 a 5 9 9 9 5 5 5 5 5 e 5 5 5 5 5 3 3 3 3 5 5 5 2 ",
"2 2 5 3 3 3 3 % O % X O 3 5 9 9 5 5 9 a 9 9 a a 9 9 a y y y y y y y y y y y u u u u u u u u u u u u u m u u u u u m m m n n n M M u 1 < 6 6 M N M N V N N N V V V N N N V V V N N V V V V V V V N A F F V V F F F H H H H H H H H H H H H H H H H J H z l l 8 8 N H H J J J J H J J J J J J } J } J J J } } } } J J } } } } } } } } } } } } } } } } } } } } } } } } } | } S z g g g S 5.| | | 5.5.| | 5.5.5.5.5.5.5.5.5.5.| | 5.| | | | | 5.| | | | 5.5.8.8.8.5.5.8.8.8.8.8.e.e.8.8.8.e.e.e.e.e. . . .v | -.*.-.*.*.*.*.*.*.*.-.*.*.*.*.-.*.*.*.| | | | | | | | | | | | | | | | | | | | | | | } | | | | | | | | | | [ ^ S h  .| | | | | | } | } | | | | | | } } | | | | } } } } } } } } } } } } } } } } } } } } } } } J J  . .D J J D D S A l > N } J J J J J J J J J J J J J J J J J J H H H H H H H H H H H H H H H H H H H F H H H F F F F F V V V F F N V N M 1 7 N V N N N M N N N N N N N B M M M M M M M M M M M M M M m m M s s u u u u s s u u u u u u u u u u u y u u u q 5 + + 5 a a a a a y y a 5 9 e e 9 9 5 5 5 5 5 5 5 5 5 5 5 3 3 3 3 5 5 5 5 2 ",
"2 3 5 3 3 3 3 % % % X $ 3 5 5 5 9 a 9 9 9 9 9 a a a y y y y y y y y y y u u u u u u u u u u u u u u u u n n n u u u m m m m n n M u 1 < 6 1 M M M M N V N N M V V V N N V V V V V V V V V V V V V V A F V V F F F F H H H H G H H H H H H H H H H H H z l l 8 8 N H H H J J J J J J J J J J J } J J J J } } J J J J J J J } } } } } } } } } } } } } } } } } } } } } } } } A c g g g S 5.| | | | | | | 5.5.| 5.5.5.5.5.5.5.5.5.5.5.5.5.| | | | | | | | | 8.8.8.8.5.5.5.5.5.5.8.8.8.e.8.e.e.e.e.e.[ [  .v | 5.| *.| | | | | | o.6.| | *.*.| | 5.5.5.5.*.| | | | | | | | | | | | | | | | | | | | | | } } | } | } } | | } S S h  .| | } } | } | | } | | | | | } } } | | } } } } } } } } } } } } } } } } } } } G } } } J J  .} G D S D J G G J } A 8 N } J J J J J J J J J J J J J J J J J J H H H H H H H H H H H H H H H H H H H H H H F F F F F F F V V V N N V N N 1 7 N N N N N N N V V N N N M M M M M M M M M M M M M M M M m M M M n u n s s s u u u u u u u u u u u y y y y u q 5 + + 5 y y y y y y a a a 9 9 9 9 5 5 5 5 5 5 5 5 5 5 5 3 3 3 3 3 4 5 5 5 5 ",
"4 5 4 3 3 3 3 % % % X O 3 5 5 5 9 a a 9 9 9 9 a a a y y 9 9 y y y y y y u u u u y u u u u u u u u u u u u n n n u u p m m m m n B u 6 6 6 1 M B M M M V V N N M V V N N N N V V V V V N V V V V V V F V F F F F F F F H F F F H H H H H H H H H H H H l l l 0 8 N H G G H J J J H H H J J J J J J J J J J J J J J J J J J J J } } } } } } } } } } } } } } } } } } } } } } A A z g g S 5.| | | | | | | 5.| | | | | 5.5.5.| | 5.5.5.5.5.5.5.5.5.5.| | | | | 8.8.8.8.8.5.5.5.5.5.5.5.8.8.8.e.e.e.8.[  . .D *.| | | | *.*.| | | | | | | | | | | | | | | | | | | | | | | | | | | | } | | | | | | | | | } } } } } } } } } [ S S h S | | | | | | | } } } } } | } } } } | } } } } } } } } } } } } } } } } } } } } J J G J  .} G J J D S J J J J H G A 8 N } J J J J J J J J J J J J J J J J J H H H H H H H H H H H H H H H H H F H H H F F F F F F F F V V V N V V V N N 7 7 N N N V N N M M V V V M M N M M M M M M B M M M M M m m M M M m n n n s s u u u u u u u u u u u u u y y y u q q + + 5 y y y y y 9 a a a 9 9 9 9 5 5 5 5 5 e 5 5 5 5 5 3 3 3 3 3 5 5 5 5 5 ",
"2 3 3 5 5 3 3 % % % X O 3 5 5 5 9 5 a a a a a a 9 9 9 9 9 9 y y y y 9 y y u u y u u y u u u u u u s u u u u n n u u m m m m m m B u 6 6 < 7 m M M M M M N N N N N V V N N N N N V V N N N V V V V V V A A F F F F F F F F F H H H H H H H H H H H G G l l j j 8 A H H H H H H H J J J J J J J J J J J J } } } } J J J J J J } } } } } } } } } } } } } } } } } } } } } } } c S A k g S | | | | | 5.5.5.| 5.5.5.| | | 5.| | | | | 5.5.5.5.5.5.5.5.5.| | 5.5.5.| | 5.5.5.8.8.5.5.6.5.5.5.6.e.e.e.8.[ [ D c | | | | | | | | | | | | | | | | | | | | | | | | | | | | | | | | | | | | | | | | } } | | } } } } | | | } } | } S S k S | | } | | | | } } } } } } } } } } } } } } } } } } } } } } } } } } } } } } }  . .J J D D D J J J J J J J J G J S 8 A } J H J J J J J J J J J J J J J H H H H H J J G G H H H H H H H H H H H H H F F F F F F V V V F F V A A V N N N 7 7 V V V V V N N N M N V M M M M M B M M M M M M M M m m s s M n n p u m s u u u u u u u u y u u y y u u y y y q 5 + % 5 a y y 9 9 9 a a 9 9 9 9 5 5 5 5 5 5 e e 5 5 5 3 3 3 3 3 5 5 2 2 2 4 ",
"2 2 3 3 3 5 3 % % % X O 3 5 5 5 5 5 5 9 a a a a a a 9 9 y y y y y y y y y u u u u u y u u u u u u u u u u u u n u u m m m m m m B u 6 < < 1 m M M M M M M N N N N N V V N N N N V V V V N V V V V V V V A A F F V F F F F F F H H H H H H H H H H H H N j j 8 7 A J H H H H H G J J J H H J J J J J J J J J } } J J J J J J } } J J J } } } } } } } } } } } } } } } } } } c v A k g S | | | | | 5.5.5.| | | | | | 5.5.| | | | | | | | 5.| | 5.5.5.| | 5.5.5.| | 5.5.8.8.8.8.8.5.5.5.5.6.8.8.e.8.D D S c | | | | | | | | | | | | | | | | | | | | | | | | | | | | | | | | | | | | | | } } } } | | } } } } } } } } } | [ S S k S | | } | } } } } } } } } } } } } } } } } } } } } } } } } } } } } } } } } } } } J G G G J D J J J J J J J J G G G 8 N J J H J J J J J J J J J J J H H H H H J J H H H H H H H H H H H H H H H F F F F F F V F F V V V V V V V V V N N 7 7 V V N V V M N M M B M M M M M B B M M M M M M M M m s s s M n m m p u u u u u u u u u u u u u y y u u y y y 5 5 + % 5 y y y 9 9 9 a a 9 9 a e 9 9 5 5 5 e e e 5 3 3 3 3 3 3 5 5 5 2 2 2 2 ",
"2 2 3 5 3 3 3 % % % X O 2 5 e 5 5 5 5 9 9 9 a a a a a a y y y y y y y y y y u u y y y u u u u u u u u u u u u n u u n m u m m m M u 6 < < 7 M M M M M M M N N N M M V V N N N N N V V V N N V V V V V V V V A F F F F H F F F F H H H H H H H H H H H n j j 8 7 A J H H H H H G H H J J H H J J J J J J J J J J } } } } J } } } J J J J } } } } } } } } } } } } } } } } } c c A k g S | } } | | 5.5.| | | | | | | | | | 5.5.5.| | | | | | | | | | | | | | 5.5.5.5.5.5.5.5.5.5.5.8.8.8.5.5.5.e.| S S S b | | | | | | | | | | | | | | | | | | | | | | | | | | | | | | | | } } } } | | | | } } } } } } } } } } } } } } [ S S k S } | } } } } } } } } } } } } } } } } } } } } } } } } } } } } } } } } } J J J J D D J J J J J J J J J J G G G G A 8 z J G H J J J J J J J J J H H H H H G G H H H H H H H H H H H F H H H H H F F F F F F F F V V V V V V V V V V M N 9 7 V N N M M N N M M M M M M M M M B M M M M M M M m M M s s M u u u s u u u u u u u u u u u u u u y u u u y y q 5 + % 5 a a 9 9 9 9 a 9 9 9 9 5 5 5 5 5 5 e e 3 5 3 3 3 3 3 5 5 4 4 2 2 2 2 ",
"2 2 2 2 3 3 3 % % % X O 2 5 e 5 5 5 5 5 9 9 9 a a a a a a y y y 9 y y y y y y u y y y y u y u u u u u u u u u u u u n n u u m m B u 6 6 < q B M M M M M M M V V M M N N V N N N N N V V V N N N V V V V V V N A F F F F F F F F H H H H H H H H H H H j j j 7 8 V H H G H H H G H H H H H J H J J J J J J J J J J } } } } J } } J J J J } } } } } } } } } } } } } } } } J c c c k g S } } } } } 5.| | | | | | | 5.5.| | | | | | | 5.5.| | | | | | | | | | 5.5.| 5.5.5.5.5.5.5.5.8.8.8.5.5.5.8.| S S v c | | | | | | | | | | | | | | | | | | | | | | | | | | | | } } } } } } } } } } } } } } } } } } } } } } } }  .}  .S S k  .| } } } } } } } } } } } } } } } } } } } } } }  .} } } } } } } } } } } J J J J D D J J J J J J J J G G G S G G A 8 z J J J J J J J J J J J H H H H H G G H G G H H H H H H H H H H H H H H H F F F F F F V V V V N V V V V V V N M N 7 9 N V M M M N N M M M N M M M M M M M M M M M M m M M s s s M u u s u u u p u u u u u u u u u u u y u u u y y q q + + 5 a a 9 9 a a y 9 a 9 5 5 5 5 5 5 5 e e 3 5 3 3 3 3 3 5 5 4 2 2 2 2 2 ",
"2 2 2 2 3 3 3 % % % O O , 3 5 5 5 5 5 5 9 9 9 a a a 9 a a a a y y y y y y y y u y y u u u u y u u u u u u u u u u u u u u u u m M 9 < 6 < 9 B M M M M M M M M V M M N N V V V N N N N V V V V N V V V V V V V V F F F F F F F F F H H H H H H H H H H j j 8 7 8 N H H H H H H H H H H H J J J H H J J J J J J J J J J J } } J } J J } } } } J J J } } } } } } } } } } } J c A A k g S } } } 4.4.} | | | 5.5.5.5.5.| | | | | | | | | 5.5.5.5.5.5.| 5.| | | | | | | | | | | 5.5.5.5.8.8.5.5.5.5.} S S v c } } | } | | | | | | | | | | | | | | | | | | | | } } | | | } } } } } } } } } } } } } } } } } } } } } } } } }  .S A k [ | } } } } } } } } } } } } } } } [ } } } }  .} } } } } } } } } } J G G J J J J J J J J J J J J G G G G J G G G z 8 z J J J J J J J J J H H H H J J H H H H H H H H H H H H H H H H F F F F H F F F F F F F V F V V V V V V N N N M N 7 7 N N N M M N B M M N M M M M M M M M M M M m m M M M M M M M p p u u u u u u u u u u u u y u u y y y y y y y q q + + 5 a 9 a a a 9 9 e e e 5 5 5 5 5 5 5 5 5 3 5 3 3 3 3 3 5 5 2 2 4 4 2 2 ",
"2 2 4 2 3 3 2 % % % O O , 3 5 5 5 5 5 5 9 9 9 a 9 9 a a 9 a a a 9 y y y y y y y u y u u y u y y u u u u u u u u u u u u u u n n M 9 6 1 6 q B B B M M M M M M M M M V V N V V V V N N N V V V V V V V V V V V V F N F F V F F F F F H H H H H H H H H j 7 7 7 8 N H H H H H H H H H H H H H J J H H H H J J J J J J J J J J J } J J } } J J J J J J J } } } } } } } } } J A A A g g S } } } } } } } | | 5.5.5.4.5.| | | | | | | | | 5.| 5.5.| | 5.5.| 5.5.| 5.| | | | | | | | | 5.5.5.5.5.5.8.} S S c L } } } } } } | | | | | | | | | | | } } } | | | | } } } | | } } } } } } } } } } } } } } } } } } } } } } } } }  .S c k } | } } } } } } } } } } } } } } } } } } } } } } } } } } } } } } J J G S J J J J J J G G J J G G G G J G G G G G l 8 z J J J J J J J H H H H H J H H H H H H H H H H H H H H H H H H F F F F F F F V F F F F V V V V V V V N N N N M N 7 9 N N N N N B M M M M M M M M M M M M M M m m m M M M M M s M p u u u u u u u u u u u u y y u u y y y y y y y 9 q , + 5 9 9 a a a 9 9 5 e e 5 5 5 5 5 5 5 5 3 3 3 3 3 3 3 3 5 3 2 2 4 4 4 2 ",
"2 2 2 2 3 3 2 % % % O O , 2 e e 5 5 5 5 5 e 9 9 9 9 a a a a 9 9 9 9 9 y y y y 9 y y u u y y y u u u u u u u u u u u u u m m p m n 9 q 9 1 q B M M M M M M M M M M N N V N M M V V V N N N V V V V V V V V V V V V N N V V V F F F F F F H H H H H H H j 7 7 ; 8 z H H H H H H H H H H H H H H J H H H H J J J J J J J J J J J J J } } } J J J J J J J J } } } } } } } } J c A A g g S } 4.4.4.} } } 4.} 5.5.4.4.} } } } 5.| 5.| | | | | 5.| | | 5.5.| | | | | | | | | | 5.5.5.| | 5.5.5.5.5.8.} S D c c } | } } } } } } } } } } | | } } } } } } | | } } } | } } | } } } } } } } } } } } } } } } } } } } } [  . .[ }  .S c k } } } } } } } }  . .} } } } } } } } }  .} } } } } } } } } J J J J J S D D J J G G J G G J G G G G G G G S S G G l 7 l J J J J J H H H H H J H H H H H H H H H H H H H H H H H H H H F F F F F F F F F F F V V V V V V N N N N N N M M 1 9 V N N N M M M M M M M M M B B M M M M M m m M s s s s s s s s u u u u u u u u u u u u u u u y y y y y 9 y y 9 q , + 5 9 9 a a 9 9 9 9 5 5 5 5 5 5 e e 5 3 3 3 3 3 3 3 3 5 5 3 3 3 4 4 2 2 ",
"2 2 2 2 3 2 2 O % % O O % 2 e 3 5 5 5 5 5 e e 9 9 9 9 a a a 9 9 9 9 y y y y 9 9 y y u u y y y u u u u u u u u u n u u u m m p m u 9 q q 6 q B M M M M M M M M M B M N V M M M M V N V N N N V V N V V V V V V V N V N N V V F F F F F F F F H A H H H l 7 7 ; 8 j H H G H H G G H H H H H H H H H H H H J H H J J J J J J J J J J J } } J J J J J J J J } } J J } } } } S c c A g g S 4.4.4.4.4.4.4.4.4.} } } } } } } } 4.4.4.5.| | | | 5.| 5.5.| | | | | | | 5.5.| | | | | | | | | | | | | | } S S c c | } } } } } } } | } } } | | } } } } } } } } } } } } } } }  .} } } } } } } } } } } } } } }  . . . .} }  .} }  .S z g  .} } } } } } } } } } } } } } } } } } } }  .} } } } } G J J J J J J S D J J J G G J G G G G G G G G G G S S G S j 7 l J J J H J G H H H H H H H H H H H H H H H H H F H H H H H H H F F F F F F F V V V V V V V V V V N N N N N N M M 1 9 V N N N B M M M M M M M B B M M M M m m m M M s s s s s u s u u u u u u u u u u u u u u u u y y y y y y y y 5 q , + 5 9 9 a a 9 9 9 5 9 5 5 5 5 5 e e 5 5 3 3 3 3 3 3 3 5 5 3 3 3 4 4 2 2 ",
"2 2 2 2 3 3 , O O % X O % % 3 q 5 5 5 5 5 9 a a a a a a 9 a a a a y y y 9 y y y y y y y u u u u u u u u u u u u u u u u n n n u u q q q 6 7 M s M M M M M M M M M M M B N N N N M V N V V V V N V V V N N V V V V V A A A A F V F F F F F F F F H H F j ; 7 > 8 k F H H H H G H H H H H H H H H H H H J H J J J H H J J J J J J J J J } } } J J J J J J } } J J } } } } c c c c j g A } } } } 4.4.} 4.4.4.4.4.4.} } } } } } | | 5.4.5.5.| | } } | | 5.| | | | 5.5.| | | | | | 5.| 5.| | | | 5.} v S c c } } } } } } } } } | | } } } } } } | | | } } } } } } } } } } } } } } } } } } } } } } }  .}  . . .} } } } } }  .S z g D } [ } } } } } } } } } } } } } } } } } } } } } } G G J J J D D J J J J J J J J J G G G G G G G G G G G S S G S j 7 j J H H H H H H H H H H H H H H H H H H H H H H H H H H H F F F F F F V F V V V V V V V V V V V V V V N N V N M n 1 7 V N N N M M M M B M M M M M M M M m m m s s s s s M u u u p u u u u u u u u u u u u u u u u u y y y y y y a 5 q < + 5 9 9 a 9 9 9 9 9 5 e 5 5 5 5 5 5 3 3 3 3 3 3 3 3 3 3 2 3 2 2 2 2 2 2 ",
"5 2 2 2 3 2 % O O & O O % % 2 3 5 5 5 9 9 9 a a 9 9 a a 9 a a a a y y y 9 9 y y y y y y u u u u y u u u u u u u u u u u u s s n 0 q q 9 < 1 M M M M M M M M M M M M M M M N N N M M N N V V V V V V V V V N V V V V V A A A F A F F F F F F F F F H F j 7 ; ; 7 j N G H H G H H H H H H H H H H H H H H H J J J J J H G J J J H J J J J J J J J J J J } J J J J J J } G c c A A k g c } 4.4.} } } } 4.4.4.4.} } 4.4.4.4.4.4.4.4.} } 5.5.} } } } } 4.4.4.| } | | | | | | | | | 5.4.5.| 5.5.| 5.D c S c c } } } } } } } } } } | | } } } } } } } } } } } } } } } } } } } } } } }  .} } } } } } } [ }  . . .} } } }  . .D S c g D } } } } } } } } }  .} } } } } } } } } } } } } } J J S G D J J J G J J J J G G G G G G G G G G G G H S G H G S l 7 0 H H H H H H H H H H H H H H H H H H H H H H H F F H H H H H F F F F F V V V V V V V V V V N V N V N V V N N M s 6 9 V M M M M M M B B M M M M M M M m m m M s s s M M m p p s s u u u u u u u u u u y u u u u u u y y y y a y y 5 3 6 + 3 9 9 y 9 9 9 9 9 5 5 5 5 5 5 e 5 3 3 5 3 3 3 3 3 3 3 2 2 2 2 2 2 2 2 ",
"2 2 2 2 2 % $ O O % O O % % % 2 3 3 5 5 9 9 9 a 9 9 a a a 9 a a a 9 y y 9 9 y 9 y y y y y u y y y y u u u u u u u u u u u m n n 9 5 9 q < 6 s M M B M M M M M M M M M M M V N N N N M N V V N V N N V V V N N V V V V V V V V V F F F F F F F F F H V j 7 ; 7 7 M j A H H H H H G H H H H H H H J J J H H J H J J J J J J G J J J J J } J J J J J J } } } J J J J J A A c c c c k g c D 4.4.} } } } } } 4.4.} } } } 4.4.} } } 4.4.4.} } } } } } } } 4.4.5.4.} } } 4.} | | | | } | | | | | | 5.S v v k k } } } } } } } } } } } } } } } } } } } } } } } } } }  .} } }  . . . . . . . .} } } }  .} } }  . .} } } } } }  .S A g S } } } } } } } } } } } } } } } } } } } } } } } J J } D J J G G J J J J J J G G G G H G G G G G G S G H H A A H l 8 j J J H H G H H J J H H H H H H H H H H F F H H H H F F F F F F F F F F F V V V V V V V V N V V N N V N N N N M 0 - 1 V M M M M M B M M M M M m M M m m m M M p s s M p u s s s s p u u u u u u u u u y u y y y 0 y y y y a y y 9 5 3 2 O < 9 9 9 9 9 9 9 5 5 5 5 5 5 5 5 3 3 3 2 3 3 3 3 5 3 5 5 5 5 5 5 2 2 5 ",
"3 2 3 4 % % % O . O . X % % % , , 2 3 5 5 9 9 a y a 9 9 a a a a y y y y y y y y u y u y y u u u y y y y u u u u u u s s p u u 9 5 5 q 1 < < s M M M M M M M M M M M M M M M M M N N M M V V N N N N N V V N N N V V V V V V V V V V F F F V F F F F N j 7 7 7 7 j M M N N N H H A H H A A N N A N N N N A A A A A A H H H H J H J J G G G G G G G G S S A A A A A c z A A c c A g g c c J } 4.4.} } } } 4.4.} } } } } 4.} } } 4.} } 4.4.4.4.4.4.} } } | } 4.} } } 4.} } } } } } 4.| 5.| | 5.} A v v k k } }  .} } } } } } } } } } } } } } } }  .} } } } } } } } }  . . . . . . . . .} } } } } } J }  . . .}  .} }  .S A v g A } } } } } } } } } } } } } } } } } } } }  .J J S S J D D J D D J J J G G G G G G G G G G G G S G G H G H G G S 8 7 0 J H J J H H H H H H H H H H H H H H H H H H H F H H H F F F V F N N V F V V V V V V N V N V N N N N V V N N N 0 : - M V V m M M B M M M M M M M m m m M M M M s s M u u s s s p u u u u u u u u u y y u u y y u y y y y y y y 9 5 q < O < 3 5 5 5 9 9 5 5 5 5 5 5 5 5 5 3 3 5 3 3 3 3 3 3 3 2 2 2 2 2 , % % % ",
"$ $ $ O O + O O X . X O $ $ % % % % % % , % , 4 4 4 2 2 2 < < < 6 6 6 6 6 3 3 3 5 5 5 q 5 5 5 5 q 5 q 9 9 9 9 q q q q q 9 q q 1 6 < < < < = 1 s M B M M M M M m M M M M M M M N V M N N N V N N N N N V V V V V N V V V V V V N V V V F F F F H F M j 0 7 7 7 ; w l l l j j j l l l l l z l z l z z z z z z z z k k k k z N A A A A z z z z z z z z z z z z z z z A A c z z k g g 8 k c c A J } } 4.4.} } } } } } } 4.4.} } 4.4.4.4.4.4.4.4.4.4.5.5.5.4.4.4.4.} 4.4.5.} } } 5.8.8.5.} } } } S c S A h k } } } } } } } | | | } } | | } } } | } } } } } } } } } } } } } } } } } } } } } } } } } } } } } } } } } } } } S A A g A } } } } } } } } } } } } } } } } } } } J  .} } G J J J J J J J J J J J G G G G G G G G G G S G G G G G S A A j 8 7 7 A J H H J J H H H J J H H H H H H H H H H H H H H H H H H F F F F F F F F F F F V V V F V V V V V V V V V M M 9 - - 1 u M M M m m M M n n m M n u m p p s s n n u u u u u u u u u u u u 0 u u u y y y u u 9 y y 9 9 9 9 9 9 9 q q 5 + O % 2 2 < < 2 2 2 2 < < 2 2 , , , , , , , , % % % % % % % % % % % % % $ ",
"X X X X X O X o X . X X O O O O O O O O O O O O O O O O + O O O + + + + + + + + + + + + + = = = = = , , = , = = @ = , = , = = < % = < < < 6 < 6 6 6 6 6 6 1 1 6 6 1 1 1 1 1 1 1 1 1 7 7 7 7 7 7 7 7 7 7 7 7 7 7 7 7 7 7 7 7 7 7 7 7 7 7 7 8 7 7 8 7 7 7 7 7 7 7 ; 7 7 7 7 8 7 7 7 7 8 8 8 8 8 8 8 8 8 8 8 8 8 8 8 8 8 8 8 8 8 8 8 8 8 g 8 8 8 8 8 8 g g g g g g g g g g g 8 8 g g g g g g g g j k z z z z z z z c c z z z z z c c z z z z c c c c c c c c c c c c c c c A A A A A A c c c c c c c z h k c c c c c c c c c c c c c c c c c c c c c c c c c c c c c c c c c c A A c c c c c c c c c c c c c c c c c c g z g 8 g z k k k k z z z z z z z k k k z z k k z z z j j j k j g j g k j g l l j j j j j j g g l l l g g g 0 j 8 8 8 8 7 7 7 8 z l l l l l l l l l l j j j j j j j l l l l j j j j l l j j 0 0 0 0 0 0 0 0 0 0 0 0 0 0 0 0 0 0 0 0 0 9 7 1 6 - 6 = - 6 6 < 6 6 6 6 - - 6 6 6 < < < < < < 6 < < < < < < < = < , = = < = < = = = = = = = + + + + + + + + + + + + + + O O O O O O O O O O O O O O O O O O O O X O X X X X O O O X X X X X X X ",
"X O X O O O X O X X X X O O O O O O O O O + + + + + + + + + + + + + + + + + + + + + + + + + + + + + + + = = = = = = = = = = = = , < , < < < = < < < < < < < < < < 6 6 6 6 6 6 6 6 6 6 6 6 6 1 6 6 1 1 1 1 6 1 1 1 1 7 1 7 7 7 7 7 7 7 7 7 7 7 7 7 7 7 8 7 7 7 7 7 ; ; ; ; ; ; ; ; ; ; 7 7 7 7 7 7 7 7 7 > 7 7 > 7 8 8 8 8 > 8 8 > > 8 7 8 8 8 g 8 8 8 8 8 8 8 8 8 8 8 8 8 8 8 8 8 > 8 8 8 8 8 g 8 8 8 8 8 8 8 8 g g g g g g g g g g g g g g g g g g g g g g g g g g g g g g g g g g g g g g g g g g g g g g g g g g g g g g g g g g g g g g g g g g g g g g g g g g g g g g g g g g g g g g g g g g g g g g g g 8 g g 8 g g g g g g g g g 8 g 8 8 8 8 8 8 8 8 8 g 8 g 8 8 > 8 8 8 8 8 8 8 8 8 8 8 8 8 > > > > 8 7 7 7 7 > > > > > 8 7 7 7 7 7 7 7 > ; ; > ; ; ; ; ; ; ; ; ; > > ; : : : : ; ; ; ; ; ; ; 1 1 1 1 1 1 ; ; ; ; ; ; ; ; - - - - - - 6 6 6 6 - - 6 1 1 6 - - - - = 6 < - = = = = = = = = = = = = = = @ @ + + + + + + + + + + + + + O + + + + O + + + + + O O O O O O O O O O O O O O O O O O O O O O O O O O O O O O O O X X X X X X X .   . X X X X ",
"% % % % % % % % % % % % $ % % % % % % % % % % % % % % % % % % % , , , , , , , , , , , , , , , , , , < < 6 < < < < < < 6 < 6 6 6 6 6 6 6 6 6 1 6 6 6 6 6 6 6 6 6 6 6 6 6 6 6 6 6 6 6 6 6 6 1 6 6 1 1 1 1 1 7 7 7 7 1 1 7 9 0 0 8 7 0 0 7 7 7 7 7 8 0 0 j j 0 0 0 0 0 0 0 0 0 0 0 8 8 0 j j j j j j j l l j j j j j j 8 8 8 8 l N z N N A A A A A A A A A A A A A A A A A A A A A A A z j k k k z k k k z z z z z z z z z z z c c c c z z z z z z z z z z z z c c c c c c c c c z z z z z z z z z z z z k k h k h h h h h z z c c k h z z z z z z k k k k g g g g g g k k k k k z h k k k g g g g j j g g g g g g g g l z z z z g g g g g g g g g g g g g g g g g g g g g g g g g 8 8 8 g l z k k z z z k l l l l l l k j j j g 8 8 8 8 g j j j j j l j j l l j j j j j j j 0 0 0 0 0 0 0 0 0 0 0 0 8 7 ; 1 1 7 7 7 7 7 7 7 7 7 7 7 7 7 7 7 7 1 1 1 1 1 1 1 1 1 6 6 6 6 6 6 6 6 < 6 6 6 6 6 6 6 6 < < < < < < < < < < < < < < < < = 2 6 6 6 < < = = , , < < 6 < < 2 2 2 2 < < < < 2 2 < , , 2 2 6 2 , , , , , , , 4 % , , % % & & % % % % % % % % $ $ $ $ $ $ O $ ",
"$ $ % % % % % % % % % % % + + % + % % % % % % % % % % , , , , , , , , 2 % , , 2 , , , , 4 < , 2 2 6 < < 6 6 6 6 6 6 6 6 6 6 6 6 6 6 6 6 6 6 6 5 5 5 5 1 1 1 6 1 1 1 1 1 1 1 1 1 7 1 1 1 1 1 7 1 6 1 6 9 0 j j 0 0 0 0 j n n M n M n n n n n j M M M M M j l l l z z M N N M M M N N N N N N N N j j j l z z z N l l z 0 7 l H H H H G G H A A A A A A A A A A A A A A A A A A A A A z z z z z z z z z z c c c c c c c c c c c c c c c c c c c c c c c c c c z c c c c c c c c c c c c c c c c c c c c c c c c c c c c c c c c c c c c c c c A c c c c c z z g > 8 c D S S S S S S S S S S D S S S S S S S S S S J J } } } } J D S S A A S S S S S S S S A A A S A A A A A A A A z 8 8 k A A A A A A A A A A A A A A A A A A A A N N N N N N N N N N N N N N N N N N N N N N N N N N N z z z n n k l 0 - 1 ; 0 M M M M M M M M M M M M M n n n n n n j n n M M 0 0 u u u u u u u 0 0 0 0 0 0 0 0 u 0 0 0 0 0 0 0 9 0 9 5 < < < < 9 u u u u u u y y y y u u y 9 9 9 9 a 9 9 9 a a a a 9 5 3 3 3 3 3 3 2 3 2 2 2 2 2 2 2 2 2 2 2 2 2 2 2 2 2 % % & & & & % % % % & ",
"% $ $ $ $ % % % % % % % % % % % % % % , , , , 2 , , , , , , , , , , , , , , , , , , , 3 3 6 5 5 5 5 5 5 6 6 6 3 6 6 6 1 1 q 7 q 9 9 9 q q 9 9 9 9 9 9 9 9 q 7 1 q 1 1 1 7 q 7 7 q 5 q 9 7 1 1 7 1 6 1 s 0 j 0 0 n j n n n n n n n n M n n n M M M M M l l l l N l j l N N N N N z N N N N N N N N N N N N N N N N k l w ; N J H H H H H H H H H H H A A A A N A A z z z z z z z z z z z z z z z z z z k k z z z z z z z z z z z z c z z c z z c z z c c c c z c c A c c c c c c c c c c c c c c c c c c c c c c c c c c c c c c c c c c c c c c c c c c c z z g 8 J } } } } } } } } } } } } } 4.} } } } } } } } } } } J } } } } } } } } J } J J J J } } } } J J } } } } J J D A z g 8 z A A A A A A A A A A A A A A A A A A A N N A N N A A A N N N N N N N N N N N N N N N N N N N N N N N z z j j 0 - 6 1 M V N N N N N N N N N N N N N N M M M M M M M M M M M M M M M M M M n n n n n n M M M M M M u u u u u u s u 6 < < < y u u u y y u y u y y y y y 9 9 y y 9 9 9 a a a a 9 a a 5 5 9 5 5 5 5 5 5 5 5 3 3 3 3 3 3 3 3 3 3 5 5 5 5 2 % % X O 2 2 2 2 2 2 ",
"% % % % % % , , 2 2 2 2 2 2 2 2 2 2 3 3 3 3 3 3 3 3 3 3 3 3 3 2 , , , , < , , O + 6 q y y 9 9 a y y y 9 0 9 9 0 y y y y u u u u u u u u u u p s m m m u m n u 0 0 0 9 9 0 0 0 0 9 9 9 9 9 9 1 7 1 6 1 0 j j 0 0 j 0 0 n j j j j j j n j j j j j M M n n M n l l l l l l N N V V F H H H H F F A A N N N N N N z N z l 8 8 A H H H H H H H H H H H H H H H H J J J J G G G A A A A A A c A z z A A A A S S S S A S S A A A A S S c z z z c z 8 z z c c c c z c c c c c c c c c c z c c c z z c c c c c c c z c c z c c c c c c c c c c c c c c c c c c c c z z g 8 } } } } } } } } } } } } } } } } } } } } } } } } } } } J } } } J J J J } } } J J J } } J J } } } } J J J J J A z g 8 z A A A A A A A A A A A A A A A A A N N N A A A A A N N N N N N N N N N N N N N N N N N N N N N z z z z z N N 0 - - 1 M N N N N N N N N N M M M M M M M M M M M M M M M M M M M M M M n n n n n n n p p p m p p u u u u u u u 0 u 6 < , 5 u u u u u u u y y y y y y y 9 9 y 9 9 9 a 9 a 9 9 9 a 5 5 5 5 5 5 5 5 5 5 5 3 3 5 3 3 3 5 3 3 3 5 5 3 2 2 4 % .   X 2 2 2 2 2 2 ",
"2 2 2 2 2 2 2 2 2 2 2 2 2 2 2 2 2 2 3 3 3 3 2 3 3 3 3 3 3 3 3 3 3 , , , = , , O + 9 a 9 9 9 9 9 y y y y y 0 9 9 y y y y y y u u u u u u u u u s u u u u u u n s M M M n n n m n n M M u 9 9 1 6 1 6 1 0 n M 0 0 j 0 j 0 n n n n n n n n M M M M M N N N N M N N N N N V F F F F F F H H H H H H H H H H H F N N N z j > > A H H H H H H H H H H H H H H H H G G H H H H J J J J J J J G J J J J J J } } } } } } } } J J J J } } J c z z c k > z z z z z z c z z z z z z z z c c c A A A S S S S S S S S A A A A A S S S S S S S S S S A A A A A A c c c c z z g 8 } } } } } } } } } } } } } } } } } } } } } J J } } J } J J J } J J J J J J } } J J J J J J J J J J J J J J J A z g 8 z A A A A A A A A A A A A A A A A N N N N N N A A A A N N N N N N N N N N N N N N N N z z z z z z z N n n z M 0 6 - 1 M N N N N N N N N N M M M M M M M M M M M M M M M M M M M M M n n n n n n n p p p p p p u u u u u u u u u u 6 < + 6 u u u y u y y y y y y y y y y 9 y 9 9 9 9 9 9 9 9 9 5 5 5 5 9 5 5 5 5 5 5 3 3 3 3 3 3 3 5 3 3 5 3 4 4 4 2 2 , O . X 2 2 2 2 2 2 ",
"2 2 2 2 2 2 2 2 2 2 2 2 2 2 2 2 2 2 3 3 3 3 3 3 3 3 3 3 3 3 3 3 3 3 , , = , + X + 9 9 9 y y a 9 9 y 9 y y y y 9 0 9 y y y u u u u u u u u u u u u u u u u u m n n n n u p n n m n n M M u 9 1 6 1 1 1 0 0 u M M M M m M N N V V N N N N N V V V V V V V F F F A F F F F F F F F F F F F H H H H H H H H H F V N N N 8 ; 7 A H A H H H H H H H H H H H H H H H H H H G H H H H H H J J J J J J J J J J J J J J J J J J J J J J J J S z z c g 8 z z c c S S S S S A A A A S S S S  .} }  .} } } }  . . .} } }  .} } } } } } } } } } } } } }  . . .} } S c z z z g 8 J } } } } } } } } } } } } } } } } } } } } J J J J } } } } } } } J J J } } } } J J J J J J J J J J J J J J J A z g 8 z A A A A A A A A A A A A A A A A A A A A A A N N A A A N N N N N N N N N N N N N N N N N z z z z M M M n N N 0 - - ; M N N N N N N N M M N M M M M M M M M M M M M M M M M M M M n n n n n n n n n n n M p u u u u u u u u u u u 6 = < 6 u u u u u u y y y y y y y y a y a a 9 9 9 9 9 9 9 9 5 5 5 5 5 5 5 5 5 5 5 3 3 3 3 3 3 3 3 3 3 3 3 2 2 5 2 2 , % o X 2 2 2 2 2 2 ",
"& 2 2 2 2 2 2 2 2 2 , 2 2 2 2 2 2 2 2 3 3 3 3 3 3 3 3 5 3 3 3 3 3 5 , , % , + X % y 9 9 9 y y 9 9 9 9 y y y y y y y y y y y y u u u u u u u u u u u u u u u u n n u u u p p u u n M M n M 9 1 6 1 1 1 0 0 M M V N M M N N N N V V V V V N V V V N V V V V V V V V V V N A A A F F F H A F F H F H H H H H H A N N N 8 7 > A H H A H H H H H H H H H H H H H H H H H H J H H H H J J J J J H H J J J J J J J J J J J J J J J J J J } c z A l > z z A D J G G G  .G G } J J J J J J D S S G } } }  .G } } }  .G G } } } } } } G G } } } } G G G G } G } c c z z g g J } } } } } } } } } } } } } } J } } } J J J J J J } } } } } } J J J J } } J } } J J J J J J J } J J G H J H A z g 8 z A A A A A A A A A A A A A N A A A A A A A N N N A N N N N N N N N N N N N N N N N N z z n n n n N N n n N n 0 1 - 1 N N N N N N N N M M N N M M M M M M M M M M M M M M M M M n n n n n n n u u n n n n u u u u u u u u 0 u u u 6 < = 6 u y u y u y y y y y y 9 y y y y a 9 9 9 a 9 9 a e a 5 5 5 5 3 5 5 5 5 5 3 3 3 3 3 3 3 3 3 3 3 5 3 2 2 2 2 2 % % . X 2 2 2 2 2 2 ",
"% 2 2 2 2 2 2 2 2 , 2 2 2 2 2 2 2 2 2 2 3 3 3 3 3 3 3 3 3 3 3 3 3 3 , , , , O . % y 9 9 9 a 9 9 9 9 9 9 y y 0 0 0 0 y y y y y 0 u u u u u u u u u u u u u u u u u n u u u p m n u n n M n 0 1 1 1 1 7 0 n V M N M N B M V V N N N N N N N N V V N V V V V V V V V V V F A A A V V F F F F F F F H F H H H H A N N N 0 ; 7 A H H H H H H H G H H H H H H H H H H H H H H H H H H H H J J J J J J J J J J J J J J J J J J J J J J J J A z c j > z c D G S G G S S S S S S S S G G  .J S S D J J J J D J } } } G G G G } } } } } } G G } }  . .}  .} } } A c z z 8 8 H J } } } } } 4.} J J J J J J J J } } J J J J } J J J } J J J J J J J J J J J J J J J J J J J J J J G J J J A N j 8 z A A A A A A A A A A A N N N N N A A A A N N N N N N N N N N z N N N z N z z N z N N z M m n n n N N N N M n 0 6 - 1 N N N M N N N N M M N N M M M M M M M M M M M M M M M M n n n n n n p p p p n n u u u u u u u u u u u u u u 6 < < 6 u y u u u y y y y y 9 9 a y a 9 9 9 a 9 9 a 9 e 9 9 9 5 5 5 5 5 5 5 5 5 3 3 3 3 3 3 3 3 3 3 3 5 2 3 2 2 2 2 2 & X X 2 2 2 2 2 2 ",
"% & & 2 2 2 2 2 2 2 2 2 2 2 2 2 2 2 2 2 2 3 3 3 3 3 3 3 3 3 3 5 3 3 , , , % X X % y 5 9 9 9 9 9 9 9 9 9 9 y 0 0 0 0 0 y 9 0 y 0 u u u u u u u u u u u u m u u u u u u n u p p m n n n n m u 1 6 1 6 1 0 n M M N N N M N N N N N N N N N N N V V V V N V V V V V V V V V V V V V V V A F F F F F F F F F H H V N N N j 7 7 H H A H H H H H G H H H H H H H H H H H H H H H H H H H H H H G J G J J J J J J J J J J J J J J J J J J J z z z l 8 z A G S G G G S S S S S S S S S G G G S S S G G J J J J J J J S J G  .} } } } } } G G } } G } } J } } } S z z z 8 8 J } J } J J J J J J J J J J J J J } } J J J J J J J J J J J J J J J J J J J J J J J J J J J J J G J J J J J A N j 8 z A A A A N A A A A A N N N N N A A N N N N N N N N N N N N N N N N N z N z z z z z z N M N n n n N N M M n M 0 6 - 1 N N N M N N M M M M N N M M M M M M n M M m m M M n M M M n n n n n p p p p m m u u u u u u u u u u u u u u 6 = = 6 u u u u y y y y 9 9 9 9 a a a a 9 a 9 9 a 9 a 5 5 9 9 5 5 5 5 5 5 5 5 3 3 3 3 3 3 3 3 3 3 3 5 2 3 2 2 2 2 2 2 % X X 2 2 2 2 2 2 ",
"% % 2 2 2 2 2 2 2 2 2 2 2 2 2 2 2 2 2 2 2 3 3 3 3 3 3 3 3 3 3 3 3 3 , % % % O X % 9 9 9 9 9 a a y y 9 9 9 y y y 9 0 9 9 y y y u u u u u u u u u u u u u u u u u u u u u n n n u m n n n n j 7 1 6 6 1 0 M M M M M M M N V M M V V N N N V V V V N N N N V V V V V V V A A A A A A F F V V F F F H H F F F H A N N j j 7 7 F H H H H H H H H H H H H H H H H H G G G H H H H H H H H H H H H H J J J J J J J J J J J J J J J J J J J c z z g 8 z S G G G G G G G G G G G S S S S S S S S S S S S S G S J J J J J J J J J } } } } G G } }  .J J J J J D S z z z 8 8 J J } } } } } } J J J } } } } J J J J J J J J J J J J J J J J J J J J J J J J J J J J J J J J J J J J J H H A N l 7 z A A A A A A A A A A A A A A A N N N N N N N N N N N N N N N N N N N N N N N z z z M N M N N N N M M M M M M j - - 1 N N N N N M M M N N M M M M M M M M M M M M M M M M n n n n n n n m u n n n u u u u p u u u u u u u u u u u 6 + = 6 u u y y y y y y y y y y 9 9 9 9 a a a a 9 a a 5 5 5 9 5 5 5 5 5 5 5 5 3 3 3 3 3 3 3 3 3 3 3 2 2 2 2 2 2 2 5 , % X X 2 2 2 2 2 2 ",
"% % 2 2 2 2 2 2 2 2 2 2 2 2 2 2 2 2 2 2 2 3 3 3 3 3 3 3 3 3 3 3 3 3 , , , % X . % q 9 9 9 9 9 9 y y 9 9 9 y y y y 9 y y 0 y y y u u u u u u u u u u u u u u u u u u u u u n n u p p n n n j 7 1 1 6 1 0 M M M B N M N N N V M V N N N N V V N N N N N N N N V V V V V V A A A A A A F V V V F F F F F F H F V N N l l 8 7 V H F H H H H H H A H H H H H H H H A H G H H H H H H H H H H H H H H H H H H J J J J J J J J J G J J J J c z z g 7 z A H G G G G G G G G G G S S S G S S S S S S S S S G S G S S S S S S S S J J J J S S J J S G S S S S G S z z z 8 8 J } J } } } } J J J J J J J } J J J J J J J J J J J J J J J J J J J J G G J J J J J J J J J J J J J G H H H A z l 7 z A A A A A A N N A A A A N N N N N N N N N N N N N N N N N N N N N N N N z z n n n n M N N N M M n n M M n n j 1 - 1 N N N N M M M M M M M M M M M M M M M M M M M M n n n n n n n n u u u n n u u u u u u u u u u u u u u u u u 6 = = < u y y y y y y y y a a a 9 9 9 9 a 9 a a 9 9 5 5 5 5 5 5 5 5 5 5 5 5 3 3 3 3 3 3 3 3 3 3 3 5 2 2 2 2 2 2 2 5 , % X X 2 2 2 2 2 2 ",
"& & 2 2 2 , , 2 2 2 2 2 2 2 2 2 2 2 2 2 2 2 3 3 3 3 3 3 3 3 3 3 3 3 , , , % X . % q 5 9 9 9 9 9 a 9 9 9 9 9 y y 9 y 0 0 0 0 y y u u u u u u u u u u u u u u u u u u u u n n n n p p p m u n 7 6 1 6 7 0 M M M M M M N N M N N N N M N N N N V V N N V V N N N N V V V V V V F F A A A A V V V A A A F F F F N M N l l 8 7 N H F F H H H H H A A A H H H H H H H H G H H H H H H H H H H H H H H H H H H G G H H H H H J J J J J J J z z z g 7 z A G G G G G G G G G G G G G G G H H G G G S S S G G G G S S S S S S S S S S S S S S S S S S S S S G G A z z j 8 8 J J J J J J J J J J J J J J J J J } } J J J J J J J J J J J J J J J J J J J J J J J J J G G G H H H H G H J A z z 8 z A A A A N N N N A N N N N N N N N N N N N N N N N N N N z z z z N z n n n n z N n n n M M M n n n n n n n n j - - 7 N M N N M N M M M M M M M M M M M n M M M M M n n n n n n n p p p p s s u u u u u u u u u u u u u u u u u u 5 + + < u y y y y y 9 9 y a y y 9 9 9 9 9 9 a 9 a 5 5 9 5 5 5 5 5 5 5 5 5 5 3 3 3 3 3 3 3 3 3 3 3 5 5 5 2 2 2 2 2 2 , % X X 2 2 2 2 2 & ",
"& & 2 2 % , , 2 2 2 2 2 2 2 2 2 2 2 2 2 2 2 3 3 3 3 3 3 3 3 3 3 3 3 , % , % X X % q 5 9 9 9 9 9 9 9 9 9 9 9 y y y y 9 0 0 0 y y u u u u u u u u u u u u u u u u u u u u u n u n p p u p p n q 6 6 6 7 0 M M M M M N N N M M M N N N N N N N N V V N N V N N N N V V V V V V V V V A A A V V F F A A V F F F N j N j j 0 7 V H F F F F F H H H A H H H H H H H H H G H H H H H H H H H H H H H H H H H H G H H H H G H H H H H H H G N k z g 7 z G G G G G G G G G G G G G G G G H G G G G G G G G G G G G G G G S S S S S S S S G S S S S S S G G G G A z z j 8 8 J J J J J J J J J J J J J J J J J J J J J J J J J J J J J J J J J J J J J H H H H G G H G H H H H G H H H H A z z 7 j A A A A N N N N N N N N N N N N N N N N N N N N N N z z z z z z N M M n z n n N n M M n n M n n n n n n n j 0 ; - 7 N N N N N M M M M M M M M M M M M M M M M M n n n n n n n u p p p p s u u u u u u u u u u u u u u u u 0 u u 5 + + < u y y y y y 9 9 a a a 9 9 9 9 9 9 9 9 9 a 5 9 5 5 5 5 5 5 5 5 5 3 3 3 3 3 3 3 3 3 3 3 5 5 5 5 2 2 2 2 2 2 2 , % X X 2 2 2 2 2 2 ",
"& 2 % % & 2 2 2 2 2 2 2 2 2 2 2 2 2 2 2 2 2 3 3 2 2 2 3 3 3 3 3 3 3 , % , % O X % q 5 9 9 9 9 9 9 9 9 9 9 9 9 9 y y y 0 0 0 0 y y u u u u u u u 0 0 u u u u u u u u u u u u u u p p s s p p q 6 6 6 7 0 n M M M M M M M M M N N N N N N M N N N V V V N N N N N N N N N V V V V V V V A A A V V V A F F A F N l M j 0 0 7 V F F F F F F F F H H H H H H H H H H H H G G H H H H H H H H H H H H H H H H G H H H H H H H H H G G H H N z z 8 > N G S S S S G G G G G G G G G G G G G G G G G G G G G G G G G G G G G G G G G G G G G G S S G G G G G G A z z j 8 8 J J J J J J J J J J J J J J J J J J J J J J J J J J J J G G G G G G G H H H H G G G G G G G G G G H H G G H N z z 7 j A A N A N N N N N N N N N N N N N N N N N N N N N N N N z z z M N N n n N N N M M n n n n n n n n n j j n n 0 - - 1 M M M M M M M M M M M M M M M M M M M M n n n n u u n n u u n n u u u u u u u u u u u u u u u u u u u u u u 3 + + < u y y y y y y y y y 9 9 9 9 9 9 9 9 a 5 5 5 9 9 5 5 5 5 5 5 5 3 3 3 3 3 3 3 3 3 3 3 3 2 2 2 5 2 2 2 2 2 2 2 2 % o X 2 2 2 2 2 2 ",
"& & & & & & 2 2 2 2 2 2 2 2 2 2 2 2 2 2 2 2 2 2 3 2 2 3 3 3 3 3 3 3 , , , % O . % 9 5 9 9 9 9 9 9 9 9 9 9 9 9 9 9 y 9 9 0 0 0 y y y u u u u 0 0 u u u u u 0 u u u u u u u u u u u u s m p M q 6 6 6 7 0 n m M M M M M M M M N N M N N M M M N N N N V V N N N N N N N N N V V N V V V V V A V V V V V V A A V M N j j 0 7 N F F F F F F F F F F A A H H H H A H H H H H H H H H H H H H H H H H H H H H H H H H H H H H H H G G J H N k k 8 > N G G G H A G G A G G G G G G G G G G G G G G G G G G G G G G G G G G G G G G G G G G G G G G G G G G G A z z j 8 7 G J J J J J J J J J J J J J J J J J J J J J G G G G H H H H H G G G G H H H H H H G G G G G G H H H H H H J N N N 7 j A N N N N N N N N N N N N N N N N N N z z z N N N N z N n n M M N N n n n M n n n n n n n n n n j j j n M n 0 - = 1 M M M M M M M M M M M M M M M M M M n n n n n u n n p p n n n n u u u u u u u u u u u u u u u u u u u u y u 6 % + < u y y y 9 y y y y a 9 9 9 9 9 9 9 9 e 5 5 5 9 9 5 5 5 5 5 5 5 3 3 3 5 3 3 3 3 3 3 3 3 2 2 2 5 2 2 2 2 2 2 2 2 % . X 2 2 2 2 & 2 ",
"& & % & & & 2 2 2 2 2 2 2 2 2 2 2 2 2 2 2 2 2 2 3 3 3 3 3 3 3 3 3 3 , , , % + X % a 5 9 9 3 9 q 9 9 9 a y y 9 9 a y y y 9 0 y 9 y y y y u u 0 9 u u u u u u u u u u u u u u u u u u u n n n q 6 6 < 7 0 m m M M M M M M M M N N M M V M V V M N N N N N V V V N N N V N V V N N V V V V V V V V V F V V A A V M M j j 0 7 N F F F F F F F F F F A A F F H H H H H H H H G H H H H H H G H H H H H H H H H H H H H H H H H H H H H H z k z 8 > N G S A A A A H H A A A A H H G A S S S G G G G G G G G G G G G G G G G G G G G G G G G G G G G G G G G A z z j 8 7 G J H J J J J J J J J J J J H G G H H G H G G H H H H H H H H G G H H H H H H H H H H H H G H H H H H H H H N N j 7 j A N N N N N N N N N N N N N N N N z z z z z z z N n N N n n m m N N M M n n n n n n n n n n n n j j n n n j 7 - - 1 M M M M M M M M M M M M M M M M M n n n n n n m p p p p m n n u u u u u u u u u u u u u u u u u u u u u y u < + + 2 u y y 9 9 9 y y a 9 a a a a 9 9 9 9 5 5 5 9 5 5 5 5 5 5 5 5 3 3 3 3 3 3 3 3 3 3 3 3 3 2 2 4 2 2 2 2 2 2 2 2 , % . X 2 2 2 2 & 2 ",
"% & % % 2 & 2 2 2 2 2 2 2 2 2 2 2 2 2 2 2 2 2 2 2 3 3 3 3 3 3 3 3 3 % , % % + . % 9 5 9 9 9 5 9 9 9 9 9 a a y 9 9 y y y y y y y y y y y y u u u u u u u u u u u u u u u u u u u u u u n n u 7 6 6 < 1 0 p B M m M M M M M M M M M M M M V N N M N N N N N N N V N N V V V V V V N V V V V V V V V V V V V A V l M l j 7 7 V V F F F F F F F F F F F F F F A H H H H A A H H H H H H H H G G H H H H H H H H H G H H H H H H H H H J z j k 7 > A A A A G A A A A A A A A H H G G G G S S A A A S S G G G G G G G G G G G G G G S G G G G G G G G S S G A z k j 8 7 G G H J J J H G G H H H H H H G H H H H H G G H H H H H H H H H H H H H H H H H H H H H H H H H H H H H H H V M j ; j N N N N N N N N N N N N z z N z z z z z z z z z n n N N n n m M M M M M n n n n n n n n n n n n n j n n j 0 6 - < 1 M M M M M M M M M M M M M M M n n n u u n n n p p s p m m u u u u u u u u u u u u u u u u u u u u y u u y u 2 + + < y y y 9 9 9 y 9 9 9 a a a a 9 a 9 5 5 5 5 5 5 e 5 5 5 5 5 3 3 3 5 3 3 3 3 3 3 3 3 3 3 2 2 2 2 2 2 2 2 2 2 2 , % . X 2 2 2 & 2 & ",
"2 & & , 2 & & 2 & 2 2 2 2 2 2 2 2 2 2 2 2 2 2 2 2 2 3 3 3 3 3 3 3 3 % , , % + . % 9 3 3 9 9 9 9 9 9 9 9 9 a 9 9 9 a a y y y y y 9 y y y y y 0 u u u u u u u u u u u u u u u u u u u n u u n 7 6 6 6 7 0 M M m M m M M M M M M M M M M M N N N N V N N N N V V N V V V N N N N N N N N N V V V V V V V F V F V l M l j 7 7 N F F V F F F F F V F F F F F F A F F H H H H H H A H F H H H H H H H H H H H H H H H H H H H H H H H H H V l k 8 > N A G H A A A A A A A A A A A S S S S S G H H H H H H H H H G S S S S S S S S G S S S S S S S S S H H G A z l j 8 7 H H H H G H H H H J H G G G H H H G G G H H H H H H H H G H H H H H H H H H H H H H H H H H H H H H H H H H N n 8 ; j A N N N N N N N N z N N z z N N N N N N N N N M n n N N l M M M M n n n n n n n n n n l j n n j n n n n n 0 - - = 6 M M M M M M M M M M M M M M M n n n n m n n n n n m M u u u u u u u u u u u u u u u u u u u u u u y y y y y < + + < u y 9 9 a a a a 9 9 9 9 a a a 9 9 9 9 9 5 5 5 5 5 5 5 5 5 3 5 3 3 3 3 3 3 3 3 3 5 5 5 3 2 2 2 2 2 2 2 2 2 2 , % . X 2 2 2 & 2 & ",
", & & & & , 2 2 2 2 2 2 2 2 2 2 2 2 2 2 2 2 2 2 2 2 3 3 3 3 3 3 3 3 % % , % + . , 5 5 3 3 9 9 9 9 9 9 9 9 9 9 9 9 a y y y y y y y y y y y y y 0 u u u u u u u u u u u u u u u u u u u u u n 7 6 6 < 1 9 p M m M M m m M M M M M M M M M M M N N N V N N N N V V N N N N V V N N N N N N V N V V N V V V V F V M M 0 j 7 1 N V F A A N F F F F F F F F F F F F F F F F H H A H A H H H H H H H H H H H H H H H H H H H H H H G G H H V j k 8 ; N H A H H H G G A A A A A A A G G G S S S A A A A H H H H H H G G G G H H G H G G H H H H H H G G G H H A z l j 8 7 G H H G G G G H H H H G H H H H H H H H H H H H H H H H H H H H H H H H H H H H H H H H H H H H H H H H H H N j 7 > 8 N N N N N N N z z N N N z z N z z N N N N N M M n n M M M M M M n n n n n n n n n n j j j j n n n n n n n 0 = < = 1 N M M M M M M M M M M M M n n n n n p p n u n n m m u u u u u u u u u u u u u u u u u u u u u u u y y y y y < + + < y 9 9 9 a a 9 9 9 9 9 9 a a 9 5 9 9 9 9 5 5 5 5 5 5 5 3 3 3 3 3 3 3 3 3 3 3 3 3 2 3 5 5 2 2 2 2 2 2 2 2 2 2 , %   X 2 2 2 2 2 & ",
"& & & % & 2 , , , , , 2 2 2 2 2 2 2 2 2 2 2 2 2 2 2 2 3 3 2 3 3 3 3 % % % % + . % 9 3 q 3 5 9 9 q 9 9 9 9 9 9 a 9 9 9 9 y y y y y y y y y 9 9 y u u u u u u u u u u u u u u u u u u u u u u q 6 6 = 1 u u M M M M M M m M M M M M M M M M M M M M M N M M M N N N N N N N N V V V V N N N N N N V V V N V V N M n 0 0 7 1 N V V V F F F N V V F V F F F F F F F F F F F F H H H H H H H H H H H H H H H H H H H H H H H H H H H H H N j j j 7 N H H H H H A A A A A A A A A A A H H A A A A A A A A A A A H H H H H H H H H H H H H H H H H H H A H G N j l j 8 7 G H H G H H H H H H H H H H H H H H H H H H H H H H H H H H H H H H H H H H H H H H H H H H H H H H H H H H N 8 ; ; 8 N N N N N N z z z z N N n n n n n n N N N N N M M n n n n n n n n n n n j j j j n n n n n n n n n n n n n 9 = = = 6 M n M M M M M M M M n n n n n n n n p u u u p p m u u u u u u u u u u u u u u u u u u u 9 y u u u y y y y y < % % 2 y y a a y 9 9 9 a a 9 9 a a 9 5 5 5 5 5 5 5 5 5 5 5 3 5 3 3 3 3 3 3 3 3 3 3 3 5 2 3 5 2 2 2 2 2 2 2 2 2 2 2 % $   X 2 2 2 2 2 2 ",
", & & & & , , , , , , 2 2 2 2 2 2 2 2 2 2 2 2 2 2 2 2 2 3 3 3 3 3 3 % % % % % . % 9 3 q q 5 5 9 q q 9 9 9 9 9 a 9 y 9 9 y y y y 9 y y y y y y y y u u u u u u u u u u u u u u u u u u u u u q 6 6 < 1 9 u M m p m M M M m M M M M M M M M M M N M M M M N V N N N N N N N N N N N N N V N N N N N V V V N V N n n 0 0 7 1 M V V V V V F V V V F V F F F F V F F F F F F A F F F F F H H H H H H H H H H H H H H H H H H H H H H H J N j j j 7 l A A H A A A A A H H H H H H H H H H A A A A A H A A A A A A A A A A A A A A H H G H H H A A A A A A A z l l j 8 7 H H H H H H H G H H H H H H H H H H H H H H H H H H H H H H H H H H H H H H H H H H H H H H H H H H H H H H N 7 7 ; 0 N N N z N N z z z z N N n n n n n n n n N N M M n n n M n n n n n n n n M j j j n n n n n n n n n j 0 0 n 7 = - = 6 M M M M M M M M M n n n u n n m n u p u u u p u u u u u u u u u u u u u u u u u u u u u y y u y y y y y y y < % % 2 y a a 9 9 9 9 9 9 9 9 9 a 5 9 9 5 5 5 5 5 5 5 5 5 3 3 3 3 3 3 3 3 3 3 3 3 3 3 2 3 2 2 2 2 2 2 2 2 2 2 2 2 2 % $   X 2 2 2 2 2 2 ",
"% & & & & & , , % & 2 2 2 2 2 2 2 2 2 2 2 2 2 2 2 2 2 2 3 3 3 2 3 2 % % % % % . % 9 5 5 5 9 5 9 q 5 9 9 9 9 9 9 9 9 y y 9 9 9 y 9 9 y y y y y y y y u u u u u u u u u u u u u u u u u u u p 5 < 6 < 6 0 u M m m M M M M M M M M M M M M M M M M M M N N M V N N N M N N N N M N V V V V N N N N V V N V N N N j n 0 0 7 ; n N V V V V V V A A N N V F F F F F F F F F F H F F F A F F F F F F H H H H H H H H H H H H H H H H H H J N g j j 7 j V H A A A A A A H H H A A A H A H H H H H H H H A A A A A A A A A A A A A A H H H H H A A A A A A A H l j j j 8 7 H H H H H H H H H H H H H H H H H H H H H H H H H H H H H H H H H H H H H H H H H H H H H H H H H H H H H H N 7 7 1 0 N N z N N z z n M M N N N N N N n M M M M M n n n n n n n n n n n n n n n j n j j n n n n n n j j n 0 0 j 1 @ - = 6 M M M M M M M n n n n u u p m n n u n n u u u u u u u u u u u u u u u u u u u u u u u y y y y y y y y y y u < + % < y y 9 9 9 9 a 9 a e 9 9 5 5 5 9 5 5 3 3 5 5 5 5 5 3 3 3 3 3 3 3 3 3 3 3 3 3 3 3 3 2 2 2 2 2 2 2 2 2 2 2 2 2 % %   X 2 2 2 & 2 2 ",
"& & & & & & & , & 2 2 2 2 2 2 2 2 2 2 2 2 2 2 2 2 2 2 2 2 3 3 3 2 , % % % % % X + 5 5 5 5 5 5 5 5 q 9 9 9 9 9 9 9 9 y 9 9 9 9 9 9 9 y y y y y y y 9 y y u u u u u u u u u u u u u u u u s u 6 < 6 < 1 0 9 u M s m M m M M M m M m M M M M M M M M M N N M M M N N M N V N N V N V V V V V V V V N V V V V N M n n 0 0 0 1 M N N N N V V V V V N N N V F F F F F F F F F F F F F F F F F F F F F A A A A H H H H H H H H H H H H H H j j j j 7 j l A H F A A A A F F A A A A H A H A A A A A A H A A H H H H H H H H H H A A A A A A A A H H H H H A N j j j j 8 7 H G H H G H H H H H H H H H H H H H H H H H H H H H H H H H H H H H H H H H H H H H H H H H H H H H H H H F N 8 1 7 0 N N N N z n n n n n N N N N N N M M M M n M n M n n n n n n n n n n n n n n n n j j n 0 0 0 0 0 n n 0 0 M 7 = = = 6 M M M M M n n n n n m p p p p p n M n u u u u u u u u u u u u u u u u u u u u u u u y y y y y y y y y y y y , + % 4 y 9 9 9 9 a a 5 a a 9 5 5 5 5 5 5 3 3 3 5 5 5 5 3 3 3 3 3 3 3 3 3 3 3 3 3 3 3 3 2 2 2 2 2 2 2 2 2 2 2 2 2 2 % %   X 2 2 & & & & ",
", , , , & , & , 2 2 2 2 , , 2 2 2 2 2 , 2 2 2 2 2 2 2 2 3 3 3 3 , % % % % % % X + 2 5 3 5 3 5 5 5 3 q 9 9 9 9 9 9 9 a y 9 9 9 9 9 9 y y y y y y y y 9 y y u u u u u u u u u u u u u u u u q 6 < < < 6 9 9 9 u s s n m M m m M M m M M M M M M M M M M M M M M M M B B V N N N N M M N N V V V M N N V V V N n n n 0 0 0 7 N V V N N N V V V N N V V V V N N F F F F F F F F F F F F F F F A F F H F F F F F F F H F H H H H H H H N j j j j 7 j j N A H A H A A A A A A A A A A A A A A A A A A A A H H A A A A H H H H A A A A H A A A H H A A N z j j j j 0 8 7 H H H H H H H H H H H H H H H H H H H H H H H H H H H H H H H H H H H H H H H H H H H H H H H H H F H F F F N j 7 7 0 N M N n n n n n n M M j M M M M M n n n M n n n n n n n n n n n j j n j n n n 0 0 0 j 0 0 0 0 0 n n n 0 0 9 = , = 6 M M M M n n m p u u u u p u m p n n u u u u u u u u u u u u u u u u 0 u u u u u y y y y y y y y y y y y y y , + + 4 y a 9 9 9 a a 5 a 9 5 5 5 5 9 5 5 5 5 5 5 5 5 3 3 3 3 3 3 3 3 3 3 3 3 3 3 3 3 4 2 2 2 2 2 2 2 2 2 2 2 2 2 2 % O   X 2 2 & & & & ",
"% % % % % & % & % & & % % % % % & , , , , 2 2 2 2 , , , , , % % % + % % % % % X + % , 5 5 5 9 5 5 5 9 3 9 9 9 9 9 9 9 9 9 9 9 9 9 9 y 9 y y y y y y y y 9 y u u u u 0 0 u u u u u u u u 9 1 6 < < < < 9 9 9 9 9 9 0 u u u u u u m u 0 0 0 0 0 0 0 0 0 0 0 0 u s u M M M M M M M M M M M n n j j j j n j j j j l M 0 0 0 7 N V V V V V N V N V A V V V V V N N N N N N N V F F F F F F F F F F F H F F F F F F F H H F F F F F H N j j j j j ; j j j n V F F H A A A A H A A A A A A A A A A A A A A H A A A A A A A A A A A A A A A A A N z l j j j j j l j 0 8 ; A H H H H H H H H H H H H H H F F F F F F F F F F F H H H H H H H H H H H H H H H H H H H H H H H F F F F F M n 7 1 0 M n N M n n M M n M M M M M M M n n n n n n n n n n j j n j j j j n n j n j u u 0 0 j j 0 0 0 0 n 0 0 0 0 0 6 6 , 6 M n n n n m p p u u u s s s m m u u u u u u u u u u u u u u u u u 0 y u u u y y y y y y y y y y y y 9 y y y , + + , y 9 9 9 9 a 5 a a 5 5 5 5 5 5 5 5 5 5 5 5 5 3 3 3 3 3 3 3 3 3 3 3 3 5 2 3 3 4 2 2 2 2 2 2 2 2 2 2 2 2 2 2 2 & O   X 2 2 & & & & ",
"O O O O $ % $ $ % O O % % $ % $ % % % % % % % % % % % % % % % % % % % % % $ O X + % % % , , 2 2 3 3 3 5 5 3 9 9 9 9 y 9 9 9 9 y y 9 y y y 9 y y y u y y y y y u u u u u u u u u u u 9 5 6 6 6 < = = , 6 9 0 9 9 9 9 9 0 0 0 0 0 0 0 0 0 0 0 0 0 0 0 0 0 0 0 0 0 0 0 0 0 0 0 0 l 0 0 0 0 j j j j j j j j n n n n j 0 0 0 7 n V V V V V V V V V V V V F F F F F F F F V F F F F F F V F F F F F F F F F F H H H F H H H F H H F F j j l j j 0 7 j j j j j j N N N N N N N N j j j j j j j k z N A A A A N N z z M l j j j j l N N N z j j l j j j j j j j j j w 7 ; N J H J H H H J H H H H H H H H H H H H H H H H J H H H H H H H H H H H H H H H H H H F F F F H F F F F H F 0 0 7 1 0 N z M N M N N N M n M n n n n n n n n n z m n j n n n n n n j j n n n n 0 0 j 0 j j 0 0 0 j j j 0 j 0 0 n 0 1 9 6 < m M m m M n n m m m M s n M M n n s p u s u u u u u u s u u u u u u u u u u u u u y y y y y u u y y y y y 9 + + + + 3 5 9 a 9 9 9 y 5 5 9 9 9 9 5 5 5 5 5 5 5 5 5 5 3 3 3 3 3 3 3 3 3 3 3 3 2 3 3 3 2 2 2 2 2 2 2 2 2 2 , 2 2 2 % X     $ 2 2 & 2 & ",
"o     o o o o     . . . . . . . o X . . . . . . . X . . X . . X . . . . . . . O O + + + + + + + % + % % % % % , , , , , , , 2 2 2 2 < 2 < < < 3 6 6 6 6 6 6 3 5 1 1 6 1 5 5 5 3 1 6 6 6 6 6 < < , , = = 6 1 5 q q q 7 1 1 1 1 6 1 1 1 1 1 1 1 1 1 1 1 q 1 7 1 1 7 1 q q 7 7 7 7 7 9 7 9 9 9 9 9 7 7 9 9 0 0 0 7 1 9 0 0 7 7 0 n n M M M M n n n M M M M M M M M j l l 0 j 0 0 0 j 0 0 0 0 0 0 0 0 0 l l M M l j j j j l l l l 0 0 0 7 7 7 ; 1 7 8 8 0 0 0 0 8 8 8 8 8 0 0 0 0 8 0 0 0 8 0 0 0 0 j j 0 0 8 8 8 0 0 0 0 8 8 0 0 0 0 0 0 8 8 8 8 8 8 8 8 8 8 8 8 ; - 7 l M M M N N M M M M M M M M l l l l l l l l l l l l l l l l l l l j 0 0 0 0 0 0 0 0 0 0 0 0 j 0 0 0 0 0 0 7 7 7 ; 7 0 0 0 0 0 j 0 0 0 0 0 0 0 0 0 0 0 0 0 0 0 0 0 0 0 0 0 0 0 0 0 0 0 9 0 9 9 9 9 0 0 9 9 9 0 9 9 9 9 9 9 9 9 9 q q 6 < 1 9 1 1 5 1 1 6 6 1 1 1 1 1 6 6 6 6 6 6 6 6 6 6 6 6 6 < < < < < < < < < < < < < < 4 < < < < < < < < , < , % + + + + + + + % + * * * % % % % % , , , , , , % % % % % % % % % % % % % % % % % % % % % % % % % % % % % $ $ $ % $ % $ o     o X X X X X ",
"      . . . .             . . . . . X X X X . . X X . X . . X . X X X X X X X O O O O + + + + + + + + + + + + + + + O + + + + + + + + + + + + + + + = = + + + + = = + % % , = = < , = = @ = = = < , , , < = = < < < < < < < < < < < 6 < < < < < < < < < 6 1 6 6 6 6 6 6 6 6 6 - 6 6 6 6 1 1 1 1 1 1 1 1 1 1 1 1 7 0 0 0 7 - 1 1 1 1 1 1 1 1 1 1 6 ; ; ; 1 6 ; ; - 1 - - 1 7 1 1 1 7 7 7 7 7 7 7 7 7 7 7 7 7 7 7 7 7 7 1 1 1 1 7 1 ; : - ; 1 1 1 ; ; ; ; ; ; ; ; ; ; ; ; ; ; ; ; ; ; ; ; 7 ; 7 7 ; ; ; 7 7 7 7 1 7 7 7 7 7 7 ; ; ; ; 7 7 ; ; 7 7 7 ; ; ; - - 6 - 1 1 6 1 ; : 6 ; ; ; : : ; : : : : : : : : : : : : : - : - : : - : : : : - - - - : : : : - : - - - - - - - - 1 9 7 7 1 1 1 7 1 1 7 7 1 1 1 ; ; ; 1 1 7 1 1 1 1 1 7 1 1 ; 1 6 6 1 1 6 6 6 6 6 < 6 6 6 6 6 6 = = = : = : : = = - - 6 1 7 q q 6 < = < < , , = = = = < = = = = = + = @ = = @ + @ + + + + @ + @ + + + + + + + + + + + + + + + O O + + + + + O + + + O + + + O O O O O O O O O O O O O O O O O O O O O O O O X X X X . X X . . . . . . X X . . . X . . . . . . . . .                   ",
"$ $ % % % % % X . .   o $ % % % % % % % & % % % , , , , , , , , 2 2 2 , 2 , % X O O O O O O O O O O O O O O + O O O O O O O O O O O + + + + + + @ + , < < < , + + + + + + + + + + + + + @ = = + = = = = = < < < - < < < 6 6 6 6 6 6 1 1 1 1 6 6 1 6 1 6 6 6 6 6 6 1 7 7 7 7 7 7 7 7 9 9 0 0 9 9 0 0 0 0 0 0 0 0 0 0 0 0 0 9 1 6 1 7 7 9 9 9 9 7 7 7 7 7 7 7 7 9 9 9 7 7 1 - - - - - 6 - 6 - - - - - - - 1 7 0 j j 0 1 ; 7 9 0 0 0 0 0 0 0 0 l l l l j j l l l j j l j l j l 0 0 j l j l l l M l 0 7 ; ; ; ; ; ; 7 0 0 j j j l j j 0 w l N N V N N N N l j 7 - 1 ; 1 1 ; ; ; ; ; ; ; ; ; ; ; ; : ; ; ; - - - - - ; - - - - - ; - - - - - - - - - ; 1 1 ; - - 6 - - - - - 1 1 1 7 7 7 7 7 7 7 1 1 7 7 7 7 7 7 7 1 1 7 7 7 7 1 1 1 1 7 1 1 1 1 1 1 6 6 6 1 1 1 1 6 1 1 1 1 1 1 6 6 6 6 6 6 6 6 6 6 q q 9 1 7 1 6 1 6 6 6 6 6 6 6 6 < < < = , = = + = % , , = = < + % , % , * + % % % % + + + + + + * + + + + @ + % % % + + + + % % % % % + + + + + + + + + + + + + O O O O O O O O O O O O O O O O O O O O O O O O O O O X X X O O O O O O O $ $ $ $ $ $ $ O X O O ",
"O O $ O O O $ X   .   X % % $ O % % % % % % % % % % % % % % % % % % , , % % + + O O O O O O O O O + O O + + O + O + + O + + + + + O O O + % 2 3 6 < 3 3 3 6 6 6 < , , , , % + + + + + + + + + + + + + + + + + @ + = 6 9 0 9 9 9 9 9 9 9 9 9 9 y 0 9 0 1 < < 6 6 q 9 9 9 9 9 9 9 9 9 9 0 9 9 9 9 9 9 0 0 0 0 9 9 0 0 0 9 0 0 0 0 0 0 0 0 0 0 0 0 0 0 0 0 0 0 0 0 j j 0 j 0 9 1 7 7 - - 7 7 7 7 7 7 7 0 0 0 j n n j M 0 0 l n n n M n l j j l j l l l l l l l l j M l l l l j l l l l l l l l l l l j 8 7 ; 1 7 7 7 7 7 8 j j j 0 j j j l N N M N z N M N N l 7 ; ; ; ; ; ; ; ; ; ; ; ; ; ; ; ; ; 1 ; ; ; ; ; ; ; - - - - 6 - - 7 9 9 9 7 7 7 9 7 9 0 0 0 0 0 0 0 0 0 0 0 0 0 0 0 0 0 0 0 0 0 0 0 0 0 0 9 0 0 0 0 0 0 0 9 0 0 0 0 9 9 0 9 1 1 7 6 = 9 0 9 9 0 0 9 9 0 0 0 9 9 9 9 9 9 9 9 9 9 9 9 9 9 9 9 q q 9 q 9 7 q q 9 9 q 9 9 q q 5 5 5 5 5 5 5 5 5 3 3 5 6 6 < < 6 6 6 3 3 3 3 6 6 6 < 6 6 < < 6 3 < < < 6 2 < < 2 4 4 4 4 , , , , , , 4 4 , , , , , , , , , , % % % % % % % % % + % % % % % % % % % % % % % % + % % % % 2 2 2 , , , , , , , , 2 2 , , , , ",
"O O $ $ O X X X o     O $ $ % % % % % % % % % % % , , , , , , , , , % % % % % , , , , , , , , , , , , , , 2 , , , 2 2 2 2 2 2 2 , % O O O % 9 a 9 9 9 5 5 5 5 5 9 y u u u u 9 6 < < < < 3 5 9 9 5 6 6 6 < < 3 q y u p p u u u p u u p p p u u u m s u 6 < < < 6 9 9 9 9 9 9 9 9 9 9 9 9 9 9 9 9 9 9 0 9 0 0 9 9 9 9 0 0 9 0 0 9 0 0 0 0 0 0 0 0 0 0 0 0 0 0 0 0 0 0 0 0 0 0 0 9 1 1 j 0 M M N N N N N M M M M M j j j j j j 0 0 n n j M M M M M M M M M M M N N M M M M N N V V V N V N N N l l M l l ; 7 0 0 l N M l l l l l l l l l 0 0 w 0 0 w 0 w 0 0 l l 0 0 l l j l l l M M M M M M M M M M M l l l l l j 0 7 6 - - - 7 V N V V N V N N N N N N N N N N N V N N V N N N N N N N N N N N N N N N N N N N N N N N M N N N N M M M M 0 0 9 < < M M M N m M m m m m m m m M M M M M M M M M m m M M n n M M u u M M p m m m p u u p s s s u u p p u u u u u 9 9 < < 9 9 9 9 a 9 9 9 9 5 5 9 9 9 9 9 9 9 5 5 5 5 5 5 5 5 5 5 5 5 3 3 3 3 3 3 6 3 3 3 3 3 3 4 4 4 2 3 2 3 3 2 2 2 2 % + % 3 3 3 3 2 2 2 2 2 2 2 2 2 2 2 2 2 2 2 2 , , , , , & , 2 & % & & & & & ",
"& , , & % O X O O     O % % , 2 2 2 2 2 2 2 2 3 2 3 3 3 3 3 3 3 3 3 3 3 3 3 2 3 3 3 3 3 3 5 3 3 3 5 3 3 5 3 3 3 6 3 3 3 3 4 4 4 2 2 + O O % 9 a y y y y y u y y y u y y u y u u u u u u u u u u u u u u u p u p p p u p p p p p p p p M M M M M M M u < 6 6 < 1 9 9 u s p p m m M M m M n n n u 0 0 0 0 0 0 0 0 0 0 9 9 0 0 9 9 0 0 u n M M M M M M M M M M M s n 0 0 0 0 0 9 0 1 1 n M V F H C H F F F F F F V V F V V V V F V V V F F F H F H F F F F F F F F F F F F H F F F H H H F F H V l l M 0 ; 7 N V H F F H F F F F F H F F V N N N M N N V V V F F F F F F F F F F V V F F F F F F F H F F F F F F F V M 0 7 6 - 0 F N N N N V N N N N N N N V V N N V V N N N N N N N N N N N N N N N M N M M M M M N N M M M M N M M M M M 0 0 0 - 1 V M M m m M m m m m M M M M M M M m m n m m m M s p p M u u m s s s u p m p u u u u u s u u u u u u u u u u 9 a < < 9 9 9 9 9 9 9 9 9 5 9 9 q 9 9 5 5 5 5 5 5 5 5 5 5 5 5 3 5 5 3 3 3 3 3 3 3 3 3 3 3 3 3 3 3 2 2 2 2 2 2 < 2 , , % O % 3 2 2 2 2 2 2 2 2 2 2 2 2 2 , 2 2 2 , , , , & , , % & & & & & & & & & ",
"& % % , , + X O $     O % 2 , 2 2 2 2 2 2 2 2 2 2 2 3 3 3 2 3 3 3 3 3 3 3 3 5 3 3 3 3 3 3 3 5 5 5 5 5 5 5 5 5 9 9 9 9 9 9 a 5 3 , , , + O + y a a y a y y y y y a y u y y y y y y u u u y u u u u u u u u p u u u p p p p p p u p p p p p s M M M M M 6 6 < < 1 9 u m m B M M M m M M M M m m m B M M M M M M M M M M M M M M M M M M N V N N V N N N N N N N N V V N 0 0 0 0 9 6 7 j N V V V V V V V V V V V F V F F V F F F F F F F F F V V V F F F F F F F F F F F F F F F F V F F F F F H N j j 0 - 7 F H F F F F F F F F F F F F F F F F F C H F F F F F V F F F F V V F F F F F F F F V V V V V V V V V V F N 0 0 7 = 0 V N N N N N N N N N N N N N N N N N V N N N N N N N N N N N N N N M M N M M M M B M M M M M M M M M M M M s 0 0 - 9 m m M M m m M M M M M M M M m m m m m m M M m M s s s s s n s s p p p p p p u u u u u u u u u u u u y u u u y y < 4 9 9 9 9 9 9 9 9 9 5 5 9 9 9 5 5 5 5 5 5 5 5 5 5 5 5 5 5 5 3 3 3 3 3 3 3 3 3 3 6 3 3 3 3 2 2 2 2 2 2 2 2 2 , 2 , O % 3 2 2 3 2 2 2 2 2 2 2 2 2 2 2 2 2 2 2 , , 2 & , , & & % & & & & & & & ",
"& & & % , % O O $     $ , 2 2 2 2 2 2 2 2 2 2 2 2 2 2 3 3 3 3 3 2 2 3 3 3 3 3 3 3 3 3 3 3 3 3 3 5 5 5 5 5 5 5 5 9 9 9 9 9 9 e 5 < , 2 + O % a a y y y y y y y y y y y y y y u u y y u u u u u u u u u u u u u u u u p p p p p u p p p p p p p s s M s q < - 6 1 0 M m M M m m M m M M M M M M M M m m m m m m M m M M M M M M M M M M M M M N V N N N N N N N N V V V M 0 0 0 9 6 7 n V V V V V V V V V V V V V F F F V V F F F F F F V F F F F F F V V V F F F F F F F F F F F F F F F F F F N 0 n 0 - 7 F F F F F F F F F F F F F F V V V F F F F F F F F V F F F V V F F F F V V V V V V V V V V V V V V V V V V 0 9 9 - 0 V N N N N N N N N N N N N N N N N N N N N N N M N N N N M M M N N N N N N M M M M M M M M M M M M M M M M 0 0 9 = 9 B m m M M M M M M M M m m m m M M M M M M u u p p u n n p p s p p p p p u u u p u u u u u u u u u u u y u u 9 y 4 , 9 9 9 9 9 9 9 9 9 9 9 9 9 5 5 5 9 5 5 5 5 5 5 5 5 5 5 5 3 3 5 3 3 3 3 3 3 3 3 3 3 3 3 2 2 4 2 2 2 2 2 2 2 2 , , O % 2 2 2 2 2 2 2 2 2 2 2 , , , , 2 2 2 , , , & & & & & & & & & & & & & & ",
"& & % & % & O O $   . % 2 2 2 2 2 2 2 2 2 2 2 2 2 2 2 2 2 3 3 3 2 2 3 3 3 3 3 3 3 3 3 3 3 3 3 3 5 5 5 5 5 5 5 5 5 9 9 9 9 9 e e 6 , , + O % a y a a y y y y a a y y y y y u u u u y y y u u u u u u u u u u u u u u u u u p p u p p p u p p p m s M M q = < < 6 0 M m M M m m m m m m m M M M m M M M M M M m m m m m m M M M M M M M M M M M M B M N N N N V M V V V V 0 0 9 9 6 1 M V V V V V V V V V V V V V V V V V V V F F F F F V F F F F F F V V F F F F F F F F F F F F F F F F F F F N 0 n 0 - 7 F F F F F F F F F V V F F V V V V F F F F F F F F V V F F V V V V V V V V V V C V V V V V V V V V V V V V 0 9 9 = 0 N N N N N N N N N N N N N N N N N N N N N M M N M M M M M M M N N M N N M M M M M M M M M M M M M M M M M u 0 9 = 9 B M M M M M M m m m m m m M M M M M n u u u u u u u u M s s p p p p u u u u u u u u u u u u y u u u u u u u 9 y < , 9 9 9 9 9 9 9 9 5 9 9 9 9 5 5 5 5 5 5 5 5 5 5 5 3 5 3 3 3 3 3 3 3 3 3 3 3 3 3 3 3 4 4 2 2 2 2 2 2 2 2 2 , , , , O % 2 2 2 2 2 2 2 2 2 2 2 , , , 2 2 2 , , , 2 & & & & & & & & & & & & & & ",
"% & & & & , O O $   . & 2 2 2 2 2 2 2 2 2 2 2 2 2 2 2 2 2 2 3 3 3 3 3 3 3 3 3 3 3 3 3 3 3 3 3 3 3 5 5 5 5 5 5 5 5 5 9 9 9 9 9 5 3 , , + X * y y a a a a y y y a a y y y y y y y y y y y y y u y u u u u u u u u u u u u u u u u p p p u u u p p u p s 9 = < < 6 u u u u p p m m M M m m m m M M s M M M M M M M m m m m m m m M M M M M M M M M M M M M M M N V N N N N 0 9 9 9 < 1 M V V V V V V V V V V V V V V V V V V V V V V V V V V V F F F F F V F F F V F F F F V V V V F F V F F F F N 0 n 0 - 7 F F F F F F F F V V V F F F F F V V V F F F F V V V V V V V V V V V V V V V V V V V V V V V V V V V V V V 0 9 9 = 0 N N N N N N N N N N N N N N M M M N N N N M M M M N N N N M M M M M M M M M M M M M M M M M M M M M M M M u 0 9 = 9 B B M M M M s m M s s s s M M m m p p u p p p u n n s s m p p p p u u u u u p u u u u u u u u u u u u u u u y y < , 9 9 9 9 q 9 9 9 9 9 5 5 5 5 5 5 5 5 5 5 5 5 5 3 3 3 3 3 3 3 3 3 3 3 3 3 3 3 2 2 2 4 2 2 2 2 2 2 2 2 2 , , , , , O % 2 2 2 2 2 2 2 2 2 2 2 , , 2 2 2 2 , , 2 , & & & & & & & & & & & & & & ",
"% & & & & % O O $     & 2 & 2 2 2 2 2 2 2 2 2 2 2 2 2 3 2 2 2 3 3 3 3 3 3 2 3 3 3 3 3 3 3 3 3 3 3 3 5 5 5 5 5 5 5 5 5 5 5 9 9 5 3 , , + O 4 y y a a a a y y a a a a a y y y y y y y y y y y y y u u u u u u u u u u u u u u u u u u p u u u p p p p p 9 < < < 6 u n n p p u p M u u M M s s s s m m M M M M M m M M M M m m m m m m M M M M M M M M M M M M M M M M M N 0 9 q 9 < 1 M V V V V V V V V V V V V V V V V V V V V V V V V V V V V V V V V V F F F F F F F F V V V V V F V V V V F N 0 n 0 - 0 F V V V V V V V V V V F F V V V V V V V V V V V V V V V V V V V V V V V V V V V V V V V V V V V V V V V V 0 9 9 - 0 N N N N N M M M M N N N N M M M M N N M M M M N N N N N N M M M M M M M M M M M M M M M M M M M M M M M m u 0 9 = 9 B m m m s M M M M s s s s p p p p p p u p p p n s s s p p p p u u u u u u u u p u u u u y u u u u u u u u u a 9 < , 9 9 9 q q 9 9 9 5 5 5 5 5 5 5 5 5 5 5 5 5 5 3 3 3 3 3 3 3 3 3 3 3 3 3 3 3 2 2 2 2 4 2 2 2 2 2 2 , , 2 , , , , , O % 2 2 2 2 2 2 2 2 2 2 2 , 2 2 2 , , , , 2 , , & & & & & & & & & & & & % ",
"% & & & & & O O $     % & , , , 2 2 2 2 2 2 2 2 2 2 2 2 3 2 2 3 3 3 3 3 3 3 3 3 3 3 3 3 3 3 3 3 3 3 3 5 5 5 5 5 5 5 5 5 5 9 9 9 3 , , + O , y 9 y y y y a a y a a a y y a y y y y y y y y y y y y u u u u u u u u u u u u y u p u u u u u p p p p u p 9 , < < 6 s n n s p u u u u n n n M M M M s M m m m m M m m M M M M M M M M M M m m m M M M M M M M M M M M M M M 0 9 9 9 < 1 M V V V V V V V V V V V V V V V V V V V V V V V V V V V V V V V V V V V V V V V V V V V V V V V V V V V F N 0 j 0 - 0 V V V V V V V V V V V V V V V V V V V V V V V V V V V V V V V V V V V V V V V V V V V V V V V V V V V V V 0 9 9 = 0 N M M M M M M M M N N N N M M M M N N N N M M M M N M M M M M M M M M M M M M M M M M M M m m M M M M M M 0 0 9 = q M m m M M M M s s p p p p u p u u u u u u p p s u p p u u p u u u u p u u u u u u u u u u u u u u u u u u y 9 y , , 9 9 9 9 9 9 5 5 5 5 5 5 5 5 5 5 5 5 5 5 5 3 3 3 3 3 3 3 3 3 3 3 3 3 3 3 4 3 2 4 2 4 4 2 2 2 2 2 2 , , , , , , , O % 3 2 2 2 2 2 2 2 2 2 2 2 2 2 2 , , , , , , 2 2 & & & % & & & & & & % % ",
"% % & & & & O X $ .   % , , , 2 , 2 2 2 2 2 2 2 2 2 2 2 2 2 2 2 3 3 3 3 3 3 3 3 3 3 3 3 3 3 3 3 3 3 3 3 5 5 5 5 5 5 5 5 5 5 9 9 5 , , % O , y 9 y 9 y y y y a a y a a a a a y y y y y y y u y y y y u u u u u u u u u u u u u u u u u u u u u p p p m 9 < < < 6 s s s s u u u u p p n n n n n M s M s M s s m p m m m m M M M M M M M M M M m m M m M M M M M M M M M M 0 9 7 7 - 1 M V V V V V V V V V V V V V V V V V V V V V V V V V V V V V V V V V V V V V V V V V V V V V V V V V V V F M 0 j 0 - 0 V V V V V V V V V V V V V V V V V V V V V V V V V V V V V V V V V V V V V V V V V V V V V V V V V V V V V 0 9 9 = 0 N M M M N M M M N N N N N M M M M N N N M M M M M M M M M M M M M M M M M M M M M m m m m n M M M M M M M u 0 9 - 5 M p M M M M M p p p m u u u u u n u u n u u p u p p p p p u u u u u u u u u u u u u u u u u u u u u y y u y 9 y , , 9 9 9 9 9 5 5 5 5 5 5 5 5 5 5 5 5 5 5 5 5 3 3 3 3 3 3 3 3 3 3 3 3 3 4 4 4 3 3 4 4 4 2 2 2 2 2 , 2 , , , , , , , O % 3 2 2 2 2 2 2 2 2 2 , 2 2 2 , , , 2 2 , , , , & & % % & & & & & & % % ",
"% % & & % % O X $ X o % , , 2 2 2 2 2 2 2 2 2 2 2 2 2 2 2 2 3 2 2 2 3 3 3 3 3 3 3 3 3 3 3 3 3 3 3 3 3 3 3 5 5 5 3 3 5 5 5 5 5 9 5 , , % O % 9 9 9 9 9 y y y y y y y y y a a y a y y y y y u u u y y y y u y u u y y u u u u u u u u u u u u u u p p p 9 = < < 6 u p p p p s s u M p p u u u p M s p p M s s M M s M s s m m m M M M M M M M M M M M M m m M M M M M M M 0 9 7 7 = 6 M V V V V V V V V V V V V V V V V V V V V V V V V V V V V V V V V V V V V V V V V V V V V V V V V V V V V M 0 n 0 - 0 V V V V V V V V V V V V V V V V V V V V V V V V V V V V V V V V V V V V V V V V V V V V V V V V V V V V V 0 9 9 = 0 V N N N N N N N N M M M M M M M M M M M M M M M M M M M M M M M M M M M M m m m m m m M M M M M M M n M n u 0 0 < 9 M s M M m p u p p n n n n u n n n n n m p p p u p p p p p u u u u u u u u u u u u u u u u u u u u u y y y y 9 y , , 9 9 9 9 9 5 5 5 5 5 5 5 5 5 5 5 5 5 3 3 3 3 3 3 3 3 3 3 3 3 3 3 3 3 2 4 4 3 3 3 3 2 2 2 2 , 2 2 2 , , 2 , , , , O % 2 2 2 2 2 2 2 2 2 , 2 , , , , , 2 & & , , , , & % % % & & & & & & % % ",
"% % % & % % O X $ O o % & 2 2 2 2 2 2 2 2 2 2 2 2 2 2 2 2 2 2 2 2 2 3 3 3 3 3 3 3 3 3 3 3 3 3 3 3 3 3 3 3 3 5 5 3 3 3 5 5 5 5 5 5 , , % X % 9 9 9 9 9 9 9 y y y y y y y y y y a a y y y y y y y y y y y y y y y y y y u u u u u u u u u u u u u u u p 1 = < < 6 p p p u p u u s s s s s u u p p s p p p p p p M M M s s M M M M m m M M M M M M M M M M M M M M M M M M 0 0 7 7 = 6 M V V V V V V V V V V V V V V V V V V V V V V V V V V V V V V V V V V V V V V V V V V V V V V V V V V V V M 0 0 0 - 0 V V V V V V V V V V V V V V V V V V V V V V V V V V V V V V V V V V V V V V V V V V V V V V V V V V V V V 0 9 9 = 0 V M M M M M M M M M M M M M M M M M M M M M M M M M M M M M M M M M M m m m M M B M M M M M n n n n M M n u 0 u < q B p p m m m p p p n n n n n n n n u p p p p p p p u u u u u u u u u u u u u u u u u u u u u u y y u y y y y 9 a , , 9 9 5 9 5 5 5 5 5 5 5 5 5 5 5 5 5 3 3 3 5 3 3 3 3 3 3 3 3 3 2 3 3 3 2 2 4 3 3 2 2 2 2 2 2 , 2 2 2 2 2 , , , , , O % 2 2 2 2 2 2 2 2 2 2 2 , , , , 2 2 & & & & , , & % % % & & & & & & % % ",
"% % % % & & O X O O X % 2 2 2 2 2 2 2 2 2 2 2 2 2 2 2 2 2 2 2 2 2 2 2 3 3 3 3 3 3 3 2 3 3 3 3 3 3 3 3 3 3 3 3 5 5 5 5 5 5 5 5 5 3 % , % O % a 9 9 a a a a a a y y y y y y y a a a y y y y y y y y y u u y y y u u u u u u u u u u u u u u u u u u u u 3 < < , 6 u p p p u u p p u u u s s s s s u u u u u p m m m p p p M M M M M M M u n m M m m M M M M M M M M M m M 9 9 q 9 = 6 M V V V V V V V V V V V V V B V V V V V V V V V V V V V V V V V V V V V V V V V V V V V V V V V V V V V V M 0 0 9 = 9 V V V V V V V V V V V V V V V V V V V V V V V V V V V V V V V V V V V V V V V V V V V V V V B V V V V V V 9 q 9 = 0 M M M M M M M M M M M M M M M M M M M M M M M M M M M M M M m m m m m m m m M M M M n n n n M M M M M p M 0 0 0 , 9 B p p p u u u u u u n n n s s p u u u u u p p p u u p p u u u u u u u u u u u u u u u u u u y y u u y y y y 9 5 + , 9 5 5 9 5 5 5 5 5 5 5 5 5 5 3 3 3 3 3 3 3 3 3 3 3 3 3 3 3 3 3 2 4 2 2 3 2 2 2 2 2 2 2 2 , , , , 2 , , , , , , 2 O $ 2 2 , 2 2 2 2 2 2 2 2 , , , 2 2 2 & & % & & & & & & & & & & & % % % % ",
"% % % % & & O X O O X % 2 2 2 2 2 2 2 2 2 2 2 2 2 2 2 2 2 2 2 2 2 2 2 2 3 3 3 3 3 3 2 2 3 3 3 3 3 3 3 3 3 3 3 3 5 5 5 5 5 5 5 5 5 % % O O % a 9 9 9 9 9 a a a a y y y y y y a a a y y y a y y y y y y y y u u u y u y u u u u u u u u u u u u u u u u 6 = < < 6 u u u u u u p p p p p p u s s s s s u u u u m m m p p p p M M M M M M M M M m m m M M M M M M M M M M M 9 9 7 1 = 6 M V V V V V V V B V V V V V V V V V V V V V V V V V V V V V V V V V V V V V V V V V V V V V V V V V V V V M 0 0 9 = 9 V V V V V V V V V V V V V V V V V V V V V V V V V V V V V V V B B B B V V V V V V V V V V B B V V V V V M 9 q 7 = 9 N M M M M M M B M M M M M M M M M M M M M M M M M M M n m m m m M M M M M M n n n s M s M M M M M n m p p 0 9 0 < 9 B s u u u u u u u u u s p p p p u u u u u p p p u u u u u u u u u u u u u u u u u u u u y y y y y y y y y y 9 9 + , 9 5 9 5 5 5 5 5 5 5 5 5 5 3 5 3 3 3 3 3 5 3 3 3 3 3 3 3 3 3 2 4 4 4 4 3 2 3 2 2 2 2 2 2 2 , , 2 2 , , , , , , 2 $ % 2 2 2 2 2 2 2 2 2 2 , , , 2 2 & & & & % % & & , & & & & & & & % % % % ",
"% % % % % & O X O O o % 2 2 2 2 2 2 , , , 2 2 2 2 2 2 2 2 2 2 2 2 3 2 2 3 3 3 3 3 3 3 2 3 3 3 3 3 3 3 3 3 3 3 3 3 5 5 5 5 5 5 5 3 % % O O % y 5 9 9 9 9 9 9 a a a y y r y y a a y y y y a a y y y y y y y y y y y y y y y y u u u u u u u u u u u u u < = < < 6 u u u u u u u u p p p p p p u u s s s s s n n n p p p p m m m m p p s s M M M M s s s m m m M M M M M B 9 9 1 1 = 6 M V V V V V B B B B V V V V B B B B B B V V V V V V V V V V V V V V V V V V V V V V V V V V V V V V V V V s 0 0 9 - 9 V V V V V V V V V V V V V V V V V V V V V V V V B V V V V V V B B B V B V V V V V V V B B B B V V V V V B 9 q 7 = 9 M M M M M M B M M M M M M M M M M M M M M M M M M m m M M M M M M m M M M m n n n M M s p u n u u n u p p 0 9 9 < 9 M s p n n n n s s p p p p p p p p p p u u u u u u u u u u u u u u u u u u u u u y y y y y y y y y y y y y y 9 9 % , 9 5 5 5 5 5 5 5 5 5 5 5 5 3 3 3 3 3 3 3 3 3 3 3 3 3 3 3 4 4 2 4 4 4 4 3 3 2 2 2 2 2 2 2 2 , , , , , , , , , , 2 $ $ 2 2 2 2 2 2 2 2 2 , , , 2 2 & , & & & % % & & , & & & & & & % % % % % ",
"% % % % % & O X O O o % , 2 2 2 2 2 2 , , , 2 2 2 2 2 2 2 2 2 2 2 2 3 2 3 3 3 3 3 3 3 2 3 3 3 3 3 3 3 3 3 3 3 3 3 3 5 5 5 5 5 5 3 , % O O , a 5 9 9 9 9 9 9 9 a a a e y y y y a y y y y a a a y y y y y y y y y y y y y y y u u u u u u u u u u u u p < = < < 6 u u u u u u u u u u u u p p p p u p s p n s s s s s p p p p p p p p p p m n M M s s s M s s m M M M M M 9 9 q 6 = 1 M V B B B B B B B B V V V V B B B B B B V V V V V V B V V V V V V V V V V V V V V V V V V V V V V V V V V 0 0 0 9 - 9 V V V V V V V V V V V V V V V V V V V B B B B B B B V V V V V B B B V B V V B B B B B B B B B B B B B B B 9 q 1 @ 9 M M M M M M M M M M M M M M M M M M M M M m M M M M M M M M m M M m m M s s s M M M p p p u u u u u u p s u 9 9 < q B s p s u p p p p p p p p p p p p p u u u u u u u u u u u u u u u u u u u u y y y y u y y y y y 9 y y y y 9 9 5 + % 5 5 5 5 5 5 5 5 5 5 5 5 3 3 3 3 3 3 3 3 3 3 3 3 3 3 2 2 4 2 4 4 4 4 4 3 2 2 2 2 2 , 2 2 2 , , , 2 , , , , , , , $ % 2 2 2 2 2 2 2 , , , , 2 2 & & , & & & % & & & & & & & & & % % % % % % ",
"% % % % % % X X O X   % & & & , & 2 2 , , , , 2 2 2 2 2 2 2 2 2 2 2 2 2 2 2 3 3 2 2 2 3 3 3 3 3 3 3 3 3 3 3 3 3 3 3 3 5 5 5 5 5 2 % + O X 4 9 5 9 9 5 5 9 9 9 9 9 a a a y y y y y a a a a y y y a a y y y y y y y y u u y y y y y u u u u u u u u u u < = , , 6 u u u u u u u u u u u u u p p p p p p p s s s s s s s s p p p p p p m m m m p p m m M M s s s M M M M M 9 q q 6 @ 6 M B B B B V B B V V B B B B V V V V B V V V V V V V V V V V B B V V V V V B V V V V V V V V V V V V V V V 0 0 0 9 - 9 V V V V V V V V V B B V V B B B V V V V V V V B V B V V V V B B B B B B B B B B B B B B B B B B B B B B B 9 7 1 @ 9 M M M M M M M M M M M M M M M M M M M M M M M M M M n m M M M M s m s M M u u u p u u p m n n u u u u m u 0 9 9 < q M p p p u p p p p p p p p u u u u u u u u u u u u u u u u u u u u u u u y y y u u u y y y y y y y y y y a y 9 5 + % 5 5 5 5 5 5 5 3 3 5 3 3 3 3 3 3 3 3 3 3 3 3 3 3 3 2 2 3 4 2 2 2 4 4 2 2 2 2 2 2 2 , , , , 2 , 2 , , , , , , , , + % 2 , 2 2 2 2 2 , , , 2 , , , , , & & & & & & & & & & & & & % % % % % % ",
"% % % % % % X X O X   % & & & , & 2 2 2 , , , 2 2 2 2 2 2 2 2 2 2 2 2 2 2 2 2 3 3 2 2 3 3 3 3 3 3 3 3 3 3 3 3 3 3 3 3 3 5 5 5 5 2 * + O X , 9 5 9 9 9 9 9 9 9 9 9 9 9 a a a y r y y y a a a y y a a y y y y y y y y y u y y y y y y u u y u u u u u u 6 + , % < u u u u u u u u u u u u u u u u u u u p p p p u s s s s s s p s p p p p p p p p m m m m p p p M M M M M 9 q q 6 + 6 M B B B B B B B B B B B B B B B B B B B B B V V V V V V V V B B V V V V B B B B V V V V B B V B B B B B B 0 0 0 0 - q V B V B B V V V V B B V V B B V V V V V V V B B B B B B B B B B B B B B B B B B B B B B B B B B B B V B B 9 7 6 @ 9 M M M M M M M M M M M M M M M M M M M M M m m M s m M M M M M s s p p p p n u u p u u p s s s s s s s u u 9 9 9 < 5 p u p p s p p p p p u u u u u u u u u u u u u u u u u u u u u u u u u y y y y u u y y y y y y y y y y a a y 9 5 + % 5 5 5 5 5 5 3 3 3 3 3 3 3 3 3 3 3 3 3 3 3 3 3 4 4 3 2 2 2 3 3 4 3 2 2 2 2 2 2 , , , , , , 2 2 , , , , , , , , , O % 2 2 2 2 2 2 2 , , , 2 , , , , & & & & & & & & & & & & & % % % % % % % ",
"% % % % % % X X O X   % 2 & & & 2 2 2 2 , , 2 2 2 2 2 2 2 2 2 2 2 2 2 2 2 2 2 2 2 3 3 3 3 3 3 3 3 3 3 3 3 3 3 3 3 3 3 3 3 3 5 5 2 , % O X , 5 5 5 5 a a e e 9 5 5 9 9 9 9 a a y y y y y y y y y a a a y y y y y y y y y y u y y y y y y u u u u u u u 5 + % + < u u u u u u u u u u u u u u u u u u u u u p p p u u p p p p s s s p p p p p p p p p p p p p p p s M M s 9 9 7 < + 6 p B B B B B B B B B B B B B B B B B V V B B B B B B B B B B B B B B V B B B V B B B V V V B B V V B V V V 0 0 0 9 < 9 V B V B B B V V V V B V B B B V V V V B B B B B B B B B B B B B B B B B B B B B B B B B B B B B B B B B M q 7 6 + 9 M M M M M M M M M M M M M M B B B M M m m s s s s M M M M s p p p m m n n n n u p u s s s s s s s s u u u 9 9 9 < 5 p u p p s u u u u u u u u u u u u u u u u u u u u u u y u u u u u u u y y y y u y y y y y y y y y y y a a a 9 5 + % 5 5 5 5 5 3 3 3 3 3 3 3 3 3 3 3 3 3 3 3 3 4 4 4 4 3 3 3 2 3 3 3 2 2 2 2 2 , 2 , , , , , , , , , , , , , , & , , $ % 2 , 2 2 2 , , , , 2 2 , , % % & & & & & & & & & & & & % % % % % % % % ",
"% % % % % $ X X $ X   O & & , & 2 2 & 2 2 , 2 2 2 2 2 2 2 2 2 2 2 2 2 2 2 2 2 2 2 2 3 3 3 3 3 3 3 3 3 3 3 3 3 3 3 3 3 3 3 3 5 5 4 % % O . % 5 5 5 5 e e e e e e 5 9 9 9 9 a a y 9 9 y y y y y 9 a y a y y y a y y y y y y y u y y y y y y y u u y u u 5 % % + < u u u u y u u u u u u u u u u u u u u u u u u u p p p p u u u p u u p p p p p p p p p p p p p p s s M p q 9 7 4 + 6 s B B B B B B B B B B B B B B B B B B B B B B B B B B B B B B B B B B B B B B B B B B B B B B B B B V V B 0 9 9 9 < 9 V B V B B B B B B B B B B B B B B B B B B B B B B B B B B B B B B B B B B B B B B B B B B B B B B B B B s 9 9 6 + 9 M m m m m m m m m m m m m m s s s M M M M s s s s M u p p p p p p n n n n s s s s s s s u u u u u u u u u 9 9 9 , 5 p u u u u u u u u u u u u u u u u u u u u u u u u u u y y y y y y u u y y y y y y y y y y y a y y y y a a a 5 5 + % 5 5 5 5 5 3 3 3 3 3 3 3 3 3 3 3 3 3 3 3 2 4 4 4 4 3 3 2 2 3 3 2 2 2 2 2 2 2 2 , , , 2 , , , , , , , , % % , , , O $ 2 , 2 2 2 , , , 2 2 & , , % & & & & & & & & & & & & & % % % % % % % % ",
"% % % % % O X X $ X   O $ 2 , 2 & 2 2 2 2 2 2 2 2 2 2 2 2 2 2 2 2 2 2 2 2 2 2 2 2 2 3 3 3 3 3 3 3 3 3 3 3 3 3 3 3 3 3 3 3 5 3 5 2 * % O X % e 5 5 5 5 5 e 9 a 5 a a a a 9 9 9 a y y 9 a a y y y y y y y a a a a a a y y y y y y y y y y u u y y u u u 5 + + * < u u y y u u u u u u u u u u u u u u u u u u u u u u u u u u u u p p u u u s p p p p p p p p p s s s s 0 1 9 1 < @ < s B B B B B B B B B B B B B B B B B B B B B B B B B B B B B B B B B B B B B B B B V B B B B B V B B B B M 0 9 0 9 = 9 V B V B B B B B B B B B B B B B B B B B B B B B B B B B B B B B B B B B B B B B B B B B B B B B B B B B u 1 7 < + 9 M M M M M M M s s M M s s M M M M M s M m M s u p M u u u u u s s s s s s s s p u p p p p u u s s p u u u 9 9 9 % 1 p u u u u u u u u u u u u u u u u u u u u u u u u u u u u y y y y u u y y y y y y y y y y a a 9 y y y a a y 9 5 + * 5 5 3 5 3 3 3 3 3 3 3 3 3 3 3 3 3 3 3 2 2 2 2 3 3 3 4 2 2 2 2 2 2 2 , , , 2 , , , 2 2 2 2 , , , , , 2 % % % , & O % 2 2 2 2 , , 2 2 & , , , & & & & & & & & & & & & & % % % % % % % % % % ",
"% % % % % O X X O X   O O $ & 2 & 2 2 , , 2 2 2 2 2 2 2 2 2 2 2 2 2 2 2 2 2 2 2 2 2 2 3 3 3 3 3 2 3 2 3 3 3 3 3 3 3 3 3 3 3 3 3 % % % O X % 3 3 5 5 5 9 5 5 9 9 a a e a 9 9 9 5 9 a a a y y y a y y y y y a a a a a y y y y y y y y y y y y u u u u u 5 + + * < u u y y y u u u u u u u y u u u u u u u u u u u u u u u u u u u u u u u p p p p u u s p p p p p p s s 9 5 q q < + = u B d M B M B B B B B B B B B B B B B B B B B B B B B B B B B B B B B B B B B B B B B B B B B B B B B B B 9 9 9 q < 9 V B B B B B B B B B B B B B B B B B B B B B B B B B B B B B B B B B B B B B B B B B B B B B B B B B B B u 5 6 < + 9 M s M M M M m m m M M M s M M M M s s p p s s p M p p u u u u s u s p s s u p p p p p u u u u u u p u u u 9 9 9 + 5 u p u u u u u u u u u u u y y y y y y u u u u y u y u u y y y y y y y y y y y y y y 9 y y a a y y y a a a a 9 5 + * 5 3 3 3 3 3 3 3 3 3 3 3 3 3 3 3 3 3 3 2 2 3 2 2 3 3 2 2 2 2 2 2 2 2 2 , , , , , , 2 2 2 , , , , , 2 , % % & & & O O 2 2 2 2 , , 2 2 & , , & & & & & & & & & & & & & & % % % % % % % % % % ",
"% % % % O X o X O X   X O O O % 2 2 2 2 2 2 2 2 2 2 2 2 2 2 2 2 2 2 2 2 2 2 2 2 2 2 2 2 2 2 2 3 3 3 3 2 2 3 3 3 3 3 3 2 3 5 5 4 % % % % X % 3 5 5 5 5 5 5 5 e e a a 9 9 9 9 9 9 9 9 5 9 9 9 y y y y y y y y y y a y a y y y y y y y y y y y u u y y y 2 + % + < y u y y u u u u u u u y u y u u u u u u u u u u u u u u u u u u u u u u u u u u u u p p p p p p s s 9 q q q 5 < + + u B B M M M B B B B B B B B B B B B B B B B B B B B B B B B B B B B B B B B B B B B B B B B B B B B B B M 9 9 9 1 = 1 B B B B B B B B B B B B B B B B B B B B B B B B B B B B B B B B B B B B B B B B B B B B B d d B d B B B 9 5 6 6 + 9 d s s M M M s s s s s s s s p p p p p m p n p u u s s s s s s s p u p p s u u u u u u u u u u u u u u p u 9 9 9 + 6 p y p u u u u u u u u u u u y u u y y u u u y y y u y y y y y y y y y y y y y y y a a y y y y y y a y a a 9 5 5 + * 5 3 3 3 3 3 3 3 3 3 3 3 3 3 3 2 2 4 4 4 4 2 2 2 2 4 4 2 2 2 2 2 2 , , 2 2 , , , , , , 2 , , , , % , % , & % & % O $ 2 2 2 & , 2 2 , , , , & & & & % & & & & & & & & % % % % % % % % % % % ",
"% % $ O o o o X $ X   o O O O O $ $ % % % % % & % % 2 2 2 2 2 2 2 2 2 2 2 2 2 2 2 2 2 2 2 2 3 3 3 3 2 3 3 3 2 3 3 3 3 3 3 3 2 , % % % % O % 3 3 5 5 5 5 5 5 5 5 5 5 9 9 9 9 9 9 a 9 5 9 a a a a a 9 9 9 y y y a a a y a a a y y y y y y y y y y y y y , + % % @ 5 u y y y u u u y u y y y u u u u u u u u u u u u u u u u u u u u u u u u u u u u u u u u u y 9 9 5 1 5 1 5 1 < + + y d d B B B B B B B B B B M B B B B B B B B B B B B B B B B B B B B B B B B B B B B B B B B B B B B B B M 9 9 9 5 - 1 B B B B B B B B B B B B B B B B B B B B B B B B B B B B B d B d B B B d d B B d d d d B B d d d d B B s 5 5 1 6 + 5 m s p p p p p p u p p p p p p p p s s s s s s s s s u u u p p u u u u u u u u u u u u u u u u s s u u s u 9 9 q + < p u u u u u y u u u u y u y y y y y u u u y y y y u y u y y y y y y y y y a a a a a a y y y y 9 9 a y a a a a 5 O % 3 3 3 3 3 3 3 3 3 3 3 3 4 2 2 2 2 4 4 4 4 2 2 4 4 4 4 4 2 2 , , , , , 2 2 , , , , , , , , , , % & , , & & 2 & % X $ 2 , , , 2 2 2 , , & & & & & & % & & & & & & & & % % & % % % % % % % % ",
"O X o o o o X X O       . O O O O O O O $ $ $ $ O O % % % % & % , , , , , , , 2 2 2 2 2 2 2 3 3 2 2 2 3 3 3 3 3 3 3 3 3 2 2 , % % % % % X O 5 e 5 5 5 5 5 5 5 5 5 5 5 5 9 9 9 9 a 9 9 a 9 9 a a a a 9 9 y y y y y y y a a a a a y y y y y y y y u u 3 + * % , * 2 9 y y y y y y y y y 9 9 a y y y y 9 9 9 5 1 3 3 3 3 3 3 3 3 5 9 9 9 9 9 9 5 5 5 5 5 5 1 1 1 1 5 5 q 5 5 q 6 < + + 9 B d d d m B B B B B B B B M M B B B B B B M M B B B B M M B B B B B B B B B B B B B B B B B B B B B B s q 9 9 6 - 6 B B B B B B B B B B B M B B B B B B M d B B B B B B B B B B B B B B B d d B B B B B B B B B B B B d u 5 5 5 3 6 + 6 B p p p p p p p p s s s s s s s s s s s s s s p s s s s s p p u u u u u p p p p p u p p u s s s s u u u u 9 q 3 + % u u u u u u u u u u u u u u u u u u u u u u u u u u u y y y y y y y y y y y y y y y y y y y y y a a a y y 9 5 2 + % 3 3 5 3 3 3 3 3 3 3 3 3 3 3 3 3 3 3 3 2 2 2 4 4 4 2 2 2 2 4 4 4 2 2 2 , 2 , 2 2 2 , , , , 2 , , , , , , , & , % X O , , 2 , 2 2 & , , , , , , , & & & & & & & & & % % % % % % % % % % % % ",
"                                      o o o o o . . . . o o o . X X X X X X . X X X X X O O X X X O O O O O O O % % % % % % % % + % O O O X $ 3 3 3 3 3 3 3 3 3 3 5 5 5 5 5 5 5 9 9 9 5 a a a a a a 9 9 5 5 5 5 5 5 5 5 5 5 5 5 9 5 5 5 5 9 5 5 3 < % + % % * + , < 3 4 < 6 < 4 4 4 4 < 4 4 4 3 < < 6 6 6 6 3 3 3 3 3 3 3 3 3 5 5 3 3 3 3 3 6 6 1 1 5 5 5 5 5 5 5 5 5 5 1 5 6 % + + < s s s u s u u u u u u u u s s B B B B B m B B B B B B B B B B B B B B B B B B B B B B B B B B B B B B s 9 9 9 5 < 6 B B B B B B B B B B B B B B B B B B B B B B d B B d B B B B B B B B B B p p p p u u u y y y y y y 9 3 5 5 5 3 5 @ + 6 9 9 u 9 y y 9 9 9 y y y y y y 9 9 9 0 9 9 y y y y y u 9 y y 9 9 9 9 9 9 9 9 9 9 9 5 5 5 5 1 3 6 < 6 6 3 < < < + O < 5 5 5 5 3 5 3 3 3 3 3 3 3 3 5 5 3 3 3 5 5 5 5 5 3 3 3 5 3 3 3 3 3 6 6 3 3 3 3 3 3 3 3 4 4 4 4 3 3 4 4 3 3 4 % O + , 4 2 4 2 4 4 4 2 , , , , , , , , 4 , , , , , , , , , , % % % , , % % % % , % % % % % % % % % % % % % % % $ O O X X O O O $ $ $ $ $ $ $ $ % % % $ % % % % % % % % $ % $ $ $ $ $ $ $ $ $ $ ",
"      # #   #         #         #                                                         .               . . . . . .     .   . . X X X O O O O O O O O O O O O O O + O O O + + + % + % % % % % % % % + + O O + + + + + + + + + + + + + + % % + % O % % % % % + % % % % % % + + % % * * * * % % * * * % % % < < < < , , , , < < 4 , 4 < < < < < < < < < < < < < < < < < < < + + + + O < < < < < < < < < < < < < < 6 6 5 5 5 3 3 5 5 5 1 1 5 5 5 5 5 5 5 5 5 5 5 5 5 5 5 5 5 5 5 1 5 5 5 3 5 6 < 6 1 6 < < 5 1 1 1 1 1 1 1 1 1 1 1 1 1 1 1 6 1 1 1 1 6 1 1 1 1 1 6 6 6 < 6 6 6 6 , , , % % + + + + + + + + + + @ * @ 4 6 6 < + O O + O + + + + + + + + + + + + + O + O + + + + + + + O O O O O O O O O O O O O O + + + + + + + O O O O % < , , , + O O O O O O + O O O O O O O O O O O O O O O O O O O O O O O O O O O O O O O O O O O O O O O X O O X O X O O % % O O O O $ O $ $ $ O O O O O O O O O O O O O $ O O O O O O O O O O O O O O O X $ X X X X X X X X O O X X X X X X X X X X X X X X X X o o o X X X X X X o o o o o o o o o X o o o o o o     o   ",
"X $ $ O O O O O O O O X             . .       . . . .   . . .           . . . . . X X X X O O O O O O O X . . X . . X X X O O O O O $ O O O O O O O O O O O O O O O O O O O O O O O O O O O O O O O O + + + + % + + + + + + + + + + + + + + % * % % % % % % % % % % % % % % % % % % * * * % % < < , * % % % * * * * * % % % % % % % % % < < < < < < < < < < < < < < < < < + + + + + + + @ @ @ @ + + + + + + + + + + + + < < < < < < , = = = , , , , , < < < < < < < < < < < < < < < < < < < < < < < , < < , , < < < < < < < < < < < , < < , , = , , , < < < < < , < < + O + + + + + + + + + + + + + + + + + + + + + < 6 6 6 < , < , = < < + + , , = + + % * * , < + + % + + + + @ @ + + + + + + + + < , , , 4 < < < < < < < < < < 6 < , , < < 4 4 4 , * < < * 4 4 4 < * * * * % % % * @ + O O O O O O O O O + + + O O O O O O O O O O O O O O O O O O + O O O O O O O O O O X O X X X X X X X X X X X X X X X . . X X X O O O O O O O O O O O O O O O O O O O O O O O O X X X X O X X X X X X X X X X o o X X X X X X X o o . o o o o o X o o o o o o o o o     ",
"X X X X X X X X o o X o .       . . . X X X X o o o o o o . . . . . . . . X X . . O $ % % % % % % % % % % % % % % % % % % % % % % % % % % % % % % % % % % % O O + O O O O O O O O + + O O O $ O O O O % O + O O + + + + + + + % % % % % % % % % % % % % % % % % % % + + + % % % % % % * * * % % * < * * % * * * * < * % * * 2 6 3 3 6 6 6 3 3 3 3 3 3 3 3 3 3 3 6 3 3 3 5 3 3 6 < < 4 * * < < < < < < < 4 4 < < < < < 6 3 1 1 1 1 5 6 6 6 6 6 6 6 5 5 5 1 1 1 1 5 5 1 5 5 5 5 5 5 1 5 5 5 5 5 5 5 5 5 5 5 5 3 5 5 5 5 5 5 5 5 5 5 5 5 5 3 3 3 5 3 3 5 < 6 < < 4 4 4 < < % + + + + + + + + + + + + + + + + + + + + + < < < < < < < < < < < < < < < < < < < < < < < < < < < < < 2 , < < * < * % % % < * * * * % % % % % % % % + + % % % % % + + + + + + % + + + + % % + + + + + + + + + O O O O O O O O O O O O O O O O O O O O O O O O O O O O O O O O O O O X X X X X . . . . . X . . . . . o o o o X X o o .   . . . . X O O O O O O O X X O X X X X X X X X X X X O O X X X X X X X X X X X O O X X X X X X X X X o o o X o o o o X o o o o o o o o   o o o o ",
"                        . X X O $ $ % % % % % % % $ O O X X o o o o . X X X . . . % % % % % + % % % % % % % % % % % % % % % % % % % % % % % % % % % % % % % , % % , % % % % % % , % , , % % O O O O O O O O O + O + + + + + + + + + + + + + + + + + + + + + % % + % + + + % % % % % % * % % % % % * * * % * < @ * @ * * % 3 9 9 y y 9 9 a 9 3 4 3 3 3 3 3 5 5 5 5 5 5 5 1 1 5 6 < < 5 5 3 3 3 3 3 3 3 3 6 6 3 3 3 5 3 3 3 6 6 3 5 6 6 5 5 6 6 6 5 1 1 5 5 5 5 5 3 3 6 6 3 5 3 1 5 5 1 1 1 1 5 5 5 5 1 1 1 5 5 5 1 1 1 5 5 5 1 1 5 5 5 5 1 1 1 1 3 5 5 6 6 3 6 < < < , , , % , , < < * % * * , , % % , % , = , % @ @ + , , , @ + = @ % , % + @ @ @ @ @ @ @ @ @ @ * * @ * * * @ + O O + O O O O O O O O O O O O O O O O O O O O O O O O O O O O O O O O O O O O O X X X X X X X X O O O O O O X X X X O O O O . O O O O O O O O O O O O O O O O O O O O O O O O O O O O O O O O O O O O O O O O O O O O O O O O O O O X O O O O O O $ $ % % $ $ $ $ $ $ $ $ $ $ $ % % % & & & & 2 , , & & & & & & , & & & & % % & & % % % % % % % O $ O O X X o o o o o X $ $ $ $ ",
"O O O O O O O O $ $ $ $ % % % % % % % % % % % % & % % % & % % % % % O . X . X .   $ % $ $ % % % % % % % % % % % % % % % , , % % % % % % % % % % % % % % % % % % , , % % % % & * , % % , 2 2 % O O + O + O + O O O O O O + + % % % % % , 4 , , , , , , , , , 4 < 4 4 4 4 4 4 , , % % % % + + + + % % % % % + % % + * % % % 5 u u u u u u u u y 5 5 5 3 3 3 6 4 4 4 4 < < < < < < < < < 4 4 4 4 4 6 6 6 6 6 6 6 6 < 6 < < 6 6 6 6 6 < 6 5 5 6 6 6 6 6 5 6 6 6 6 6 6 6 6 6 6 1 6 6 6 6 6 6 6 6 6 5 6 6 6 6 6 6 3 3 6 6 6 6 3 3 3 6 6 6 6 6 6 6 6 6 6 6 6 5 4 6 6 4 < * % * < 6 < 3 6 6 6 6 6 < < < < < < 2 < < < < < < < 6 5 5 5 5 5 5 5 5 1 5 3 3 6 6 6 6 6 3 3 3 6 6 3 4 3 6 6 , 6 < O O < 5 5 5 9 9 9 9 9 y y y y y 5 5 5 5 5 5 5 5 5 5 5 5 5 5 5 5 5 3 4 4 4 4 % , 4 4 4 4 3 5 5 3 5 5 5 3 3 3 3 < , * O . + 3 4 4 3 5 5 5 5 5 5 5 5 5 5 5 5 3 3 3 3 3 5 3 3 3 5 5 3 3 3 3 3 3 3 3 3 3 3 3 5 5 4 4 2 2 3 3 3 3 2 3 2 2 % $ O O $ % 2 3 2 2 2 2 2 2 2 2 2 2 2 2 2 2 2 2 2 2 & & , , , , & & & & & & & & & % % % & % % % % % % % % % % % % $ O X o o O $ $ % $ $ ",
"% $ $ $ % % % % % % % % % % % % % % % % % % % % % % % % & & & & & , , O o X X . . + % & & 2 , 2 , , 2 2 , , , 2 2 2 2 2 3 2 2 2 3 2 2 2 2 2 2 2 2 2 4 2 , % % % , , , 2 2 2 2 4 2 4 2 2 % , % O O O + + O % % , , 2 2 2 2 3 5 5 5 5 5 5 5 5 5 5 5 5 5 5 5 5 5 5 9 5 9 9 9 9 9 9 5 3 4 2 < 3 3 5 5 3 3 4 2 < 4 % % % * % % 5 y y y y y u u u u u u u u u u y y y y u y 9 9 5 1 3 3 3 6 6 6 6 3 3 4 3 3 5 5 9 y 9 a y r 5 5 5 5 5 3 3 6 3 5 6 6 6 < 6 6 6 3 < < 6 6 6 6 6 6 6 6 6 < 6 6 6 3 3 5 5 6 3 1 1 5 5 5 5 1 1 1 1 3 3 3 6 3 6 6 6 6 < < < 4 < < 4 4 4 1 < < * 4 9 y u y u y y y y y y y u u u y y y y y y y y y y y y y y u u u u u y y y y y y y y y y y y y y y y y y y 5 9 * O y u y y y y y y y y y y y y y y y y y y y y y y y y y y y y y y y y y y y y y y y y y y y y y y y y y y a y 2 , O X 3 3 5 5 3 5 5 5 5 5 5 5 5 5 5 5 5 5 3 3 3 3 3 3 3 2 3 3 3 3 3 4 4 4 2 2 2 2 2 2 4 4 2 2 2 2 2 2 2 2 2 2 2 2 4 % O X % 2 2 2 2 2 2 2 2 2 2 2 2 2 2 2 2 2 2 2 2 2 2 2 , , , , & & & & % , , & & & & % & % % % % % % % % % % % % % O O o X % % $ $ $ O ",
"$ $ $ $ % % % $ % % % % % % % % % % % % % % % % % % % % & % % & & & , % . X .     O % , 2 2 2 2 2 2 2 2 2 2 2 2 2 2 2 2 2 2 2 2 2 2 2 2 2 2 3 3 e e 3 3 5 3 5 5 5 5 5 5 5 5 5 3 3 5 5 5 2 & % O O O O O % 2 3 5 5 5 5 3 3 3 3 3 5 5 5 5 5 5 5 5 5 5 5 5 5 5 5 5 5 5 5 5 5 5 5 5 5 e a a a a a 9 a a 5 9 a 9 5 2 % % * % % 5 y y y y y y y y y u u u u u u u u y u u u u u u u u u y y 5 5 5 5 5 y y y y u s s s u u u u u u u u 5 5 6 3 5 < < 4 < < < 6 6 6 6 < < < 6 6 6 6 3 1 9 y y u y y y y y y u u y y y u y y y y y y y y y y y 9 y 9 9 y 5 1 3 < < < < , % < 9 u y y y y y y y y y y y y y y y y y y y y y y y y y y y y y y y y y y y y y y y y y y y y y y 9 y a a a y 5 5 * O y y y y y y y y y y y y y y y y y y y y y y y a y a y y y a y y a y y y y y 9 y y y y 9 y y y y 9 9 a a 9 e 4 , + O 4 5 5 5 5 5 5 5 5 5 5 5 5 5 5 5 5 5 3 3 3 3 3 3 3 3 3 3 3 2 2 2 2 2 4 4 2 2 4 4 2 2 2 2 2 2 2 4 4 4 4 2 , , 2 , O X , 2 2 2 2 2 2 2 2 2 2 2 2 2 2 2 2 , 2 2 2 2 2 & & & & , & & & & & , & % & & & % % % % % % % % % % % % % % % O O o o % $ $ % $ $ ",
"$ $ $ $ $ % $ $ $ $ % % % % % % % % % % % % % % % % % % & % % % & & & % X . . .   O % , 2 2 2 2 2 2 2 , 2 2 2 2 2 2 2 2 2 2 2 2 2 2 2 2 2 2 5 3 3 3 3 5 3 5 5 5 3 3 5 5 5 5 5 5 3 3 3 5 e 2 % $ O O O O 2 5 3 3 3 5 5 5 5 5 5 5 5 3 5 5 5 5 5 5 5 5 5 5 5 5 5 5 5 5 5 5 5 5 5 5 5 5 5 5 5 5 a 9 9 5 9 9 5 5 5 5 % + % % % 3 y y y y y y y y y y y y y u u u u u u u u y u u u s u u u u u u u u u u u u u u u u u u u u u u u s y 3 3 3 3 4 < 6 < 5 5 y y y y y y y y y y y u u u u u u y y y y y y y u y y y y u u u y y y y u u u u u u u u u u u 9 3 < < < * @ < y y y y y y y y y y y y y y 9 9 9 9 y y y y y y y y y y y y y y y y y y y y y y y y y y y y y y 9 9 a y a a 5 5 * + y y y y y y y y y y y y y y y y y y y r a y y a y y y y y a y y 9 y y y y y 9 a 9 9 y y a a a a a a a a a 5 < , + O 4 3 5 5 5 5 5 5 5 5 5 5 5 5 5 5 5 5 3 3 3 3 3 3 3 3 3 2 2 4 2 2 2 3 3 2 4 4 2 2 2 2 2 2 2 2 2 2 2 2 , 2 2 2 2 2 O X 2 2 2 2 2 2 2 2 2 2 2 2 2 2 , 2 2 , 2 2 2 2 % % % % & & & & & & % & % & & & % % % % % % % % % % % % % % % % $ O o X % $ $ $ $ $ ",
"$ $ $ % $ $ $ $ $ $ % % % % % % % % % % % % % % % % % % % & % % % % & % X X . .   $ & , 2 2 , 2 2 2 2 , 2 2 2 2 2 2 2 2 2 2 2 2 2 2 2 2 3 2 4 5 2 3 3 5 4 4 5 5 3 3 5 5 5 5 5 3 5 5 5 3 5 4 % O O O O O 2 5 3 3 3 5 5 3 3 3 5 5 5 5 5 5 5 5 5 5 5 5 5 5 5 5 5 5 5 5 5 5 5 5 5 5 5 5 5 5 5 5 5 5 e e 5 5 5 5 r 9 * + @ % % 3 y y y y y y y y y y y y y y y y y y y u y y u u u u u u y y u u u u u u y y u u s s u u u u u u u u y 4 3 4 3 4 < 4 3 y y y y y y y y y y y y y y y y y y y y y y y y y y y y y y y y y y y y y y y y y y y y y y y u u y 5 < < < < @ < y y y y y y y y y y y y y y y y a a a y y y y y y y y y y y y y y y y y y y a a a y a a 9 9 a a y 9 y y a a 5 5 4 O y y f y y y y y y y y y y y y y y y y y y y y y y y a a 9 a 9 9 y r r r 5 5 e a a a a a a a e a 5 5 5 5 e r < 4 O X 5 5 5 5 5 5 5 5 5 3 5 5 5 5 5 3 3 3 3 3 3 3 3 3 3 2 2 2 3 3 3 4 2 3 4 4 4 2 2 2 4 4 4 4 4 2 2 , , 2 2 2 2 2 2 , O X 2 2 2 2 2 2 2 2 2 2 2 2 2 2 2 2 2 2 % 2 % % & & % % % & & & & & & % & & & % % % % % % % % % % % % % % % % % $ O   X % $ $ $ $ $ ",
"$ $ $ $ $ $ $ $ $ $ $ % % % % % % % % % % % % % % % % % % % % % % % & % X . .     $ & 2 2 2 2 2 2 2 2 2 2 2 2 2 2 2 2 2 2 2 2 2 2 2 2 4 3 3 5 5 2 2 2 2 2 2 5 5 5 2 5 5 5 5 5 5 5 5 5 5 5 4 % O O O O O 3 5 3 3 3 3 3 5 5 5 5 5 5 5 5 5 5 5 5 5 5 5 5 5 5 5 5 5 5 5 5 5 5 5 5 5 5 5 5 5 5 5 5 5 5 5 5 5 5 5 5 5 , + % % % 4 y y y y y y y y y y y y y y y y y y y y y y y y y y y u u y u u u u u u y y u u u u u u u u u u u u y 5 4 4 3 < < < 5 f y y y y y y y y y y y y y y y y y y y y y y y y y y y y y y y y y y y y y y y y y y y y y y y y y 5 < < < 4 * < y y y y y y y y y y y y y y y y y y y y y y y y y y y y y a y y a a a a y 9 y y a y y y a a y a y 9 9 y y a 5 5 * + y y y y y y y y y y y y y y y y y y y a y y a a a y y a 5 5 5 5 5 r y a a a a e e e e e e e 5 5 5 5 5 9 9 e , , % O 3 5 5 5 5 5 5 5 5 5 5 5 3 3 4 4 4 4 3 3 3 3 4 2 3 3 2 2 3 3 3 3 4 4 4 4 2 2 2 2 4 4 4 4 2 2 2 , , , 2 2 2 2 , % O O 2 2 2 2 2 2 2 2 2 2 2 2 , 2 2 2 2 2 2 % % & & & % % % & & & & % % % % & & % % % % % % % % % % % % % % % % % O O   X $ $ $ $ % $ ",
"$ $ $ $ $ $ $ % % % % % $ % % % % % % % % % % % % % % % % % % % % % % % X o o o   $ , 2 , , 2 2 2 2 2 2 2 2 2 2 2 2 2 2 2 2 2 2 2 2 2 2 2 2 2 4 4 4 4 4 2 2 3 3 2 2 4 5 5 5 4 4 5 5 5 5 5 3 % O O O O $ 2 3 3 3 3 3 3 3 3 5 3 5 5 5 5 5 5 5 3 5 5 5 5 5 5 5 5 5 5 5 5 5 5 5 5 5 5 5 5 5 5 5 5 5 5 5 5 5 5 5 5 5 4 + % % + 4 y y y y y y y y y y y y y y y y y y y y y y y y y y y y y y y y y y u u u u u u u u u u u u u u u u y 4 < < 5 4 , 4 y y y y y y y y y y y y y y y y y y y y y y y y y y y y y y y y y y y y y y y y y y y y y y y y y y y 5 < < < < @ < y y y y r y y y y y y y y y y y y y y y y y y y r y y y y y y 9 9 y y y y 9 9 9 9 9 y 9 9 9 y y a y y y y y 5 5 % + y y y y y y y y y y y y y y y y a a a a a a a 9 y y y y y r r 5 a a a 5 e e e e e e e r r r r e e e r r e e 4 * % . 2 5 5 5 5 5 5 5 5 5 4 4 3 3 3 3 3 3 3 4 4 4 2 4 4 3 2 2 3 3 4 4 4 4 2 2 2 2 2 , 4 4 4 4 2 2 2 2 2 2 2 2 , 2 , % O $ 2 2 2 2 2 2 2 2 2 2 2 , 2 2 2 2 2 % % % & & & & & % % % & & & & % & & % % % % % % % % % % % % % % % % % % % O O   o $ $ $ $ $ $ ",
"$ $ $ $ $ $ $ $ $ % % % $ $ % % % % % % % % % % % % % % % % % % % % % % X o X o   $ , , , , 2 2 2 2 2 2 2 2 2 2 2 2 2 2 2 2 2 2 2 2 2 2 2 2 2 2 4 4 3 3 2 2 3 3 2 2 2 2 2 5 4 4 5 3 5 5 5 2 % O O O O $ 4 4 3 3 3 3 3 3 3 3 3 3 5 5 5 5 5 5 5 5 5 5 5 5 5 5 5 5 5 5 5 5 5 5 5 5 5 5 5 5 5 5 5 5 5 5 5 5 5 5 5 5 4 + + % + 3 y y y y y y y y y y y y y y y y y y y y y y y y y y y y y y y y y y y y y y y y y y y y y y y y u u y 4 < < 3 < , 4 y y y y y y y y y y y y y y y y y y y y y y y y y y y y y y y y y y y y y y y y y y y y y y y y y y y 5 4 4 4 4 * < y y y y r y y y y y y y y y y y y y y y 5 5 9 9 9 9 y a 9 9 9 9 9 9 y y y y 9 9 9 9 y y 9 9 9 9 a y y y y y 5 5 + O y y y y y y y y y a a a y a a a a a a a a r e 5 y y y y e e e e e y r e e e e e e e e r r r e r e e r r e e 4 % % . 2 3 5 5 5 5 3 3 3 3 4 4 3 3 3 3 3 3 2 2 4 4 4 2 2 3 2 2 3 4 4 4 4 2 2 2 2 2 2 2 , , 2 2 2 2 2 2 2 & , , , , , , O $ 2 2 2 2 2 2 2 2 2 2 , , 2 2 2 2 & & & & & & & & & % % % & % & % & & % % % % % % % % % % % % % % % % % % % % O O   o $ $ $ $ $ $ ",
"$ $ $ $ $ $ $ $ $ $ % % $ $ % % % % % % % % % % % % % % % % % % % & % % X o o o   $ , , , , 2 2 , , 2 2 2 2 2 2 2 2 2 2 2 2 2 2 2 2 2 2 2 2 2 2 3 3 3 3 2 2 2 2 2 2 2 2 4 2 5 5 5 3 5 5 5 2 % O O O O $ 2 2 2 2 4 2 2 2 2 3 3 3 4 4 3 3 5 5 5 5 5 5 5 5 5 5 5 5 5 5 5 5 5 5 5 5 5 5 5 5 5 5 5 5 5 5 5 5 5 5 5 5 3 % + % + 3 y y a a y y y y y y y y y y y y y y y y y y y y y y y y y y y y y y y y y y y y y y y y y y y y y y y 4 < < 5 4 4 4 y y y y y y y y y y y y y y y y y y y y y y y y y y y y y y y y y y y y y y y y y y y y y y y y y y y 5 , 4 4 4 % 4 y e y y y y 9 9 9 9 y y y y 9 9 y 9 y y y y a y 9 a y y y y a a 9 a y y y y a a a a y y y y e r 5 5 y e 5 5 5 5 O O a a a a a a a a a a a a a a a e y y y y r r r r e e e e r e e e r r r r e e e e e e e e e e e e e e e e e e , % % X 4 5 3 3 3 3 3 3 3 5 3 3 3 3 2 2 4 4 2 2 2 2 2 2 2 2 4 4 4 4 4 4 2 2 2 2 2 2 2 2 2 2 , , 2 2 2 2 , , , , , , 2 , O $ 2 2 2 2 2 2 2 2 2 2 , , 2 2 % % 2 2 % & & & & 2 % & % % % % % & & % % % % % % % % % % % % % % % % % % % % $ O O o X $ $ $ $ $ $ ",
"$ $ $ $ $ $ $ $ O $ $ % $ % % $ % % % % % % % % % % % % % % % % % & & % X o o     $ , , , , , , , , , , 2 2 2 2 2 2 2 2 2 2 2 2 2 2 2 2 2 2 2 2 2 2 2 3 2 2 2 4 2 2 2 2 4 4 2 5 4 5 5 5 5 4 % O O O O O 2 2 3 2 4 4 4 3 3 2 3 3 4 4 3 3 3 3 3 3 5 5 5 5 5 5 5 5 5 5 5 5 5 5 5 5 5 5 5 5 5 5 5 5 5 5 5 5 5 5 3 5 3 + % + O 3 y a a a a a y y y y y y y y y y y y y y y y y y y y y y y y y y y y y y y y y y y y y y y y y y y y y 4 4 < 4 4 4 5 y y y y y y y y y y y y y y y y y y y y y y y y y y y y y y y y y y y y y y y y y y y y y y y y y y y 5 4 4 4 < % 4 a e r y y y 9 9 9 9 y y y 9 9 9 y a y y y r e e e e y y y r e e e e r r r r e e e e r y y y e r 5 5 e e e e 3 5 + O r a a y a a a a e y y r r r r e y y y y r r e e e e e e e e e e r r r e e e e e e e e e e e e e e e e e e e 2 % % X 2 5 4 3 3 3 3 3 3 3 3 3 2 2 2 4 3 4 2 2 2 2 2 2 4 4 4 4 4 4 2 2 2 2 2 2 2 2 2 2 2 2 , 2 2 2 , , , 2 , , , , 2 2 O $ 2 2 2 2 2 2 2 2 2 2 2 & , , % % 2 2 & & & & & 2 % & % % % % % & % % % % % % % % % % % % % % % % % % % % % % O O o X $ $ $ $ $ O ",
"$ $ $ $ $ $ $ $ O $ $ $ % % $ $ $ % % % % % % % % % % % % % % % % % % % X o o     $ & & & & , , % 2 2 2 2 , 2 2 2 2 2 2 2 2 2 2 2 2 2 2 2 2 2 2 2 2 2 2 2 2 4 4 5 5 2 2 2 2 5 5 2 4 5 5 5 5 % O O O O $ 4 2 3 3 3 4 2 2 2 2 3 3 4 4 3 3 3 3 3 3 3 3 3 5 5 5 5 5 5 5 5 5 5 5 5 5 5 5 5 5 5 5 5 5 5 5 5 5 5 5 5 5 5 + % $ $ 4 y a a a y y y y y y y y y y y y y y y y y y y y y y y y y y y y y y y y y y y y y y y y y y y y y y y 4 4 4 4 4 * 5 y r y y y r r r y y r r y y y r y y r y y y r r y y r r r r y y y y r r r r y y y y r r r r y y y y r 5 4 4 4 , % 4 r e e e y y 5 e r y y y 5 5 5 5 r y y y r r e e y y y y r y e e y y y y 5 5 e e 5 e e e r r e e e e e e e e 3 5 + O e a r y r e r y y y r r r r y y e e e e e e e e r r e e e e e r r e 5 5 r r e e e e r e e e 5 e 5 e e e e e 2 % % X 4 5 4 3 3 3 3 3 4 4 2 2 2 3 3 3 4 4 3 3 4 4 4 4 4 4 4 4 2 2 2 2 2 2 4 2 2 , , , 2 2 , , 2 , , , , 2 , , 2 % , % X $ 2 2 2 2 2 2 2 2 2 2 & 2 2 2 % % & & & & % % , , , & & % % % & % % % % % % % % % % % % % % % % % $ % % $ $ $ O O o X $ $ $ $ O O ",
"$ $ $ $ $ $ $ $ O O $ $ $ % % % $ $ % % % % % % % % % % % % % % % % % % X o .     $ & & & & , , & & 2 2 , , 2 2 2 2 2 2 2 2 2 2 2 2 2 2 2 2 2 2 2 2 2 2 2 2 2 4 2 4 4 4 4 2 5 3 2 2 2 4 5 5 % O O O O % 4 4 4 2 4 4 3 3 2 2 3 2 2 2 3 3 3 3 3 3 4 4 3 3 3 3 5 5 5 5 5 5 5 5 5 5 5 5 5 5 5 5 5 5 5 5 5 5 5 5 5 5 3 $ $ $ $ 4 y r a a a a a a a a y y y y y y a a y y y y y y y y y y y y y y y y y y y y y y y y y y y y y i y y i 5 4 4 2 4 * 3 y r y y y y r r r y r r y y y y y y r r y y r y y y r r y r y y y y r r y y y y y y r r y r y y y y r 5 4 4 4 4 % < 5 5 e e y y e e r r y y 5 5 e 5 r r y 5 5 5 5 5 5 5 5 5 5 5 r e e r r e e 5 e e e r e e r e e e e e e e 5 5 5 5 % O r e r e r r r r y y r r e e e e r r e e e e e e e e e e e e r r r e e e e r e e e e r r r e e e e e e e 5 5 4 % % X 4 5 3 3 3 3 2 2 4 4 2 2 2 2 2 3 4 4 4 4 4 4 4 2 2 2 2 2 2 2 2 2 2 2 2 2 2 2 , , 2 2 2 2 2 , , , , , , , 2 & , % X $ 2 2 2 2 2 2 2 2 & & % % 2 2 & & % & & & & % & & & & & % & & % % % % % % % % % % % % % % % % % % $ % % $ $ $ O O   X $ $ $ $ O O ",
"$ $ $ $ $ $ $ $ $ $ $ $ $ $ % % $ $ $ % % % % % % % % % % % % % % % % % X o .     $ & & & & & , & & & 2 , 2 2 2 2 2 2 2 2 2 2 2 2 2 2 2 2 2 2 2 2 2 2 2 2 2 2 2 2 2 4 4 2 2 3 2 2 2 2 2 4 4 % O O O X % 4 4 4 4 4 2 3 3 4 4 4 4 2 2 2 3 3 4 4 4 4 4 4 3 3 3 3 3 5 5 5 5 5 5 5 5 5 5 5 5 e 5 5 5 5 5 5 5 5 5 5 5 4 % $ $ $ 4 y r e r r y r r r r e e r r y y y r y y y y r r r y y y y y y y y y y y y y y y y y y y y y y y y y y 5 * , 2 , % 5 e e e e r r r r r e e r r r r r r 5 5 5 y y y y y y y r y y y y y r r r y y y y y y r r y y y y r r r 5 * 4 * * * * 5 5 5 5 5 5 e e e e e e e e e e e e e e e e e e e e e e e a r e e r r e e e e e 5 r e e e e e e e e 5 5 5 5 4 5 % O r r r r r r r r e e e e e e e e r e e e e e e e r r r r r r r r e e e e e r r e e e e r e r 5 5 5 5 5 5 e 5 4 % $ X 4 5 5 5 5 2 2 2 2 4 4 4 4 4 2 2 2 4 4 4 4 4 2 2 2 2 2 2 2 2 2 2 2 2 2 2 , 2 2 2 2 2 2 , , , , 2 2 2 2 2 2 2 , % X $ 2 2 2 2 2 % & & & & & % 2 2 & & & & & & % % % & & & & & % % % % % % % % % % % % % % % % % % % % % % % $ $ $ O O   X $ $ O O O O ",
"$ $ $ $ $ $ $ $ $ $ % $ $ $ $ % $ $ $ $ % % % % % % % % % % % % % % % % X o .     $ & & % & & & & & 2 2 , & 2 2 & 2 2 2 2 2 2 2 2 2 2 2 2 2 2 2 2 2 2 2 2 2 2 2 2 2 2 2 2 2 2 2 2 2 4 2 2 2 % O O O O % 2 2 2 2 2 2 2 2 4 4 4 4 2 2 2 2 3 3 4 4 4 4 3 3 3 3 4 3 3 3 3 5 4 4 4 4 5 5 5 5 5 5 5 5 5 5 5 5 5 5 5 5 4 % % $ O 4 y r r r y y r r r r e e r r y r r r y y y y r r r r r y y y y r r y y y y y y y y y y y y y y y y y i 5 * % % % % 5 r e e e r r r r r r e r r r r r r e e e y y r r r r 5 5 r r y r r r 5 5 r r r r r r r r r r r r y r r 5 * 4 4 % * * e e e a e e e e e e e e e e e e e e e e e e e e r e e e e e e e 5 r r e e e e e r r e e e e 5 5 5 5 5 5 5 5 4 4 % O r r r e e e e e e e e e e e e e r r e e r r r e r r r r e e e e e e e e e r r e 5 5 5 5 5 5 5 5 5 5 5 5 e e 4 * O X 4 5 2 2 4 2 4 2 4 2 4 4 4 4 2 2 2 2 2 2 4 4 2 2 2 2 2 2 2 2 2 2 2 2 2 2 4 , 2 2 2 , & , , , , 2 2 2 2 2 2 2 , % X $ 2 2 2 2 % % & & & & & % 2 & & & & & & & % % % % & & & % % % % % % % % % % % % % % % % % % $ % % % $ % $ $ $ O O   X $ $ O O O O "
};
