/* XPM */
static char *af417d2b7d954509a6e47a93bcc37af6609KUNs9NGlLQqj5[] = {
/* columns rows colors chars-per-pixel */
"512 512 256 2 ",
"   c #02152D",
".  c #011B2D",
"X  c #0B1B2D",
"o  c #061727",
"O  c #011534",
"+  c #011C35",
"@  c #0A1C34",
"#  c #01163B",
"$  c #0B153B",
"%  c #011C3C",
"&  c #0A1C3C",
"*  c #0B1534",
"=  c #121A39",
"-  c #061031",
";  c #02222D",
":  c #07222C",
">  c #012235",
",  c #02223D",
"<  c #0A223C",
"1  c #02293D",
"2  c #092537",
"3  c #12233B",
"4  c #03323E",
"5  c #101A2D",
"6  c #011643",
"7  c #0B1543",
"8  c #011D43",
"9  c #0A1C43",
"0  c #01164B",
"q  c #011D4B",
"w  c #0A1D4B",
"e  c #0A154A",
"r  c #121B47",
"t  c #011D53",
"y  c #0A1E52",
"u  c #011D5B",
"i  c #031856",
"p  c #0F184E",
"a  c #022244",
"s  c #0A2444",
"d  c #022A44",
"f  c #0B2945",
"g  c #02234B",
"h  c #0A244B",
"j  c #032A4C",
"k  c #0B2A4C",
"l  c #122444",
"z  c #12244B",
"x  c #122C4C",
"c  c #132A46",
"v  c #01324C",
"b  c #0C324D",
"n  c #023548",
"m  c #13314E",
"M  c #15324A",
"N  c #012453",
"B  c #0A2553",
"V  c #032A53",
"C  c #0B2C53",
"Z  c #01245B",
"A  c #0A255B",
"S  c #022B5B",
"D  c #0B2C5B",
"F  c #122553",
"G  c #122D53",
"H  c #122D5B",
"J  c #162858",
"K  c #023254",
"L  c #0C3155",
"P  c #013A54",
"I  c #03325B",
"U  c #0C325C",
"Y  c #023B5B",
"T  c #0C3A5C",
"R  c #0C3954",
"E  c #133254",
"W  c #13345B",
"Q  c #19355B",
"!  c #14395D",
"~  c #1A3A5D",
"^  c #193554",
"/  c #011D62",
"(  c #012562",
")  c #022C63",
"_  c #0B2C63",
"`  c #022C6A",
"'  c #0B2D6B",
"]  c #042567",
"[  c #122D63",
"{  c #142C68",
"}  c #033363",
"|  c #0C3463",
" . c #033B63",
".. c #0C3A64",
"X. c #03336B",
"o. c #0B346B",
"O. c #043B6B",
"+. c #0C3B6B",
"@. c #133563",
"#. c #143A64",
"$. c #1A3B64",
"%. c #13356B",
"&. c #133B6B",
"*. c #1A3C6B",
"=. c #1A3566",
"-. c #042C73",
";. c #033473",
":. c #0C3472",
">. c #043B73",
",. c #0C3B73",
"<. c #0C3C7A",
"1. c #06387A",
"2. c #143C73",
"3. c #1B3C73",
"4. c #133C7B",
"5. c #173877",
"6. c #122E72",
"7. c #213C6D",
"8. c #213057",
"9. c #03435B",
"0. c #12445B",
"q. c #074568",
"w. c #14426C",
"e. c #1B426C",
"r. c #174567",
"t. c #0C427B",
"y. c #084576",
"u. c #144374",
"i. c #1B4373",
"p. c #14437B",
"a. c #1B447B",
"s. c #1C4B7C",
"d. c #174B77",
"f. c #095676",
"g. c #185678",
"h. c #0E536C",
"j. c #22446C",
"k. c #224473",
"l. c #22447B",
"z. c #234B7C",
"x. c #274B77",
"c. c #27547B",
"v. c #2E5478",
"b. c #14647A",
"n. c #28657C",
"m. c #083B83",
"M. c #173D83",
"N. c #073188",
"B. c #233E86",
"V. c #0B4685",
"C. c #144483",
"Z. c #1B4483",
"A. c #1C4B83",
"S. c #1C4C8B",
"D. c #164988",
"F. c #1A5588",
"G. c #194C94",
"H. c #1A5696",
"J. c #0C528C",
"K. c #234C83",
"L. c #234C8B",
"P. c #284A86",
"I. c #245384",
"U. c #2B5384",
"Y. c #24538C",
"T. c #2B548B",
"R. c #2C5A8C",
"E. c #265B88",
"W. c #33588A",
"Q. c #254C94",
"!. c #245493",
"~. c #2C5493",
"^. c #245B94",
"/. c #2B5B94",
"(. c #245B9B",
"). c #2C5C9B",
"_. c #28549B",
"`. c #335C93",
"'. c #335C9B",
"]. c #355896",
"[. c #344E8A",
"{. c #1A6687",
"}. c #196A93",
"|. c #276688",
" X c #35668A",
".X c #2C629C",
"XX c #276697",
"oX c #33639C",
"OX c #386798",
"+X c #297797",
"@X c #377799",
"#X c #2C758B",
"$X c #1A59A5",
"%X c #295BA4",
"&X c #355CA5",
"*X c #2F5AB2",
"=X c #1C69AA",
"-X c #2C63A3",
";X c #2967A9",
":X c #3364A3",
">X c #3768A8",
",X c #3876A8",
"<X c #2A68B5",
"1X c #376AB5",
"2X c #3875B7",
"3X c #2976AF",
"4X c #447399",
"5X c #426BA7",
"6X c #4578A8",
"7X c #4578B7",
"8X c #446CB6",
"9X c #415EA4",
"0X c #3574C5",
"qX c #4779C4",
"wX c #31859A",
"eX c #3887A7",
"rX c #3986B8",
"tX c #358FAE",
"yX c #238FA6",
"uX c #4687A9",
"iX c #4887B8",
"pX c #4896B7",
"aX c #5697B9",
"sX c #518CB0",
"dX c #50A6BB",
"fX c #5691AC",
"gX c #3A8DC7",
"hX c #3AA4CA",
"jX c #488AC6",
"kX c #4996C7",
"lX c #5798C7",
"zX c #5292CF",
"xX c #629CC8",
"cX c #58A8C8",
"vX c #59A7D6",
"bX c #52B1CF",
"nX c #66A7C9",
"mX c #67B8D7",
"MX c #6DB1D3",
"NX c #57B1E3",
"BX c #6BB8E4",
"VX c #529BE2",
"CX c #58C7D9",
"ZX c #68C6DA",
"AX c #73C8DB",
"SX c #57CBE7",
"DX c #69C7E8",
"FX c #77C8E6",
"GX c #77D5E8",
"HX c #70D4F2",
"JX c #73E6F8",
"KX c #3DC8DB",
"LX c #86D2EF",
"PX c #88E7FA",
"IX c #83C3DE",
"UX c #88BDDD",
/* pixels */
". . 8 D a.K.a.&.% + . : 2 < 8 8 6 6 g E e.j.@.N 6 6 8 h G E f % + + % q g g a , % a &.Z.Q.K.S g 8 a j K K j g 0 0 ) F.F.F.+.0 q 8 g k k s a 8 8 q I ..| L a + g ` %X(..Xd.8 g 8 8 q h s 9 % + + a h f s , + % < Q Q W C 8 # + & 9 9 9 & & & 8 h D S S N q 6 9 < & s s & + % a k k C N q 0 t %.K.S.D.X.q 8 a x ^ 8.^ 8 q t Z C.Y./.s.N q g g ^ ^ ^ c % O , d j v C g 6 6 g g g g g g g g X.D.H.H.i.8 t t y.}.J.H.>.q S I yXSXKXCXY 8 # 8 k k h h 8 8 8 h C W E U q N Z u.R.Y.K...g a 8 s s s a & O + , s f f a % % % a f f f < a Z ` ^.iX7X6XS t g g N K C j g a 6 V *.e.&.S g 8 g V ! #.L g 8 6 j L U W L j a 8 a h x x s & & % + > 1 , a 8 q t 5.P.P.3.g % > > , a a % % % a g C C W j 8 % j |.NXSXbXf.% j S J.H.H.A.S q S X.J.J.;X2.6 d v b.SXKXCXf.d d 8 I O.o.D g 8 8 S M.Q.Q.4.N % % a N N s 8 q q Z y.F.F.Y.} q 8 a k E G Q 6 g a f.mXDXFXwXa g g O.F.H.S.D a 8 N &.A.A.s.V g g I a.Y.S.p.8 8 a k E Q G k # # % h G W C a 8 8 8 k G E z & O O O 2 < < 2 + + , j K P v > . > a V I I C 2 . O # s s c s < % % & a s a , + O + % 2 2 @ @ O O a a 8 8 & & = = ",
". . % D l.T.K.e.% + . : 2 < 8 8 # % g W j.j.@.g 6 6 a k E E s % . + 8 h h g , + O a i.T.].I.S 6 6 a j L L j 8 8 0 S A.F.F.+.8 6 8 a k x f s 8 8 a I | U j % O 6 ( (.).oXz.6 6 O q g h s 9 # + O s h f s , + % , E ~ Q C 8 # + s 8 9 s $ O O % g D S V N 8 8 & < s s s & + % s k k C h q 0 Z 3.T.^.S.O.g 8 a f ^ ^ ^ a 8 g ) S./.I.u.g 6 8 g Q ^ ^ f % O a j L L k s % 6 g h h h 8 8 # 8 ) A.H.H.i.8 q t y.XXJ.XX,.0 N K yXSXCXNXY a # 8 f h h k w 8 8 h E #.E C 8 q N 2.Y.E.s.| q 8 a s s s a & % % , s f f a % % 8 a f f f , a N ( F.7X6X6X} V q g N C C j a a 8 D *.k.*.D g 8 g C ! #.U g 8 8 g C ! ! C g 8 8 a k x x s & + + , , 1 d a 8 q t 3.P.[.3.h + + > < a s a % % a s E E ! j 8 8 C |.bXbXbXh.  a S A.H.!.K.N 6 N X.H.J.-Xu.g d n b.SXCXDXb.% % 8 ..+.&.H g % 8 D Z._._.4.V % % a g w s 8 q q N y.^.^.A.I 6 % 8 k Q ^ 8.6 g a f.bXDXFXwXd g g +.!.^.^.D g 8 V i.E.E.I.V q q I s.R.Y.a.g 6 8 h E Q E k % % 8 k Q Q G h 6 6 a k E E z & & % < < c l 2 . O % j K R b 2 . o % V  ...C + o O & s x c s & + + % a s s < + O % < 2 2 @ @ O O # a h h 8 O     ",
". . + C i.P.z.#.% + . . 2 < 8 8 # O a E j.j.W g 8 8 a k x x s + . . & w h a + . O a *.P.U.z.j + % 8 k b b d 8 6 N | s.F.I.w.8 8 8 a f x c < & % 8 D U U L h & g ` ).oXOXc.j g 8 g h w 8 & + O % a s f , , + + % G W W C 8 # % a a h f s & & s G C C N g a % % & s s < % O % a k k k g 8 6 N *.K.I.A...g a a f x x M % % g V s.I.U.i.V g g j ~ Q E h % + a f k f k s + % 8 g h s f s % 8 o.I.).Y.*.9 w q +.E.A.U.[ 6 B I uXDXDXFXK a % 8 s s s f g 6 6 h E ! C g g N N u.R.E.K...8 8 & s s s a % % % , < s s a 8 8 8 a a f s , a 8 S  XsXsX6XU g 8 a k k k k a % q D =.*.#.C g 8 8 j E ! L h 8 8 a k ! W k a 8 8 a h G x h 8 % + s s , a a a q q %.l.P.*.h O + > a s s a % % a s E L W k 8 8 j E.BXDXMXv.% a V l.~.~.x.B # g | T.).].$.+   d #XFXDXFX X, O & H G =.C a O % V i.T.P.2.g % % , g 8 s & 6 8 g +.I.z.c.U a 8 a E ~ ^ z O a a g.bXFXIX#Xa a 8 #.z.E.I.C a 8 N w.I.I.s.V g 8 S i.T.F.u.g 6 % a G Q G g % % 8 h E W C a % % 8 k G G s < % O % < c f %   O O a C G x 3 X @ s D | | C & X O & s c f s % O O % < s s < % O % % 2 2 @ @ O O % g C h & O @ @ ",
". . O g | &.| V + . . . @ % 8 6 O O % f E E k a % % % , s < < + . O % 8 8 8 + . > % C W @.@.a + O # s d 1 , & # w g I I Y V # & # & < < 3 @ % % # g g g C a O % N ,.+.&.U % a a 8 8 8 8 % + + % % a < , + + + % h h h g 8 6 % % 8 8 a % O O + < s a a a % % + % & & & % % % , s s s g 8 6 0 C @.| ..N 8 8 , , f f f O % 8 a U #.#.U 8 8 8 8 j g k g 8 % , a a a s % O O % a s & & # O # N +.,.+.E 8 9 9 S w...$.F $ 7 # d.+XXX|.j a % 8 a 8 8 a a 6 6 g C L j a % 8 0 S &.+...N 8 8 & & & 8 % % % + % , a a a 8 8 8 % , a s < , g g #.i.k.j.g a 8 a s s s s < % 6 g C D C g g a 8 g C C k a 8 8 8 g C k a 8 % 8 8 a h h a % % % s a , , , a 8 q A [ @.D a + + > , a a % % % 8 a j g k a 8 8 8 r.{.|.n.b   $ w { =.{ Q 7 O & 8 @.%.=.F < O % #. XE.OX! O + & z r B s + O + a _ %.%.S a + > < a 8 < # % % 8 V ..U W a + % % g C g l O a , K {.+X#Xg.% a % C W #.@.h 8 6 q S o...U j a 6 g U &...S g 6 # 8 h k h 8 % # % 8 h k a % % % % a f f s % + O + , a < % O * O 8 g f l = * * # q t N w $ - + % & < < < + O O O % % , % % O O + % @ @ @ O + % 6 8 8 + O + @ ",
"o . O 8 q g q % O . o . @ + % % O + + + % % % % % + O + + + + . > + % 6 6 8 + > > . 8 8 8 g O + * + + > > + # # 8 8 q 6 8 8 O r + + @ @ o @ + % a a 6 6 a 8 O + 6 N 8 6 % O % , + % % % + O + < + % % % + + + % 8 6 6 6 8 8 % + g g 8 % % + .   + + % % + + + + + % % % % % % % % , a 8 6 6 6 8 8 a % O % , , < + < O , , + a , % a O % 8 6 g 8 8 8 8 8 % % % % @ + O O + % + O @ @ O O 6 g N N a # & 8 8 g a h = = r - g j g 8 a % % % & % + % 8 8 8 8 a a a 8 # 8 % g N q N 8 g 8 + # # % % % % + + % % a 8 % 8 % % % % , % % a % 6 # % 8 + % % % & % % + + % # 8 8 q 8 8 8 a 8 a a a 8 % % % % % 8 a 8 % % % % 8 8 8 6 % 8 8 8 8 % % % , 8 8 q 0 0 8 8 % + + & % % % % % % 8 8 % a 8 a a # N g g a     = 9 0 0 6 7 * = l O g 0 8 % 2 > % 6 6 0 N # O & * = = & + + . + , q t N 8 O . + > % % @ @ % % + a a + + O # & % 8 N 8 3 @ s , 8 j g 8 j O a O s % a 8 & & 6 8 8 g g g % + + % a g q 6 8 % % % % 8 % % % # # + % 8 % + % + # + % % % + % % 8 8 % % % % + @ % % % # * * * + q N N q O   + O O O O O O O O O O O O O + + O O + @ @ O O O 8 8 8 a a < O   ",
"o   + % 6 6 6 + O o o o . O + + % + O O O O + % % + O   . O . . . O # 6 6 6 + . .   % # % < . . * * O + + O O $ 8 8 q 6 8 a O l O @ @ o o o O % a g 6 # 8 8 < h 8 g 8 % a , % < + + % % % + + + + % + + + + % % 8 % # # 6 8 % % g N q a < 2 @ @ . O + + + + + > O % % % % % % % % % a 8 8 % 8 % + , % O % , + % O , O > < + , O + < % a g 8 g q 8 8 8 8 % % % + @ @ + O % % + O 3 3 < & 6 8 q g % O & 8 % % , , * = l O j g N q 8 % % % & % + + 8 8 % 8 % % 8 a , f 8 g g q N 8 g 8 # # & 8 8 % % O + % % , 8 % % % % % % , % % + + s a f & & + < % % + + + + % # 6 6 6 6 8 8 a 8 8 a 8 % % % % % % % % % 8 % % % 8 8 8 6 6 8 g 8 8 8 % % % % % 8 6 # 6 8 # O O % % % % % % % % 8 % 8 8 g g # g N N a + 3 l 9 # w 6 & @ 3 2   % 8 6 . . + < w 0 t t 6 < 2 o - * # + . ; > > 6 6 8 6 O . . + % + @   + < % % %   + @ s s 6 q t 6 O   + a g g g g 8 % s O s O % O O # 8 8 6 6 8 a + % % % % % 8 8 % % % % % % % % 8 % + + % % % # % % # # # + + + % 8 8 8 6 % % % + + % + + O o X & 8 q t N q % + @ O O O O O O O O + O O O O + + O O + @ @ O O % a 8 % % % , < + ",
"o . O % 6 8 8 % O . o o @ + % % % O + , s d , % % O O O + + + + o O 8 N B h , . . . < 8 8 < . . @ @ + > > + # $ # 8 V V K g - O O + @ @ @ @ O % # N V V N 8 # 8 # 8 8 + , >   O % & a < % + + + % 8 % , , + % + a a q 8 8 8 % a S ) S g + O o @ + + , , % + > , % % % % % % , , s a % % % % a s , f , O % , % a % , + , > . 2 > + < O % 8 6 N N S N q 6 8 a & @ @ @ O + % < s s & + O O 6 g N N a a % a a , 1 1 . @ O   I } X.S g , % % < s s & % % % a a a a a O % O 8 g 8 g # 8 & & < s s a 8 % + % , a a a % 8 8 % , < < % % < % & O & O s s % % % < % > + + + 6 8 8 8 8 8 a % 8 a a a 8 & % % a a a a % % % 8 a g g a 8 8 8 g g g a , > + + s & & 9 & # O % < , % % 8 8 8 % a 8 a % a g 6 K V V a + . O % 8 q 8 , o o . > 9.K Y n > > a g Z ( Z g O . . @ < & % . . ; , a q q 8 + + . + a s < O + % O % < @ @ * + + 6 N ] N x O O a g N S N q a s O s O 2 + @ $ & 8 8 a a a , % < < < a a a % % % 8 a a a 8 % % % % a a % + + + + % % % % % % 6 8 g C N g % + + , a a , + + O a V } } N ,   O O + + > + + + + + > , > > + + O O % @ @ O + % % j K j % O . + ",
"@ @ O % 8 a a & @ . o . @ + % % + O % f ^ ~ k % + + % < < < + + O a U *.3.$.f > > + s a a s . : + % < 1 1 < & # w D z.E.U.e.8 & O O & < & + % 8 V z. X`.z.D % % % a s < > +   < < s f s , + O O s a a < < , % + h C C h 8 % < V ^.(.Y.*.g O @ @ < < s s , , , , s a % % % , a s x f , + + % f f f k a + % a a h k k O + + + < 2 > 2 O , g V i.z.i.| q 6 a s < @ < 2 % % % s k x x < # 8 C W &.&.K j % a d 1 4 1 , , , j |.,XiX,XV s % % < s f s % + + a k k k , < < O s L C C 8 % & 9 s x k g a % % , < s s a 8 8 8 , a a < , % O % x s E % s O % % < s s , % O % 8 s f s a % % 8 a h k f s & + 8 f k k f a % % a g k C k g 8 6 N V C f , > + > < < s s & O O < a a a a a a 8 8 g a g % 6 a a ..F.{.g.^ <   a V g j v > ; 4 h.uXpXtXb.1 . , ../.S.A.*.a + > , , s & . . . , h B h g % + > < k F x % % % O % f 3 3 @ # a D K.).T.j.f O g I +.a.i.V C a O < O 2 + @ * O % a a a % % O O + > < , % 8 % % a k k h a + % % a s a 8 % O # & s s a a 8 6 8 g W e.e.U a O > d j j d > > + P F.,X,XF.P O O + < < < , < + + , , 2 1 , + O % % % + @ O % , L c.4X4Xv.f + . ",
"@ @ O % , a < %   o . @ @ % , % + + 8 E j.j.E 8 # + 8 a s & + + % a | K.U.x.R . > , g C C f > ; O % s d d s % # q #.OX6X6Xc.6 # 8 < < < < < a a g OX5X6XOXV g a 8 s s 2 > O .   f k k k s , > + s k k f , + % , G G G C 8 % s U >X2X7Xz.8 O O c c x x s % + % s k a a % % % f E E ^ x a , < s m m m f a g g g C E C 8 + + < 2 < < 2 + + g #.z.U.W.&.q 6 g s s l l < % % g C E E G a # 8 U e.i.u.T g # 6 j d d 1 > 1 + v +XkXzXlX#.s O , k x f x % % % a k k k f O O % k W W U C z # & ^ G E $.% % % < s k f a 8 % % a f f s , % + a k E E k a % , a a s k a a % 8 s s s a a % + , f G G k s 8 8 8 G Q Q E f + + a G ~ ! k a 8 8 V D W E f > > > f s s 9 & # # + & s f s 8 % % a h 8 h 8 # 6 h i.,X,X4XE O f 8 V K K , 1 1 ; h.AXbXGXwX; O j y.2X>X>X&.O + , , v h g + . + < k H F k % . + s H @.E d % % , s s < l & % # | oX2X7X4X% % 8 S T.U.U.&.N # % s < < < & & # # a k s % O O @ @ + < < a % + + s E ^ k a 8 % + a f f a % % % & s m E k a # 8 C j.v.v.@.a . + d K R v > . , a iXkXkXsXa + + + < < < < + + , f f f M 1 + + % & & 2 @ % , a j fXaXnX4X% , + ",
"o * O + < < < % @ * * @ 2 < , % % % h Q j.j.W g # 6 8 a s & & % % g +.U.`.c.! O + , g C C k > + O % a d d a 8 6 0 &.@XiX6Xc.8 # 6 8 a s s a 8 8 N OX6XiXOXS q % 8 s < 2 > + + O k G E G s % + + f k k f < + % , G E W G g % f ! 7X7X7XK.N 8 # x x x G h a 8 a h k g s a % % h ^ Q ^ k O O O s ^ ^ E a # # 8 g H =.G g 8 & s s l < < % + g $.c.W.U.&.q 8 8 9 < s < % + 8 g C E W k a % a U e.s.s.#.h 6 8 g j d d , d , K ,XvXvXxX! s % s x x x m % % % s k L k d + + < k ~ $.E C # # & ^ E k W a % % < s f f a a % % % a s s % O + a k G G k a % 8 a g k k g a 8 & 9 s f f a % % % f E E k 8 & 8 f ^ Q E G a + 8 h G ! ^ k a 8 8 V D W L s > > < x x x s & + # % f k k f a 8 a a h 8 h a 6 8 C x.iX2X6X~ + s % N V K a , > , c.AXHXHXwX, O a O.;X3X,Xi.6 & , , v N g % + + 2 B J H F s + % k [ =.W k 8 % a d f f < + 8 6 | oX2X7X X, a g S T.T.T.%.N 6 % a < < s   * O + % a d f % @ @ @ < < s a a % % f E ^ x h % % % a f f a & + O % s x x k a 8 a C j.W.v.#.a + , k L R b 2 + , j 6XjXlXsXj , % < < f s < , +   , b M m 1 O   + % < < & % % % j sXxXnX4X%     ",
"* O O O < > > @ *   O @ & s , + + % g E $.$.C g 6 6 8 8 8 & & % , a S a.z.i.L . + % g N V g > . + 8 a d d a 8 8 0 o..X,XOXd.8 9 6 8 a a a a 8 8 S /.oX,X XS g 8 8 9 < < > > % , 8 g C k a % + < f k f s < + % % k G H C 8 # < C .X-XoX2.g 8 % s f k h g 8 6 8 8 a a a a % % a C G E k a < , f E k E k 8 8 g B H C B w 6 8 8 s f s s % + a U i.x.k.W q 8 8 & & s % + + 8 g C L L k a % 8 V #.u.u.C w 7 7 9 w g g O & % K +XpXjXsXC , + a k f s x % + % a k C j a + @ % h E W C g % s s x E f L j , , < s f f a a % % % % < < , % % a h k C j g 8 8 a g j k g a % % & s s f a 8 % % s G G h 8 6 6 8 k C k k a 8 a s k G k h a 8 8 N D L k , + + < , s h s % + & s f s s a a 8 % % h 6 h 8 6 8 h *.:X~.W.J $ r # N N V a + > , e.aXmXbX@Xm < F u.XXH./.=.7 7 8 8 j N w % + + < f G B k < O % h _ _ W j 6 # 8 g k s s < h q | ~.-X>Xc.% g g Z a.l.z.| g 8 % , , a s @ @ % a a a a , > O . @ 2 < a % % % % s k x k k # + % a f f a < + O O & f k f a % 8 h $.x.j.U 6 $ & s C F z 3 @ O g OX7XiX4Xh O O + < < s < % O % f k f b , % , O % < < % % % % W 4XfXfXv.k f < ",
"O O O O + + + @   * * O & , , % O # % a h h 8 6 6 6 % % % # # % , % q Z Z V d + + O 8 q g a + . + % , , , , 6 6 6 t } } } N O 6 % % % % % % 6 8 8 } } } I 8 6 % & & & % + + , a 6 8 g a 8 % % , a a < < , + % % a h B g 6 # + a } } o.N 6 8 # % 8 8 8 8 6 6 # + % % 8 8 8 6 8 g 6 a 8 % , , % a % g a % 6 6 6 w 8 8 8 6 6 6 8 8 a a 8 6 6 g V D D g 6 8 8 % & < % % % % a g g g s a % % a N V D 8 7 $ 7 e w w g 6 9 # % I q.o._ g % + % a 8 & a % % % a g k g a % + % a g h g 8 % s O , f d j % , % % , a a a a 8 % % % % , , , 8 a g g g g g a 8 8 a a a a a % + % 8 a a a 8 % 8 a a a 8 8 6 6 6 g g g k g 8 a 8 a a a < % % % g g g a , + % , % 6 8 8 6 % & < a % % % % % % % g % 8 6 6 8 6 D :.] H 7 * = 6 B 0 g 8 # + O j d.y.q.k   - O g } X.o.y $ = 9 8 g q 8 % + + > s h w 9 + O + g u u N a 6 6 a a a a % + a # 0 } X.X.T + a q 0 A D D V a % , % % % a 2   O % a a % O + O O @ % & 8 % + + % % a a a a # + % % % % % % + O O + < s a % # % 8 h C C g # $ $ 9 8 w 9 = * $ 6 Z ) } D & @ O O % % % % + O O , % + , + O , + % % % O O + % # 8 T U % O O O ",
"# # O O + . . . @ @ $ # + + % , % % + % % % % % % % + O O O + O > + 8 0 6 % , > . O # 6 8 6 O O O O + % + + # # w 0 q 6 8 8 # h % % + O O + % 8 8 g 6 6 8 % 8 & # # % + % % % 8 g g q 8 6 + + + + % % % + + + + % 6 8 6 8 8 % % 6 6 a 6 % s + % 8 6 8 8 6 % $ & & + % 8 a 8 6 6 8 g 6 # 8 % % , , d a + + % % 9 8 8 9 8 8 8 8 8 8 8 8 8 8 6 6 8 6 6 % % % % % % < + % % 8 8 8 % % % % % % 8 8 8 % & 7 r e w w 8 7 9 6 % a 8 0 0 a % % 8 8 8 % 8 a g 8 8 8 a 8 8 < < a 8 8 8 q g # f & < k a d % , % % % % % 8 8 % % % % % , % % 8 8 8 8 % 8 8 a a 8 % % % % % % + + % % 8 8 8 8 a 6 # % 8 8 8 6 g g 8 6 g a % 8 + + + % % % % % a 8 + % % , % % g q q q 8 8 % O % % % % % 8 8 8 a # 8 % 8 h # 0 u u w $ = = # w 8 8 # + & % % 8 V g a 3 = & g N q t 6 $ & 9 8 q 6 6 + > ; + + % 8 8 % + % 8 t 0 6 % 8 a a a a a % + s # # q 6 6 a O 8 6 6 0 6 6 8 % % , , % % % O . + , a a a a % > % % + % 6 6 + + + + + + + % O + + + O O + % + O O O % % + # % % % % 6 6 6 % $ * 6 6 6 $ * * $ # 6 0 0 6 $ $ + + + % % + % + O % + % a , O + % % + O O O O % 8 # h g 8 s O O ",
"& # O + + + .   O O $ # % + % + , + O O O O + % O O O O O O @ . . . 8 8 # # + . . O # 6 6 % O O O O O + + O O # w q g 8 g j % z % % + O + O + % g a 8 8 g f s & # 6 % % + + % 8 8 q 0 8 6 % % % # % % + + O + % # % 6 6 6 8 % + + O , % , < O % 8 8 8 6 % $ $ & # O # % 8 6 8 8 6 g g a a 8 + , O , , , s s & # & & 8 6 6 8 q g g 8 6 8 8 8 6 8 & % % % % % + O + @ + % % % % % O O + % & % 8 8 % % $ 7 e w 8 6 # 7 8 a a g B B 8 % % % 8 8 % % 8 8 8 8 8 8 6 % + & 8 8 0 8 q g 8 k % % O O d , , % % % % % 8 % % % % % % % + O + % % % % % + + , % % % % + % % + + % % % 8 8 8 a 6 # 6 8 g w 8 0 q 8 6 8 8 6 a % + % % % % < < a % % % , a 8 6 q q q q g a , % % % % % % % 8 a 8 # 8 % 8 h # 6 u u w & = @ # 8 g 8 O O @ s a 8 t q + @ = @ % 8 8 8 6 # $ & 8 8 0 8 + ; ; . O + 8 & + O % a t q 6 + % 8 8 8 8 % % % s # % h 8 8 + + % 6 9 9 % + O + + > , % 8 % + 2 f , + + % % , , & % % % 6 # 8 % % % % % + + % + + + + + % % + O O + % % O O % % % + # # % & $ $ 6 8 8 8 * * O # N Z N q O * + + % + % + % + % a % % a , % , % % % O O O O % 8 # 6 # # % O O ",
"& + O + + > + O O O # w C C d , O O O O + % + + + + + + @ @ . o o o & s 9 % @ o o @ # 9 9 9 + . * @ + + + + * $ O 8 V V V g - O # % & < < @ @ % % % a a % + *   8 9 a a 8 % 6 6 q V D D g % % < % 8 a < + O + % h G G h 8 6 % + , + , > + < O , a g g 8 # O @ = & # % % # 6 g H 8 B N 8 6 8 j r.0.0.n + + +     $ $ + % 8 g S | ..S q 8 8 8 9 s s 9 & + % a a a @ @ + + % , a s + @ @ @ & % a a > > % % g C S N k 8 % , , % 6 # 6 % # % 8 g 8 6 8 6 6 g C E C g + + 8 g N V N g 8 % % E 0.r.h.% , % % , a a 8 % + % , a s s % O + % a f f s % + < < 2 2 < + + + % & a s g a a 8 a g g h h g w q 0 D @.@.U g 8 g % , < < < + + < f d d s a a 8 q V D _ D g 8 , a a a a % % % 8 a k h F 9 6 8 # q Z S g + X @ , a j a + + + , j g N N % . : : + a g 8 , , + % h w N g > ; ; ; + & & % O . + k _ [ J l + # % a a a %   @     < + < % < + # r r 3 < @ . . > > , 8 8 O + O + v r.r.! , % O % h h N q 8 % % % a a , % % + % < f f a % + + % < < & % + + + % 8 s s & # % 8 q g g a % O < 8 I } } I % 2 + % 8 a a 8 % + % k W W E a O O % % , & % + + % a W D C h # O l ",
"# O O + > > > + + $ 8 Q j.x.r.L O O + < < < , % + + + > @ @ . o 3 . & s l c 3 o . @ & s h s & o @ @ % < < % $ $ 8 W x.z.i.#.9 9 % , < 3 3 < % + s a E E s < @ @ 8 g f s a 8 8 6 @.k.U.k.E 8 + % 8 h k s , + % a j.v.x.$.h 8 8 < , > 2 > + < % f L L E k & + & 3 c x x h 8 q H k.U.U.*.g 6 L  XnXMXaXn.1 . + 2 c s & % 8 g | u.I.`.i.V g q h h x z s & + % g C x < 3 2 & % a a f s < @ @ @ & s a 1 1 , a C r.e.r.C 8 % d v ! ~ G a 8 8 8 h C C h q 8 q W x.U.z.*.8 8 g C @.@.U N g a r.fXUXIXaXP , , , a a a 8 % % a g k k k < % + a x ^ ^ x s % % < s s s 2 + + % a h k k j a 8 a C E W C h q q D I.OXOXc.D 6 8 a a s < + + + % k L E L a 8 q N l.U.U.i.C 8 % a f k k k a 8 g h $.$.j.H w 9 9 D } +.C < . @ d 1 d , , , + % g g S W s . 2 2 + s k , , , , s W W U C , ; . > < f a < O O a #.l.z.v.^ 8 + a k C k x 2 < O + c f x , f O O r l l < 2 > . . , a h s s + + P uXIXIXxXj , % g ! j.*.@.8 % % a f f s , % % , f x x f a O % & s s s a < + + 8 x ^ E s # % 8 g g g g % O O K ,XjXiX@Xv + % a j C C j a 8 6 k.4XsX6Xc.g # % a s f s 8 6 6 g W.`.`.x.a O & ",
"+ O . + 2 2 , + + % 8 @.v.c.x.U 8 + O + s s < % O O O @ 2 2 @ @ O + & s x x < + O % < f s s % +   O 8 h h w % # 6 @.l.T.T.5.t 6 , 1 d f f , > + % ! K j E +   2 < d f f a % 8 8 W k.W.v.@.8 % % g k x f % % a j e.z.U.k.N # + s , s s , O O a k E E L f % + < f b b k g 8 0 ) E.A.K.&.V g j n.AXmXFXg.O g % j j g N N t t ] A..XOXi.N 6 8 k G x x s 8 % 8 h C E x s % 8 g V V N h 8 & + % a g j a , O a W k.x.k.D g 6 8 C ! W C g 8 8 q V D C N g q 6 | T./.!.,.0 6 8 C =.=.U j a a Y dXAXZXZXP , % a g N N a % + a N I I V a , + a k ^ Q E s % % a k m m f a % a h C W L j a 6 8 V W #.U N g q S E.OX6XE.S g 8 a a s s s , % % j W $.W V g q N i.T.OXz.D 8 % a k C C k 8 6 g V z.P.K.%.t 0 w B } o.W h + % , 1 , v s 8 k 6 6 +.V T g + < O   v d d , , % 8 C #...U a 8 & # k k g g 8 6 t 2.S.Y.U.$.a # 8 k k s f < O O , b b b d , % 8 h F F F k % a , % 8 7 F a , , K pXGXGXcXP d a j #.i.2.| a % + < c c s % O + , f m m k s O + , s f k s a % % % h E E g + O % g N N g % + g N ,XgXkXpXK , % a V K K j 8 % q z.iX2XzXS.q 8 6 a k C h q q t Z ~.oX>Xl.0 6 8 ",
"O . . + 2 < , % + a a $.v.U.z.@.6 # + & s s < % % & & < < < @ O + % a k G k a + O % s f f , , + > > a g g g a , % W P.].].4.N 8 , 1 d f 1 , , , O L L W ! < O O , d d 1 , % % 8 *.x.W.v.@.g 8 a w k k s % % a j c.W.W.k.C % + < a s s a % % a s ^ ^ E f , % s f b b f g q N X.Y.oX`.3.N 8 j #XGXGXGX|.% 8 % a K j j g q t ' Y.>XOXx.V 8 a k C k G k a 8 a k G E x f a 8 N N S V h a % % a k j j a a a g W k.x.x.C g q g C W ! W a a 8 g C D D N g g 8 ..E./.).p.N q g G $.$.W K a % P dXPXPXCXn , < g N S V < O + , N I I K f < % g G Q ~ E k a 8 a k k k k a a 8 g C L C h 8 6 8 V W #.U N g g } .X,X5XU.V 8 8 a a s s s , , a D @.=.@.S N N S K.`.OXz.D % % , k L L k a 8 h D z.K.s.o.N q B G | #.=.F 9 % , 1 d d % 9 F w q I K T C 9 r & % d d 1 , % 8 g L r.T T g w 9 & f a k g 0 0 A 4.S.^.U.r.j 8 a f k k k , , , , v b b 4 > + % h G H E k % , , f x w z % , a P pXGXGXmXv , % j $.x.d.*.8 + + & s f < < % % , f E E k s + % , s f f a 8 % 8 a k E E g % O + a g g g % + 8 S rXvXvXpXK + % a K Y I j , + 6 z.lXzXvX^.q 6 8 s k C C g t t ` ).>X>XU.g % O ",
"O . O O < < , , O % 8 W e.*.*.D + O + & < < & + + + % < < % + O O % a f f a % O O % a s s s , + ; ; % 8 8 % > > . f $.k.k.| % O , , < 2 2 & # % % C B G k $ = * % , , , > + % 8 W *.k.*.C 8 % , 8 s s a % % a g &.i.i.@.h % + < a s a a % % , a k k f a % % a s d d 8 6 0 q S u.A.a.*.N 6 a g.pXuXwXr.% + + O , d s 9 # 7 F *.x.x.#.g 8 8 a g f h a % % 8 a j f 2 , , % a g g g s % O + , d d a a a 8 a C @.=.=.g q 8 q N C C k , > , , a s s a % , % K r.d.d.+.q 8 g k G H C j g a Y @XaXdXwXn + @ 8 g j f @ o X @ , j L f < @ % a k L E k a 8 8 a a g s a a 8 % a h C j g 8 8 8 g C U C g g g N d.I.U.e.g 8 a a a s s , , a a C D D C N g N N &.a.K.*.V % , , a d f 1 , % a k #.#.| N a a s s k x x r * @ > > 2 > @ * = r a a d j s $ $ r s a a % % $ 9 9 k L v n % % & O , > d a % # w U u.d.e.U g % a s f f s , % % , a d d 2 ; . O & l z c s O + + < l $ & 3 2 1 n #XfXfXuX1 + O & G ~ @.C 6 + + % < s < < % O % s k k h 8 % % % < a a a % % % a k k k a + X X + % & & @ * O h E.,X,XE.d o o + s k x < + . O ! OXOXOX*.+ + , , , < < , % 6 N i.z.c.r.a O o ",
"O O O O + + + % O , + g C N V 8 + O + % % % O O O + + + + + % % # % 8 8 8 + + + + % % % % % % + . . + , % % . . o > a g h a . + % & & @ @ + # & 8 w 8 g 8 O = * + , % % + + % 8 8 g B N 8 % + % & 8 & % % , , a g g N g 8 + + % % % % % % % % % a a % % % % % % a a % 6 8 6 q S N t A y 6 8 K 9.P n , O * = o @ + @ @ = $ 7 9 g C g 8 % % % 8 a a % % + % 8 a , + ; + % , a a a % + O + , , , % , % % % a g g g 8 8 8 8 g g g a > ; > + + % + + . > + d j j I g 8 8 8 a g g 8 8 # # a a a j j , . @ & a 8 & = 5 5 X + % a < @ @ % 8 8 a g a 8 % 8 8 a a a % % % 8 8 a a a 8 8 8 % 8 g g g 8 8 a # S V V V 8 a a % a , , , , a a g g g a 8 8 q q N Z S N q % , , , , , > > + , , j j g a % , + @ + % $ = * @ + + > > 3 = - @ < , d , 8 7 $ 7 w 8 a 8 6 7 7 7 9 , , 1 . + + + 1 > , , a % 6 8 g j j a % + + % , < % % % % % % , % : : @ @ + & < & 2   @ o O 2 O < o o . o 1 n n > > . X * & 9 a 8 % % % % % , % , % % % 8 8 8 8 6 % % + % % % % + + + % a a 8 % O X o X * @ * 5 5 * 8 N } S g % . . O & 9 & + o . > , V S N g   > > + + . + + + O + a a a a + . . ",
"O O O O O O O O % a + 8 8 6 q # % % + O O O O + % + + # # 6 8 8 8 6 6 % # + % a % + + + + + + + ; ; % % % % ; ; ; > % # % + . > % % # O O O # # # 6 6 g 8 # r O + % % + + + + % # 6 8 6 % % % , % + + + + + % % 8 8 8 8 % O O O + + + + % % % % % % % , , % % % 8 a 8 7 w 8 6 g g 8 0 e 0 g g % d > % O * = @ @ o o * = = r $ # % % % a a , , % % % 8 a a a 8 % > > > , a a a , % % % , , , , % , , a a a 8 6 6 g q 8 8 a a 8 % > > > > , % % > + , + , , + g 6 a a a a 8 6 6 % h 8 h % 8 k a s @ @ 8 8 6 % @ 3 = @ 8 8 8 % @ @ a q 8 8 8 8 a 8 8 % % % % % % % 8 8 8 8 % % 8 a % % 8 8 6 % 8 a q N 6 8 g 8 8 % % % % % % % % a g q 8 8 8 8 8 q N q 0 q 8 % % + a , % + > , , % % a a 8 , , + O + O o X = & % + O + 2 & * + , > n + % z r 7 6 8 g q 9 7 r r & + + 1 + < < % , + O , a s 8 % % % % % % + % % % % % % a a a a 8 +   X @ % % , a % O O < @ O , + , 3 = l > , O , O @ * * * * # 6 8 6 % + + + % % % 8 a a 8 6 6 8 8 % O O O % % % O + + + + + + % + 5 o o * * * 5 5 = 9 0 t q # # @ + % & # O O . ; > . # # 6 8 . > > + O . . . > > > , +   O . o X ",
"+ O O + % % + O % , O % 8 % g 6 , % % % % % % + % % 6 8 8 8 6 # 6 6 6 6 6 6 6 8 + + % + % % % % > > 8 8 8 8 > > . > % % a % . > % % + + # + + # # g q g 8 O & & % % % % + + + + % 6 8 6 % % + + % & % + + + + % % 8 8 8 % + + + % % % + + + % , + % a a % % % 8 6 w 9 7 w 6 % a g 8 6 7 w g g g j j 8 8 7 = & % % + * $ $ 7 9 8 % % , , , , % % % % % a a a a 8 , > % % 8 g g g 8 8 % % 8 g g g a % % a a a 8 8 g q 8 8 a a 8 % , > > , a a a , % , + , a 8 g 8 a a a a 8 % % % # # 8 # 6 9 # + O # q N q 8 + @ @ & g N N g % + q g g N N g g 8 6 8 8 8 % % % + % 8 a 8 8 8 8 a 8 8 8 % % % 8 a g N 6 8 h a a % % % , , % % % 8 8 8 8 8 8 8 8 8 g q 0 q a , + % g g 8 8 % 8 8 8 8 g g 8 8 , % O , % # & & % 8 g a 8 % + & , , 1 1 > % 8 w 6 0 N N N w 7 7 9 & , + , , f a % g a a 8 6 8 8 8 , a , % % % % % + + % % % 8 a g 8 8 * @ & % 8 g g 8 8 + a % , j a , %   % + 8 O 8 + * * $ & 8 8 q q 6 % + % % % % % % 8 8 q q q q q + O O + + % % O % % % % % & & $ X X * O $ $ * * $ 9 t Z u 0 6 # % 8 q q 6 % + > > + g 8 N a o > % 8 % + + + + > + + , O % 2   @ ",
"% # + & s f , , O % O % a a h % % + % , f k a 8 # 6 g C =.@.N 6 # 6 g k G C 8 % % 8 a f f a 8 % % g D %.%.D a + O , q q B 8 O + , a , , a , , % j d.g.d.q., % a 8 8 & & < + O O 8 a 8 8 % + . . & s < , > > > , % % % % % + @ 2 a s s , + + % s s s s a % + , g g B w 7 9 8 % d a k 9 7 w g I F.f.F.S t y 8 C a K k 8 6 6 6 q g g a % % % % , , % % + % a g j j j a 6 8 N ) o.2._ N 6 0 t _ o.o.V a + % a g g h a 8 6 8 g C k h , % 6 q B C C h 6 a % g V N S N a , % , a s 8 & w 9 r z 9 & z s 6 8 Z X.<.+.V 6 6 g ` >.t.,.N 6 0 N | &.*.@.N 6 8 8 a f f s & % % a h k k s a % 8 a a a a a 8 8 8 C g k C a a < % < a a a % % % 8 8 a a , % 8 8 g N N B g % % s o.2.%._ t 0 q N S _ ) N 0 8 8 a j j g g 6 0 S O.y.y.S q 8 a P b.b.b.9.% 6 g S +.O.+.S 8 # % a d a j q q q Z t.F.F.O.t 0 0 w h k s , % + % , s s f 8 % 6 8 g h h z w 8 q I y.y.q.} q 8 g q.|.{.F.#.6 8 g S N W B w 8 8 h D | } S 8 % % a k k g a 6 6 q V @.%._ N % + + > , , % O % % & s s s & # @ + 8 8 q 8 9 8 6 t ;.V.V.;.t 6 6 N } O.} V 8 O + T XXJ.+XY . + 8 q B k s % O O O + g 6 9 l - = ",
"# # # < x x f s O , % f k k k 8 O O % f E E h 8 # 8 D k.U.v.*.N 8 g W $.j.$.C 6 % 8 k G G k a 8 6 S a.~.~.l.C + % a q t A h + , a a a d d d a % V @XlXlXuX9.+ % 8 8 8 < 2 + O O s s s s < + . . s f f f , > > , s s f s % + @ @ k k k s % + a f ^ E E f % % f L @.=.J w 9 a d b b ~ z # w N g.lXvXvXC.Z t 6 | I I V N w w N S S L f , O + < s f s , % a a C U ! E h q t ` Z.~.'.P.' 0 0 _ a.L.K.#.k % a g g k C g g 8 g C W ~ ~ a 8 0 N [ =.=.[ g N 8 C @._ %.S a , , a k x x f 9 # O z c s J % g N X.S.-X.Xi.V g S 1.H.;X^.o.0 q S i.U.W.x.D 8 8 a h k f s < % % a C E E k a % + % s f f a % % 8 W W ~ W a % % & < s f s a 8 % 8 a f s , % , a G W =.W h + % k U._.].K._ t t ' 3.a.4._ t q h C K Y U D t t >.H.>X,XY.S q a g.mXZXAXwXj 6 S y.F.F.A.w.N % a b R T @.t 0 u 2.2XzXzX.X' 0 y B B k k f % % a k E ~ E h 6 6 g F E H F w 6 N y.3XrX,Xd.Z 0 S @XBXDXDXc.g q N | | *.D q 6 6 D a.Y.F.t.g 8 a k E W L C g 8 g &.U.W.l.| % + > < , , < % O + & s x c & O % % a g N N g 8 q ` -X0XqX-X) 0 t ] V.H.F.y.N % # |.BXBXHX|., + t A =.=.J s # + % 8 C 6 9 9 - $ ",
"% + + a x ^ x f O + , s f k h s O O + f ^ Q k 8 6 # D x.v.U.3.0 6 6 C $.v.j.C # # 8 k E Q E f 8 g S K.Q.T.l.g + % a B B y 8 O O a a j j j d a a j ,XnXlX@Xv O d 8 8 s s % + O O < s x s < + . + s k f f , > + + < s f s + . . 2 k x k f % + a f ^ ^ E k , % s C | @.H h % % d R n ^ ^ h 6 g I.lXkXvXt.t D q N V Y K g 8 q N S I L f , % , < , , s , % % a j U #.W C 0 0 ) A.~.~.T._ 0 0 ' P.P.P.#.s + 8 k k k C a 8 6 g E $.$.W h 8 q B =.*.%.[ N q 8 h @.*.%.D a , % s k k k s + + < s k k f a 8 q X.H.;X.X2.0 N Z 1.H.-X(.2.t q S u.W.`.x.U 6 8 a h k x s < % 8 k W ~ W k 8 + + % s s s s & % g E ~ W E s # + % s f f a % % 8 a h f s , % % a G Q =.G 8 + , C Y.)._.M._ t u _ l.a.3._ t 6 w C K Y I N 0 0 X.(.;X>X/.N q V q.AXZXGXwX, 8 V } ^.^.F.| 8 % a v ! U @.N N u o.2XjXzX).( 0 y w G k x s + + a k E E E g % # 8 G W H J w 0 0 >.3XrXiXA.0 N g XXFXNXDXE.g # N | &.D U g 6 6 V d.E.D.>.g % % k E ~ W C g q g &.U.W.a.S + O + < < , , , %   < m s x x O O % g V V N 8 8 g Z %X2X0X>XZ 0 t ( D.J.J.y.g a %  XBXbXHXg., f t _ { Q Q z # + + 8 C 8 9 9 - = ",
"% # + a f x f < O O % < f f h f + O % s x G h 8 g 8 D k.z.z.3.q q a C $.j.j.G % % a k G E G f a a V z.T.T.k.g O , s B B B s % + a a g d d a a a I 6XnXMXuXr.a % 8 8 s < % + O O < s s s < + + + a g f , > + + > , s s < O O @ 2 k k k s % % a s ^ ^ k s % % s k | @.H B 8 , d n R ^ f # # N |.cXvXnXp.q g 8 V P K j a 8 8 g V V C f , % , , , , s a , a a j U ! k g 8 q } K.`.W.l.A q q _ l.Z.K.W a + a k k k k a a 8 g E ~ W E h 8 6 g @.=.=.D g 8 a k E @.W C % % % s k k f a + % , s d d a a 8 q } A.^.R.i.N 8 N t.(.-X!.&.0 q S i.W.W.x.U 6 8 a h k k f & % 8 g E W E k 8 + % a s f s < & & g E W W E h % < & < s s a % % % a a s , , + % 8 G Q ~ G g % s C T.).~.a.A 0 q V *.e.*.D g 8 s k L R L B t t X.F.7X,XR.N q K h.AXGXLXuXj g D w.OXR.I.#.g 9 a d b ! W 8 0 q &.7XlXlXOXZ 6 6 # x x k s % % a k E E G k 8 6 g G ~ Q J 9 q N y.,XuXiXI.N N V @XLXFXGXg.a 8 j U =.H W a % % L i.E.F.d.a % 8 s C E C j 8 6 q @.U.W.l.@.+ + + < , , , , < O < k s f x + + , a j j g , % 8 Z -X7XjX>XN 6 6 N A.^.^.d.a O O  XLXHXPX@X>   q [ =.Q ^ c O % % % h % + $ - = ",
"# # + & s < < < O O O % < s s a % % % < f s 8 6 8 8 g D *.*.D q 8 8 g C W G h % % % 8 a f a % % , a #.*.&.! , . . > % a h < + . & 8 9 s s 9 8 8 q e.E. Xk.g % # 8 8 8 & + + + + < < < < < + + + 8 g a , % + + , , , & % + O @ + f f s a % % % a k k s a % % a g V V N g 8 % , d d j s & 8 g q.#X|. XL 9 9 # f , d 1 , % & a g j k s a , % , < < % % % % a g j k , , , % j ..w.#.E a 8 8 h W U #.C a % a s s s f , % 8 a h C B h s % + a C E C g % % > , f f f a O + & s f s a % % % , a d d a , + # N o.*.*.Q s & 8 | 2.2.&.G 8 0 N U *.e.#.N 6 6 a g h f a & + 8 g j C C h a % % a a a < < & 8 8 C C C k 8 % a & & < < a % % % 8 a , , , + % % h B C h a 8 , g +.u.u.@.g % % h L L C k , % > 2 1 f s 9 w 8 N &.c.e.7.h + d n #X#X@Xr.6 6 w N &.&.#.F 7 7 9 s f d d % 8 6 V c.|.|.r.8 % & + 2 , , < % % 8 g h j h g 8 8 8 g k x = * & % K z.c.v.W 8 O O r.@X@X#X0.+ % % s z s c 2 + > f E ! ..U 6 % % a f d s a 8 8 q C @.*._ N % % % % < < , % % % , a a a a + @ ; , , , , @ @ & 8 i.F.A.i.% % % 8 @.*.=.E + > > 0.@X|. XR . 2 # h k x l + . + + , , + + @ o X ",
"O O + % + + + + O O O O % % % % % % + % 8 % 6 % # 6 6 8 g N 0 0 # # 6 6 8 8 % + % + + + + % + O > + g q a a + ; . . O + % + . . & 9 9 & & & & 6 6 q q N 6 # s & 6 8 % + O O + + % % + % % % + % g q 8 a , > > % % % + + + % + + , , % % % % % % a a % % % % % a a g 8 6 % % , , + , & 9 s % % j , a O $ = @ 2 o > > + # & & 8 8 8 8 a a , % % % + + % % % 8 8 , > > > + , a a % a O , + % a % a g 8 % a a , % a % % % 8 8 8 q 8 , > % , a a a , , > > > > + O O O + & 8 % % % % % , , , a a , % @ o 8 g g a < * @ # q N q q s 9 8 q 8 q g q 8 6 8 8 8 8 , % % % 8 8 8 8 g a 8 8 8 8 a % % % & 8 8 g 0 8 q 8 % 8 & & % % % % % % 8 % % % > + + + 8 8 g g 8 % % a 8 g g a % O % , , , , , + + . . > > * * & # % j a O s & O O . 1 , d a 8 7 7 8 8 8 q 6 - 7 r & s + + + s + % a , , , O < 3 @ > . % % % 8 8 8 8 a 8 8 8 8 6 % % & @ - @   # g % % % < O O + , a + 2 o +     & @ X @ X : + + % % % + + % , , , % % % 8 8 a q q 8 # % O + % % % % % O , , % a , % , : . + + + O X X @ O g q 8 %   @ & # 9 6 # # . 2 . + g a 8 + o 2   % % + + . o + + > > + 2 2 o o ",
"O O % % O O O + O O O O + % # # + + + + # # # # # 8 8 6 8 6 6 q 6 % % % % + % % % % + + % % % + > + 8 # # a + > ; + % 6 6 % > > + & & # $ $ & 6 8 q 8 g 6 # s # 6 6 % + O . + + + + + + % % % % q q 8 8 , , % + % % % % % & % % % % % % % % , , O + + % % % % % 8 8 6 6 8 a a a % % O O & % , d , + O = - * 3 . + + + $ & 6 8 8 6 8 8 8 a 8 % % a a 8 a 8 8 8 , + . + % , a a , , O 2 > > , O , a 8 % 8 , % % % % , 8 8 8 8 q a + > , a 8 6 6 % , , , > > + O O % % 8 % % % + % a % % % a a a % 2 @ 8 a 6 % @ * o O q N 0 8 8 O a 8 6 % 6 6 8 8 a 8 % % % % % a g g 8 8 6 8 8 a 8 8 8 % % + % 8 q N 0 6 q g 8 a % % + + % % % % 8 8 % % > + + + 8 8 w g a a a a g g a , % + + + + , , , > > . . > > * * = & + a a O & $ * & > > , % % 7 r 7 9 8 % 8 7 $ 7 7 # % , . @ @ O , , , , , O + @ . > > % 8 8 a a g 8 8 8 8 8 g a % + % X o @ O # 8 # # O < < < , O , + : o @ X   @ @ . o . . . O O % 6 + + % % % + + % O + % 8 6 6 8 6 + O + + % % % % % a , % , , % , . . + + O @ o X X O 8 q 6 + o o @ O 9 7 # # o ; .   a N 8 a o o O % O . + + + , O , O + , ; . o ",
"O O + + + + + + + O O O % % % # # + + % & % % 6 6 6 g g g g q q 8 % % % + + % % % % % % % % % + + O g g g g O > > , g N N q % % % % % % # + + % 6 N g N g O + O 8 8 8 % + . + + O % % % % % % % N N N g a , % % 8 8 6 6 8 & & % , a a % % % , a + % % % % % % 8 a a 9 6 8 8 a a a a $ O & & , 1 d , & = * = l , , , 8 8 w w N V V g a 8 8 a 8 % a a 8 8 8 a a a < > % , a g g g a O < < , a % a 8 8 % % , , , % % % % 8 a a g g % % a g N N N N 8 , , , , , % % 8 8 8 8 a a a a 8 % % 8 a a a % @ + a g g g s @ @ + N S Z N h 8 8 a g g g a 8 8 a a a a , , , a g N V V N g 8 a 8 8 8 8 % % % 8 N S N N V g 6 8 % % % % % % % % 8 a , , > + + + 8 g g g 8 8 a a S S N g a % + O % , a , , , > + > a # $ 9 8 % a j a 9 & $ & d , d a 8 7 $ $ + % % s 8 $ 9 9 6 % d O & @ O s a d d d + # # O d , a 8 6 6 8 g g N j 8 8 a s a , < @ . < & 9 h 8 s % %   + , a d % > o @ @ * & + + + . + + % 8 9 9 % % % % % % % % O O % % 8 8 8 8 + + + % % , % % , % , d v v j % + @ % % % % X o @ + g N g a X o @ O h g 8 &   @ , % g N g a   > + a a % s a 6 g q V g a a . . ; ",
"O + + + > + > > O O % < s s 9 8 # # & 9 s s 8 8 6 # h #.@.#.W 8 % + % % % % % % O + % , < , + O % 8 _ ' ' _ 8 % 6 B %.5.5._ q % 8 , , , , , % % a q. . .T a , d 8 g a < , > + > % a g a 8 % % 8 | &.u.#.j % + , a g q 8 8 8 a < k k k s % % , s k k k s % % a s k h h 9 6 6 8 a g f r = r % > , a a w r r 9 8 j j j g q t ] :.p.i.#.N 8 8 a a a a 8 % % 8 a h k x f 8 8 g N N V h % 8 + a k a g a 8 % % a f s , % % % 8 a g g g q 0 q Z 5.3.5.2.q q 8 8 g g w q 8 8 8 h C G k h 8 8 8 a s s 9 8 & + g S S I C % a g } ,.<.,.U 8 % 8 h k k h a % % a k k k k a a g I e.i.*.S g 8 a a a a a a a a N O.4.*.@.N 6 8 8 a s s & % + % a a a , > + + % a h B g 8 6 8 g ,.t.u.| N 6 6 g g g g g 8 6 8 a a N g 8 0 8 g V j V g w 6 q g a j V h w l s , d , d , O % a g j g # h 7 # w 6 8 % g 6 w w w V N C a # % g D #.$.#.j % % a a , , 1 + a 6 0 y 0 N V a a a j L V j s   % 8 8 h 8 a , , + , g h y w 8 & & & < < < < % + % , , a % % + + % a a s a % % + L v.@X Xd.% % , g g g g & $ & q t Z S g < @ & 6 V S N g + & 6 S F.H.F.+.6 8 6 D =.=.=.B 0 t ( A.A.I.&.% % + ",
"@ O + + , , < , O O % s f x k f # # & s x x h 8 8 # C x.v.v.j.8 % % < s f s & % % % s f k f < % a g %.5.5.%.g q 0 [ P.].[.5.N 6 a a a a a , , a a s.c.c.x.j + , g h h f < > > + % s k h g 6 % 8 i.T. Xc.K + + a a g h a 8 , , a E ^ E k % + 8 f Q ^ E f % % s k ^ ^ J z 9 6 a h h z 7 * & < 1 v K V h 7 9 w q U I S N t u X.D.(.`.i.V 8 8 g j j g a 8 8 s k E ! W k q q A _ @.@.@.w 8 6 g C g h a a % % s k f s , % % a k C C C N 0 0 _ K.].~.L.Z N g g h h h g 6 8 g C ~ ~ W C 8 8 8 s h h 9 8 a 8 V ..+.+.U 8 6 N p..XoXY.+.6 8 a k k k k a a % s G W W C a 8 q ..U. XU.$.g 6 a g g h s a a g S A.`.`.l.V 8 a 8 f k f s + % & a a d a > + + , x G G C g a g V Y.)./.a.D 6 6 h B B V N 0 8 8 g N S V g q g N  . .u.D q 0 q S I K T j % 8 a a L v L d % a g g V L 6 k 6 # h g C g V 8 0 w g @.! $.C 8 8 C *.c.E.U.| 8 8 a s , , d , a 8 q B N D g % j j V @.U $.k   % a h C g j % % O a k H A B 8 & % , s s s , % + + , f f d a + % a g k k a a % % c.xXUXMX4Xd , a N S S C s & + g Z o.+.U s   8 q | +. .I 6 6 6 a.iXjXiXA.q 6 q *.U.W.x._ t u ` >X7X7X`.N a , ",
"X o @ , < a , , O O + s x x k a # O + s x G h a % # C k.W.W.*.8 # O % s f s & + O % s k k g 8 % O g @.3.3.@.g % # D P.].T.&.g O % a s s a , a 8 g e.W.W.j.k O % g N C f 2 O O O & h C B g 8 6 8 &.I.R.d.K a a a s 8 s + k O , n E ^ E k a % s k Q Q E h 8 % g k ! W G g % % a k k k s & + % 1 b S S h 9 & 8 N S V S q q q ) H.-X/.s.N 8 8 8 S S S g 8 , , k ....W g 8 q N W =.@.=.w 6 8 8 g B g s a % , s f f f s % % 8 k G C k 8 6 8 _ U.].].K.u t q g a s < s a a g C $.$.Q k 6 8 a g k f s 9 8 a j U $.#.L g 6 N &.E.OXR.&.q 8 s k G E C k a 8 h J Q Q G g 8 q +.E.OXE.&.g # g g k k f s & 8 Z Z.].`.l.S 6 6 8 s x c s % # % , , s , < % % & f x G k a 8 a g U./.`.x.V # % g h h B g q 8 a g N S g a a 8 N o.o.2.D 8 6 q g V U K h 8 % 8 k W L C h q 8 q g V a d a , % a g j j g a % % j R L ^ s 6 8 N &.U.T.U.| 8 8 a , 2 2 , , + % a h k h a 8 % a C W $.~ < > + > f f k d , + O , d C C k , + , a d j 8 a O + % , d d d , , O a N V V d + , j  .nXnXLX@Xa , 8 g D H C s O O , h D W C < + + s C ! ! L a 6 q i.sX6XsX&.6 8 N &.U.W.i.S q 0 Z :X6XsX`.g g % ",
"o o . + , a a a O O + 2 f f s a O O + s f f s 8 a 8 C e.x.x.#.a + + & s s s & + + % a h g a a % % a U =.=.W d , % D l.P.K.@.d + % 8 a < , , % 8 B j.[.v.j.G , d g g k s % @ + + & g h h w 9 8 8 k.U.R.d.I j a a h < c + <   . , k G C h 8 8 a h E E C h 8 8 g k E C k a 8 8 a g d d s , % , , j V V a & # & h S S U g g h S D.H.^.z.C s s a S N S g a < < k ..U W g a g h E $.~ H q 8 8 8 a f a a , % % a s s s a % % 8 g k k g a 8 q W z.W.`.U.Z N g g f f < , a 8 q B H Q G h 8 8 a a f f s 8 8 a s k W R j g g N @.z.U.c...g 8 8 h C C k g a 9 h z J G C g q N +.z.E.z.#.N 8 a a h f f s & 8 _ Z.~.U.l.| g g 8 a s s s % # % , d f f s & & & s f x k a 8 a g U.R.R.i.L a a k h h h w 8 8 8 a g N a > > , g ' ' %.D a a s k E C j a a % a g k C C g 8 6 8 g h s a , , % a a j j a a 8 a k E Q ^ s 8 q V 3.U.T.a.) 8 8 a < > 2 < % + % , s f s a % % a h G E m 2 : . > s d d f % O O % s k j d > + , a j C h h + O + , , d a , + O a V V V d >   a y.nXMXBX|., , % g B A h < + > , k G W G 2 > + 8 k m m k a 8 6 =.6XsXaXx.8 # N @.z.x.*.S g q o.OX5X6XU.g j a ",
"o o O % % a a a O O + % < , , % O + + & < 8 8 8 a 6 g C C L C 8 + + % & & % % + % % 8 a a a 8 % O % h C C h , + % g _ %.' V , + O % % , % % % 8 6 B H H C 8 O + a g a , % + + + % 8 8 8 8 8 8 8 B D W N 8 6 % % 8 & s & l & < f f f s a 8 8 8 a h h s a 8 8 a a g g a a 8 8 a a a a , , , , , a g a @ X X @ s h q g O @ # 8 } } U C O @ @ O g 8 q % + @ X @ k a , + + % O a k s h % % a % % , , % % % % , , a a 8 % % % a a a a % # % g D | _ ) q 0 8 8 a a % + a 8 8 g h h h a 8 8 a a a a a 8 a a a s j k g a 8 g N U #.| V g 8 8 a k k g a 8 8 8 h k h g a 8 g S | #.U V g 8 8 a a a 8 & & 8 t ) o._ D g 6 6 8 a a s < & # % + , a a % + + + a s s a a , a g | | | V a + + % 8 w w 8 6 6 % 8 8 s > . : 2 8 B A A 6 O O   O & s , , > > > , , d a , % % , , , a a % % % % a a s h 8 % 8 6 6 g s % 6 6 6 A | S | N 6 8 a , + > % % % % % % % a a 8 % 8 a h h s > @ + % a g g g % + O + % a a a % + + % 6 6 # O # + O @ & < , + o o % a % % > . . > a r.w.g.R , > , 8 q q 8 , > . + 8 q g 8 O   % 8 a s s a 8 8 N N *.@.| g % a 8 V W W C g 8 q 0 &.| #.L O + + ",
"o   O O % 8 8 % + % O O + + % % O + + # + + + % % # 6 8 % 6 8 % % % % % % % % % % % % % 6 8 8 % O O 8 q q 8 + O % 8 q t t 8 + . O + % , + + % % # q q 8 g % O % a 8 % + O + + + % % 6 6 8 8 & & # 6 8 8 8 9 8 a 8 + % + O O * - & 8 8 8 8 8 8 8 % % % % % % % % a 8 8 8 8 a 8 % , % % % , , , % % O X X 5 X % 8 6 8 * @ & + N q 8 a o @ = @ f a a % @ 3 5 < f , , > , , + , s , , O % , + + > + % % % % % % % % % % % % 8 8 8 8 g a a a 8 8 0 0 N g g g a a 8 8 a 8 8 8 8 a a a a a a a a a a % a a a a a a a a 8 8 8 a g g 8 6 8 8 a a a a a 8 8 8 8 8 a a a a 8 q g g g 8 6 % 8 8 8 8 % % & a q Z t q N g 6 8 8 8 % & 8 8 & % 8 a a a a a a 8 8 8 8 8 % % % 8 g t q 8 8 % % % 8 8 8 8 % % % & & l X o : 2 # 6 y w # + 2 .   & > > > > > + + + > + + > , , % % 8 6 % & & & & & $ & 8 8 k w q C a a g 8 6 q N 0 N 0 % 8 , % + > % % % % % + % % 8 8 % 8 8 8 6 % % + % % 8 q q 8 6 % + + 6 8 8 8 O @ O 6 8 8 h 9 & + * * @ # # + 5 X 2 s % + 2 X : 2 % % 8 %   . + + 8 8 8 6 + > > , 8 q q 8 % + % % % % % % 8 8 N 6 q q # 6 % a % 6 8 a % + % 6 O q # 8 a O , > ",
"@ O O + 8 8 8 % % % + O O O + + O + # + O O + + + + 8 a # % a 8 8 6 % % 8 8 8 8 % % % % % % % % + % 8 8 8 % + + , 8 0 0 0 8 > > + % , , + + % % 6 q 8 6 g a % , a 8 % % O + + O % % 6 8 8 & % + 8 9 9 9 w 9 6 % % , a a + s c & % % % % % % % % + + + % % % % % 8 8 8 8 a a % % % % % % , , % % % + X X X @ 8 8 q g O @ & # g 8 q a + @ @ O 8 6 g % O @ * $ a 6 , + , , % , a , a + + , % + , % % % % % % % % % 8 % % % 8 8 8 8 8 a a 8 8 8 a g q g q q q q q 8 a , a , % 8 a a a a a a a a a 8 a a , , % % 8 8 a 8 a 8 8 8 8 8 8 8 a a a a a a 8 8 8 8 8 8 a a 8 8 8 8 8 8 8 8 8 8 a a % % & 8 q N 0 8 g g a g a 8 8 8 8 8 8 8 q q 8 8 8 g 8 6 8 8 % % % % % 8 g q 8 8 a a a < 8 8 8 6 % + % & # < 2 o : : + 0 6 6 # O 2 @ @ l + > + + + + + > + + + , , , % % 8 0 8 6 9 & $ $ $ & 8 6 8 8 0 N 8 % 8 8 6 8 h q 6 # % % , + + , % % % % % % % % 8 8 8 8 8 6 % % < % % 8 q g q q 8 6 6 % 6 6 8 6 O l # 6 6 # a % % # * * @ $ $ * X o + 8 % + @ o o + 8 8 N a + . . + % 8 6 % + + > , 8 q q q % + % % % + % % % 8 q 6 t N q g 8 % % % + O + + % , 8 h # % < + > ; ",
"% O + a V V N g % + O + # + % % O + # # % # % + + + a s 8 a s 8 8 8 a j C C g 8 % 8 8 a a a % % + + % 8 8 % + + , a q t N a > > + , , , > > % % % 8 8 6 8 % O , a a a , % + + O , a a a a % % % 8 8 9 9 9 & + % v P 9.P O + w $ % , a , % % % , , , a , % % , a a a a a 8 8 a a a , , % % , a a a < @ X @ % N I S S % % & 6 S Z V h O O + + C S | q # O O s S N j % % % 8 g C V D 8 % 8 8 s k a , , % % % % , a 8 % % % a a a a % % % % % % a a 8 8 8 g V S Z N a , , , , a a a a a a a a g a a a a a a a a a % a a s s a a a 8 8 a g j j j g a 8 8 8 a a a a a 8 8 a a a a 8 8 8 a s f a a % 8 8 q 8 6 a 8 % 8 a a a s a 8 8 q N S Z N g q 8 6 g h h a % % % % g g q 8 % % + + 8 8 8 8 % + % < 6 s 2 ; ; + a _ D _ h + O O % s a s , % O % , d s a a a % a g C S V q 8 8 & & & 3 % 8 8 # N } } #.j 8 8 % 6 a a % + + % % , , , % % % % % < a a a 8 % 8 8 a a a s 8 6 q N S S V 0 8 # 6 8 8 q 8 + c + g V V U 8 % % + + & & $ @ o   % g N h s   & O 8 N S S k < . . , a g a , + . % g N Z N % O % 8 8 s < % 8 8 q 6 V 0 q a % % % % O + + + > < % s + O < . o o ",
"% # 6 N #.i.*.W 6 + + % & s 8 & O + + % 2 < < % + O & f f f f 8 6 a C $.j.e.C 8 6 8 h C k h a % + + < a a , + . + a B D C s > . , s f 2 2 > , % 8 k C k k a + , a g g s < + O % a g j k a % + + d j k x f s j P dXbXbXtXP a g 8 < s f s % % , s s f f < % % a k k k k a % % a s s s s a , a k C V C f % % g >.J.H.D.S N N S a.S.A.u.g g h @.Y..X^.,.N q N &.S.A.a.D N N D 3.U.P.l.Z q t A [ =.C h s % % , s s s a 8 % 8 g k k h f s s s f f d a j g N #.U.W.K.3.8 & < s d d a , % , a s k k g a a a a k k k s % % a a f f s < & 6 g C W ! L j a 8 a a g g g a a % a s f a a 8 % 8 s k k k s a 8 a C C k x h % a , s k h g 8 8 q u.A.E.K.&.Z N N C G G k a % % a C D C k s < < s s h h 8 & % % < g N a 1 , % S Y.:X>XI.V a a g C D G B q 6 q C @.#.@.D g 0 N @.u.u. .V 8 % , < 2 < O a j j F.aXiXsXc.j g g a s s < & # + & a s s , % % % a f k k a % % % h F G k f a 8 N | &.&.@.q 6 # 8 s k h g O s % r.OX@XuXc., , > > , , < % s a S u.A.z.$.h 8 q } S.A.A.@.# . > s C C C , > > d #.l.z.*.V , % 8 h k k f a 6 6 N k.@.k.C + O + % % + + . . O O s c s < 2 . : ",
"+ # 6 D x.U.c.k.6 + O & s s s & O O + & < s < % & O a x x x k % 6 g W x.W.v.W 8 6 g C E E x s % > > f k k s > . + s H =.W k > . , f f f 1 , , % % C G C k % O % a j k f < + O % s k L k s % + + j j k k a % d P mXGXGXdXn % 8 a s f f s % % , f f f f < % O < k L C k s % % a d k f k s a a C W ..U C 8 8 S J.;X=XH.} t q Z S.).-XF.S q N +..X,X;XV.Z 0 t 4.!.(.L._ t t ] P.].].T.' t u _ 3.3.@.k s % % , f k f a % % 8 k G C h 8 + O & s f d , , + 8 #.`.5X].3.6 # % s f f d , % % s f k k g a a a a k E E k % % , s f s s s 8 6 h W j.e.! C a 8 a f k k g a a % s k k f a a a a h k E k h a 8 6 C G G x a + % a f C C h 8 q q a./.>X/.+.t 0 q W ~ ~ E f % , a k C G k < % < s s f h s 8 % < < N S j d , 8 O.>XqXjX.XI 8 a V | =.=.H y 0 t [ k.l.3.@.N q Z 3.U.E.d.I a % , 1 2 f + d j a {.vXlXMX Xa % a % % & l < & + % s g g s % + % s k x k a % + 8 k E Q E f a 8 N #.i.k.*.g 6 + & f x k g % d % d.uXpXpXg., , > 1 1 1 , , 8 8 ) V.^.^.i.g q 0 ` (.S.!.i.8 > > f E ~ W d > + d e.T.W.i.C + % a k E m k a % 8 H v.W v.k + , + & < < 2 @ .   # c m c < @ o X ",
"& # # C z.W.z.#.g 6 # # s s s 9 O O + 2 < < < < O % s f x x s a 6 g W x.v.x.W 8 6 8 h E Q E s O + > s f s s > . + s H =.W k > . > d f M f , , % 8 h G G h , + % a g h f < % + + g C L C k , < , d j k s & % j 9.mXGXPXdXP O g 8 s s s < , , , s k k f s % % , f C C C g % % a f b k s a a a C #.| | j % 8 S V.;X=XH.O.q 0 | L.-X.XF.V 8 g o.-X2X1XD.N 6 N 4.H.(.I.| t t ] P.'.'.P.' 0 0 _ 5.3.&.k s % % s f k s s a % 8 h C C k 8 & & < < 2 f d , O % | `.5X'.a.6 l + s b a a , & & s z F G h a % a s k b k f a < < s f s s s 8 8 w $.$.j.j.h 8 6 8 s z k f a % % s f f s s a % 8 k E E C g a 8 8 C G k k a % s a f C k g 8 8 q u.Y.OXR.+.q 6 8 H W Q E f , < s G G k f , , , , f f h 8 & + + % N N j a a g >.1XjXqXoXS g a I | =.{ A t 0 t [ 3.l.3._ t q Z 3.U.R.d.S 8 a a d 2 M + d d a {.vXlXMX Xg O a f < < 3 & @ % & s h k a % % , s k G E k a % 8 k E Q E s , % g | i.k.e.h 8 # & s k k a % , a g.uXaXuXg.1 , , , , , , 8 % 8 ` D.H.^.i.N 6 t X.S.).Y.%.8 > > k W W E f + + k e.W.`.z.C % % a k E m k a % 8 H k.v.j.E , + # 8 s s 2 + + & # l x c l @ @ @ ",
"8 8 8 C *.x.i.@.8 % # # & 9 9 & O O % < < < < % O + < s f f < % 8 g C $.j.e.C 8 6 8 g C E k a + + + < s s < > + + a B D C s ; . > , f f 2 , > % 8 g C C s , + , a a s s < % % % g j V C j s < < , s f s & % d v dXdXbXwXP a k 8 a , a , , , , , k f f s , , s s k C k a % % , d d a a 8 8 8 g D _ | C a a N >.F.F.p.| g q D a.L.A.u.N a g U I.^.^.p.N q C &.Z.A.i.D N N S 3.U.P.3._ t t A D | W h s % % , s s a a a % a g k k h 8 & & & < < < 1 d a a | z.~.L.3.7 & O O a d j b & & 9 l z k h a 8 a s k f k s < < < < s s s s 8 6 w E $.$.! j 8 6 9 w z h s 8 % % < f f s a a 8 a s k C k a 8 8 g C C C C g , s a s h h g 8 8 q 2.A.E.z.&.Z g N C G G k s % , a k k k s < , , , f h g 8 % + + < N q d , , a ) !.1X>XR.V j 8 N V H D B q 8 q D @.*.@.D N N S %.i.i. .N 8 8 a < < 2 O a j j F.iXiX6Xx.a % s f < l < & % # 8 a g g % % % % a f k k s 8 % % h C G k f d a j U w.r.$.a % % < s f k d % , a r. X@X@Xh., > > , < < % % a 8 S u.C.s.$.h 8 g ) p.K.l.W 8 > > k E D C d > > d @.l.z.&.j , % a f k f s % + 8 C =.$.W k , % 6 9 s s % + + # # w z z 9 $ * @ ",
"O O % 8 g N N g 6 % + # # & % 8 O + % < % % % % O + % % < < % + 8 8 a g j h a % 8 a a s s a 8 % + + % 8 8 % + + , a q t N a > ; + % , , > + % % 8 8 g g a % + + % a a < % + % % a g g g a 8 + O # & 7 7 $ $ 8 a j d P v % % h # 8 , % % , , % % a a a , , , a a a g a a % % , , a , 8 a 8 8 q g 0 g # * + % g S S N a O O & N S N g O O + + V N S N % O & h N N g % % % 8 g C h N g a g a a a k , , % % % , , , 8 8 8 a a a a a 8 % % & < , < , % % 8 g N S ) Z 9 $ s , , d + % 8 9 9 9 w 9 a a , , a a s s a , a % % % 8 < 8 8 8 g 6 a a 8 g g 8 9 9 9 9 8 & % % % a a a 8 8 a a a a a g a 8 8 8 g 8 8 g a + % a 8 a a a 8 8 8 N S Z N N q 8 6 g g h s a % , % s s s < , , , a a g 8 8 % % + < 9 8 < . > , q o.( ( V # s % s s a a , % + % a k a a 8 % % 8 a g S N q 8 8 & & @ 3 # % 8 # g } S ..j a % , < < < < % # % % 8 8 a % + + % % < a a 8 % % % 8 a g s + + % % a g g a % % % < < , a a O % O 8 V I I a % % % < s 9 9 & + O 8 N N h s * * O 8 N B B &   O O 8 q 8 8 , . > % g S D N a % + % < s < , % + 8 g h h h , + % 6 8 6 % + + O + # 8 9 w 9 $ * * ",
"O # 8 6 6 0 q 8 # + + + + + % % + % % , % O + % % % O O % % % O % % % + % % % % % % % % + + + % + + % % % % + + , % 0 0 0 8 > > + % % % + + O % % 6 6 6 8 % O O % % % % + + % 8 g g g g g a 8 & $ $ $ $ $ $ & 8 a O % a a s z 7 8 % % % , , % % % % % % % % % % 8 8 8 8 % % , , , % % a g q 0 q 0 w & @ = & % a 8 a @ X X @ 8 q 6 8 * @ = @ 8 # 8 8 $ @ = & 8 8 , + , a , % a + % % , , % O + , , , , , % % % % % 8 a a 8 8 8 8 8 % % % < < , , a a g g q q N N 6 O k j d v d d 8 8 9 & 9 8 8 a a % % % , a a , , % % % 8 8 a 8 # g a V V 8 a 8 8 8 8 & & & & % % 8 8 8 8 8 8 a a 8 8 8 8 8 8 8 q N q q g g 8 a , % % % 8 8 8 8 g q 8 8 q g 8 8 8 8 8 8 % % % % 8 8 , , , % , a 8 q q 8 6 % % < & $ 2 o : , 6 t i t g + l @ @ $ O + + + + + % % , , , , a , % % 8 0 8 8 & $ $ $ $ & 8 9 q 8 6 8 % % a % % % % O & & % % 8 8 % % % + + + % % % + % % % % 6 6 8 % + > , % 8 8 8 % % 8 < % % + % % & c # % # # 8 # % & $ & 7 9 9 & @ @ % a % + @ X 5 @ & 6 6 & * @ > % q t 0 8 a > + O # 8 0 6 O + + + % % % + + + 6 6 6 6 % % + % 6 8 6 + + O O O + # 6 6 8 & $ O ",
"@ @ % % 6 8 q 8 # + + + + % 8 8 % % % , % % % % , % % + % % % + % % % % % % 8 a % % % % % % % % % % 8 8 8 8 % + + % 0 t t 8 + . % % % % + + + % 6 8 8 8 6 % O O % % % % + % % a 8 q q q q 8 8 9 7 7 7 7 9 9 8 6 8 % % a % # # # 8 8 % % 8 8 8 % % % % % % % % 8 8 8 8 8 % , , , % + % 8 8 8 q t N V 9 * = 3 % % % , X X X @ a q 8 a o @ = @ s 8 8 % @ X X @ & a , > , 1 + % , % , % % , + + + + % , , , , % , a % 8 a a 8 8 8 8 8 % % % a a a 8 a a g g g g g g h # 8 , + d d a a 8 9 9 & % a a , % % % % , a , 8 8 8 8 a a a 8 g g a j j a a a a 8 8 & & & % , 8 8 a a 8 8 8 a a a 8 8 8 a 8 8 q N N q N g 8 a 8 % % % , a % 8 a a g a a a a 8 % % % 8 % % % % % 8 , , , % , a a g g 8 8 % , < & $ 2 . > s 6 u / u N # l * @ $ O + + > > > , , , , , , < , , % 8 8 8 & & & & & $ & 8 8 F h 8 h % < a % % a a % 8 8 % % 8 8 % % < % % % % % % + % % 8 8 8 % 8 % + , a a g g g 8 8 8 8 8 8 8 8 6 & 3 # 8 8 8 h 9 6 # $ $ 7 8 7 # @ . < a % + @ 5 5 X + % % # X @ % % q N t q a + , % 6 q w 6 + + % % % + + + % % 8 6 6 % % % + + 8 8 6 % % + + O + # # # & & $ O ",
"o o O # 8 g g 6 % + + % 8 a 8 a % % , a s s , % % % % % , < , % % % & & & 8 a a % 8 a s g a a % % % g g N g , % % g _ %.' V , + % % , < , % % % 8 g B B g a % % % % < < % % 8 g V } o.) N 6 6 6 w w 9 8 8 8 8 8 & 9 z z 9 8 s x a s a a 8 % 8 a h h h a 8 % a h k h g a 8 % , a s a a 8 q q A %.` o.h O * @ % , + + X o o % g N N g O * @ + k N g 8 O o o @ a g a + , , O % a , h % + % < < , , , , , , , a s s 8 8 8 a a a a a , % % 8 a a g a 6 6 6 a j j j a h 8 a q.h.h.h.d a a 8 9 s a a a , % % , , a a a a a a g h g a a K j  .q.h.q.j j a a a s a < , , 8 g g h g g a a a g g j h g a q t ` } } S N 8 a a a a , , , % , % , a a % + + + & a a a % % % , a a a , , , a a g g N g 8 % , < 9 9 < > , a t :.-.' _ # a O 9 s , , , , , , s k s a 8 % % % a f k h a % + % s h h h 8 6 8 6 # 6 s < & % 8 a g g g a 8 8 8 8 8 & < % % % % , a % % 8 a 8 8 8 a a + % % a V | | V q 8 8 g D U S V O @ O % g q h 6 9 # $ 9 h C N 8 O   % g a a & o o   + 6 % O * o O 6 N _ _ D a   > % 8 h h 8 O . + % % % % % % % 8 8 8 a a < + + 8 g g s , > + O % % % & & & # O ",
"@ @ < s C E L k % + + & f h g a , % a s k k k a % % % , s s a , + + # & < < % + % a h G E C g % % a V D D V a % a U l.P.l.@.d > % a f f s , % 6 g B H H C a % % % , s < < & 8 q z.`.OX`.3.V q w h h h g a a a a s x z 9 + O O a k k k g 8 8 a k G E G h 8 8 g G E E C g % % a f b f g g q N %.K.H.H.2.w 8 s j j j f < > < C X.>.O.| a s s h #.+.+.I a % s m ....! k a g g C W G C q 6 8 h h h s s , % % a s f s a a 8 a g k k h , , % a g h h h h g g j ! ! R K % 8 j eXcXbXcXg.a a a h k k d a , , , s f f a a 8 a h C C C g g g K eXnXMXaXY , a a s k f s , , g g V C V g g 8 a j L E L j g g X.A./.T.s.| N N g k k d s , , , a d f f < & < s s f x k a % 8 a f f f s , , a a V V V g a % , a B y k a a g ` H.<X1X!.Z g 6 g g V j g a 8 g C W @.W C g q B H $.E v a , , a j j j j a a a j k k c & # + 8 a g N g g 8 8 8 s s s a , % % , a s s a 8 8 a a a g f f a a C 3.U.P.l.N 0 0 C *.l.a..., 2 > d L j C w 8 8 8 C $.r...N s % N } } U E < + < g V V j s < g N %.P.P.l.W % + % 8 h h & . . O % % < , , % % 8 a h h s < + + a g k b f > + O % & 8 8 & % # + ",
"  @ & s k L C k % + % < k k k a , % a j E W k , O O % a s f s , < & < s f s % O + < k E ~ ^ f % % a C W W C a % 8 W U.].U.#.a + a s k x k s 8 % g C =.~ C a % % % , s s s < a a &.I.OX X*.q 6 8 k C j d a , , a s G x 8 a s a d k G G h % % s F E Q W h % % f E $.$.E h 8 % a k E k h 8 8 N *.T.%X_.4.q 6 a a g g d , O % j } >.o.} 8 8 a g | X.+.V % O s E ..| W a 6 6 q C W C C g 6 8 h k k f s , O % < f f f f a % 8 h k k k , , , a g h h h a 8 % a L ! R K a g a uXFXZXmXh.g a g j L K j a % % s k C C g a 8 a C U U D g a j j uXnXMXnX9.d a a d k k f a , g V U U C j a 8 a C @.$.W C a g ) A.OX Xz.S 6 8 g k b f s , < > , , , < < + % < f x E k a % , a k k k d a , a a L C C h a a , a B N C j g q ` *X1X1X~.N g 6 V C C C h 8 8 q D *.@.H B q 6 w H =.! b a , , d K K L j a % O a j a x s # 8 a g g C g g 8 8 8 s s s < , % % , a g h a % % % a f f f % + # N k.W.W.P.N 0 8 D k.U.K.*.+ > + d L C U k 6 % a E j.x.w.V a % g I | ..C % + % g N N g % + 8 g &.U.T.x.E O < < a h h < @ > O + < , < < + O & s s f < > + + a j E ^ f , > + , a s s s % # # ",
"# O O s k E m f + % % < s f s , > + a C U W k > . + < s s a > > @ @ , a a a 2 2 . + b R ! ^ < + + a k W W C a % 8 W x.W.v.$.g % a d b b f , % % a k ^ ~ E h % + % a s s s < a a d. X6XOXr.8 # 9 h j k f < + + > c x x s & & & s G k h x & $ c z F $.G ~ 8 s s G $.$.W h 6 6 g G G C h q 8 g *.W.OXT.*.g 6 a h k k a % % a j U #.#.U a % % j | &.3.B < 2 , k ..#.^ x 8 % 8 C L L k d , , s s s s > 2 > + < f f s 8 8 % a k k k f < < a a g j g a , % , d E ! | K a , d eXGXLXMXF.g g j j K K j a   & g V } S g a s % h U I U C a j j sXMXIXMXT , , a f E E k a % 8 g C E E k a 6 8 C =.$.W C a 8 I s. X Xj.k % % a j d f f > 2 + , s f 2 > + + < f b E k s < @ 2 s d k d a , a k L L C g 8 % % s g k j g q 0 ] ~.5X5Xz.C 8 % , s x m f 8 a a h ~ $.W C 8 6 8 G $.$.E s + O < j U L j < O # 9 B D k s % + 8 s g g a a % % 8 a f s > > > , a a d g s + O , , , f d , % 8 q k.`.[.U.C 8 6 h j.U.x.*.a % % a k L k g % a 8 W j.j.e.j % % a C ! W k a + + 8 g g g % + % g ..c.|.c.E + + O d d d b + @ 2 2 2 2 2 @ @ O + 2 < < < 2 @ O + g G E k s % + % 8 a s 8 % % % ",
"% + + < s f f , % % % , < , , , . o 8 N Z S k > . + & 9 8 8 > > o . , a g a + o X O k j j f @ @ + , s k k g a 8 % k $.e.$.C a % % , d d s , % % , s k k f , % % % 8 a a < , , a Y w.g.d.L 8 # s a a s < + @ @ @ s f h a & $ $ & g g 8 s # + s 9 W ~ N C % 8 & x G G C g 8 6 g h C h g 8 8 8 C $.j.*.D q 6 a s a s a 8 % 8 a k C D j , , , g S _ H 9 O > , k ) D k s % % 8 g j j a , > , , s s s + > > + % s s 8 8 8 8 a s f f s & & % a g g a a , , , s k L S N s , , b.uXuX,X+.g a a d d j s & = 3 g N S V g s % + g C V C f + j a n.4X4X4Xj a % a s d f s a 8 q g h k f s , 8 6 g C H C a % 8 V ..i.j.! k , % a j a d d + 2 . , a s , > + , , a a j a a % @ @ < a a a , , a a k k f a % % , a s d a g q 0 A 3.l.l.@.g 8 % > , < s & + 8 8 g E C C g 8 % 8 f G D C w @ @ & g N N g % @ $ 9 N N h a % % , a s s a , % % , a s , 2 : > , a g a a f & % < < % a , , % a 8 H k.=.=.g 8 % a E =.=.H 8 + + a h k f a % a 6 h G G C 6 % % % f k k f a + % % a a a % % % a j T r.! h # 8 % , , , d < 2 O O @ 2 2 + O o O + 2 2 2 > + O % a k k f 8 % % % % a a 8 % % % ",
"% + + % % % % % % % O % % , , > . . 8 N t N g % + + & 6 8 8 % + O % a g g 8 O @ @ O g a 8 a O 2 % % % % % % % % % 8 a g a 8 6 % % % % , , , , , % % % % + + + + + % % % % % , a g g N N a % # < 8 8 8 % + O O + , a 8 8 6 % # # 8 8 8 % % < & % a 8 6 g % a % f 8 a g g 8 8 8 8 g a a 8 8 6 8 h g g q 6 6 a a % a , 8 % 8 8 a g g g , , , a g t B % + 2 , a Z N 8 % 6 8 g g g a % , , , a a g g % , , , a a a a 8 8 8 a a a a a & & % 8 a a a , , , % , a g g q +   > j K K V 8 % + , > , > & @ o o % g g g % + @ @ s h g a < + , + j j j j O % a a a a a a a a 8 8 a , , % % 8 6 q g g 8 % % a N N N g g g a a g j a g a % < + , a , , , , , a g g g a 8 % + O , , % % % % % % a a , % % % , , , , % 8 N q 0 A N D N 8 a a % a a g 8 6 a a 8 g g a 8 8 8 8 8 g N g 8 @ & & a g g 8 + @ & & q q a , % % % % , , % % , , , , a < 2 @ O % 8 8 8 8 # O O % % % a a % + a 6 8 N 0 g 6 8 8 8 8 q q q % % + % , a 8 8 8 g 6 8 g g C 8 8 + + % 8 a a a % % % % % % % 8 9 8 8 a a a & $ $ $ O , , % # O + % % % < % % O + + % , > + O O % & & % % % % % + + % % % + + + ",
"% + + O O O O O % % O O % % % + + O q t 0 0 8 O % + 6 6 6 6 % + % 8 q q 0 8 % & # # g 0 0 q # & % % % % % % % % 8 % + + + % % 8 % % O + % , , % % % O O O + + + + % % + + + , a 8 8 8 6 % + % % 8 8 8 % % % + % + % 8 8 8 8 6 6 6 8 a + % , + , j a g j j d + % % 6 8 8 8 8 8 8 6 6 8 8 8 6 6 8 8 8 8 8 a a % % % % % % 8 8 8 8 q 8 , , , a q 0 g % % , % 8 u t q 6 8 q g q q 8 % , , 8 8 q t 0 a , , a a g g g g a g a a a a a & % % % a a a % , < % % % 8 q 8 3 @ d a + 8 8 w # # + > + @ @ X 5 X % g g g a @ 3 @ % 8 # % < < a a % a % + % a a a a % % 8 8 a 8 8 8 % % + , % 8 a g a 8 % , a q q 0 8 8 8 q q 8 g 8 g a % s % a a % % % , a a g g g g 8 8 % + , , % % % , % % , % % % , , % % % , % 8 h q 6 q 6 q q 8 g a 8 a 8 g q 6 g g 6 8 8 8 8 8 8 8 8 8 q q % % & < 8 8 g 8 % + % , g q 8 % % + + % % % % % a a % % % < @ @ + % 8 8 9 8 9 & s & a g 8 g , O a 8 8 q 6 8 6 8 a a 6 6 6 8 % % % % % % 8 8 8 h 8 q q 0 N q 8 + + + + % % % + + % + + + + & r 7 # # # % $ 7 7 9 # a a + 9 & 8 8 6 % % % 8 a % % % % % % O O & % + + + % % + # + % % + + + + ",
"+ + O + + + % % % % O O % % % + + O q u u t q + % + 6 6 0 q % % + 6 q N Z N 8 + # # N Z N N # % % 8 a a a a % % , % % % a a , % a , , % a a % % % % + % % % % + + % % , , , , a a 8 w 8 6 + % % g g g a % % % % 8 8 g g g 8 8 8 8 8 a O , , + v j a K a a d % , 8 8 8 8 8 8 8 a a a 8 8 8 8 8 8 a a a a a a , a , a a a a a 8 8 g q % , , a g g g % + + + g ( ( S q 8 q q q 8 8 8 8 8 8 q Z ( Z g a 8 8 g g g g g g q q g g g a & % % 8 a a a , % % % & , a g q & O s j g V N w 7 & < > + @ @ = 3 . % g N N g O 2 % a g g g s % a k 8 g g 8 g a % 8 a a a a 8 % a a a , , > , % 8 a g g a , , a q Z N N q q q q 0 Z N Z g 6 8 6 g a 8 8 8 a a g g N N N g g a a a a % % a a 8 % a a 8 8 a a 8 % % a 8 8 g 8 6 g 6 g 8 6 q 8 8 N q N g 8 g g 8 a a 8 8 8 8 g g g N g % % % < g g g a % O % a N N a 8 % % % 8 a a 8 a a 8 8 8 8 8 & # # % 9 8 8 8 s 9 s O g I g j k O % a 8 g q a 8 % % , a 8 q 8 % % % < , a 8 8 8 g 0 N N t N 6 6 % % % % % % % + % % % % % % & $ 7 8 8 a 8 7 r 9 8 % a a 8 8 6 8 q g g g 8 8 a 8 8 % % % % % % % % % & & & % + O + & & + + + + ",
"+ + + % < a a < % % % % % , % + % + N ' :.2.U a % % 8 w y g a % # 8 S ,.4.%.B # # 8 | ,.2.&.w 6 % a h k k f , + % , a f f s , % , a d k d a % % % a s f f a % + & & , , , , , , 8 w p w 9 % % , N V C h a % % a j V V N g 8 8 8 j g L , 1 1 , h.#X|.#XK a d , d s g a 8 8 8 a h k k h 8 8 8 a a s a , , , , s f d s a a a a g B B g % + , d j C C s , , a | C.C.a.I t q N B h k s f g g S 4.C.4.| j a g N S I I N g q g g N N h < & & a g g s s % + + < s g g g # # q } +.y.%.y w 8 , , , < & $ .   V s.F.F.w.+ a g | u.p.+.U 8 8 a % a a 8 a % 8 a k C C k a 8 a a a d , > , , % a g g a a , , N ) %.@.C q 0 q S 2.4.i.| q g 8 g g g a a a g g ..u.u.O.S q q g g a a a a a a a k k s a a 8 8 8 a k a % a a a k g k g 8 q q B *.,.u.} N g g a a s a a 8 a g V S I N , + + s V V S h & O % a S I C s 8 8 a k k k k s 8 % 8 a a a < & % 6 8 a s s + O , + r.@X{.@X0.O % a 8 h g a 8 % O % s k h g % + < < f k g g 8 g q o.a.a.a.S 6 % a f k f a % % % a f k h a & $ & s k f k 9 9 # a j.|. Xx.g 6 6 N o.w.&.U g 6 8 8 a a 8 , , % % & s s s & % + + & s s < % + + ",
"+ O O % s f f < % % % , , < , , , + V 3.P.U.e.k % % w B A C a % % g o.A.~.K.W 6 9 g i.K.T.K.C 8 % a k G G x < + % < f x c < < O , k E E k s % + , s k x k a % + & < , 1 , , , % 9 r r r 9 % , , C U W G s % % a L U | V g 8 8 a E k E a d 1 d @XLXIXFXg.j a + , s g s 8 % % s k E E k a % 8 a s d a , , , , f E m k s a 8 a k G H B a + , d L W W k , , j i._.(.T.+.N t V B F x f k a g o.Y.%X).u.K g g U #.#.$.V g 8 g V U C C s < a s j j k k < % + < k C C N y A Z D.XX^.~.o.t q g j j j h 8 % % d.iXzXzXoXV g V t.(..XH.,.g g a k h h k g a a h L ! ! E j a a a a d 1 , , , , a g g s a , , N | 3.*.H g 0 q %.K.R.`.i.N N q g g h g a a g N z.R.`.K.| q 8 g g k k a a a a a k k k s a 8 a a h C s % a a , f f b k g q t =.U././.d.V g a a f f s s a 8 g V |  .I a + % s D | | C 8 + % d I ..W k 8 % h E ^ ^ E k % + 8 s g s a , % % a a d d , , d v @XDXNXGXx.+ % s 8 k h a , + O , k C C h % + < s x E C C 0 g N i.OX5X'.2.6 % a k E E f % + % s x ^ E f + # & d v P v a % g U fXMXMXaXT j 8 S a.U.v.*.N 6 8 8 a a a , , % % s s s s & % % & s s f s < + O ",
"% O O < f x f < % % , < s s , , > O N i.T.W.e.a % % w B H G d , % q | A./.U.W 6 % q u.I./.U.C % % a k E E x < + < s x M c < > + , k ^ ~ E k % + , f x x k a % + 8 a s 1 1 , % % w r r r w 8 , , U #.$.E s + % a E #.#.U g % < k C g E , , > d uXMXmXFXg.a , % s s g s 8 + % s L E ^ C a % a g k k d , , , , f ^ ~ E g 8 8 a C E H F a + , d U #.! k % % g i.).(.R...q 8 g h s s s < % 8 | Y.-X).i.C 6 8 V ! #.$.V g 8 g C W E C s s a h V C C k < % % < x E C N t Z u J.(.H.).o.t q g j K V N g j 8 y.rXzXkXXXN q N y.H.-XH.<.q 8 % x h s h % a 8 g C W W C g 8 a a s d 1 , , , a a g g s s , , N | *.*.G g q g | I.`.`.i.N g 8 g j C k s 8 g N i.T.OXI.| 8 8 h k j k k a % a s k k k h 8 % a h C C s % a d , s f b k 8 0 t =.W.E.^.u.g 6 8 f x s s s , 8 g C | +.U s % & s H @.@.C s & < k U ..! k % + s E Q Q ~ k % + 8 h k d d , , , a d j b 1 > , , #XZXbXDXc., % s 8 h k a , , , , k G C k + O + f E ^ E C q g t i.>X5X/.) 8 % a x ^ ^ k a + % a E ~ ^ f O % a j P 9.P a % 8 j sXmXmXaXK g 8 S z.W.v.*.h % 8 % 8 a s < % % & s c s < % % & < s x x f s % O ",
"+ + % < s f f s % % , < s s , > + . g i.T.W.j.d . O 6 h G k d > + a | s.E.c.W & + k e.E.R.x.E + + a x ^ ^ x < O + s x m M f < + , k E ^ L s 8 % % s k G k s 8 % & a s 1 1 , , % F 9 p 7 9 a > , L W ~ E s + % a E W W C a , < & k ~ G s d > P @XLXLXMX|.a % % s d k s a 8 a g k ^ E k s % % a d d 1 , , % , b ~ ~ L s % 8 a k G H F s , , j U #.W C , + j i._.%XR.q.a % 8 h f c f s , a | K.).).e.C 8 a L $.$.! k g a g C E W E s < 8 g C U C k 8 % # & f x C N t N Z t.XXXXY.&.t g g a v V 8 g % j y.vXjXNXXXN N V t.(.;X(.u.q 8 8 s s s g g a 8 h E $.$.U g 8 a a s f s , , , a 8 g h a a s , g U $.$.E h a 8 #.c.OX`.*.N q g g h h h s s g N z.`.OXU.D 8 6 h k k C j a 8 a g C C C h 8 % 8 g j j g a , , 1 f d f k g 8 q =.P.oXR.w.N 8 a s c l l 2 % a g C $.U ..8 & l w H %.%.D s $ & G U | W k a 8 a k W ~ E h 8 % 8 g h s f + , % a j d b > 1 > 1 #XZXDXFXc.2 O a f a a a , , , , f k C k & + % f m ^ E C q N N z.5X5X'.&.6 % a k E E k a % % f x ~ ^ k a + , j P P v d a a j aXAXFXdXv a g N k.v.v.j.g % % % & < & & @ O O & x x s & & & s f x x s & + O ",
"+ + % % < < , , % % , , < < , + . . a U o.#.L , + + % 8 h a , > O % g } +...s O O % V ..+.U s O + 8 f k k f & + O % s s < < + O % a k k k a 8 8 % a h h a 8 8 8 8 a s , , , % % 6 8 B B h a , d j C k h s # + % g j h a % & < & 8 F a % , . , r.n.|.|.Y % 8 # & a a a a 8 a a k k k k a a 8 a a , , , % O % a k k g a % 8 a a h h 8 % , , a V S V g % O a I <.<.w.v a % a s s s < , % % j ..,.,.C a % % s k k h a 8 8 8 g h C h & % % 8 g N g g a & % & s h g g 8 q q } y.O.+.N 6 8 a d j j a g s , N V.V.H.y.g 8 8 S ,.t.,.S # 8 8 8 a a a a a 6 a j C C h g 6 8 8 8 a , % % % 8 8 g h g 8 % O a j C k s % % 8 g U w.&.S g 8 8 g g g s 8 8 8 q D &.3.| N 8 8 h g k k g a 8 a a g k h a 8 8 8 a g g a a , , , 1 , s s a 0 q _ *.&.w.I 8 8 8 % & & < & + < % a C D U % O $ # V S _ N 8 O O s V S j a 8 % 8 a h k k a 8 % 8 a a , % O , % , s % s , , > . 9.|.{.b.R + O , a 8 a a , % + , s h g a + O O & f k g g 8 q q | a.u.2.N 6 % % s k k f a % % % f k k a + # & a j v j a % a + h.g.b.g.% a 8 8 E W W G % + % % % & @ @ @ @ O % s a & % % % % < s s & % O O ",
"+ + + % % % % O % % % , , , % + ; + a g 0 q a , > + + % 6 % + + + % 8 g g g %   O % 8 q g a % + % 8 % % % % % % + % % % % % % % + % % 8 8 8 8 8 % 8 a 8 % + % 8 % 8 , , , % % a # 8 q g % + O % a 8 8 8 a s % % a g g 8 % & + O # h 8 + < + O d % a j 8 % s # & 8 8 a a 8 a a a a a a a a a a a % % , , % % % 8 8 8 % 8 8 a a 8 8 8 , , , a N N t g , % a g Z t a , , a a a & < + + , % a j N N a 8 & % , , % % a 8 8 8 8 g q 8 8 8 8 8 g g q q 8 8 & & & 8 8 6 $ & % d j a g % # 2 , , , , a s 3 O a q S N g + 2 O 8 g g g 9 O % % 8 a 8 8 8 8 8 a g g g g g q q q 8 8 8 % 8 a w q q q q 8 8 % a a a a % % , a a g g g g a 8 8 g g a 8 8 8 8 q N N N q 0 8 9 8 a a a a 8 8 8 a a a 8 8 8 8 8 a a a a % % % , , , , 8 8 q 0 q N g N g 8 a a % + + s & % 8 & % g g N # $ & % N N Z q 6 $ $ & q q g a 8 8 8 a 8 8 8 8 8 8 8 8 8 + + * & & 8 h # & # & < O , j % , , . % a % % 8 8 % + + % , a 8 % % % % % % 8 8 6 8 N 0 N N q N 0 8 % % % % % % % % % + % % % + # $ $ + , , , & # & O a , a a # 8 a # 8 8 8 8 # < + O + @ @ @ @ @ + + + + + + % % % % % % % % % % ",
"+ O O % % % % O , % + % % % % + > + a q 0 8 a , > > % % 6 % + + < , a 8 8 8 + @ + % 8 6 6 % % < % 8 % % + % % % % % % , % % % a % % % % % 8 % % % % 8 % + + % 8 8 8 % % % % a a j K a V g j k f 6 8 8 8 a 8 8 8 g g q 8 8 % + O % g 8 + s , O % g % g 6 8 s $ & 8 8 8 a a a a a 8 8 8 a a a a a , , % a a a 8 8 8 6 6 8 a , % % s s , , a g N u u N a , a g t q % > , a a 8 8 % % , , , a a g q a 9 8 a a a % % a a 8 8 q q q 8 a a a g g q q q 8 8 8 8 % % 8 % * = + , , + a $ = < + > + % g & X @ g 8 S q 8 & 3 @ & 8 % & 3 @ + % 8 a a a 8 a g g g g g g g g q q g g 8 8 8 g q t q 6 0 q 8 g g a a , % , , a a g g a a a , 8 8 q q 8 8 8 q g N t q 0 0 w 9 % a a 8 8 8 a a 8 8 8 8 8 8 a 8 8 8 a a , % % , , , % % a 8 8 8 0 8 g 8 8 g g 6 8 6 g 8 % 8 8 % 8 0 g 8 s & 8 N q t N 6 s s & q 8 8 8 8 a a a 8 6 8 8 8 8 8 8 8 % * - r 6 7 w 6 6 7 $ 9 & a a # a + + s s % 6 a % % % O % , 8 6 # 8 % % % 8 8 6 6 8 N q g q 6 g g 8 % % + + + % % % % % % % + + # = $ $ + % + $ $ $ & % , a a 8 # a # 8 # + % + s O O O O O O O + % % + % % % % % % % % % % % % % ",
"O O O % % < , % % % + % % , % + + O q Z Z S j % + + 8 g g g , > + % a g g 8 + @   + a g g 8 + O % 8 a a s a 8 8 + % a s a a % % a a a a a a 8 % % 8 a a 8 % % 8 8 a 8 & # % 8 a a q.K Y a 8 & # N I I S g 8 8 q N Z Z g 8 a & < a j g % % , , , C 8 g 8 6 % O s a g a a a a g g j g a 8 8 a g g s a % 8 8 a g g h g 8 8 8 a a , a a , + a V ` ` ` Z 8 % , a N g a , % 8 g N h g a a , , , a a g a 8 % % a s s a a 8 8 g N S S Z a 8 q g Z S S N q 8 a a a a a a * = . , d a s & $ & % v K K @.6 @ 3 8 N S I g l = @ s h a s 3 @ % , a a a a a a 8 g g g N g q q q N V V g a 8 g 0 Z A Z D g 8 g g g a a , , % 8 g g N N g 8 % 8 N S S V N q q N Z S S N q q h s a a a a a a a 8 a a 8 8 a a 8 8 a a a a , % a a a a a a 8 6 8 h g h 8 8 q q N S S D g 6 8 8 8 h g N 9 s O a  .} O.I % , s 8 B N 8 8 6 8 8 a a a a a 8 8 8 a g s $ O 9 6 t ' _ [ J 6 9 9 9 8 % f , , s a 6 a g % % % % % a g g q 6 % % 8 8 8 8 8 # a 8 g g 8 V g % % 8 a % % % % % % a a a a % & = = # & < & $ $ * r O % , % l $ % # a a a s + , O % , , % + + % 8 a a a s a 8 % 8 a a a 8 % # % ",
"O O + % < < < , % % % , , , , , > O N %.a.s.#.a + + w B H C d , O % g V V j < @   % g V S j & O % a k k k k a % % a k E C h a 8 a g k k k a 8 % % a h k h 8 8 8 a a a 9 7 & a g f.tXtXpXh.j h h u.F.E.s.I q q S u.s.a.+.N 8 8 a K L L a % + , s C g V h a 8 # c k j j g 8 a g C L C j a 6 8 j L L k g 8 8 g C D E C g a 8 a s f a s , + a } C.S.Z.o.g O , a N V f < + % q D @.U C g a , a a g k h 8 % 6 g C C C g g g S 2.a.A.a.N a q S 2.s.a.3.q g a a g g g g $ < % j Y K D w 6 g V E.OXoX/.t 8 f N p.t.Y.U h & + h W D G z & , a d k k k g g g g C U U S N q N ) +.&.| V N N t 2.K.K.K.| 8 q N V K L k a a 8 g S | U V a 8 g ,.C.A.p.} Z N Z ,.Z.A.2.S q 8 h k j h g g a a a h h g g a 8 8 a k g s a a a a a g g s a % % a G G G g q N Z X.A.A.A.| q q g h C D N 8 % O T @X3XeX|.j , < % H C h g 8 8 8 g k C k g 8 8 8 g k k s % q q ` L.~.~.4.t 0 w 9 f s x , % % 8 8 g h 8 % % % , h k B N 8 6 8 g C G C h % a % k E C C a % % a f f a % % + % a f k f a % $ $ < a s s & $ * & + , , < & * % % C C C k + % % a k f d a , , a g C C C g 8 6 g C W E k 8 6 8 ",
"+ + % % < < s < % % % , s s s , , % S a.].'.x.j % 6 w D =.@.j , O & h I U C s @ + & N U | L s + % a b ^ W L a % a j W $.W C g 8 a k C C k a 8 8 8 h G G k a 8 8 a g h l r 9 a d {.mXCXZXg.a # 9 E.;X,XXXO.N Z } !.oXoXA.S 0 8 g T Y R b , + a s W C W C g h & x C L C g 8 8 h L W W C g 8 8 C ! ~ W C h g g D @.@.D g a % a f f f f 1 , j u.!.%X&X5.g % , d C C f s % 6 y [ 5.%.@.V a a a f k G h g 8 a j L U U V N N } A.).%X/.S g q } K.`.`.K.N g g g k k C h 8 g g I q.O.o.Z t Z } ,XzXzXqX` t N ;.;X$X;Xp.N q q ) 2.,.&.D 8 a a j k C j g a g V U &.*.| V t Z X.u.s.w. .V N N A.oXoXoX+.g N S } ..#.R k a a V | *.&.D h s g S.(.-X^.u.) Z ) F.).oXY.| q 8 a C L C k g a a a C C k g a 8 a g f k k a a 8 a g k g a a % % d E Q Q C N Z ] <.).-X(.<.Z N V C H D C a , + r.lXNXNXeXK , a % W V C k a 8 a k G E G h 8 8 g k C C C g N Z t.;X2X2XS.Z N N h E L E s O % a g h C g 8 % % a k C C B w 8 8 C ~ $.W C 8 a % k ^ ^ E s % % % s k f a % % + % f k k a % + % , d d d & @ @ O 1 n n f @ + a a U ! W L 8 a a j L R L j a a a j L E C h 8 8 j W j.j.W g 8 a ",
"+ O % & < s a < + + % < f f s s , + N l.].OXx.j 8 8 w D =.@.k % + % g V D C s @ @ + a C U C s + O a m ~ ! L a % 8 h W ~ W C 8 % 8 h G G k a 8 a a k G G x s 8 8 a g k z l 9 a a {.mXmXmXg.g & 8 E.;X,XR.+.q N ) A.`.oXz.S 8 8 k T K K b , + , , E C C g 8 f & x E U L g % % h W W W L g 8 8 C $.~ W C g 6 8 C W W C g 8 % s k k f f , + j w.!.).'.3.a + , f V V f f 8 8 N [ %.&.W g % % a d k k a a a a g C L U N g q S s./..X/.D 8 6 S K.OX`.z.V g a h k C C h % a g I q.O.O.) Z N S >XzXVXjX( t 0 ;.;X$X;XA.N q g ) 2.u.&.U 8 , a k C L k a a 8 j | *.*.W g 8 N } i.z.u.I g q N K.oXoXR.+.q N N I ..#.L g 8 8 C U $.#.G h 8 q A.).:X^.,.Z N Z C.^.oXI.| q 8 g L L E k a 8 8 g C C C g 8 8 a k x k k a 8 % a a k g a a % , f m E W C q q N <.).).^.,.t q N C D @.D k a O r.aXvXmXeXj % a 8 #.C C h 8 % 8 a k C C h 8 8 g C G C j a q q y.;X2X2XD.Z N N g L C k f % % h g g h s % % % < f x B B 8 6 6 h ~ $.W k 8 a # h ^ ^ ^ f + + % a k k a % a % a f x x f % O O , d d a & + @   1 1 d 1 O & a a L W W L 8 a % j R ! L j a % a k E E k a 8 % 8 E j.j.W a 6 6 ",
"@ @ + % & & & & O & @ l c < s % , , s ~ x.v.$.h % % a x E E f 2 X @ s N V j < @ X @ s k C k 2 @ O 9 f G L j a % % h J $.J h h # & & x m s s & O 8 f G G f 8 & , a a a a < < , , c.fXnXfXc.a % g I.oX XW.U g 6 h x.v.v.e.C % % s G G x s + + 2 < k k C k s & & s v v d a % & s k E R v d , a k ^ E E k a a g L W U C h g a a k k f d , > d U k.U.z.! , + , k V N k a 8 8 k E Q ^ E d % % a j j j s , , a j K L k a % , L j.U.W.W.k + a j x.c.U.x.g 8 % 9 f k h a % , d L ....U V g 6 L  XsXsXXXI 8 8 o.Y..XR.j.s s % U &.o.#.k < , d k G J z < , , C U *.=.G s % a U &.*.$.U g N V *.U.W.x.@.N 8 j v T ! G z 9 6 j R v ! x & F 6 7.W.`.E.&.g Z Z a.T.].l.J 6 a d L j k k < & s 9 h k C g 8 % , , f k f s O O f < s f < < f a a k L L k < % h *.T.T.U.~ s & , L K #.C 8 a % ! uXaXaX XU % % g C E k , + O , k C L C g 8 8 a h k x s , % g ..E.oXoXu.Z q 0 h W k x s % % % a f , % % O & & z ^ 6 z s 8 8 f ^ Q E f % 6 8 k G G C h % % , s s s a , % , s f f f , + X 2 , a C g $ X o X > 1 d < + * % a k m E k a % , a k k k k a + - c M x x s O < f M ^ 0.b d 6 6 ",
"X X + & 8 8 8 8 O & * & < + s % + O % s x x g % % + + & s s % . X X , g g g & @ X @ & a a s + @ $ 7 9 h g a a 8 h s 9 h 8 8 a % 8 & s s & & & % & s f s 8 % % , , , , , % % % % , R R R d O % # N S V C # % O 8 h C C j a % & s f f s < @ + + 2 , a a a % + $ % 1 d a , & & s f d d d , , , s x s s < % % % a d j g a 8 a g h h g a > > , a N D D g + . + a t t g 8 % % & s < < s < % % a j j a , , , , a j j a , % % < k C V V < O % % C g V g g 8 8 8 h h g 8 + + % a V V N g a + 8 k j K I g , + q S S D x & < O V V N C < > > , g h p w < > , g N Z A g 2 + % g g g N g 6 8 8 h U E C a 8 8 , a j j h 9 7 # , n n b s # h 6 w A V K g % q q N S @.F 9 & , 1 j a a a + # 9 7 w h h g a % , , s a , a , < s + s f , + a 8 8 j j j < @ O & B | S D & @   O j a 8 8 a j % % E k ! j % 8 a g 8 % , > + + , a g j g a 8 8 a a f s & + O O a V I S S 0 0 8 w k 8 h & & % % , , , < O * & $ 9 z % x & % % a f k h a 8 8 8 a h h h a , % % % , , , , % % , , s a , + o X + q N w $ * o X > , , % # O O + % < a % + O + % % a < % + O   = < d f a O O + > 1 d , % # # ",
"@ @ + + 8 8 8 8 % 8 O + % # a 6 % % % + # # 6 6 8 6 % # + + + O X . % q g q % + @ @ + % 8 , + O # 6 6 8 8 8 8 8 % + % 8 a 8 % O 8 6 % % # % 8 a % 8 8 8 8 8 8 a % , a a 8 % % % % , O + a a h 8 q N 6 g 6 h 8 h 8 8 8 8 8 8 , , 8 8 8 % % + % & % 8 8 8 8 % % , % , a 8 8 8 8 8 a a , , % % & & % % % % % % % a 8 8 8 8 8 8 8 8 6 % , , , 8 0 q 0 8 , > % 8 t t q 8 8 8 8 % % % % % % 8 a a g 8 , , , a a a a a , , < 8 8 8 q q f a k 8 V q N q g a 8 8 8 g q 8 , % % 8 q g q q q 8 g g % 8 N j g a N Z t g g < s % N g 0 g 8 , , , 8 0 w 9 % , a g t t t q , < h N q 8 g N g g 8 8 8 6 6 6 8 g , a a a 8 9 w g , , , , % 6 g g q g a d d , k a % a 8 % # % > > a 8 a a % & s 8 w q g a a a % % , % % a a a a % 8 a 8 % a a 8 g g a % + % & q q t N % < < , j g 8 a g C a % a O a % 8 a g g 8 a % + + % % , 8 a 8 8 8 8 a 8 % % & < a , a a g g q 6 w q 8 q # g # % 8 8 % % , < % & s # 6 8 % g % % < & % % % 8 8 % 6 6 6 8 8 8 , % + + % % % % , % % % % % % + 2 + % q q t # @ X . + % % % # $ + + + + + + + + + + + + + + % % % O O O , , % # O + + % % % # 7 ",
"+ O + % 8 q 0 8 8 g # 8 8 8 g 8 8 % a 8 6 6 q B q 8 8 6 6 8 6 +   O 8 g N g 8 O + + % 8 8 8 % + % 8 % % % 8 a a j a d O a a a C 8 8 8 6 8 8 6 8 8 8 8 8 8 8 8 8 8 a a a 8 6 6 6 a j 8 a a % a 8 N Z 0 N 6 g 6 6 g g g g g a 8 8 a 8 8 8 & & & 8 8 a g g a a % , a a 8 8 8 8 8 8 a a 8 8 8 8 8 # & & < < , , a a a a 8 8 8 8 8 8 8 8 , , a g N t 0 g s , , a t t q a a a a 8 s s % % 8 8 8 g q q a , a a a g a a 8 8 s s g g N V 8 % g 8 V N N g g g 8 8 g g g q a % 8 q g N N N 0 6 8 g g j V q 8 8 N Z t q q % a 6 Z Z N N a a , a q 0 0 0 8 , a g Z u u N 8 a 8 g q 8 g g 8 8 g g g g a a a a a a g g q w h j j d 1 a j C g V N N 8 a a , a % d a a 8 9 a , , g g g g 8 8 f h q q q q g a , % a 8 a a g g % g % g g 8 g g 8 q g a , < s g N t t N 6 a % % g q q 8 # 8 8 , j a a a % % + % 8 a % + , , , , a a 8 8 8 a 8 8 % % O + % % % 8 a g q 6 B q 0 q 8 g 6 6 6 8 8 8 8 a k h j 6 N j g a a , < < % % % 8 % % 8 8 6 6 6 8 , % + % % , % % , % % % % % % % < % 8 N 0 N % # @ + % , a 8 + # & & % % % % & & + % % % % % % % d , d , d , g f 9 & % % % + $ $ ",
", % % g V S S V q g 8 C U S } N 6 6 8 g h B g q 8 0 q g B h w 6 O % N } X.} g % + + a g N g , % % a a a 8 a a a % d h.9.h.v O a 8 S I I | N 8 8 g g g g g a 8 6 a g h h w 8 8 8 6 j g V a # 8 0 ) X.) } q g # 8 g N N N g 8 a g g g g a a & 8 8 g g g g a 8 a a V V h g 8 q g g j g a 8 8 w w w 9 8 & % % % a a k g a 8 8 a g h C j a , 8 8 t t N g , , , a N t q 8 8 8 6 8 h k 8 8 8 q q N V V a a a g N N V C g 8 8 8 g g N g a 8 g g } } O.S N g g g N S S V 8 % 8 N A Z A N B 8 6 8 N I S q g q Z ` X.X.D g 8 6 } >.X.O.N a a a N N N N a a g t ;.;.;.o.8 a 6 V U U U N 8 8 8 8 a a a a 8 % 8 g g g g w w g j q.q.q.T 8 # 8 ( ;.} } N 8 g 6 g g N N y q g V } X.} I a 8 a a g g g g g g a a g a V g g g q y.} y.} g g N g g N j a < % a N ) ) S 8 8 8 8 } O...U a 8 a % a % % % % % a a a 8 s < , , a a j k g g a 8 8 a a f 8 % % % 8 a 8 8 w 6 w 0 N | ) | B 7 6 w h h h h 6 # # % q.q.q.K a , % % a s a a + % a a s s a 8 % % % s f f , % % % , , s , % + , + S t.X.p.g O + + a j g a & # + & & 8 8 & % + # % s s 8 & % % , v h.q.q.% # # 9 9 8 % % + * - ",
", % a V w.s.a.*.0 g g @.z.s.a.| 8 6 8 k H H g 8 0 q B H =.=.D g % s } p.F.p.D 8 + & g S I V a % , a a h h s a a a g.MXAXIX@Xj 8 g +.d.s.z.| 8 q g j V C j g 8 6 g V C B w w 0 q B U C D C q B N p.Y.I.K.D g 8 g N S I V q 6 8 g V V C k a & 8 h C D S N g a a k W E C g 8 8 g C D C g g q w F z f f a % % 8 h k C k a 8 8 h E ~ $.E s , % g N A N g % + , k D _ C g 8 8 6 8 k k h g q q N C D D h a a g S U @.@.B h 6 8 h C V g j a V S I.R..Xs.V N N V | ..o.| 8 8 g D @.%.' A B w h W @.#...S N N o.F.^.^.i.V g g t.F.H.Y.o.g a a V D D C g a g S S.H.G.A.g a q &.U.W.U.&.N g q a a f f s s a g h V V h g a a h.dXcXnX4XV g S C.%XH.H.2.N B N V S _ _ u q N I F.F.Y.i.V 8 a a g g g g g g g g C j U g N V S oX,X,XE.S q N C U I I k < + 8 S O.>.+.V g g K E.OX4X XU g j a d a s s < , s k x k k s % % a k E W L j a 8 a h k k G h 8 a k k k h k 6 w t @.K.A.K.{ w 6 h H W E U N g V q.pXcXbXwXa % + % f f f a + % a h x x h a % % a k m m f % % % , f f s , % + 8 p.,X-X6X#.% O , j V V j & + # & 9 s s 8 % # + s x G x s 8 a P }.bXcXdXh.g g 9 9 a s s & $ * ",
", % a U z.R.U.i.q g g *.U.T.I.+.a 8 a k ~ ~ C q q q C =.k.k.@.g % s ..F./.Y.@.8 + & V D U V s % , a a h z h a a d b.AXGXLX@Xd 8 g i.I.E.E...8 g g N L L j a 8 8 g C H G h 9 8 q C W C U C 8 w 0 A./.`.U.V 8 # g D U | S g 6 8 a V I L k 8 & 9 k H W U V g a d b W W H h 8 8 g L U K V g 8 9 p J F k h 8 8 a k E E k g 8 a k W $.$.E s , a k D _ V g > > , k @.@.H k a 8 a h k k h g 8 q B D W W x s 8 g D #.*.$.C h 8 8 k G D C % % g S R.@X,XR.V g g V #.w.&.| g 8 g D *.3.=.D 6 6 k $.$.*.| N 6 8 O.^.>XoXu.8 g N C.-X>X:X2.g % s C U U C a 8 N S ).;X-X/.N a 8 w.W.4X Xe.g 8 g g k k f s s h h B C L k h g a q.mXFXFX6X# % g G.<X<X-X4.q w w U | %.%.y 0 N ` .X-XoXU.C % a s k j j g a 8 h k G k W g N S ) ,XlXlX>X} q g C @.#.T k < + a S ,.>.+.h a 8 C  XuXsX4XU % a , d f d s % O O a k k E d % % s L W ! W k 8 8 a k k k h 6 # % a s s f z 9 w N 3.`.).'.=.y 6 g W =.~ =.6 # 8  .cXmXDXtXa % % , f k f , % % % f E E k a % , s k E E k , % % , f f f a , a g ^.lXiXxXj.% O , j K K k < @ + & s f f s & + 8 x ^ Q ^ z s a d wXFXZXmXq.O # 9 w f k s < @ X ",
", % % L x.W.z.*.q g q *.U.T.K.| 8 + % k ^ Q G h 6 8 B @.k.k.D 8 + a | F..XR.@.% # & h C U C s + , a a w r r 8 a , b.GXLXPXuXa % 8 d.E.E.E...6 g g j L L k a % a g C W J h 9 6 8 h ! ! $.C 6 w q a./.`.U.N 8 % C V D U V g 8 a s V K R k % # 9 F C H D g 8 + a m E W W h 8 8 j U C C C g 6 8 w F C k g 8 8 a k E Q G h a a k E ~ $.E s , , s N N N a > ; > a D @.C f , % a k k h g 8 6 q C W W G x s % g U *.e.$.k a % % 8 g k k a % j V E.OX@XE.N g a C #.e.#.D a % 8 C #.*.@.V B 8 k Q $.e...g g g X.S..XoXx.h g N p..X>XoX&.8 & s C U U C s 8 8 Z '.:X-X/.g % g i.OX4XOXi.N 6 8 a k k s 8 # % h k C C k f a a h.ZXAXIXfX% k g m.%X;XXX3.w r w C K U _ B q N } )..XOXc.C O % s f f k g 8 6 s z ^ k W 8 g S S 6XiXlX@X} 6 6 h G W L f @ + a D +.u.u.C s % j  XsXsX4XU 8 j a a d > , f < a k x G ^ k % % g E W W ! k 8 % a k k k C g 8 a h f f x s # 9 q &./././.@.q # g C W ~ $.g 8 g w.MXmXDXuXa % , s f k f s , % % s m E k a , , s x ^ ^ x s % % , s f f s a a 8 F.lX7XxXe.O + < j U L k < @ # % 8 s s 8 % + & f ^ ^ G s 8 8 j eXGXZXAXq.O z 9 r k d , + o X ",
"2 + a g e.i.k.@.q 8 8 H j.x.*.U + + < f x k k s a 6 g C W @.D 6 < < U p.A.a.W + @ & h k k f 2 % , a 8 r r r 9 8 , h.pXmXnX XL # g ..z.c.e.U g a a s k k s a % % a a h f h 9 8 % k k k j a 8 8 g 3.K.U.j.C 8 8 g C C U C 8 a s & k a b s O s s h H H C C a % , f x k k a , , a d , k k % % & 9 x C g g a a g 8 k k h 8 8 8 g k C E k , > , a g N C a > > > d U D k f , % f f s k s 8 8 a 8 h G k x % % 8 C #.U ! k s < % < s k s s , a K d.I.c.z.j a a k W ! U C a O g C U | D g g 8 a k E W L g a g | p.E.z.$.h h V ,.S.!.A.&.8 O < a T T K k O 8 B Z.!.Y.d.j a g +.I.E.z.| V g g a g h s s & % h k j E % f % v 9.pXcXnX X% , a u.A.F.d.E & @ 2 1 n b d z & % g A.Y.I.*.C s < < s a k a 6 8 & c ^ x k j g g +.A.OXOXI.I g 8 h G W W f & 3 s V o.} U h s % g c. XOXc.I a % , d f , < , , a s k L k g 8 % a k E E k s % % a g g h q 8 8 8 a s f s 9 8 6 N %.a.A.F.D g % 8 j E G k f % 8 r.4XsXuX@Xa , a a s s s s + % a f f f s s , , s f k k f a % % % , a a , % % j u.XX,X X~ O & & C N h k @ @ O % 8 s s 8 % % % h G G x s 8 a g |.dXnXwX0.+ $ 7 6 h d + ; o o ",
". o + O g g g 8 # # # 6 g g q % O + + , < , , % % O % 8 q g g # O   q S Z N 8 O @ $ 8 a a < @ @ % 8 8 7 7 7 9 8 d v P P j a 8 h 6 g j N g 8 % # % , , , & % % % , , a 8 8 & 8 % a a a a a % 8 8 t Z S N 6 # + % a a g a % % & O s , f < O < & 8 6 6 6 8 a , f < s s a , , , , , , f , O % , , d a a 8 8 a g g F w 8 8 8 8 a g k g a , > , a g g g a 1 1 > , N N a , % % , , % % a % a a 8 a h a < O % % a N g g a a % % , < a , + + O a j V N g 8 % % % a a g a a O a a q g g 8 a a a s s k j a O + q N S V g 8 % 6 Z ` ` ) N # 3 < % , , % s < # 6 Z ] ) S % % q N S S N g 8 8 8 8 a a a s 8 8 8 q % d + 2   , d Y j K C 8 f a q N V j , . X X ; > > > < < , j N S S g 6 % % % a % h 8 8 s $ l # + % a 8 8 q N N S g 6 6 6 6 a a a % @ & & q Z Z N % + O O N V V g 8 % % , , % < , , , 8 8 a g g a 8 8 a a s s s a % % a a a a q 8 8 8 a a < & s 8 6 0 N S S S g 8 % % a a s s & + # a j K j a 8 8 a a 8 % 8 a % % , a a s , , % % % , a s , % % % % % , , % % % % 8 g N j , . @ O g 8 6 &   X O % % 8 8 8 % % # % 8 8 % % # % a j v 1 1 > O l r 9 g a > > : : ",
"@ + f # 8 6 q 6 8 8 8 & 8 8 8 % + O . O + + + + a % a a 8 0 N q % O g N q q g & * * # % % + @ @ % 6 # # $ $ 7 8 , , , , , % % 8 g a 8 8 8 a a a % + + + + + + % % % % + # + % , + % % , % % % 6 q q q q a a s a g 8 a a 8 f z & a + < % + < # 6 g g g g a s % O % , , , , , , , , < + O , , + , j K j a a 8 6 8 6 6 8 8 8 8 a 8 % % > > , a q q q a 1 1 > , N q g d d a a a a a a % a a 8 , a + 2 % k a g N 8 g 8 % % , , , , % < 2 < a g g g a a s f s % % a g k f g g q q N g a a a , % % a a 2 < g q q q a c h q Z Z t t V h $ < j v j d % & z 7 Z u N N % f N N q q q g N h 8 8 8 % 8 8 s g g N % a < < + a j j 8 6 8 8 % , g N g a < 3 3 2 n n 1 , % & % a g N N q 8 s s a 8 % g 8 8 s # $ & & a k C g a 8 6 g g 8 h h 8 8 8 g < & s a q N N N % < < % g 8 q q g g k d < % % , % 8 8 8 8 8 g 8 8 8 8 8 % % % % % 8 8 8 8 8 g 8 8 8 a a % % 8 6 6 8 q q q 8 8 % , % + + % & O # & % % % a g % 8 a a 8 % % 8 a % % + % % % % , % O O % % O O % % O % % % % % < , 8 8 % % + 2 3 & h q 0 g @ 3 O % + + % % % % # + # + + % % % % #   . 1 1 O O 7 6 6 8 , > ; o ",
"@ O s # g 8 N q 8 8 & & % % 8 a > + + + + > + % % + 8 g q q N 8 + O g N t N g & * * + % 6 % @ @ & 8 8 9 9 9 8 8 a a a a a 8 8 6 8 8 8 a g a a % % % % a 8 % % % % , % % + + % , % % , , a , % 6 t Z N g q 8 8 a g 8 g a % 8 s + g 8 a % 8 a % N g q N 8 % a & 2 , , , , , , , % & & % < d , , n % j 8 % a 8 8 g 8 8 8 8 8 a a a 8 , > > , g N N V g , 1 , g S Z j a a a 8 a j j j 8 a a a a a % O O a 8 g V g g g a % , , , , , O + % a g g g g 8 a a a 8 8 8 a 8 8 8 N g g V q g a a a % 8 a a + % g g g q 6 & 9 8 N ( Z Z A w s O v j j v + s 7 6 Z ( Z N + & q g g g N g g g 8 8 a a a a a g t S a d s + # a 8 V } S N 8 O k V N g g 8 & & % , d j j # 9 8 g N N N q 6 6 8 q g q V g 8 f # & s 8 8 8 a a a a a h g g h 8 6 8 g N 8 O % 6 q Z N V % + s 8 N q g g g a 8 % % % % < a 8 8 g N N N g 8 8 8 8 8 8 % % 8 a 8 8 a a a 8 8 a a a a 8 8 8 8 g g g g g % % , , , , , , s & # & s h g a 8 8 a a a a 8 8 a % % % 8 a , % , % % % , , % + % % % % % , % % O + a g a , + @ + # N N t g O @ + % % % % 8 8 8 8 8 8 8 a a 8 6 w s , > > > O + 6 u N N j + . o ",
"O O a 8 @.@.@.C 6 % % & s k g a + + + < , , , , % % g W %.&._ 0 % + S O.>.o.C # $ $ 8 g g a & + % 8 h f f h 8 8 % a a a 8 6 8 6 6 a C C C g 8 6 a h C C C a 8 % a j k k s 8 6 8 g j j j k s 8 q o.,.2.| N 6 8 g w.w.w...q 6 8 8 H B h 8 g g g y.d.d.s.S 8 g & x k j d a a a a a s 9 9 s a d 9.#Xb.|.Y a g a j C k h g 8 8 a g j j j , + % V %.2.a.S a a j | M.<.2.N g g g | w.&...j g g a a k s & # a q ) u.+.+.S g 8 a a a g k < & 8 g N V V g 8 8 8 h F G C N 8 8 q o.2.+.2.N g g g h C C N g % % g N S N 8 + 8 0 ) <.C.4._ 8 s a g.{.}.|.j s 7 0 o.>.>.} % # 6 g S U U V g 8 a g k k h a a g Z D.g.d.j.8 6 w ) X.1.;._ A # g Z ) } S N w w N y.{.}.|.Z N N V S I I V q 0 N _ 2.2.a.) q g 8 k C V g 8 % % a f a g a 8 q 0 N &.2.2.S 8 8 g ` t.t.p.V % & 6 N S V N g 8 % % < s < a a 8 g S o.+.o.V g g 8 8 a h a a a a a a g g 8 & 8 a a g g g g g 8 8 a a a a % % % , d d d , a + # & h k g 8 g 8 8 g C C C g 8 8 8 a k k s a , , , s f f s , , , % % , , , & # # % 8 a , > @ $ 6 ' :.,.| % O % 8 s g h g a 8 a a g g h a 8 # 7 r s > > > + a t a.C.p.w.a + + ",
"s 8 B D z.U.z.*.g 8 a k E E K g O O % < s s a a a 8 U z.W.T.4.N 8 a +.F.^.Y.&.8 # & g V V g < % & a k C L j a 8 # a F G z h 9 6 g C @.#.U V g g g U $.$.W V g 8 g C W E C g 8 8 C L U L V g g N Z.!.).K.} g N I OXOX@XE.I g B C =.@.U N N g V F.jXjXiXp.N N 6 G W R K j a a a h z r 9 a a v #XmXAXAX|.K j 8 V C G k h 8 8 a k L U L g % a ..L.~.'.,.g a S p.%X_.`.&.N S } s.OXE.z.I g g a g j g F g N S p.oX.X/.+.V 8 g j j C C k s a V | &...U g a g G $.*.@.D g V Z K.'././.o.N g N D #.#.D g s s g S | | C h 8 N 4.%X>X'.3.0 a K pXSXHXmXr.8 F A a.S.D.u.k f 8 D $.e.#.D h g g j C E C g g g ;.2XpXpX6XC w A p.!.%X_.K.A 8 6 ) +.u.&.D N N S rXvXNXlXo.Z q N w.u.d.&.S N ) 4.~.).).,.N g a L @.&.#.C a a f f k k h g N N &.oX.X).i.V N S C.;X-X>Xe.g a g | 2.@.| C h s s s c f h a 8 N +.A.K.z.@.N g g a a h f s a a a a j k 8 & % a g j V V g a 8 % a s d f 9 # + a d v j d O % a k F G H W g q 8 N @.$.E k 8 8 8 k C E k a % % , f k k f , , , , < s s , % & & a j j d < O 9 B Z.(.(.A.V a 8 a k E E k a % a g C E L g 8 # # r k b n n , 6 _ >X>X>XE.g % % ",
"8 # q Z K.U.U.&.8 # % a L L j a + + % < f s a 8 6 8 D l.].~.M.u 6 q >.H.(.H.o.6 % 8 g V V g a & % a j L K j a 8 a h h 9 7 9 h h q V U U S g q q N | i.i.o.N g g V U @.@.H N q q S U #.| V g g N C.(.-XY.} q N S OX,X,X^.S q q N %.*.&.S S N S ;XjXjXjXt.q N w ~ ! T U j a 8 8 h p r 9 8 a v +XGXFXFXb.a a 8 C C G F g 8 8 g C U U U g 8 g 2._.>X>XC.Z N ) S.<X1X'.o.N Z ) A.oX/.R.} q q g j C h h 8 q t <.oX-X).2.S 0 g C D D C 8 + 6 N } +.+.| q 8 8 h W @.| S 0 t t A.:X)..X:.N N N | *.*.| N & % q N S S h 8 8 N 4.-X1X-X4.0 V K kXSXJXDXq.h w A C.S.F.u.h s 8 V @.$.W C g 8 g C W W D j g N ;.gXkXlXsXV 0 u ( %X1X1XQ.u N g I #.r.T j 6 8 N eXbXNXvX} g a V u.p.d.+.Z i ( 1.:X>X>XC.Z g g I | +...V 8 8 % < k k g g N N >..X;X-Xp.Z q Z D.2X<X2Xu.q a g ) 2.&.W C a % % & < f k g 8 N 2.L.!.T.&.g q g a a h f a % % a g j k s & % a a j V V g 8 % % s c c c 7 7 6 8 j v v j a a h h B B B V g q q V @.=.@.C 8 8 a j L E k s % % , f k k s , % , , s s s , % O $ a j j d O   6 u D.%X%XS.N 8 8 g C W W C a % a j E ! W k a 6 p F d 1 4 1 , g ` 8X2X2X.XN 8 & ",
"8 # g V U.T.W.e.6 6 8 k E W L j % % % < s s a 8 8 q @.U.].].K.Z 8 g 2.^.(.Y.#.8 % 8 g N N g a % % a k b v j a % % s z z z z 8 # g C W #.W V g q g | i.e.U g g g N U @.W C h q g V U #.| V 8 8 N A.).>X^.o.g N I @X,X,XE.) q N V | *.*.S V q S ,XlXkXlXy.8 N 6 G W ! U j 8 % 8 h z r w h a d #XFXFXLXc.a j a L C D B 8 8 % s k E C D g 8 g &.~.&X&Xp.Z t S Z.&X>XOXo.N Z S K.OX XE.I 6 8 g V C h h q N N 4.oXoXoX2.Z 6 g D D C C g g g V | &...| N g g C W #.@.| q Z t K.oX).>X4.t t N W *.&._ N 8 a N S } S h 8 q N p.oX>XoX5.q g j cXDXJXFX9.a 8 B Z.!.Y.a.h 8 a C $.j.$.E h 8 g C E W C j g N X.gXvXlXsXV y _ -.:X%X&XP.i N g L ! r.0.k a g K uXmXFXMXI a , v r.u.i.&.S t ] <.).-X:Xt.N g a L &.&.| N a a s f x f g h N N o./.-X.Xs.V q S F.2X2X7Xi.g h g S &.&.U g 8 % a f x f k a 6 N 2.L.T.U.@.8 8 g g s f s & + % a g g a s < % % a j j V j a % % s f 2 % 9 9 9 a j j j j a % # 8 G ~ W D q q g C @.@.W C 8 8 8 g C L C g % % a h k k s , + % < f f s , + < s a a a a , s 9 A L.:X:XL.S a % s m ^ W k , O O s E ! E k a % 6 F E b n d a N Z >X>X7XoXN 8 8 ",
"@ @ % a L $.W C + O + & c k h a O O + % a s a 8 8 8 h H =.=.D q % % h @.j.$.f . + O a q g g O + + % < s d a , , % % , , < , % % a a a k k g a a 8 k k f f , > 1 a a s s s & 6 6 g N U C a , O < @.*.u.@.N 8 a j r.j.j.#.h 6 8 g j C C a a g g #.E.R.r.r.8 % # c f f f s % % 8 9 w h h 8 8 j r. X6X Xj.> + s g I S g g # * 3 z f s a a a j I ..*.2.| N q g U e.k.j.k a a V #.e.$.R j , , a k g g , % 8 g U i.k.*.S N q q h C k g s a a a j k C C 8 a g h C C C D h q N _ i.a.&.D 8 8 8 f C C V N 8 a g g g g g g 8 g U &.u.&.D h % b c.4XuX Xm o < C _ %.%.D x 2 a C G W f s f % 8 a f k d a , a } d.R. Xx.W g 0 D %.3.3._ N g g j C L f s < a a c.4X Xc.R d , s L W E h 8 8 N S 2.+.u.I g s > f k C j s a 8 s s z # s a % g C ! d.w.E < % h &.C.C.u.U x # & H C j d a a , < < 2 + > % , g S ' o...V g a a s a % f + + s s & f % & & < O f a k % a a % & & < < < & $ + a g g a a < < O & s s k g g 8 8 g N C k f + % & < a a g j % 8 w w 8 8 < > . . & h 9 & 2 > > , , , , < < & O g E *.*.H z # . > < s f s % + > % f F h a +   + a s d a , + + h @.k.k.W g % & ",
"o o   O % a a % + + # $ & & 8 % + + + + % % % % O + 8 a g g q % + + % 8 h s > . > + g 8 8 g + > + % % , , < , , + + + , , % % + , , a a a a a 8 % a a % , > + , , , , < & & % 6 8 0 g 8 % % . + % q g 8 % # + % a a g a 8 8 8 a a a s % 8 a % C % a + a O s s x , < a % & s s 8 8 8 s s 8 % a C 8 a % . 3 c g N Z N C s @ & 9 & & & % % a a j j g g 8 8 8 % a , , O O % 8 g g % f 1 , , , a g a , , a a a h g q N g q 8 g g a % a < a a s s s s % 8 a a g g g g 8 8 8 g V V N 8 8 & & & s h g g 8 a a a a a g g 6 8 g N C N g 8 d , + % a a , > + a q u u q < + 8 8 8 g 8 8 a % 8 a s s , , , , g g g a + O # 6 0 w B N q 8 8 a g g g a a < , , - a 8 8 a O s , a g a 8 8 8 g g N N V 8 % < . + < a a a a a a 8 h # s a , s a d a a , < l h t t Z S 8 & * O h 8 a , , a , , + + > > > , 8 g Z Z g a a a a a a , & O # 8 % % h a % % a O , O f % , % % % % % , < + + % 8 a a a a + %   # # # g 8 6 8 8 8 q a a 8 + + @ % % a g a % % 9 w w 8 > ; ; + & w 6 6 < + > > > , < < & % % a + # # # w l . . % 8 8 % O . + O 8 w 8 % + . + % , a , % + + + a s f % + + % ",
"@ 2 < % 8 a g 8 8 8 8 % # # 6 8 , + O O + % + + + % 8 6 # # 6 a , , 8 6 6 # % > , % q 6 6 g O % % % % % % % % % % % % % % % % % , % % % 6 6 8 8 8 8 # O , , + , % % % % % % 8 8 q q q g a a < < 6 8 8 a g a a a % + + + 8 8 8 8 a % a 8 a g # g 8 a 8 g 8 a % % % 8 8 8 a g a 8 % 6 8 h g 6 # 6 g N a O % , g N 0 t g a & & 8 % 8 & a a a a a 8 a g h k h a 8 % % % a k g g g 8 , , , , % 8 8 g % , s a % 6 6 6 g q 8 8 a a 8 % a a 8 8 8 a 8 % 8 8 8 8 8 8 8 8 8 8 8 8 0 0 8 8 h 8 # + % 8 8 a a a a 8 a a a a a 8 8 6 8 8 8 8 , , a g g a , > d g N u u N a a j g q 8 g g g g 8 a 8 % % % % a g q 8 % % a a s 8 6 6 8 8 a a a g q 8 8 a a a a g g 8 6 V 8 k % 8 8 6 8 8 g q g N g N g a k < 2 % 8 8 8 a a 8 6 8 % g 8 a j % % j j % O 8 g Z ( t Z q s 9 & B q % , a a a 8 % % < < % % 8 q t t 6 % 8 a % , , , f a a a % a a a a # a % 8 # s a a % % % 8 a a a % % 8 8 8 8 a a 8 s & 8 a # g q 6 % 8 8 8 6 % % O + + + % 8 8 8 > + 8 0 8 8 > ; 2 % 8 q 0 0 8 O % % % % & & & % % 8 a g g g 8 % . . O % % % O + + % 8 0 6 % O + O % % % % % % , O O O O O + % & ",
"O % % 8 g N N g 8 a a a 8 g g a , + + % % % % + % a a a 8 8 a a , , g g q q % , , % N t Z N 8 % 8 8 8 a a a 8 8 8 8 8 % % % % % a a 8 8 8 8 8 8 q g 8 8 a a + % % % a 8 % 6 8 g 0 N N V g % % % a g g g g a 8 % s a a 8 a a 8 8 g a g a g g 6 S N N V g 6 q 8 g N V N q 8 a a 8 a 8 8 g g g N S N I j s f a V ) ] ` q 6 & & g a 8 s a a g j j g g g 8 8 8 a g s a % 8 g 8 q N g 8 a a a 8 8 g g + , a a a a h k 8 8 8 a a a a a a 8 8 8 8 a a 8 a a a a a a a 8 a a g g g N g h h 8 # # & 8 a a a a a a a a a 8 g g 8 8 a g g a a a g N g g d d a g ( ] ( Z 8 a g g I N I g 8 q g g a 8 8 % 8 8 8 g g k k s % % k g g q g h a g g g g g a a a j N I S I N 6 g 8 V N g g g g N N ) ) } g 8 a + % a g g g g a g g g g V 8 8 j g I V Y j % g N Z ] ( X.g 8 % % q 8 a a a a a g g a a , % % 8 N A V g a % % , a < , , , a a % K v d K O a a g a j g g a 8 8 a g g a a a 8 a N V V N 6 8 6 8 V q S g 8 8 8 a a a 8 % O O + % a a g a > > % 8 a a > > , % t ( ( A N # % % % & 9 9 8 6 g a j N N N q a > > % 8 8 8 % % + a N Z N g % , % % % % % % % % % % % % < < % + ",
"+ % a N ..u.+.I g 8 q j W @.U N % + % < s s % % % % a k k k g , % , g S D V a % , a o.5.4.3.V a 8 g h C F h a 6 8 8 8 a 8 a 8 8 8 a g h h g q 0 q D W W E g 6 8 a g h h a 8 g N } A.A.A...8 g a C U E C g % % % a s s s a 8 a g V V I N N q N u.E.F.I.I q N S 3.2.a.2.V 8 8 g a k g g g 0 0 _ a.t.p.N a a g A.-X;X.X} 8 a a h a a a a a g j K L D h 6 6 g C C L L a 6 8 0 N H D k a 8 8 g h B B s a , % a a g k 8 8 a a h k k k a a 8 a a g g g a a a s h k h s 8 8 8 g V D C j a & & s s f g a a a a k k k a 8 8 a g h C k g a a a g g g g a d a N M.Z.Z.4.N g V q.+X|.XXy.g g g g h h h s 8 8 g j j d , % % a k C C C h a a a V D U L j j j K g.@X@X,XS g 8 N | | U S N g S } E.^.^.O.g g 8 k C L U N q 8 g C V U U 8 8 V ..OXXX+Xd.8 q Z >.H.H.^.| 8 8 6 N N k s a 8 q N C C C g a 8 g B [ @.L k 8 % a f s s a , a j K +X+X+XE.8 g 8 V V U L g g 8 a g N V j j a 8 N +.d.d.&.N g g V z.a.Y.+.a & % a k k h % + + % < f k j a > > , a g a , > % 8 ) 4.M.M.' 0 8 8 8 9 h h q q g N d.F.E.g.S g , > g N N g a , , U &.2.3.I a , % , s s , % % + % , s s < % + O ",
"a a g | K.R.I.u.g 8 8 C e.x.&.S + + < s f f a % % % s m ~ ! k % , a g S | U j , , g i.L.~.L.U g 8 g G W W C g 6 8 a a a s a a a a a j C C h q 8 q @.k.k.=.N 6 8 g k F k g a g N A.,X,X,Xs.q k g W e.j.$.C a a k s k k h 8 8 8 g T Y #.I g q Z I.lXiXiXy.N N ) K././.I.} q a j k f k j N q N 2.`.,X,XU % # j ,XvXzXjX+.8 g a V g k f a a a j U ! $.H h h G ~ $.! ~ C g N A =.*.@.E k % 8 g C D C G s % , s h k k 8 8 8 a k k G G g a a g h k k k a a a s k k k k a 8 8 V U U C g % & < s x k h g 8 a s k L k g 8 8 a k E W E k a 8 g S | | V j a j } '.&X>X/.S N I J.vXlXnX|.V N g g C C k h s 8 V U W E f a s k g C W E V a a a D #.&.#.C j j K aXLXFXBXO.N 8 N o.o.o.| N g S u.iXiXiXF.S N j ! U #.#.V 8 8 N ! #.$.#.g g V s.lXBXBXOXg 8 S H.jXrXiXs.j g g D | G k a 8 g V U #.#.L a 8 g C =.=.! k 8 % s x x x ! j d v q.cXmXFXsXV g 8 N U $.$.V g q g N V D V j a a S d.OXOXE.S N N | 5X>X7XR.a O + a k L k , % + < s f C V d > ; , a j j a , % 8 o.L.)._.4.N 8 8 8 h h h g q g I ,XlXlX,X} 8 % , g V V N a % a $.z.K.U.&.a % , a f f s , + O % a s a % + + & ",
"+ # 6 V a.E.A.&.g 8 8 U k.x.w.U % % < s f f s < , , s E ~ ~ k , , a h D @.U j , % g a.~.].T.S 8 8 g G ~ ~ G g 6 6 8 s f f s & % a s k C C g 8 6 q =.k.j.=.N 8 q 8 k G x f a a g u.,X,X@Xu.# 8 # U =.*.! h % % a k b E k a 8 8 g ! T #.C g q S R.sX6XiXO.q N ) K.'.oXI.} q a d d d a g j N A 3.oXF.XXI j a V ,XzXzXjXO.8 g 8 C j k k a a a j W $.Q F 9 8 g C E W W g 8 g N D @.H E k 8 % h C G C k a % a k k k G a 8 % a k C C C g g g g h k C C a a a s k C k k a a g C #.#.U h % & < s f k g g a a a k L L j a a g C W ! W C g a g g N N N j j a Z _.&X&X~.N g g f.vXlXnXI.q g g g C C k f a 8 8 j E ^ b , % % g C @.W C a a a D @.#.! K j j j uXBXBXMX} g q 8 o.| ..U N q S u.iXiXiXs.N q a L #.#.#.C 8 8 j W #.#.T j g N d.MXvXmX@XV g S C.2X2XiXd.8 % 8 N D x f a 8 g V | &.r.L a 8 a C W =.W j a % a x G E E j a a K cXbXFXxXC g 8 h ! $.$.C g g g V U U C g a a S s.OXOXR.N 6 0 S ,X>X7XE.8 O + a k C k a , % < s f C V a > . , a j j s , % 8 o.!.%X).a.g 8 a s h f h g g N V OXuXiX,X} g + > g N V N 8 % % r.K.U.W.*.8 % , s f f f , + O % a s s & % % & ",
"% % 8 V i.I.z.u.g 8 8 C j.x.&.C % % & s s s s < % , a k ^ E k , + , h D W C a O % g k.T.].T.S 6 8 g C W W F a % % 8 a f s a % + , s k k k s 8 6 g W j.$.W h 6 q 6 h x x f a a g w.@X@X@Xi.6 h g W $.*.! V 8 8 a s d k h a a g h ! R ! C 8 8 N U.sX6XsX+.N N Z l.]./.a.V 6 a d , f , a g q t 3.]..XOXU a % 8 OXlXzXjX+.8 k + j j k s a % a j W ~ Q G w 6 q C #.r.! k a q q D =.@.C k a , s k C C a % % a f s s f f % + 8 h C C V g g a g g k k k a a a s k L C k % 8 g C U @.U j % % < < f f a a a a a k L L k g a g C L W L j a % a g D D C a , g S '.&X&X].N g I y.lXiXlXI.g I g g j k g s a a j C E E f a , a h C W U C a , % C W W E j d d a uXMXFXnX..g C 8 ..o.| U g 8 V w.6XiX7Xd.g q g L ! #.E j 8 8 k E W W R j j g r.nXvXvX X8 8 S A.iX2XiXe.a s s V U x s 8 8 q V U #.#.K a % a C Q $.L j g 8 8 s x G k j j j K cXcXBXfX8 a a C ! W W C g a a j L L C a a a N u.`. XU.V 8 N } 6X>X7XE.8 + < s j j k a , , < s f j j a + + % g V C f < & 8 } F./.!.&.6 8 , a s f h g 8 8 j OXsXaX6XS 8 % > a B B g a % % $.z.P.[.#.+ % , a f f s , % + + % s s s & + O ",
"+ % 8 g V I S V 6 8 8 a a a g g % & % & & & % , % a % a k a % % + + % q g g % + % a A _ ' A q 6 6 g g k k a a % a , , , < % % + % % , , , , , % a a g g h g 8 6 % % s f < % d a V I +.| N 8 % 8 h N g g a a a a a a a a 8 a 8 8 k a a 8 8 q g S | ....S g q N _ ' o.S g 8 , , > > , , % 8 q N Z X.} V % % j } t.y.O.g a f % a a a a , a a a g g k B w 0 N N N K j a a 6 N D q C C % a , % f a a a a a a a a a s a s 8 8 j g g g q a 8 g g g a a a a a a a a g g a a a g N N g a a & % < a a g a a a a g g g g a 8 a g g g g g a , , 8 g g g a , a N ] 6.:.) g a g I +.u.w.U N 8 a a a a a , , a g g g s a , , a g j V V h a a , h h h f d d a a T q.h. .j 8 8 a g g g g a a a g ..o.o.N g g % h C g C g 8 a % f , f d a a a j  .y.y.I g 8 g } <.>. .j , % , g g < + % % g g j j j , , , % a C j j j a % 8 a 9 8 s 8 6 a K q.q.q.C h a 8 a a h k a a 8 8 8 8 a a < % % a N I S V N g 8 N I o.X.) % < O a g 8 g % % % % % a a g a + O a g g g % % # a N S +.} g , , , , , & & % 8 8 g U #.#.U N 6   2 8 w B 8 + + , a B D A g % + + % , , % % + + O + % % % + + % ",
"+ # % 6 8 g g 8 6 % & & & % % % % + + % % % % % % a 8 8 a a 8 a + + + 6 8 8 % + + % q t u t 8 % 8 a a a 8 % a , % % % + + + + + , % + % + , , , , , a a a a 8 % a a + % O O , % a g N g a 8 & & g g g a 8 8 8 a a , 8 8 8 a 8 8 a , % 8 8 6 q g g N N g g g g B t N N 8 % , , > < < < a g g u t N N g % a g N ) ) S 8 a s + < s 8 a a a a a g a 8 9 6 0 N g g g a , j g N N 8 g g O a , % s % a a 8 a a a , < < % a 8 8 N N N V q 8 8 a a g a a g g a a a 8 a a a a a g g g g g a < & & a a a 8 a a a a a g a a g g g g g g g a < & 8 8 8 a , , % q Z ( ( N a a a g N N g g 8 8 8 a a , , , , a a g a a , , a a a g g g g a a % g g a < , , , , d j j j a % + % a a a a % % 8 a V N V q g g + s g 0 h 8 8 f % s % s , % a a a V V S j a % 6 q N S N a < + < a a , + % % a g a a j , , d a a g q a g a a a g w w 9 8 8 8 g N V K g a 8 % 8 % 8 % 8 % 8 % 8 a 8 % + O % 8 a g g g 8 8 8 8 g N N N % < % a g 8 g 8 8 % % % , a a 8 & & g q q q % $ & a g N N g % > > > , , % % % % % a a a g 8 9 & O < 6 8 w 6 + , + % q q q 6 + + % % % % % O + % O + % % + + + + ",
"@ & % % 6 8 8 6 % + + + O % O O + + + % & % % % % 8 8 8 8 8 8 a > . + 6 8 8 + @ + % 6 0 q 0 % % 8 8 8 8 8 % % , % % % + + + , , , , + + > > > > , , , , % % % % a j % , , + d a a 8 6 6 8 % & & 8 q q a 8 8 8 a % % 8 8 8 8 a a % % % < 8 % 6 a 8 8 8 8 a g 8 8 6 q q 8 % < < > < % % 8 g q q t t N 6 + s a q N t S 6 a < + < s 8 8 a a a a a 8 h B B N V V N g , + d g g q 6 g a O a a , , % a a a a a a , < a a g g q N t t N g a 8 8 a a a a g g a a g g 8 8 a a g g g g g g a a & < a a 8 8 g a 8 a g g g 8 g g q q q g q 8 < & 6 8 8 a < > , 8 t t t q , , a 8 8 8 6 6 8 a 8 a a , , , , a q q a a , , a a a q q q g g a 8 8 8 a % % % , a , a a a a < % % % 8 % % % + % 8 a 8 q 6 g h + f q 0 g 8 6 a + & < , + O a a % a g g a s < 8 0 0 q 8 % > 2 < a a , > , , a a , , a , , , 8 8 N q g g g g 8 8 8 8 8 8 w 8 8 q q 8 a % & % & & % + & % & & 8 < % + @ @ % % % 6 8 a 8 8 8 8 8 8 q q 8 s 8 g g 8 g 6 8 % % % , a a 8 9 # q N t q 8 O $ 8 8 g 8 % O + > > > , , % O + < % + # # # 7 & O < 6 6 0 6 O < O + 6 8 8 % + > % % % % + + + % O + % % % + + + ",
"@ & 8 8 g V h a % + + + + % % O + + + & s s a 8 % 6 g V S S V 8 + + % 9 8 8 + + > & q y N g a , 8 g I K V V 8 a % , a s s , , % , , a a , , > > > , , , , % % , % Y Y 0.b O % + k g g a a , % % a g g g 8 8 8 a a a a a a 8 8 a , , < s 8 % 6 g h g g a a a 8 6 8 g g a % & a < s s a a q q A _ o.+.g % & 8 S X.X.O.g a s + < a a a a a a a a 8 8 8 8 8 q I  .Y r.d a g N S S | U 8 a , , d a k g a a a , s s s a g g q S X.` ` g a a a a k g g g q q g N C N g a a g N S S V g a a 8 s a g g q g g g g V V g q g g N V D V N 8 a , g g h s , > < a N A A N s , a g C C h h g 8 8 a k k a a a a g g h j a a a g g V S S V g a a g h k f a & % a j g g g s s 2 < % a < < % % % & g g g 8 g h & G [ _ _ N 8 g % a f f < % d s a g I V a < & s B N N g s 2 2 < g g d d , , a a , , , , , a 8 Z o.o.| S g q g g g h h g w q q g g g a a & a s f f s a & % & a s a & @ @ % < 8 a a a s s & < a g g g a h 8 V I S S g g 8 % & a a a 8 6 6 N >.>.+.Q # # 8 N q.q.q.f O > > , , < < % + < < < a 9 & r & O , C B D B O % + % 8 w w 8 > 2 % , , , % % + % + % & < % % + + ",
"@ # % h @.*.#.C 8 % % % < < , % & % & s k k h a g 0 D i.z.z.2.g % + 8 h h a , + > < C H @.D s , g S s.z.z.i.N g 8 g C E C s , % 8 g C E k d , + , a f f d a a a h.pXaXxX4Xb k g C D E C h a % , h V C j g 8 8 a d k k s a a a a k s s a 8 6 g C U U L j a 6 9 9 h k g a 8 8 f k W U C N q N &.I.Y.Y.D 8 8 q u.F.F.A.V 8 s < f a k g a a a a g g C h N N } |.iXiX6Xq.g t ` K.T.T.z.N a a a L C L j g a a a d d d a g 8 Z a.)._.Y.N a a a k k j h a 8 q V W @.@.D g a g D *.u.o.V a 8 a s h h N N q g N U @.| S N q N D &.*.&.S q a a C D U C d > , g D [ [ C d , a V E W E C a 6 g C E W U j g g N C D U j g a a V #.i.i.U g 8 a V I #.W k s 8 a h j C j a , > , a k f s < % < a C C D g g g s 7.U.L.P.o.t N g E L E k a a a g L ..I h & $ l B D | C f < % a C U U L g a 8 a f f f s a g N 4.(.&X`.i.N q N D U E E h 8 8 h G H C h a 8 8 h G G G h a 8 8 a h h s < + % a g j g a < + O # s k h g 8 g q o.I.I.I.&.g 8 8 s s s a 8 6 0 } XX,XoXW.w w g O.+X,XuXx.% , , , s s < & & O % s f c s & $ % j k.l.P.3.8 , % a B B B a > > + , s f s , % + % , a s < % % + ",
"# # 6 V *.z.e.U 8 % % < s f s s & % < s x G k g N 8 | U.`.`.a.q % , g B B h , + + , C @.&.U d % q S T.`.R.I.N q q N @.$.W C 8 6 q C W W E k a % , s k k k g a a y.bXBXFXuXj 8 % C W =.@.V a , a V D E C h a a a k f k k a 8 a a k j h g 8 8 g D W W U V 8 6 9 k k g g a 8 8 C W #.@.U Z q N u.oX.X:X%.C g g A..X;X^.S 8 a s C j C k a 8 a a k j g 6 8 8 V XXkXlXxXd.N t ` /.>X>X`.S g 8 g U U W V j a a d d f d a g q S Y.>X1X).C s , a k b C V q 8 q D =.*.*.@.g g N o.s.z.*.S q 8 a h C C V N q g V @.*.*.U N q N @.k.z.i.| g a j D o.@.U d , , g _ %.%.D d > j V U #.W C g 8 g D =.*.@.D N N V D @.! L j a a I u.U.z.@.g 8 g } +.i.e.E h 8 8 g B C j a % , , k C k f s < < a j V D N g g h x.>X:X:X<.t N N W L ! C a a a h #.+.| k < = 9 B D o.U s % % s U w.#.U N q 8 s z x s s g g Z D.1XqX6Xz.Z q N U ..#.#.C 8 8 j E W G C g 8 8 h C W W C g 8 8 g h k h < % + a h C j s < + O # s C C g q g q 2.`.OX/.i.g 8 a s s f s a 6 q O.3XjXiX5XA y t y.jXzXvXW.6 , , a f s s s < % , s f f s & & 8 V U.~.].P.q 8 % a C D D g > . + a f k f a % O % , s s s < & % ",
"+ % 8 V &.s.e.U a % % < f k g a % % & s x G h g g 6 _ P.T.~.Z.q 8 , g N N g a , + a S o.&.U d a t ( Y.~.Y.K.t q q Z | #.@.C g 8 q A @.@.E k a 8 a g k C j g a j q.bXNXDXsXV g g N U #.@.N a a a V D U C h a a a k f k k a 8 a g C N N g q 0 N D | ..U C g 8 w k k g a a 8 q V @.%.| ) Z t N ,..X-X:Xo.V N N S.%X;X(.} q a g C C C k a a a a k k E g N g I XXkXkXlXy.t t ` Q.:X&X].` t q N U U | V j a a d d f d g N q Z S.-X%X!.V d , a j L C j g q q D *.i.*.@.g q N | a.z.*.D q 8 a h h V N N q N S @.i.*.| Z t Z | i.z.i._ N g N } o.+.U d , , g _ %.%.D d , j I ......I N g N D *.*.@.D N N N D @.#.L j a g I u.U.z.@.N 8 g X.y.d.u.D g w w w B C V g , , d j V V d s a a a N N S N g g h l.:X;X%X1.u Z N I U ! C g a a V #.+...G s & w B | } S g % % g | u.+.} V q 8 h z z s s g q / D.<X0X8Xl.t q N I ..r.T K a 8 g L E L C N q q N U @.#.V g q q N V V h % % % a g j h g a & % & s k C N g g t 2./.).T.+.q 8 8 s s s s a 8 8  .3XgX2X5Xt t u 1.gXkXvXT.6 8 a g h f h a 8 a a d d d d a a 8 S Y.!.~.L.0 8 8 g D D D h > + , a f k f , % O % , s f s < % + ",
"& 8 a V #.e.&.U 8 % % % s g a a + O % f x G h 8 N 6 U v.z.U.a.0 a , q g g g a , , a V | | U j a N Z E.Y.I.K.N N 8 N | @.U V g 8 q B W W C g 8 % a f k k g a a g  .kXcXnX6Xg 8 8 B W @.U N a a a g C L C g a a a s k k h a 8 a g N N h g 8 6 q C T T U C h 9 s h j j g g 8 8 N @.#.| S S N N +.E.).oXS g g g Y.(.(.!.I 8 a a V V k s a , a a g h h 8 g a N |.pXrXsX+.N Z ) Z.].`.P.Z q g N D C U V d a , d d d d a N N Z Z.%X%X!.C , , , k C C j g a g C =.7.@.D q q N | e.i.&.D g g a g h h g g g g V | &.&.U V q B H *.k.*.D q g g S } } I d , , j S _ | V d , a K ..q.#.U N q g D @.=.H V g t t D W W C a a g V #.k.k.W g a g } y.u.&.C 8 8 h g N V h g a , a g g k a s < a a C N V N N N g u.).%X!.X.t N N S U ! C g g g j #...U k & $ & B @.S S j a , a U +...I N q 8 s h f s s h q u M.*X<X:X3.N q V U ..r.K j a a g C L E D N q q V W @.W h a 8 a g N N g 8 , a a g g g j a a s s s a g g 8 q 0 &.T.R.T.*.0 8 8 a s s s a a a I ;X3X-XOXt t t ;.rX2XjXK.0 8 8 g h h h a 8 % , d j d s , % g V I.K.L.K.0 g 8 g C D C h , + , s s f s , % O % < f s s & % % ",
"% + % % a a a a % + + % 8 a 8 % O O % & a a 8 8 8 8 a a g g 8 8 , , 8 a a a % + % % 8 8 8 a a % % a g N N g 8 % & a g N g g a < % , a a a 8 , , , < < < & & 9 8 g j j j a a a a h a 8 8 a a 8 % a a a a a , , % , , , a a 8 6 8 q g 6 & $ * < < > d k & $ r + d d a s 9 $ z s % a k h g 8 g N V V V a , s g q A Z N a , > , a a 8 < + + , a a B h 6 + % % g ) S V a a g a g j g g a a , a a a a , , , , , , , a a a g g N N Z N s < % a g j g 8 a a < < s a a a 8 q q g V V g g a a a a a a a a 9 w a g K V g w w 9 8 a s g g g % a g N N a , > + , a N g a 2 > , a a a g g a a a a a a a a a a B q B h a d , % a h h h a a a d N N g a a a , , a a a a a a a a & f + s . , 1 d d % F e e F 6 V S S U 8 k 8 % 8 a j j a a , , d a , , < < s s g 8 6 k + , , d j j a k a + a a a a , > 2 s h Z ( A N q 8 g g a , a a , , a a a a a 8 q 8 w 8 8 & < O < , a g 8 g a % a a 8 a a % a 8 % 8 8 s 9 9 & % 8 a g g g g 8 8 8 8 a , % + % a a g g g g g 8 q N N V N g g 8 % % a a a % % % , , a a , % % % 8 q g g g 8 8 8 8 8 % % % , < 2 + @ < + 2 +   + % , % % 8 6 6 ",
"% % % % , , % % % + + % 8 8 % + % + + % % % % % % % % % & & % + , % % % % , % % % % % % 8 8 8 % + + a g g a % + + & a g g 8 % @ + + % % % % , , , > < < % & 8 9 % & 8 8 % % % & a & % % 8 a & % , , , , , , , , , , , , a % 6 8 w w 6 9 3 = 3 > > n % & r $ , % d % a 9 r l & , , , a 8 8 a g g q g % + < s 9 y w 8 < > > > a a 8 & + + , , 8 q N 9 s < < g A N g , a a , , a , < , , , , , , , , , , , , , a , a a a a g g g 8 s < a a g g g 8 a < % % < < % 8 8 g g g a a a a a a a a a a a & & w a a j g 8 9 7 & & < a a g 8 & a g N g a s 2 2 < 8 g g a < 2 , a a a a a a a a , , a s s < 8 B t N g a d d f a 8 8 8 a , , a a a a , , , , , a a 8 8 a a , a 8 w + d + 1 , , v d w p r r g j g g j + k s % % % g a % a 1 > > , , , , < 8 8 8 f 8 k % f , 1 , a a a < + , j j a , > : 2 & q t q q 8 a a a , % < , % % a a a a a 8 6 8 9 8 & # @ O 2 , , g 8 q 8 % a a % a a + a 8 8 8 8 9 9 & & + % % a a a a 8 8 % % a % % % , , % % , a a a 8 8 a a g g 8 8 a % % % % , % % % % , , , , % % + % % 8 8 8 8 8 % % % + O + + < & O O + O + < + + + % % % 6 6 8 ",
"% % % % , , % % % % + % % 8 % + % % + + % % % % % + O O + % % + , % % % % , , , % % % 8 a a 8 % % % 8 g g 8 & @ @ % g g g 8 % @ + + % % % % , a , , < < % & 8 8 % % % % % % % % % % % % % , a % % % , , , , , , , , , , % % 8 g q q 6 % & @   > + n O 6 z w L v K a j g h s % a a , 8 8 w g g N t N a % s a q y y w , > > , a 8 w a , > , a N N t 6 % , + 8 t t N a a j a % a a a , 8 a a g a a , , , , a a a , a a a a g g q 8 a a a g g N N g a 8 % 8 a a a 8 g g g g 8 8 8 a a 8 a a a a a 8 9 w g g N N q w 9 9 & a a g g q a g N S S V g a a a g N N g a a a g a 8 8 a a a a a a a a a a 8 t t q q 8 % a 8 g g q a g a a , a a a , , , , , a a a 8 a a , a N A g V 8 k a d v P g h p 9 j a V j K % j g 8 a q N g 8 a a , + , , , , 8 8 8 8 g 6 8 O a + , , j g a , , a N N g a < @ @ 8 t t q 8 a a a , , , a , % % 8 a a a a , 8 8 8 8 8 % a % a a g S Z Z q % 8 a 8 8 a % a a 8 8 8 8 8 # % + + % % a 8 8 8 8 % , a , % % % % % % % , 8 % a 8 8 8 a a 8 8 a % % % % % , % , , , , , , , , % % % % 8 8 8 8 8 8 % % % O + % a 8 a a a a a , % % % % % % 6 8 ",
"% % % % , , % % % % % % 8 8 8 % % % % , a s < % % + + % % % % + % % , , s s s a % 8 a h k h a % + < g V V h < + @ < j V V g & + + % , a a a a , % , < < & & 8 8 8 a a a a % % a a a a a a a % 8 a a a a a , , , s , , a 8 % a V +.+...V h % , r.h.b.h.C 6 % d 9.f.q.q.8 8 8 a v j j g w w y S o.:.o.N , a g N A A N a , , a g N N g , , , V o.2.2.D g a g S ,.:.o.g a g a g h h a a 8 a h C C k d , , , a s a a a a a g j C C h a 8 g V } O.+.| g g a a h j V N g g g h j j h g a a a a a a a 8 w q S O.y.+.| N w 9 a g j g g q q N o.>.1.>.N g 8 g o.,.>.} g 8 g g V C V g g q g g g h g g g g Z 5.2.*.| g g g N C D C V g a a g g a a a , , a a g g g a a a g X.>.O.| 8 g a Y h.f.f.T 8 8 d 9.h.q.g.a g g N #.@.&._ N g g , a d j a a 8 a g V C V C a j a r.g.f.q.a + 8 8 N N V j , + & h } o.| C g a a a a s a , % % a a a a , , , a a g h g a % 8 q S t.1.<.D 8 6 a a g k a a a 8 8 a s 9 & % + + , < a a a a 8 a a a s & % % % % a s s a % 8 8 a g h h g 8 , % % % , , , % , , s s s a , , % % a a a a 8 8 8 a s s < % % % 8 S +.+...g % % % a s s s & & & ",
"% % % , < s s a % + % % a a a a % % a f k k f a + % % a f s % % % , s f k f s , % a k E E C a % + s D #.#.U s @ + s U | | V a % & a f k k s a , a a s s s & 8 8 s h k h s a a 8 s f f s a a 8 8 h h h h a % % , f f s s a a g I ^.}.F.q.j a v wXZXmXZX|.j K 9.eXbXmXlX..g 8 g j K C C y w u *.U.~.T...a a g A _ @.D k , , a S _ D g a a a ..E./.].&.g a V u._._.T.| g g g N C k h g 8 q B U @.@.k d , , a d k k a a a h C W W W g q N | K./.T.s.N g g h D U U D g a g C ! $.E k a a a g h h s g w t O.F.XX/.l.A w w g j V V N t t ) S.H.%XG.) N q S S.(.(.S.Z 0 q V @.=.#.D g q g N C B h g g N ] Q./.`.I.V g g V | *.&.U g a a C C C f d a a a h N V h g g d j ;X3X3X^.Z S I {.SXCXGX+Xj d 1 n.ZXmXmXg.K g N a.T.].K.Z q g h E R L j g g g S U U ..I g j v 4XnXMXpXr.a C D &.,.} I s % a @.S.!.U.$.g a a k k f s a , , a s h s , , , a j C C C W N V } S.7X0X7X*.g % 8 j L L j a a , a s s s s % + % < s f h s a a a a f s s & + % a k G k f 8 8 8 a k E E k a % % a s f s a % % a f k k f a % % a h k k h a 8 8 g k x k s , % ) F.7X,X,X .N j a k m x f & # O ",
"% % % , s s s s % + % % a f f a % % a k E E k a % % a h k f a % % , s k k k s % % a x Q ~ E g % # s W *.*.W s @ @ s U &...L s % 8 h k k k s a % a s s f s s & & s h k h s a % % h h k h a a 8 8 k C C k a % % < f f f h a a g U XX;X+Xq.j a K pXPXDXLXg.O j P cXbXmXlXV q g I T Y L C B q u k.OX>X'.u.g a g S | %.U k , , g D ' | N j a a w.oX>XoX2.8 % V s.-X:X>X*.g q g N C h C g q q C @.*.*.L d a , a k k j a a a j E $.$.=.N q N +./.,XOXR.N N g N U @.| U g a a C e.j.~ C a a a h k k h g y t ,..X>X>XP.A y g h V K V N t N ] (.;X<X-X` N N ) -X1X1X).) q q D *.k.*.W N q g N C C B g g N ] &X&X>XR.V q 8 S &.k.i.U g a g C C E L f a a a h C C C h g d V 3X3X2XH.q 0 g {.HXSXJX}., d n uXZXbXmXf.j N ) oX:X5XT.] q q k ^ ! U V g g N U #.| #.V 8 a v aXLXLXnXT O % q | >.&.@.k % h u.(.>X Xj.g 8 g j k k d a a a a s k k , > , a j C U U g 6 0 Z S.qXqXqXi.h % a C E W C a a , a s f f s % , , , f k k k a a a s f s s 9 + % a k E E k a % 8 g E ~ W C a % % s k k k a % % a f k k f a % % a k G G k a 6 8 h G E x f , 8 Z J.iX2X,XS 6 6 g k ^ ^ x & + O ",
"% + % , , s s a % % % % a s a a % % a f m m f , % % a s f f a , % , s f k f a % % a k E W G g % & s U &.&.U s # # s U ..| V a + 8 g k k k s a a a g h h f a < & a a h h a 8 % % a h k h a a 8 8 h C C C g 8 8 a a s h h a 8 g I .X-XXXy.I a j uXPXGXLX|.6 V P pXDXHXMX .S 8 j j P K C B w y *.`.'._.&.g a g S _ @.D s , % g A _ _ N j d 8 .././.OX3.g a I s.-X%XoX..q g g g h g C g q q D @.%.&.C d a a s k j g g 8 8 g D @.#.W C g N o.I.oXoXI.N g q h D @.| D g a a C $.$.W C 8 a g h k k h g N 0 o.^..X'.P.u w w j V K V N q N Z H.%X;X).) N N ) ).-X-X/.Z q g D #.*.#.D N q q h C C h g 8 N ` &X_.].`.S N N S o.e.&.D g a a h C G k k a a a h B B B g a s j 2X3XiX.XA D V |.PXJXPX+Xa , 1 n.LXDXFX{.K V Z L.].&XP.( q q h G W L C g g g V U #.w.V j j v fXFXFXnXr.a C D a.Z.%.@.h + g &.H.).W.$.a 8 g g k k k a a a a s k k , , , a g C C U U N S } !.jXjXqX2.g 6 g k C E C a a a a s f s s , , , , s f f f 8 8 8 a s s s 9 a 8 a k G G k a 8 8 g G Q W k a % % a f k f a % % a s k k s a % 8 a h k C h 8 6 8 g C C k s a a } H.iX6XiX .N V g C E m s & + + ",
"% % % % < < < , % % % % a a a 8 , % % s k k s % % % % a s s a a % , a s f f a % % a k G E C a % & s S } } V s & # s D I I j & + 6 a g g s a a a g g h h g , , , % a s s a a 8 % 8 a h h a a 8 a g V C C g 8 8 a 8 a s g a 8 g S Z.Z.A.S B % O  XuXeXsXe.6 g v @XeXtX@X6 N 6 g v K j g h w q @.I.L.L.| 8 8 g V D D C s % % 8 B A D g j j % I I.Z.U.| 8 % g +.S.D.K.S 0 g g g j g k g 8 q S | | | V a 8 a g C h g g a 8 g C E U C C q 0 S p.I.K.i.N g q g C D D V g a g V E W C h 8 8 a g j j g g N 0 ) A.A.K.3.q 0 8 j v K V g 0 q t C.D.G.Y.N g N N S.S.D.A.q q g C @.#.U V g q 8 g C C g 8 8 q / Q.4.l.z.g g g V I ..@.C g 8 s g h C k s 8 8 8 g N B N q 8 , j F.J./.i.0 w # d.eXtXpXg.a a v h.eXwXuXY a V N K.K.Q.5.u 0 g a s k C j g 8 8 j C C L a a j a  XeXwX@Xd O k q _ ' | D g O 6 | V.C.z.U 8 8 a a g k g a a 8 a s h k , , % 8 g h C C g 8 g g O.^.(.!.| 8 6 h h h k k a a a a a s s a , , % , s s a a % % 8 8 s h w 8 a a % a k k s 8 8 8 a k E E h 8 % % a s f s a , % , s s s s , % % a g h h g 8 6 8 g h h g a a a g y.oXg. Xg % g g j k k a + + # ",
", % % % % , % % % % % % % % % 8 % % a a 8 % % 8 8 % % % % 8 % % % % % % , , % + a 8 % % 8 8 8 % & h q q t 0 8 s % a g N g g & & 8 8 8 % % % a a 8 g q 0 g a + , , a a a a 8 8 8 a 8 8 8 a a a a q q 6 g q % h % 8 8 8 8 a a g g u u 0 y 7 $ r % a K 8 9 r 7 h d j g N # k h a d d a a 8 8 g g V ( Z N a a 8 q q 0 C & + < + w w N g , , a g N N N V a % a N Z ( q N g 8 a a a a a % g q q N t N g 8 g 8 8 j g h g q g g g g g g 8 g g N N N N N g g s s 8 8 8 q g g g g a a a 8 g g j 6 a g # C w w N N Z N y w w h , , v a g w g g N Z Z N g a 8 g N Z Z N 8 a g g a a a g a a a a a a a a a g Z ( Z N N q g g j j # g g % m # 8 a g a a a a g g t t g g a , 8 N N q q w & s a d j q w p r k d d d K j g N t Z Z Z Z N g g a , a a a a a % 8 a a a , , a a d d a d + , a 6 t t t q 8 & 8 g Z Z N a 8 8 a g a a 8 a a a % 8 a a , % & 8 g g g 8 8 8 a a g N Z Z q 8 8 8 a a a 8 a a a % % % , a , , % % , , % % % a # 8 g 6 h 8 6 % % 8 8 8 8 8 a 8 8 8 a a 8 % 8 % % % % 8 8 8 % % 8 8 8 % % % + % % 8 8 8 q q 8 8 # # 8 8 # % a a a a a a a a a a 8 8 % % % % ",
"% % O + % % % % % % % % % % % % % % % % % % % % % % % % 8 8 % % % % % % % % % % 8 % % % 8 8 8 8 O a N N S g 6 + + 8 g g g 8 % & 8 0 8 8 , , a 8 q N t 0 g a , , % 8 8 8 8 8 8 a 8 8 8 8 8 a a g N g 8 g q 6 h 6 a 8 8 8 a g g q A u 0 y r r r 8 v K 8 O 7 r % a K g V 6 F 9 O % , , , & 8 a g g Z N g a a a q q q C < < s s h y w a , , , a g N 8 g , , j V ] ` N g g g j k a a a a j g g N t N g 8 g 8 8 g 8 g g g q q q g g 8 s 8 w g N N N q q a s s 9 8 8 8 g g g a a a a 8 8 8 6 g K K g 8 8 8 g g N t w w s d , , d a a h a a g N N g a & & a g N N g a < a a 8 a a a a a a a a a , , a g N Z N t q 8 a a % a K L a % & & 8 a g a a a g g N t t t g g a a g g 8 a s & < % a a 8 y p p g a K K I j g h 0 q t t N N g a , , % a a a , % % , , , , , a a a d j v , f s w A t t N h s f g Z Z g a a a a a 8 8 8 a a a 8 a a , < & 8 8 w w 8 8 % , , , a a g g q 8 8 8 8 a a 8 a a 8 % % , , % a % % % % % % 8 8 g 6 8 q 8 N q 8 8 % % 8 8 8 8 8 8 % % 8 8 8 % % % % % 8 8 8 % % % % % % % % % + % 6 8 8 8 8 8 q h q 8 g g 8 s % % % % % % % , % % % % % % % % ",
"% O O % % , , % % % % % 8 8 % % 8 % % % 8 a % % % % % a a a % + , % % % % % % % 8 % % % 8 8 8 8 8 a N q N g 8 f O % g N N g % & 6 q 8 a , , a 8 t Z t q q 8 + , , a a a a 8 a a 8 8 8 8 a a a a q N g V q 8 V g g g g a g g g q Z u t q 9 $ % a , , V 8 z J + a j 8 g O r 9 + a , , , & 8 a a g q q % % + 8 t A t B # O % + 8 8 w 8 , , , a g q g h s , a g Z Z S 8 6 a a , % , , % g 8 q N t N g 6 g g g h 8 g g g q q g g g g s 8 8 g N N g 8 8 8 & < 9 s s a g a 8 a g h g a g V g V 8 # Y K a 8 8 g g g w 9 s a 1 1 d n a f & a g N N g < + 2 < g g g a < 2 % a a a a a a a a a a a a , , g N Z N g 8 8 % a K a a % a x s c 8 g g g a a g g t t t t q 8 % , d d d d > , 1 n d j N B y y N V g q N 6 6 f 8 h q q g g g a , , a a s s a % & , % , % , , a a j d j O + % 6 Z u N q 8 # + 6 t N g g g g g g g g g a 8 8 a a a % s 9 8 8 w w 8 % < , > > , , a a a 8 8 8 a a a 8 a 8 % % a a a % a a % % 8 a a a 6 8 6 q g q N 0 8 8 8 8 8 a 8 8 8 % % % , , % % % % % 8 a a % % % % 8 8 8 8 % % % % 8 a a 8 8 8 6 q q 8 g 6 # 8 O . @ @ + + % % % 8 8 8 8 % % 8 ",
"% % % % < , a a % % % a a a a a 8 % % a k k s % % % a a s a 8 % % % , , a a % % 8 8 a s h g a 8 + K g.XXXXs.g % % a V I S g & # 6 8 a a , , a q S 5.4.5.&.C , a a g k k g a a a a a a a a a a g s.XX|.R.S q g g C C C C g 8 g N ,.>.+.S g a j h.#Xb.|.N # h , h.{.E.v.w r 9 8 s d a < & 8 a j V D C d , a V &.l.3.3.g % s s F B B h , , , a h N g a , , j w.S.Y.U.U 8 g k f k m L g j N S &.,.u.D q g g N W N C g g g g N C C C s 8 8 g D U D h 8 8 & s s s h g g a a g C E C g 6 8 8 E.@X X@Xa a & a g C B w 9 O , h.#XwX@X! O & a N I I C s @ @ < g g g g 2 2 , g C C j j a 8 a a k k d a a a N S D C f s , a v |.@X@Xr.% O % g g h g g g g N =.*.3.@.C g d v |.#X#Xh.1 > > 9.#X+X@Xu.t q g I s.a.i.C 8 s & s h g g g a a s d k k k a a , a f f s a a a a j C I U a % 8 B 3.p.a...h & 8 N ) X.U j a a g V C C C g 8 8 a k s s s s 8 8 w h g a < , > > , < a a a , , a a a a a a 8 % a j L j g a 8 8 a k G k h a h g @.i.2.2.S 8 8 a g k k g a 8 % 8 8 a a , % % % 8 a s a 8 % % 8 a h h a a % % a k C C h q 8 8 C W W W h 8 a @ X 2 2 2 & % + 8 s h h a 8 8 % ",
"% % % < s s s s % % % a h k h s 8 8 a k W W C a 8 8 a g k g a % % , a f f s , + % a h k G k a 8 %  .,XkXlX@Xj O , j U +.o.V < # 8 8 s d d d a g ( Z.&X'.K.D % , a C E E C g 8 8 h k C k g a a g @XlXlXsX..g g V W =.$.W g 8 g S D.F.F. .g a v #XmXbXcXg.8 V Y eXpXlX6XD 6 9 g a k f s 9 9 h C U ! R d , a U Z.&X&X].| a d d E H W C a , , d C D B 8 , > j g.,X7X6X*.q g C E $.r.$.g g q | K.L.~.i.N q q D *.@.*.N g g g C W W E f 8 8 h | &.#.U g a 8 s s k k h a a a C #.$.W V V K Y xXIXBXnXv a s d C L C h 8 j 9.#XAXIXIX Xg < f U +.+.U k & & s j S S j < % a C W #.! C g 8 a g k L C k a a S } #.$.E k a a q.MXLXLXuXj k h g N j j g g N N 3.z.U.i.D a d P bXCXZXtX9.n P #XCXHXDXXXN S  .y.:X:X`.&.8 s & x k k h a a g k L ! W C g a a g k x k g a 8 g C @.&.#.g 6 w | ~.).>XA.C % a W 4.p.e.L 8 8 g W #.#.@.V 8 a g k f f s a a g g B h h a , , < s f h h a , , a s f h s a 8 8 j W #.T L g 8 8 C $.$.W C 8 g N i. XR.I.| 8 8 g G W W k g 8 8 , a s s a , % 8 a g h g a 8 8 a k G G k a 8 a g E W W C g 0 0 W j.k.j.H q 8 + 2 < < < s & & s k E E k s % + ",
"% % , , s f s s % % % a k k k s % 8 a C ! ~ L g 8 8 a g k g a a % , s f f f , + % a k G E C g 8 g q.,XkXkX,XV , a k ..+.+.D s # 8 g s d 1 d a g Z Z.&X&XP.S + + g C W W C g 8 8 k C C C h g a g ,XvXnXlXO.g g V @.*.j.@.g 8 g } F.H.XXO.g 8 j +XdXpXcXd.6 N I eXkXcXsXS 6 w C j L k h 9 9 w D #.! R d , a I S.1X1X%X} g a a D D @.C d , , a C D W h s , a s.2X2X7X2.q q g U e.$.#.g 0 q ` L.!.].l.V q q D e.*.j.N g g g D W @.W g a a V ..w.&.#.g a a s k k C j a a g L $.e.W C a j I sXMXnXcXK a , d L W E B 8 a v #XZXAXFX|.8 a k o.u.u...k & & a V S S V s & g S #.e.#.U g q g g C U L j g g S } w.$.W k d d h.mXmXBXuXa j % N N V j g g N N 3.K.U.i.V 8 a P bXSXSXtXa % , {.CXHXHX{.8 g V y.-X-X).o.q a s x k k k g a h C W *...I g a a j C G C h g q g D #.+.&.g 6 q o.(.;X,XF.N + 8 U p.a.i.L 8 6 N @.*.*.#.V 8 a g k k b , , a a h C C k a , % < f k B h a , , a s f f h a 8 8 V ! r.#.T g 8 q C $.j.$.C 6 q g i.OXoXY.X.8 8 g E ~ ~ G g 8 a a s f f s a 8 8 a g h h a 8 % a k E E C g 8 a k E ~ $.E N q 0 W k.x.k.W 8 % < 2 s f f f a 8 h G Q ~ x s % + ",
"% % % < s s a < % % % a k k f a % % a k L E k g 8 8 a a g g a a % , , s s s , % % 8 s k C k a 8 a  .,XkXkX@Xj , , j I | | C s $ 8 8 a 1 1 1 a g ] Z.&X&XL.| a d a j L L j a 8 8 g j C k g a a g ,XvXkXiX .N q g U #.$.U g q g S L.!./.&.D B N OXmXvXlXZ.u _ ,.rXkXkXiXo.Z N N g j j h w e w J @.#.! R v j X.G.*X*X%X;.S V j I | | D g , a g V D C g k d j F.2X2X5X2.Z Z N @.j.=.*.V Z Z :.Q.Q._.3.N q q D #.W *.N g q g C W W U g a g V } +.+.} N a a a k C V g g a g C ! ! W V j j Y sXFXLXcX9.d , a j L U C g j P wXGXDXGX|.g g N } O.>.| C 8 8 g Z S S N g a q S o.&.o.S N g N N D D D N g g S } ..#.L j d d h.DXHXGXeXj N g N j j j g g N N 3.K.P.a.U j j 9.CXSXDXpXD H q |.DXHXDX+X} H D a.;X<X-X>.N k , , d d g g q g B @...} S N g g j C C C h g q N D | o.4.D N Z :.H.=X;XD.I g g o.p.p.w.L a 8 g U @.@.U g 8 a g a a b 1 , , a g h V V g a 8 8 g B B g a , , , s f f f a 8 a j U ....U g q q C W @.E C g N N u././.F.>.q 8 g C W W k a 8 a a s s s s a 8 8 a a g g a 8 % 8 h k C k a 8 a a C E E C N q N @.j.k.k.@.g g a a a a a a 8 8 g k E E k < % + ",
"+ + % , s s < % % % % a h h a % % % % a k k s a % 8 8 a a a a a a , , , , , , % + % 8 s g g a 8 j j g.F.F.d.% j % a N S V h s & 8 8 , , , , a q t o.4.4.%.N % , a g j j a % % a % a k k g 8 a g  .F.g.E.g j g g C E C k g a a N %.o.3.N B w O i.F.A.I._ i y t y.J.f.d.N N q q N g g h w w w B D j j d a 8 N ;.D.m.C.) g j g V V S V g a a g g N g 6 a a %  .F.<.K.Z t N 0 N @.V V q g t Z o.o.2.U 8 g g C D g E h a 6 8 h C C C g a g N S } S S g a 8 a k j j g g g g j L U L V g j V g.|.|.{.a d , , a j C j a d , h.+Xb.@XY g g h S } } S h 8 a g N Z Z N a a 0 N D U D V N N N N V V N g g g N I U U k a a j j |.{.F.f.N g g g g j j g g g N S | %.| g 8 a v {.}.}.s.# J # r.{.{.}. .6 w # @.<.V.t.S g C a a a g g g a 8 h D D S V g g a g j g h N g q q V D N ) t 0 q Z t.V.y.O.N 8 8 N ` ) L j j a g N V S S g 8 g g , , d 1 , , a a g g g g a 8 8 g B N q , , , , , s s s a a a g C L K C 8 8 w h h C C C 8 q 8 S w.,.,.S g 8 a h G G h % % % a a s s a a 8 8 8 a a a 8 8 % 8 a f h f a 8 % a g B C h a 8 % h C D E h % % a a a a a 8 8 6 8 g k k s % + + ",
", + + % < s , % O % # % 8 % g a O + < < , % % , % + 8 a 8 a a % # O % , , , , & & + % % a a 8 8 a a a g g a a , % a a a 8 % % % + % < < 2 % 8 8 8 N 0 q g 6 , , , j % a d + , + , , , , 8 8 q g a a , % < 2 & % % % % % , > > < g g 8 % 8 a a 8 g q q q w w 8 8 g g 8 8 8 a 8 + % 8 8 8 8 8 8 8 g a a a 8 a g g q g 8 g a 8 S N V V a g g a g 8 g g a a g g N g 8 a a a 8 8 a g a a a a a g a a a a a a a a a a % < , s % % a g , a g g q q q g 8 a a a a a a g a a g g a 8 a g g g g g a a g j , , s a a a a s a a d d d a a a , , 8 q g g a , % 6 A u N N % s g N g g a a g g g g g g g g a 8 g g a a a a a a g g w w 8 8 a a g 8 8 8 g g N N t N N g 8 8 a a a a a a s s s a a a a a a % % < g g a + a a q N N N % , , O O h 8 8 8 , , , a a g g g g a a a a g g q 8 q q N N N g q g a g g g , > , a a a g g g g j a % , f + + , s a a g g g g 8 % a h g g a a , , % , s s , % , a a a % a a 8 9 6 6 9 9 & % O 8 % a g 8 g 6 , + + + % , , , s % a a % a a 8 g 8 8 8 8 8 8 % 8 8 % % % % 8 & O O 8 # 9 8   > + o % k   2 o : , , % 8 a a % % % % % + O O % < ",
"% O O O % % % + 8 h 8 a a % 8 + O O + + + % % % a a g g 8 g j a # + + > , , , & & & % , a a a 8 8 8 a a 8 8 % % % % , % % % % % % % & & & $ & 8 8 V q g h 8 s s a V a a j , , , + , , % % 8 8 g a a , , + @ @ & & % % , , > > > a a % % , , , a 8 q 0 0 9 9 & 8 8 8 8 8 8 a & % & & % % a a a a a a a a a < < < f f a j g q S q g g 8 g j a k g a 8 8 8 g g q 6 & < a a g g g g 8 % % , , , , % , a a a g a g a % , < < a a g g a a g g q q q q a a a , , a a a a g g a a a a a a a a a a a a a , , , , % 8 8 8 a a a a , , , , , , 8 8 g a , , a 8 S Z Z V , a q N g a a % a a g g g g a a , , g g a a a s s s w w p w 9 8 a a a a 8 a g g g g q q q 8 8 8 8 8 8 8 8 a & & 8 a 8 8 a a a , % + a f > > a g N ( u N 8 , 2 2 s k 8 8 , , , , , a g g g g a a , , 8 8 8 8 8 8 8 8 8 8 8 8 a a 8 % f , d d a g N g g 8 a a % % , O O % , 8 8 g q 8 8 % % & a 8 8 a % % % + + % a % % % , , , % % 8 9 9 # & 9 9 & + s s 8 g g 8 a # % + + + % , , , 8 % 8 a 6 8 g 6 8 8 8 8 8 8 8 % % % % % & & % % & 8 N 0 y h O 2 . . d v , 1 o . O % + % % % + + % % % % O O % < ",
"& % + % a a 8 8 # 6 # g N g N 6 & + + % < a 8 8 8 6 g N g N N 8 & # , , 1 d a & & & 8 a a g a 8 8 8 a a a a % % , a , % % % % % 8 8 a 8 & & 6 8 8 S N V V 6 8 8 q ) N V V 6 % % % % , , % 8 8 g N V N g 8 8 8 a g g g g a a , , a a a , , , , a g g N w 8 6 8 s a g g a 8 a a a s a a % 8 a a a a a a a < < < < % % % g g g } S V V 8 a a % a % a a 8 8 g g g 8 h w q q Z ( S Z N N w g g g N N g w g N N Z N g g 8 8 g g N N N a a a g g N N g g a a a a a a a g s a a a g g g a a a a g k g a a a a g h h h g g a a g g s a % , , g g N h a , k g ) u u N a d g N V V k a a a g N V V j a a a a g j d d d d a g g h N g a a a a a h h g g g g N N N g g g g g N S D B w w w N V N N N N g 8 6 8 g , + , g t ( ( } j % , 1 a 8 g a a < , , , a a g g g a a a s a g g g g g g g N g g g g g a a , O % a 8 N I S } g g g a % , , 2 < a a g V V g g 8 8 a a a g j 8 a a 8 a g k g a 8 8 a a g a 8 s 8 & 8 8 a 8 8 6 8 6 N D N A 0 % O % % < < a 8 8 6 g C N N N q 8 8 8 g g g 8 8 % % & 8 8 8 % % 8 g ) Z ( A # % , d q.Y q.j   & % 8 a a a a % % % , < < % % + % ",
"8 & % a h k h g 8 g q @.k.k.k.W 8 % + 8 k C g 8 g g D e.i.i.&.N & # , d n d a & & 9 s j C j a 8 8 a k C k k a % % a s s s < & 8 8 g h k s 8 8 q V i.z.K.i.h a q ] C.Z.Z.2.N g a a a a a < % a g I } } I g 8 8 g V S V N N g a a g h k s , % a s h C B g 8 6 s k C C C h 8 8 s s f s a , 8 a g g j g a a < < < s s s a j N | E. X Xv.U j g a j a g a 8 8 g h C C H B q t ( ' :.o._ A q w B D | | B N t N ) ) ) D N q 0 w V D Z N a a a g V C D C g a a s d d g g a a a g k C k g a a a g k C k a g g h C @.@.D N g g N C C C g % a a N S D V j a 8 S L.].~.s.j % N D W W E k g a g C @.#.L k a d j j v v n d d a g j C V j d d a a C L C N g g g D @.@.D V g g N o.2.%.[ y q y A @.o.' _ N q w h W #.R j j N ` Z.S.~.i.j , d g g C h a a , , a a j g g g a s f k k k j g h C D W W D h g g j k k k s a g N &.z.I.K.S q N g a s f f s , a V #.#.@.C a 8 s k C L E g g g g C W W E g 8 8 g C C C g a % % a s k g g g N N &.K.K.Z.' 6 % & a s s a 8 8 8 D *.e.*.| g 6 8 h G E C h 8 % 8 a s s 8 & 6 g } V.V.D.5.y q g g.hXhXbXF.8 7 a s k k k s , % , a s s < % % % ",
"8 % & 8 h F C B g N N *.W.W.U.@.8 6 9 h H W C g 0 q @.U.`.W.a.N 8 & d v P v s 8 & w k L R C g 8 8 g L ! ! L s 8 % s k x k f a 8 g N C G F h w 0 Z U.OX5XU.V 8 0 -._.&X&XK.Z q q g h f f a < % a  .,.+.o.V g g N I } I S N g a a C C C k , % a s C G H B q 8 h G $.$.E C 8 % s k x f s a a a g k k k a , , s f x k k g g q | OXsXsX XU a g g E k k g 8 8 g C W =.H B q t ) :.5.3.=.A 0 0 S %.2.&.D B t N ) o.%.%.V N q g C D ) S a % g h D D H D g a a s k f k k a 8 a k E W C k g a a j C C k g 8 g V @.*.*._ N N N D U @.W N 8 a g S | | I j a N o.'.>X>XT.K a g D @.$.! L a 8 g D #.$.W k a a j K K K v d d a C V U D V j a , j W ! W V g g N @.*.j.$.N 8 8 N 2.5.5.[ N q y A 3.3.3.o.N q B H &.e.! j g g ;._.%X>XI.V , a V D D C h a , , d k C V g g g g x E E C g 8 q C @.*.*.W g 6 8 h C E Q k g g N u.`.`.OX| 0 q g h k k f , % 8 V &.k.j.W a # 8 G W #.#.N q 8 g @.j.j.=.g q q g D W W C a , , a k k C N N N Z a.&X&XQ.' q 8 a h h h g q 0 8 D k.U.U.&.q 8 g G ~ $.W k 8 % 8 s f f s & 8 g X.H.H.%XL.u 0 g +XJXJXJX+Xg 9 8 h E E x s % O < s f f s < % % ",
"& & 8 s x G G C 8 q q *.W.W.U.@.8 6 w B W W D N 0 0 _ U.`.`.i.q 6 9 k v P v s & & 9 h L R C g 6 8 g E ~ ~ E g 8 % s k x x f < % g N C E G k w q Z U.OX5XU.V 6 6 -.%X&X&XP.Z t 0 h h k f s < % 8 ..+.&.@.C g a g D I I V g a a a C D C k a % , a C C D B g a k L $.$.E h 8 6 a f x f f a a a g j f d a , , , s k s h 8 8 8 S OXsXsX XV 8 8 a C g k g a 8 g C W $.W h q q S o.3.3.*.C 8 8 D &.u.&.D h g N S | &.@.V g 8 g C D S V a a a h D [ H D g a , s k k k j 8 8 g C E E C k g a g h C C k g g g D @.*.*.| A t N D @.@.W V g a g S | | I g a N | _.&X&XY.I g g D W $.~ L a 8 g U *.*.W j a a N V K L j d a a C C D D V g , , L U ! U V g g g @.*.j.$.V 8 a N 4.a.3.%.B g N D *.i.3.| g q h W %.&.U j a q X._.&X>XU.V % a N ) D C h a , a d k L C g q a g x ^ ^ C g 8 q C =.j.e.W g 6 8 j L W G g 8 8 N i.OXOXOXo.q q N C C k f s % a V &.x.k.W h + 8 E $.#.#.V g q N @.k.k.=.N q q N D W W C , , , a j C C N q t N a.'.&XQ.' q 8 g h h h h g q 0 D z.W.W.*.q 8 g G ~ $.W k 8 6 8 s f f s 8 8 8 } F.(.).K.N 6 a +XJXJXPXXX8 # a k E W m s % + , a s s a < & & ",
"& & & s f x C h 8 g g *.z.z.K.&.8 6 9 h F C B g N N @.z.U.U.i.V 6 & a j v j a 8 7 9 s k k k g 6 8 g C L L k a % % a f k f a % % g g C C h g q q S z.U.T.z.D h N -.Q.Q.Q.K._ A B w g h f s < , a C D E G s & & 8 h C C k a & & s B D V g a % 8 a h B V g q a a k E U C g 8 8 a f k f a a a a g g d a , , , , s f f k h V N | `.4X4XW.U j j j E k k g a 8 g C D C x f a a N I U W W k a a j U T T f s a a V K U L d a , , a j j j a a a g C D D C g a , , d k g g a a g j C C C h a a g h j j h h g g V U @.@.D N t N S D U S N g a g N S ) S g a 8 S ~.>X>XU.N % N C E W E k a a g C @.@.U j a a g B F F s s s h h B C B h g 8 a j K U V j g g g U W #.W V g a g o.&.#.E k s f k W ! U C a , s k #.&.U K V N ` L.).'.z.U j N S ) D V g a a a a k C N g q q g k k E k g a g C W =.@.D g 8 g C k C C h h g D x.W.W.U._ g g g h C k f d a a V ..$.#.G g 8 h C E | | V h g h D $.=.E q q q g C C C j 8 % , a j j j g g N N 4.T.T.L.2.q 8 8 a h h g g g q C *.k.k.@.q 8 a h C E C h 8 8 8 a a s a 8 8 a L i.z.U.k.j d , c.nXBXIX X, + a k E E k a % % % % < a < % & & ",
"+ O O % s s a 8 % 8 8 N D N S q 8 6 6 8 g g g q 8 6 q S S D N 8 6 % 8 a d a 8 8 7 9 8 a a a 8 8 8 a g j k g a % % a a a a % % % a g g s a a 8 q 6 S Z S V 8 8 8 t ` ( ( Z q 0 8 6 8 a s a a a a g g f s & $ $ # 8 s f f & @ @ s N Z N g 8 8 8 a 8 g g q 8 a a j h N g a 8 8 a a f s a a 8 8 a a , , , , , , , a a a 8 g 8 0 | | U K % 8 a a k a h g 8 8 g h N h f , , a j j j k s a , , , d j v 1 , , d j j j d a , , > , a d d d a a g V A V N g a % , a a a 8 g g g g g g g g 8 a g g g g g g a g g N V V N q q g N V N N g g a a g N N N g a g N ' ` ] ) a j g g j j k a a a g g V V g g a a 0 w z z l 9 s f w g N N h 9 9 8 j j V N g g g g g h N h g g a a V V V g , % , a b j j a a , < , N N a a g q t ' ` o.V a g g N Z Z N g g a a a a g g g q q g g g g a a a g g N V V g 8 8 g h a 8 s a 8 6 8 V | N | N g g a a a , , , a a g N V g a 8 8 g h N N N g g g 8 a h k g a 8 8 a g h g a 8 8 a a g g g a 8 g q S | S ) t 8 % 8 a g g g 8 8 6 g C C D V 8 8 8 a g h g a 8 6 8 8 a 8 8 % % O % k B D C . ; 1 1 T K ! , o 1 % a g g 8 % % % + % % % % % % & ",
"@ + + + O O % , a 8 8 8 8 q q 8 8 % % % 8 a a g 8 8 8 8 8 q g g 9 # j + K a 8 h r w 8 a a a 8 8 a a a a a a 8 8 a a a a , , , a j a % % , s a 8 g g g g g g a % g N g g q 8 g g 6 8 8 a a a g g g g 8 8 & & # + a a 8 h O < & & D t N g g a + g g q q q g a a , g q 8 8 a a a a 8 8 8 a a a a a , , , , , , , a 8 8 a g g N N N g a 8 a a a a a 8 a g g g g q a , , d a a a a a d O s d , d j v , , , j j j K a d , , , d d d d , a g g N N N N g a a a a a a 8 a g g g g a a g 8 a g g g g g g a a a g g g g q g g q g g g g a a a g g g g a a g N Z u u N a a g g g a a , a a g g q q g g a 8 h y w w 9 & 9 h 8 C N N B 8 9 h a j V V 8 N % k g a 8 g g g g g V V N g a , , % d a a a a s < % g q % , , g N Z t Z g 8 a g t u Z Z q q g a + a a g N g q q 8 a a a a a g g g q q g g g g a a a % , a a a g g g g g g g a % a d , , a g g g g g a 8 a 8 g g 6 N g % k a + g a % a a a a 8 % % a a g a a a 8 a a a a 8 a a g g a % % % , , , a a a a a a a a a 8 a 8 8 8 8 a 8 8 8 8 6 % % 6 % & @ + & 8 8 % > ; ; > d j - d ; . O % 8 8 8 % % % + % % & % % & < ",
"+ + + + + + + , , % % , a a a 8 , % % % , , a , a % 8 8 a a a 8 h 6 V j j a % 6 9 8 6 8 a a 6 6 8 8 a a 8 8 8 % 8 8 8 8 % % % % a , % + , , % % 8 q g a 8 a % % a a a a 8 8 8 a 8 8 a g a g g g q q q q g g g g g g q V # a & 6 t 0 N g g h a k a 8 q g g a a a g g g g a a a a a a a a a a a a , , , , , , a a a a g g g N N g g a a a a a a a 8 8 g g g g g g a a a g g g g a j % k d a j g j d , a g q g g q g 8 8 a a a a g a a 8 g N N N q g a a a a a g a 8 8 8 a g a 8 8 a g g g g g g g a a a a g g g a g a a a g a a , , < g g g a a , a g t u t q , , a g g a a , a a 8 q q q g a a 8 g g h 9 9 8 a g K N 8 6 g C h k v j a j j K a 8 g g g g g g g g t t t g a a a a a a a a a a % 8 q g , , , a w u t B 8 % a g t Z i Z q q g a a k 8 q q q q q 8 8 a a a a g g g g q q g a g g a a % % % % a a a 8 g 8 8 a a , , s , , a a g g g a a 8 g 8 g V q V a O s , + a % , a , , , , , % 8 8 q 8 8 a a , , , , % , , , , , , % % % , , , % % % % a a a a 8 g a a a g a 8 6 6 6 % % % % % + + + % 8 8 % + . o . d j a v > > % 8 8 8 8 8 % % % % & % % % & < ",
"+ + + > , < < , % % , , a a , % % % % , , , , % a , % a k k a % h 6 V  .K T V h 9 9 a g j g a 8 a g g j j g a 8 a a s g s a a , , , d d , , < a a g N j g a & , , , , , , % % % 8 h h h 8 8 q N ) ` X.) N q q N S ) ) O.q N N S o.X.,.S 8 a % a g g N g g a a j g N N g g 8 a g h s a a a a a g a , a a a a a g g g g g g g N g g a a a a a a a 8 8 8 g g N N V C g g N N Z Z V g 8 N g N O.>.O.| 8 S S ] :.X.4.Z t t N S S S S j a g N D D S V g a a a a g g g g g g g C C h g g g g g V V g a a , a a a g g g a a a a a d a , > < s h h f , < a h A _ _ B , , a g g a a , a a g N V D V g g g g g g g a a a j K q.f.q.Y a O a v h.9.h.K a g a g g g g g g g Z 1.1.;.` Z N N N S S S N N q g B N h f < < & w y B B 8 % a 8 N 5.' 2.| N g g g k h N N g q g h C h g g a g g N V N g 8 8 g g g a a , , a s j g h g a % 8 a , , , d a a a g g j h g a a % V w.}  .L + a d a d a d a , , , a a a , 8 8 8 8 s s < , + + > > , , < , , , % , s s , % , % % a k k a 8 a g g h j g 8 6 8 8 a g a a 8 % , , g V N g & O d n q.q.q.I % l 8 a a a 8 8 6 % a a a & % % & 8 ",
"> + + , f M f s + % % , s s < , % % , < s s , , , , a f E L d 8 6 8 d.sX@XuXe.8 9 w C L U L h a a g C E U C g a a g C E E k s a a d b m M f a a g C U W C s & < > 1 1 1 , , % % s k G k g 8 q N D.H.(.A.X.Z S X.-X,X,X.X` Z N } :X>X5Xs.N g a k C C D h q a k L U U D V g 8 g k k k g a a a g g a a a a a a k C L C j g g g N C C j a 8 a a h k a a g g N S D | @.S N t ( ' o.%.@.A D Z ,.:X2X>XU.q ) ] <.%XQ.&X:.( u Z o.2.,.+.N a g C @.*.&.@.g a a a k j j h g g g C W #.E V g g g C E E C g , , a k k j g a g a g k k k a , , , h k k k , , s C =.3.*.W f , a g C k j d a a g D @.#.W C j j N N V j j d d j q.pXmXmX@Xv j K @XmXnXMX|.a L C g h h g g g N ) %X%X%XZ.' N N S &.&.,.' Z t A H B C f 2 > % w B H B s a a 8 _ T.L.~.a.N q g j C W H D N q N C E L k g a q h D @.W C g 8 g j k k f d , a k C E E C a % % a s d d f s a a j C C C a a a g c.uXuXuXe., , f k m f b a , % , d f f s 8 8 6 a s f s < + + > < 2 < 2 , , , , d k k s % % % a k ^ E k 8 8 g C D E C g 8 8 g C G G k a 8 , j I } | D w & a h.hXhXbXF.6 7 8 g h h a 8 8 6 a a s s a % % % ",
", % % d E ^ m k % % , a s s < % % % , s d f s a % % d E ~ ! k a g g s.nXaXnXv.6 6 w C T ! U h 8 8 g L ! W C g 8 8 a L W ^ C a % a j ^ ^ m s % 6 q D #.=.G a % O , 1 d f s < % % f F G C g 8 a N S.-X>X!.;.Z ) >.iXzXzX2XX.t N ,.7XjXiXI.N g a L W ~ H B q 8 j W $.#.W V q 8 h G G C k a a g g j k k a a a g C W ! W k g a h C E L j a % a s k k h g a q N D &.*.*._ N N ) o.3.3.*.D N t ,.7XzXzXOXZ Z ( M.1X%X>X4.( i Z 2.a.p.u.g a g S &.i.i.&.g g a d j C V V g g g C #.r.#.C g g N U #.#.U g a a s k C C h g g g h k k f s , , , k C C k d , a C %.l.i.#.d , a j L E b f d a g D *.*.@.C g a N V K C j d d d f.GXHXPXpXa U j wXGXFXIX@X% a # h k B h g g N ) *X1X1XQ.` t N _ i.a.4.o.Z t u A D U f 1 + % g D H H k f a q %.5X:X:XA.N q g L $.$.@.D q 0 g C W ! L h a q C W $.*.W g 8 a j C L C s % 8 g C W ~ ~ k 8 8 a k k k s a % 8 h C C C k a a g  XxXvXlXc.8 + a k ^ k L a 8 % a k C k k a 8 8 a f f s < , , < , f f s a a , a k ^ E k a 8 a k ^ $.~ k 8 6 g C #.$.W C a 6 g C W W C a % % g I O.o.D w # % {.SXSXHX}.0 9 8 g C C k g 8 % 8 a f f s & % # ",
"8 % 8 k E ^ E k % % % , s s a & % % , s d k s a % 8 k L ! ^ k a g N w.aXaXnXc.g 8 g C T #.U j 8 8 g L ! W C g 8 a g L W W C s 8 a C W ~ E f 8 8 N D %.&.H h 8 + a d f f f a 8 8 f F G C g 8 a N S.(.:XF.} t N } ,XiXiX,X) t V 2.7XjXiXF.N 8 8 k W W H B 8 8 k W *.#.U V g g h C G k k a g g g j C j g a a g C W ! L j a a s k E L j a a a s k k k g g g N D &.e.#.D N N S o.*.*.@.g 8 8 +.7XzXlXOXS N Z C.1X:X:X4.] t Z %.a.p.u.j a g S &.i.i.*.g g a d j j V N g g g U $.r.#.U g g j U #.#.U g a a g k C C h g g g h k k k s a , 1 j C C j d 1 a C %.4.a.#.n , a j L E b j d a g D *.*.@.C g a N V C C j d j d f.DXHXPXuXO j , eXJXLXLX@Xj C k h k C h g g N S -X<X>XY._ q N I i.u.2.o.A t B B _ U j , , , h D H H k k g q 2.&X>X>XA.S g g C $.$.=.D N q N D W ! L h a q V W =.*.W h a a h C L C h a 8 h C ~ $.=.C 8 8 g h C C a a % a h C C C k a a j E.lXlXlXz.a % a C W C C 8 8 8 a k C C k a , , a d d d , , , < s h h g a 8 a g C E E C g 8 g C W $.W h 8 8 g C W $.W C g 6 g G W W G a % % a I +.%.D w + a |.BXNXDXF.q h 8 g C C k g 8 % % a f h s & % # ",
"8 8 8 g C C k g a 8 8 8 8 8 8 8 8 8 a a s a a a 8 8 a k C k g a 6 g d.uXuXuX#.q q g C K U K g 8 g g C L L C g a a g k L C k g a g V C E F h w w N A ' _ A h w 9 a a g g g 8 8 8 h h k h g a a g z.I.U.a.| N N I OX6X@X XV g 8 S -X;X-Xp.S N g C C C F h 8 8 g C U D C h g g g h k k g a a g g g g g g g a g j C C j g a a a f k k j a a a a s s h g g g N V _ U L j a g N K U L ^ d j j  .+X,X,Xd.C g S <.!.~.L.o.Z N V U ......j a g V | &.%.| g a a a j j g g g g g C W W U V g g g V L L V g a a g h B h g q q g g h h h g a , a j N N j d a j V o.:.o.| j 1 a g j j d d a a g D @.@.D V g g g N B k z s g j h.pXcXnX@Xj L K +XbXcXdXg.% a a a h h h w q g Z G.H.Y.u.S a a j T T U V g a h C S S j , , a N V D C g a g N ' Z._.L.,.S N g g C W H D N N N C U C k g a g h C D D C h g a g j C C N g g N B H W H N q q g g g h a a a g h N j k % % a j g.eXrXpXw.8 8 g N E C C q q g g h h N j , , , , , , 1 a a a a a g g g g q g g N C C h g 8 g h C H C g q q g N C C C g a 8 g C C G C g % % < C D H C a > , d.aXaXxXI.a + 8 g h h g a 8 % 6 8 a a 8 % % + ",
"8 8 8 8 g g a 8 g 8 8 8 8 8 8 8 a a a a a a 8 % 8 8 a a a a a a a a a j j K # a 6 8 g g g g 8 + a a a g g a 8 % a a a a a , , % a g g g 8 8 8 q q t t t 0 0 8 h 8 g g g a 8 8 q w w w w 8 8 a 8 g N N g 8 8 8 a g g g V 6 g a g ] ( ` N q g 8 s 8 a g h a 8 a g g N g g g h g g h g a a , a a g a g g g g g g h g g a 8 8 8 a a g a a a a a a 8 a g g g g N N N d 1 , a d j d a f % d , a I I S j d a g N S o.Z g q g g g g j j a a 8 g B A N g g a a a a g g g a a 8 g j j g 8 g a 8 g g h g 8 a a a a g g 8 8 8 8 a g g g a , , , g g g g a , a g Z Z Z N , , a a a , , , , a a g N N g a a g q q h h s s g j g V j j j a % a d 9.d Y v j j a a 8 h g g q q N S ) S N a , , d d d d a % % , s N N g a a g g N A N 8 8 g N Z ` ] ( t q g a 8 k g g g g g g N N g g a a a a g g g g a a a a a g 8 g w q q q g h h q 8 w g g q q 8 8 8 8 8 8 8 a g a a % g S N S C 6 q q 8 g q g q q g g q a g g , , , , , , a a a a 8 8 q g q q g g g g g g g g 8 q g g g g q q g g g g g g 8 6 6 8 a a a a 6 # @ @ 9 8 a 8 + + > , j 6 U g + d a a g g 8 8 8 8 8 8 8 & % % # & ",
"8 8 8 8 8 8 8 8 8 % % % % % 8 8 8 , 8 % % % % 8 % 8 8 % + % % < + # , a , % + @ O # N t q g O < + , % a d , , , , , , > > > > , a 8 8 8 8 8 8 8 a 8 6 6 8 8 a 8 w 9 8 a a g g q 0 y e w w # s a 8 q 8 a a a a a a a 8 a g 8 8 N ) Z Z q q g % % % < f % a j % g g g a < & & 8 w 8 f & @ < , , a g 8 N V g g q w 0 w w w w w 8 8 8 a a a a a a s a 8 8 g g g g a , , 1 d d a a , s # s & 8 B q q a , > d g t A A 9 c & s g g d , , j g w w F F w g d d d a 8 w w 8 a C a a j % j g g 8 8 9 w w 9 s , , , , , a s , a a a , , a , , , g h h h < > > b 8 q N a l > , , , , , , 1 d a a a a a a a a g a 8 , a s a a a j j d a , > > d j g g g g g g a a a a g g g g j g a , , , , , d d d d a , , , a a a a g g N N N N g g g g g g N g a , , , a a g a , , a g N t q g % , a % h g g a , > > > a a 9 7 8 8 h 8 + a O s % < h 6 0 0 8 # h 8 6 g 8 6 % 8 a a a a a a 9 7 8 8 h g 8 # 8 8 8 8 8 8 a a a a a a , % a a a a a 8 8 8 8 8 8 g g g 8 8 8 8 8 8 g g g g a 8 8 8 g g 9 9 r 7 8 j a , , O l $ * & & O % , + @ & + + % % , % & g g 8 q g 8 % 8 8 % % & & & & + ",
"8 8 % % a a 8 8 8 % % 8 a a 8 % 8 % % , , , , % % % % % , , , & + + % 8 a , + @ & 6 N t t N % s a 8 a a a a a d % , , , , > > , a a a a a a a 8 8 8 8 a a , a a 8 8 a a a a q q 0 u 0 y w 6 s a a g a a a a a , a a a a 8 8 q N Z Z Z q q h 8 a < < s % a j 8 V N N g % % 9 g N q h $ @ 2 , a I N V N g N N V B g w w w w w q g g g a a a a a a a a a g g g N g a , , a g j g g a % w 8 w A u Z g , , , g t u t 9 # & # g N j 1 d d g w w w y h a a d d g g h w h a a , , d d a a a 8 9 w w w 9 % , , , , a , , a a a a a a a a , < q N N g < + . , j j V j O O % , a a , , , , a a a a a a , a g g a a a a a a g g V j a , > 1 a a g g a 8 a a a g g g a 8 a a g g a a , , , , a g g a a % , , a a g a q q g N N g g g g a a a g g a > , , a g g q , , , g Z Z Z Z 8 a , % N q N g , > > , a a s 9 8 a g j v v j , , a g N N Z N # w 8 6 g 8 8 8 8 a a a a a a 9 9 8 8 g g a % a 8 & & a a a a a a a a a a a 8 a a 8 8 8 8 8 8 8 8 8 8 8 8 8 8 8 8 8 a g a 8 6 8 8 8 8 8 9 7 7 + , d n n , # O # % j a d d O & # + % , , % # 8 q N N N N 8 # 8 6 % & & # # # + ",
"& % % 8 f h a 8 a 8 8 a k k a % 8 % % a s s a % % % , s f f a % 8 8 g V V V s a 8 N :.1.<.,.g 8 N t &.&.&.%.q g q N V C C g a 8 8 g j k g a a 8 % a s h s , % , a j j j k g g g } ,.+.+.I 8 a , g h j g a a a a s a g a 8 6 g D 4.<.p.) N N 8 a f a h a g N g +.1.V.+.N 8 g N N V N a a g N X.F.y.g.V q g 8 V N S V g g g g V V C j g a a g s s g a g g g V S D D V t N S } o.+.) N Z N X.t.m.V.O.a g g o.D.1.C.=.w W N J.}.F.g.v a a g N N N V a a a a j C N g g d d h.{.{.|.P a a a h h j j g 8 q g C C D V g N g N V D D V g w g S } } ) h a k K }.}.}.{.a C a g C D C V g g N V S D V g g g g N g g g g g q Z ) _ _ N g g g g j C C g a a g h C C C g a a g S S S V h g h C D S ) S N q g h k k C j g g N V D D C g g a g V Z Z h a a a N A A A V g g S :.M.M.5.N g g N ' ] _ A a % a g V N C g g g a Y d.d.c.g g g Z :.;.1.&.8 g g g C j C g a 8 8 a a s a a a a a j j j a a 8 % 8 s k a a a 8 a g C C j a a 8 8 a a h a 8 8 8 a h C C k g a a g k C C g 8 a a a g g h 9 8 v n h.b.b.h.d k g j f.h.f.q.6 V q g V V j g 8 w g } +.&.@.N 8 g g g h h a & & & ",
"% + % a k G k s a 8 a g C L k a a % , s k k f a , % a f m k f 8 a g S } O. .C a q Z D.(.-X!.S 0 Z u ~.].].T.t t t A | %.@.D N q 8 j L E k g a a % a k k f a % , j K T R C g g N y.F.|.{.q.a a , j C C C a a a a k k k h a 6 g D ].).'.4.Z q 8 k G h C g g g S Y.$X;XY.} 8 g V j I V a g N ) G.jXiXaXf.I I V w.....U N g g N I ..#.L g a a k k k k g g a g D @.#.=._ u Z ` 4.A.S.p.` S ( 1.H.=X=XJ.N N N p.3X$X;X2.# |  .gXSXDXMXT d 8 N I K V K g a a s C K I V g j P uXZXZXZXb.a a g h V V j j g N V @.%.@.D V N N A _ %.@.S t w V X.1.y.O.S g g  .DXJXJXbXj g N S @.@.@.D N N N D @.%.| S N N N N V V g g N N ] 6.5.5.] Z N N C E W W C g g g C W ! W V g g N o.o.%._ V N A _ %.2.,.) Z t N C E W U C g g V U #.@.W C g g j D _ ] V g 8 q A 6.' ' D N N ) Z.&X&XP._ N N Z 5.5.5.' g 8 g B A Z j , j V  .@XMXMXlXq.} ` >.-X%X>XU.N a g V W W ! k g 8 8 f f z s g a a d v K K L a 8 % 8 h k k a a 8 a k ! $.E j a 8 8 a h k g 8 8 a h E ~ ~ E k a a h E ~ W C a a a j j L L k a , n dXGXGXdXP % j q.cXmXmXiXN N g S  ...I V g q N 2.I.R.z.U q g N C W E C a 8 8 ",
"% + + a x E G k a 8 a k E W C g a , a f k x k a a , a k E E k 8 6 g S  .O. .j 8 g S D.(.;X).| N ] ( ].'.].~.u Z t Z ' %.%.D t 6 g j E W C g a a 8 s G E k s , a j P R R k a 8 g q.|.+XXXh.a a s C C L C g a a a k k k k a 8 h | '.:X>Xa.N q q E W G E N q N _ ).<X<X!.I 6 a V j K j a a g ] %XVXiXaXq.a g 8  ...w...V g g V T w.r.U g 8 a k k k C h 8 8 g U #.e.3._ u u ` C.L./.A.` Z Z y.;X3X3XH.N q q C.2X=X3XI.6 I S gXSXNXcXr.k 8 V  .Y I K g a a h C U I K 8 , , eXGXGXAXb.a a g h C K v j g t A _ %.%.D N N N D @.*.%.D t w N X.t.y.>.S g V  .NXHXHXbXK K N S | %.| S N t t S @.&.| S N q N V C C j g N N _ 5.M.M.:.( Z N D W ! W C g a g C E W E j a g N o.:.%._ N q N D 2.4.2.) N q g B W W L g 8 q V W *.=.W V g a g C o.' V g 8 g _ 5.6.' D g 0 ) Q.8X8X]._ q q Z 5.5.K.%.N 8 a V A D ! d d a j |.cXvXnXO.N q ` %X%X;XR.j 8 8 V ! ! ! C h 8 8 f x z h g a a j v P T ! g a 8 9 z G k g 8 % 8 k ~ $.W k a a a g k k h a 8 8 h E $.$.E g % 8 h W $.$.C a 8 a j K R L g % d n pXZXAXdXP d I q.pXcXcXeXg V 0 V  .q...V w 0 N u./.OXE.| q q N U #.#.C g 6 6 ",
"% + % a k G k k 8 8 a h C L C h 8 , a f k k f a a , a f x x s % % a V }  .I s % 8 N Z.!.).T.U q Z ( P.].W.K.Z t t N _ @.@.D N 0 a j C L C g a a a g k k k s a a j K L L k a a g q.E.XX|.q.a a a C C C C g a a a k k k h g 8 g D ].'.'.5.Z q q G G G E g q t D T.;X;XK.D % , d j j j s a q S H.zXaXsXd.I V V &.w.&.U V g g V W $.#.L g a a g k k k g 8 8 g D #.*.%.D N u ] 4.A.U.a.S t t >.(.=X;XF.V 8 q p.;X=X;Xu.8 V  .gXDXFXMX! g 8 g U ..I N g a s f C C D C k L v uXGXGXZXb.a a w h C j v j g N S D @.@.D N g N D W @.W V q 8 B } <.y.O.V a a q.mXPXPXNXY j N V U | U V N g g V U #.U V N g g j j j j g g N ) %.5.5.o.Z N q D W W E C g g g C L E L j g g N | o.o.D N g N V &.&.o.) N g g k W U C g 8 g V W =.#.W V g g h C | _ j a % g D %.%.| V a 8 S K.&X&XT.D g g N 2.5.4.%.N 8 8 g A C d 1 1 d Y @XnXMXxXd.S N ;.%X1X>XI.j a 8 j ! W W k g 8 8 f x f f a a a a j L R E h 9 9 w z z k h 8 8 a k W ~ W C a a a g h k g a 8 a h E $.~ C g 6 8 k W $.~ C g 8 8 g C L C a % , P dXGXPXnXP , a q.pXbXmXuXV 8 8 g U T U C 9 6 N u.U.`.U.| q q N D #.W C g 8 8 ",
"% % % % a s g a 8 8 a g j j g a % % a s s s a a , % % a f f a + @ & g C C f < @ @ 8 %.a.A.i.s O 8 g #.k.j.W g % a g C C k k a a a g g j k g a a a a h h f s a 8 k k k k s s g g | i.3.*.D 6 a % h g h g a a a a d s a g a 8 8 N a.a.Z.| N N 8 g h h C 8 q N N &.Z.a.#.f @ + , a d f < & s B ,.!.R.x.@.N q q N D H C h w w h C G C j g a a a s h h a a g g V D D C j g g V U @.=.W g w q _ i.p.p.#.g % g &.A.S.A.N % a j f.}.#Xn.j s 8 w A F B g a a a f f z F F - a a g.@X#X|.P g w w z B h g a g g j C C C j k a g k k f k s a s s C D _ D k d > P g.+X,XF.v , d j C L C j j g j j j L k k a a g a d d d d a a N S | D D g g a C C C C j g g g C C C C j h h N S I I C g a a k U U K N g a s f C C V g g g V C U C C V g g h V V h a , , a h V D C d , , j @.i.3.*.j a d a | | _ C a , > a h h 2 2 , > d r.g.c.c.T a q S 2.5.a.#.j j a a L C C h a 8 8 a g g a s a 8 a g k h h 9 9 r r r h h h 8 a a j C C k k a a a a a a a a g g g k C C k g 8 g h C E C h g 9 w h k k f s 9 % , g.|.#Xg., % , v g.n.n.h.a 8 & s f f f s = & g | &.w.&.S g g g V C C j a 8 a ",
"a 8 % % % % 8 8 8 8 a g g q 8 8 + % , a a % % % % % + % , a % O X @ & , , + X X 3 & q t t N O @ , a % a a + , , , , , , , , , , 8 a a a a a a 8 a a a a s a a % 9 9 & % % 8 8 q q N 0 q w 6 s 8 g g q a a a 8 % s a 8 a a 8 6 q N t N q g C 8 8 8 8 g % q B 0 N q q % @ @ @ a g a f & * & & q N g 6 q t 0 q w B w w w w w w w h 8 g g g a a a a a a g g N N g g , , , a a a a a & # 9 9 w B t N 8 , + d N t Z t a f a a g 8 a > , a g w w w w g 8 a a a 9 w p p 9 G % , a % j a g w w p h h g 8 a a a a a a a a a a a , , , , 1 , < 8 w w g , > > n % g V a d d , a d d a a a , d a , , , , , a g a a , 1 1 , , a g g g a a , a a a a a a g g g g g g g a a g g g g j d , , , a a a a a , , , , a g g g g g g g g g 8 8 g g g a g a , > > 1 a g q a , > > , g N g g , , , , N g N g , > > , a s @ 2 2 > a j a a , a + % h w N g a % j a % a 8 8 a 8 % % a a a a s 9 8 8 a s 8 8 9 9 9 9 9 8 a g % 8 a a 8 8 8 a a a a a 8 8 8 a 8 8 6 6 8 a 8 8 8 8 8 a a 8 8 6 9 9 8 8 8 & 9 9 z + d , , a O c O % > O > , + & $ @ + + > @ = $ 6 g g g g 8 6 g 6 8 8 8 % % % 8 ",
"% % % % % % 8 8 a g g g q q q q 8 % % % % % % % % % % + + % % & @ @ + % % < X X = l 0 t t 8 & @ , , , > > > , , , , > > > > , , % 8 8 8 a a a 8 a % % % % , % % 9 9 8 & & a a g V N 0 8 g h s # q g q 8 a a a a % % % 8 a a 8 8 q q q g g g a % % , a a a 8 8 g 8 a + * & w 0 t t N 9 & 3 2 a j g q q q q w w w w 9 9 w w w w 8 8 a g g a a a a 8 8 g h g g g a , , , , a a a < # < & l k a N g % a d a U t ( Z g a s f B N a d d a g N q N B V g a a a a 8 w w 8 8 a g g g g g h h w w w w w w C g g j a a k a d a , , , , , , , , 8 w w g , > , d g V N q f s a j a , a a , d a a , , , a a j N N q j a a v , a a a a , , > 1 a g g g a g g g g a a a a g g g N j g a a a a , a a a a a , , , a g g g g g a a 8 a g g g g g g g a > > > , a g q a , > > , a q N g % d 1 a V 0 q q , > > > a s l @ & f g g g a a % s s # & f f a a a a a a 8 6 8 a a j j a K d % 9 h & 8 a # h h 8 w 8 g j a K 8 a a a a a a a a a a 8 8 8 8 8 8 8 8 8 6 6 a g 8 8 8 8 8 6 8 8 9 9 8 8 6 6 7 r 7 8 a a a a 7 = & & , , , , & = = @ O + > + @ * % 8 8 8 8 % 8 % % % % % + + + + ",
"% % % , a a a 8 8 8 q g N N g 8 8 % % , a a % % % % % % % % % % @ @ a a a a 2 @ O # t Z Z N % O , , , , , , , , , , , , , , , , a a g g a a a a a a a a a , % % g a a s & < a a # N g V a 6 9 6 g N g g g a a a a a a a a a a g g g g g a a , , , , s < a a a a a d < + w w u ` ] ( q # O O % a N N N g g g N N g g q q w w w 8 h g a a a a a a a a g g g g N g a , , a a g a s < < + + % V N g K % , % S Z ` ( B 8 8 w N N g a d a a 8 N N g 8 j a a a a g g g g a g h z z h g g g g g h B w w q q g V N N j 8 g g a a d d a a , a g N A N s a O a V S Z N 6 # 8 N N N N g 6 a g g j j g g a g t ( Z S V 8 a % g g j j , , > 1 a g g g g a g g g g g g g a g g N N N g a a g g N V N g a a , a g g g g g g g g g g g g g g g N N g , , , a g N N N a , , a g N q 8 O , , a S N ` Z a , , a g h 9 # 6 8 0 N S N V % % & + + < % 8 8 8 8 9 s a a a a a % a j d a k # 8 % a g 8 g a a 6 % K j d , a a a a g g a a a a 8 a a a a 8 8 8 a a a g g g 8 8 8 8 8 8 8 8 6 8 a g g a w 9 $ 9 a a s s r = = 9 8 a % % & $ = & % , , % $ $ + 8 a a % % % % % % % % % + + O ",
", % , s k k k h 8 8 8 V @.@.D g 8 % % s k k s % + % , a s a a % % 8 N S I V a a h N 4.C.D.A.V g 8 g j C C k a 8 8 a h k k g 8 8 a j C C k g a a a a k k f a % a j j j k s & a a g.uXwXeXh.a h 9 B V D C g a a a s s f s a a a h C L C k a , , , s s s s , a a a d j a a N u -.G.G.G.4.V a d v Y I I V j g j K U U V j g g g g j L C a a a g h h h a 8 8 g V S C h a a g N V N j j j d v q.pXtXpX+XN N N y.J.J.G.[ F 0 t ` X.D F j a v Y eXtXeX@Xv d , a j V V j j j g h F F k g g g j K Y U C N Z ( :.K.P.K.3.S N N N V C C N g g N ) X.X.} V h B S F.J.S.Z.y y Z +.a.s.a.o.Z Z N S | @.D V N Z -.Q.Q.Q.Z.) N S S _ | U j a , a g h j h g a a a h j C j g a g V S.!.Y.i.S t N S o.+.o.) t 0 w C C C V g g a g j g j h g 8 g V D _ _ V g a g S ' ' _ V g g h A _ ' _ N N N S Z.Z.Z.:.N 8 a N D A H A Z Z ( <.S.A.i.N 6 a a a g a s 8 8 8 9 h h k g a j j g.uXwXuXr.+ % d j L K K a j j Y eXeXtX{.a 8 a g k k k g a 8 a g k k g a 8 8 a h C C k g a 8 8 a h h g a 8 a j K P K g 8 & 8 s j j f 9 7 7 w N V N g w 7 w w g j g g 8 8 % , s s s < % + < < < 2 & @ + O ",
", % % d E W E C a 8 g W k.x.*.U 8 % , f E E k , + % a s k s a a 8 g S }  .I j a g t S.H.%X.XS g q g D W @.D g 8 q g C H H B q 6 g C ! ! E k a 8 a g G G k a , a j K L x c & , d {.CXbXZXb.a s w D | @.W N a a a k k k f a a g k ! #.! L d , , d f f s a , a a s j v j g N ( N.*X<X<XS.Z q j I q.....I N g V Y r.r. .K j g j L U ! L g a a j k k G h 8 8 g D U W C B q N S S U I V j d j f.DXSXJXpXV g t V.;X=X;X3.J y Z 1.t.3.=.k , j 9.bXCXmXdXv d a s j K K K j d g k H Q C j j j K Y q.r.W S ( ( 4.'.5X>XK.( u N Z D D D V N g V O.y.y.>._ B A ) ;X;X;X%X/ y u 4.Y./.~.4.( u Z | 3.3.%._ Z ( -.*X1X&X_.` t Z ) %.3.&.D g a a j V C C h g a a h C C C g a g S !.-X:XL.' u Z o.a.Z.Z.:.Z t B H W W U V g 8 g C C C C g g g D @.5.5.U N g N o.M.M.5._ N g N _ 6.6.' N N N X._.&X&XS.) q g D ' 6._ S Z u ] D.%X).oXo.q g V j C j h 9 8 8 s k G G g a a , #XMXnXMXv.% , v K 0.q.Y a j a q.cXbXDXeXj a 8 g C G C k a 8 a j L E k a 8 8 g C W W C g a 8 a h C C g 8 a g K 9.9.9.j 8 & a k L b f s 7 w A _ o.| S y 0 w N I I S N q 8 8 a f k f s % O < < < < < % + O ",
"% % % s E ! W L a 8 g @.x.x.i.@.8 % a k E E k a + % a f f f s a 8 g S }  .I j a q t G.(.-X.XS q g N W #.@.D N q q N D H H C w 0 g C $.$.! k a 8 a k G G k a , a j K L x c & , d b.ZXCXHX{.a h z W @.=.W N a 8 a f f k f a a s k $.$.#.L j a a a f f f a 8 8 s g V K g g N ( m.<X<X<XS.Z 8 g I q.w...I j g V  .r.r.q.K j a j R ! #.L g a a k k G E k 8 8 N U @.@.W C t t Z ) | | K V d j f.HXJXPXkXV 8 0 V.3X3X3X%.F q Z >.t.3.$.k % d q.CXDXZXcXv d a f C I Y K j j g C W W U V j j K  .w.w...S ( / <.'.8X8XP.Z Z N Z D D D V N q V >.V.V.>._ y t ) ;X3X<X-X/ i u 4.~.oX'.p.( u Z o.3.i.&._ A ( -.*X1X1X'.` t Z ] 2.a.i.@.V g a C C C C j g g g h C C C g a g S ).>X>XQ.` u Z ' K.L.Z.5.Z t B H @.@.U V g 8 g j C L C h g g D &.3.5.| N g Z :.Z.L.4.| g g N [ 6.6._ q g q ) '.1X8XQ.` t g D 6.%.D V N t ( V.-X-X>XO.q g g j N j k s a a s k G E L a a a @XIXMXIXv., , v K 0.q.P j V g h.mXZXGXeXa 8 8 g C G C k a a a k E W C g 8 8 g C ~ ~ C g 8 8 g C E C g 6 a g K 9.q.9.j 8 8 s j L L v f s w A | +.+.| N 0 q V I  .I V q 6 8 a k k k s % + < s s s s < % O ",
"% % % s k E L C 8 8 g D &.e.&.U 8 % a f k x k a % % a s s s a a 8 a N S I K s a g N A.!.(.T.D g a g C E U C g q g N C H D B g q g j W ! E k a 8 a s k k f a , a j j k x l & , d b.cXbXbXg.a h z H @.@.D h a a a s f f s a a s k ! ! W C g a a a s s f a 8 8 w g V V g a g N 1.$X%X-XZ.S g N } u.#.U V g g N U r.r.T j a a g C E W C g a g k k k C h g a N C U U E C N q N S D U V j a v h.bXDXHXuXI g g C.-X;X.X| h q N O.>.#.W k a j q.cXmXmXaXv s s f k C K V j g g V L U L V g g V I  ...I S ` ( <.~.>X>XK.S N N N V C C h g 8 N } <.<.o.A q N } XX;X;X(._ u Z 4.I./.R.p.) Z Z _ %.&.@.D V Z -.%X&X:XT.| S S S | 2.3.@.V g q j C C C j g g g h j C j g a g V :X>X:XL.o.N N S 4.p.2.| N 0 w B W @.U V g a g j k k V g g g D @.&.%.V g a N o.4.M.2.D g 8 g A [ %.@.g j g } ~.&X&XZ.) g g N [ [ W K N N ) t.(././.| q q g g N g d a a a s k C C L g g j  XMXnXMXr., a d v T T L j j g w.xXnXmXuXa 8 8 g k k k g a a a k L L k g a a g C E E C g 6 8 g k C C g 6 8 g V Y Y P k 8 8 a k v v j s a 8 N I  . .S g 6 8 g V I K N 8 # 8 a g k h a % % a a a a a , % + ",
"% % % , a k j g 8 8 g N V S Z N 8 % % a s s a , % % % , , a a < & & a g j s < @ $ w D o.o.| s + , a s k k a a % a a g h h g a 8 g g h j g a a 8 a a a s s a , 8 g g 9 9 & & , a d h.h.h.V 6 9 6 B V V N g a a a a a s s a a a a C V V g g g a a a g g g 8 8 w w q B s $ & a S +.O.o.C 8 8 8 N S D B h q q g V C C C g 8 8 h h h j g g g a a s h g g g g g g V V j g g g g g B k a < % % j h.g.g.r.s , % | X.,.+.k s , g S I v f s % a V d.g.d.r.j s s r z h B h h g g h V V N g g q g V S S V N Z N S +.&.*.| g g g a a s d s < < s A A [ A h a 8 j O.>.,.X.N q q S } } ..V g g g N C C C k g g Z :.O.&.U g j a g V D D V g g g g h h h g g g g g g g g g a g N } X.X.} N g N V I S S N g a < a C V N g g a a a j g g g g g N D D j d , , d V ) ) S d , > , g h N g , , , g +.>.,.X.N a , a B k 1 > , a g S +.o.&.N 8 a a s h a a , , a a k g g g a 8 a I r.h.r.! a a a k E h k 9 8 6 g k.i.w.Y 8 8 a a g g a a a a a a g k j a a 8 8 g k k g 8 8 8 g g g g 8 6 7 9 g j j j s 9 9 9 a d d a a a % a d j d a % & & & < a s s = $ 8 a a a a a 8 8 a a a a a a 8 8 ",
"% , , , , a a a 8 q q q 0 0 0 8 % % % % % % , % , % % % % % , , 2 % % , a , 2 @ & s 0 t q 8 9 # , , , , , , % % 8 8 8 a a 8 8 a g a 8 6 8 8 8 a a a 8 8 a a a 8 g 8 8 & & & a a a g g a g g s # q q 8 8 a a a a a , , , a s , a 8 g g g g g g g 8 g g g q 8 8 w 6 h < @ 2 < 8 g q 8 % % s 8 8 N w 8 8 8 a a 8 q g g g g h h w q q g g g g a a a 8 a g g g g g g a a a g g g 8 8 s s f j j 8 g 8 % s 1 , V 6 t q a , , a g a , , a 8 h N 8 8 g 8 g h w w w w w w s h g g N g g g q w q N N V N g N g N N g g g a j d a a a a a , < 9 w y y w a , , j N Z Z t j j g V j g j g a j a a a a a a a a q N g j , % j d g g N g g a a g g g g g a g g g g g g g g g g g g g g g a a a g g g g g a a < , a g g g g g g a g a a 8 8 g g g g a , , 1 d g g q 8 , , , , % 8 a a , 1 , % V g t g a , , , 8 % 2 ; > 1 a g g 8 a % % < % , s , , , , , a a a , , a a j a % g % a % a O , f O 9 9 9 w w q q # g 8 % a a a a a a a a 8 8 a a a a a 8 8 8 g g a 8 a a a g 8 8 8 8 7 7 8 a a 8 9 9 7 8 8 a , a 8 8 % , , , , , & & & # O O % & = $ 8 q g a 8 8 a a a a a 8 a 8 8 8 ",
"w 8 8 % , , a 8 8 0 w w q 0 q 8 , , , + , d a a % , , , + + > > , j a a a % a a 8 8 q 0 8 6 9 8 g a a a a a a a 8 8 8 8 8 w w w q g g a a a g g q q q q q a a a a 8 8 8 9 9 a g V j K g g j a 8 a a a , , , , , , , , , , , , , g N g g j g N g V q N g g s O , 8 , > > > , g g g g , > , , g g a a > > > , a g C g a , a g t t N q N g g g 8 q g 8 q g g g q g a a a g g g g g q q C N Z ` ( ( N 8 C g 8 V N N g g g g N N g g q q N g g g g q g w y y N N N g s s g q N S q g g N N S Z t S g d , a a g g a a d a N q t S g V h g u u u A g a a g Z Z Z N g a j j j j j j g g g g g g a a 8 a q 8 a a < < a g N N N q N h % h N N N N g g g g g g q t g N q g a j j a a g g g S N N N g k O , a g g g g g g g q q 8 a g g g a a a a a a a a g g g g a a a a a a a a a a a a g g a a a a a a % , > > , a a a a , , , > , , , , > ; > > > , , , , , , a a g g g g a , , > > > , < s h g g g g a , , , , , , a a a 8 8 8 a a a a , j 8 q N q a , , a g N q q g a 6 8 q g 8 6 6 8 8 8 8 8 a a 8 8 a a , , , , , , 8 8 8 8 8 8 & 8 q N N q g g 8 a a % % % 8 8 8 6 ",
"w 8 % % , , , 8 6 w w w y g g a + % , j K I V 8 8 a a a d 1 1 , , , a K P T j % a a g g N g w w g a g g a a a a 8 8 8 g q w w q q g h g a a a g q N A V N g a a g g g s s a g g g Y  .q.j a % & g g k a , , , , j j j j a , , d N S S N g g V } S N S N q g % k g a 1 1 > , g S S V d 1 , a g N j d , > > , j D g N g j j V ] ` X.S N q g g N N C g g g g g N h a a a g N V S S D N Z t Z ;.` ` S 8 g q q V V V N g q g N V V N N t g g j j h g w y u N A V V j , , g ) X.X.S 8 q q t X.;.X.X.q 1 , a V S V j d a q ] ` -.;.Z g g g Z A ( A g a 8 g Z ( ( N a a g j N V N N g g g g h h g g a g g h k k f a g N Z X.-.` S q % a N Z Z N g 8 8 8 g N N N N N g g j V C j g g N S ) Z } Z N h a k k j g g g g N V V V g g g g g a d d g a a a g j j g g g g g g h g g a a a a g g g a a a a a a a s , , , a g a a , , , , , a d a > > > , 1 d d d , + % % g S S S N 8 % , 1 > > , % % 8 q A S S N a , , d j j j g q q w w g g g a , a q ) _ S V % % 6 N ) ] S N 8 8 8 g g g 8 8 8 a 8 a g g g a 8 a a a a , , , , 8 8 q q q 8 8 8 q ) ) S V g % % a a a a 8 8 8 8 ",
"8 % % , , , , , 6 8 w h B C h g g N V z.T.T.U.u t t Z | #.#.C g j v {.dXbXmXg.a 8 g V I T U h 8 a a k k k d a % a a g h g a a 8 g g k f k a a a g D @.@.C s , , j j C k h s a g g.iXuXsXd.j a s S _ D C h a g g I | | I N q g D /.^..X,.Z Z Z 4.'.~.~.:.t N q B B B k a , g S o.:.| V d a g A ' _ D j a , g D %.3.a.N g N ) ).>XoXI.S N S V e.#.$.C g g g N V C k s a g N I | @.D g N N >.(.%X-Xz.V N V U r.*.*.D V N V | &.&.@.V g g g j C k h g w y B D U I v a j } (.2XrX7Xd.V S X.J.;XH.F.S g g S ' 5.%.D g V N Z.%X%X%Xp.N a a N A A V a a d C %.5.3.%.C h g N D U D N g g g g j C h g g g S ) | U V N N Z ;.(.(.(.A.Z V V | &.u.$.L j g j h V C V N g g N o.o.o.| Z t Z :.).).).4.Z N q h C L C h g g V D @.@.D h g a k k L j j g a g j L L C h g g g C C C k g a a g k C k k a a a a g k s s a g g N V V g a a a g N V V f a 8 a h V C C C h q V %.a.D.Z.A q 8 a d d d g h h B [ 3.K.Z.2.q 8 g V | +.o.S q q w N B j g g j N ] L.~.L.z.N g N :.L.~.T.2.N 8 8 a k k h a 8 8 a s k k h a % 8 a a d f 1 , % 8 a g h h s & 8 Z 2.K.K.i.I a a a d k k h 8 8 6 ",
"# + % , , d , s & 8 9 k G E k h N N Z ].5X>X5Xu u u ( 5.l.k.@.g a , {.CXSXJX|.% 8 h L ..q.q.C 8 % s f x x f a % , a f k k s , % a k k b f d a a j U =.$.E d , , j C E G f s a g g.nXlXMXg.a a h D o.%.@.B g g N o.,.2.o.Z q B @.>X-X8XC.u ( ( L.>X>X&X:.u Z B H [ H C a 8 g _ 5.5.2.U j a g _ %.:.o.D g 8 N ' 5.:.4.t N Z ] 1X7X7XOXS N N g k.#.j.W g q g N D U k s 8 g V | &.e.#.N q t ,.).;X>XU.N q g U e.e.e.S N g V | *.*.#.C g 8 a j R L C g w w C W #.T K d j S 3XzXzXlXy.N Z X.H.2X2X(.) N g _ 5.M.4.| N N t Q.1X8X1XZ.q , 1 k C D C a , , j @.5.5.%.V a q B Q =.H B g q g h C C C h g g S X.+.+.I V N ( ;.<X<X1XG.Z S N | &.i.r.L a a a j C D D N g g N 2.2.5.2.) t ( 4.&X:X>X4.u Z N H W W U V g g C @.*.*.@.V a a j L R L j a a g C U ! U j g g h C E L C k a a k C L L k a a a g k k k h w q N A D D h h 8 w g C D D B w 0 q A _ [ H B w 6 u 5.L.Q.Q._ A q g C C C C y q i ' P.~.L.Z.Z t t ) 2.a.*.| t q w B C k j g g 0 ` _.&X'.U.g q t :.Q.&X&Xa.q 8 , s k x k s % a a f k x k s % % , f f c 2 < + % a k F x s & % N p.R.`.c.U 8 % a k E E k a 8 6 ",
"O % % , d d d s % & 9 s x E k j q t Z ].5X5X5X/ u u ] 5.l.l.@.N a a #XSXSXJX|., 9 w C #.r...C 8 & & c c z s a % % a f f f d , % a d f b f 1 , , h L $.$.E d , , j C E G f a a g E.nXnXMXg.a a a D | %.@.B g g N o.2.2.o.Z q B @.>X-X8Xa.u Z Z L.>X>X&X:.u Z u J H H F s 8 g _ 5.5.2.@.j 8 g D %.6.o.S g q N ' 5.:.4.t N N ) >X7X7XOXS N N g k.$.j.W g q g V D U C s 8 g V | &.e.=.N g q ,.).>X>XU.h q g W j.e.e.S N g N | &.&.#.C a a a j R L k a a a k W ! R v d d V 3XVXvXlXy.N N X.H.2X3X^.S N N _ 5.M.4.| N N t L.8X8X>XZ.q 1 > f C L C d , , j @.5.5.%.C q w F Q =.Q B w q g h C C V j g g S X.+.+.I V N ( ;.<X<X1XG.Z S N | *.i.r.L a , a j C D C g g a N 4.4.2.2.) t ( 4.&X>X>X4.u N g C W W U j g g V W *.*.@.V a a j L U L j g a g C E W U j g g h C L L C j g g j C L L C g a a g j k z h w q N A D D B h 9 8 h B D _ A y w y A [ [ [ A w 0 y 6.L.Q.L._ N q N V C C C N t i { P.].!.Z.Z t t _ 2.i.*.| q q g h k k d d a 0 ] ~.'.'.U.g q q :.~.&X'.i.q % , s f k k s % , < f k k f s % + < f c c < > + % s k z x s & + N p.R.W.c.U 8 % a k L E k a 6 6 ",
"+ + % , a d a , % % & s x k d g g N Z z.].W.~.( t t Z ' &.%.D g a j #XbXCXZXb.a 9 w B U U U j 8 & & l c c s a < % , s d d a , , a a d f d , , , g C W W k d , , a j C k s a a g E.sXsXsXr.j a a V D D C h g g g U } | } N q g D oX/.oXu.N t t %.`.].~.o.t N 8 w B B f s % a A ' 6.@.C s a g A ' ' _ V g a g _ %.5.3.g a g S '.5XOXU.S N V V j.$.$.C g g g N V C k s a g V I | @.D g N N &./.-X:Xz.V N V U e.*.*.D V N V | &.&.#.h a a a j L j j a a a k L R K v d , N }.iXkXiXd.N N } F.XX^.F.S g N Z ' 5.2.D g V N Z.].'.].u.j 1 > d k C k d , d C @.5.5.%.D h w B J J J B w w g h j V h g g g S S U U C j N Z ;.(.(.(.A.Z V N | &.e.#.L j a j h V C N g a a g o.o.o.| A t Z o.`.'.`.2.N g 8 g C L C g g g N D @.@.U V g a g C K V j g a g j C L C h g g g V C C k g g g g k C C j g a a g h h c s 8 w g N B B h s 9 8 g B D D B w w y A A A A J h w A =.l.Z.a.A g 0 g g j g h B N B { k.K.Z.a.N q N V | #.U V 8 8 a s f d 1 1 d g S K.U.U.x.j a g o.K.~.P.*.g % % s f f f < % , , s f k f , % % < s f < 2 > + & 9 h h h s % + N &.z.x.e.U a a a s k k f 8 6 6 ",
"% % % % a a a a % % & < s s a a + % 6 g D U C 8 q q g g j g a a + % d P 9.q.j % 8 9 w h h g g a 8 & 8 8 a a a < % , , , , , , a a a a , , , , a a g j j g a , , a g a a a a a a a Y  . .j a % , a j d a , , , a j j N N g a < d V V S g 8 a g C V N V g 8 g % s h s , , > , N A S V a , , a h V Z N g a , d V D q g , d d j S S | S g q q g V C C g g g g g N N a a g g N V V V C g N q N X.` ` S 6 g 8 8 C V N g q q g N N N g g a a g j N g g g a a s k j j d > + a S q.y.I + % 8 g } X.} U 8 a a N A S S j d , % S ) | | a , 1 1 a N N j a , , a N ( ( Z g 8 g g B B B B g g g g h h g g a g g h k f s s g g Z X.` ` S g % a N N V g g a 8 8 N N N N g g a g V S S V g g g N V N I g a d , f s g g g g g g N C V N g g g g g N N g g g a g g h g g g g g g h g g g a a g g g h g a a a g g a < 2 & , a g a a f < % & 8 g g g a 9 w g g N N h 8 % + % g N V N s , % a a a a a % + % 8 B V S N a a a a j j d a , , , , , 1 1 > . , 8 V U C b > + O g D D V d + % , a a a , , , , , a a s a , % 8 , , < < > < % & 8 w w 8 & + + 8 N V V N a + % , , a a a 8 8 % ",
"% % + % 8 8 8 6 % % & & % % 8 a , , a O % a + a % % , , + + , , % h 8 % a % a g 8 8 9 6 6 6 8 a a 8 8 8 8 a a a a a % % % , a a 8 8 a , , , a a 8 q q g a a , , 8 8 6 % % , , a a a g 8 g j a a , , , > > > , , a a a a a , , , a j a a a , d a a 8 g a a d + s 8 8 , > , , g N N g , , , a g g N g a , 1 a g g V a , > > d a g N g N g g g 8 g a 8 q g N g g g a a g g g g g g 8 8 N g N ) Z Z N 8 C g 8 V g g N g g g N N N g a a g N N N N g g g a a a g g a 2 < j g N S 8 s s s g S N q C a d a g g N g a , 1 , g q g j > 1 1 a g N N N a , a g N A Z N g a g g g g g g g g g g g g g g a a 8 8 < 2 2 2 a g N N Z q g h % f N N N g g g g g N N t t g g a a g N j a a a a a j % a a d d > , , a 8 8 a g g g g g g g g g g q g g N g g a a a a a g g g g g g a a a a a a a a g a a a a a a % < < , , a a a a s < % % 8 a g g 8 a a g g g a a a < < , , a a a , > , a a , , , , , % , , a a 8 % , , , , , , , , , % , , , , > ; 1 % a g , 1 > ; > a g 8 % , > % % a a % % % a a 8 8 8 a a 8 8 a 8 % % % % , , 8 8 q 0 6 % % % 8 g q 8 a a % a % % % % % 8 8 % ",
"& < g g q q q q g 8 & & 8 a g a , > + > , , , , , , , > > > > > % 8 9 9 9 & 8 8 g g j j a a a g a j j 8 g g 8 g a a a a a 8 8 8 q q 8 8 a a a q q N N q g 8 % a g g 8 a , a , a a g g g a a , , , , , , , , , , a a j j , , , , a g a % % , a , a a a a a , , a 8 a % > d a q Z Z N j d , d N q t V % d d , g V 8 a > > > , a a N N N g g g g g 8 a g g q q g g a a a g g g N g 8 a a g N N Z Z N g g g g g g g g g N N N g g g a 6 N t ) Z ) Z g g g g g g g g < & V N Z S g h h h g Z N N D 8 , , g N N g , > > , g g j j , > C N ( / / Z q g a g N N N N a a K a j j a j a g g g g g g g a 8 8 a s < < 2 a a N t Z N q s < k N Z Z N N g N N N Z Z Z t t g g g g g a a , , , a a a a d , , , a a a a a g g g g V g 8 g g q N V g N V N g g 8 a a 8 a a a g g g g g a a g g g g a 8 a g g g a , , , a V j 8 a a a a 8 g N q N g + g g g V a % d % d , a d 8 a > > , a a j j a , , > , , , a a % + > > > , , , a h 6 8 g q N a > > , a a , > ; ; > , a 8 , > > , 8 8 8 8 8 8 8 g 6 h g q g 8 g q 8 8 a , , a a g 8 0 N q q g 8 q q 8 6 6 8 a a + % % % + + % 8 ",
"O O 6 N _ o.' _ q 8 8 8 s g g g , > > , , , , , , , , , d d , , % 8 s r r r 9 8 8 % 9.h.h.h.a % j K q.q.q...g g g g g h h g 8 8 q N N V j g g q q _ [ _ D g % 8 g g g s s , , a a g g g a a a a a a d d s , a g U U ..I a % a a I I C g a s d a j g g g g a s C D | j d j N ) <.;.O.I j a g ) :.:.2.g a a % N D D C d > > d V S S N g g g g h k h g g g g N S D C g g g g N V V g g a g N S ` ) V h g g g h h h g g g N V D S C C g Z Z ,.:.:.( N g g g g N N N 9 9 N X.1.<.o.V 8 q t ` X.X.| 8 a a N S _ D k 1 , , g N V j , , g u -.5.M.:.t g g g N A A g a 1 K Y f.g.d.Y a j g g h h g g a a g h k f f s a g S o.,.,.S a a a A ] _ _ S N N Z _ %.6.' A N N V I } I V k s s a j j j g a a a a k j g g a a g j V C N g g N V @.o.| S N q g g h k k g a g g N N V h g a a g h C C h g a g h C C k g 8 g N I | ..#.N g 0 N +.o.O.U 8 g q N  .} I V a a a d K g j , , % g S ..o.L a , % , a a g g % < , , d d a g 8 q 0 A %.o.o.N , > a g g a , > > , g V V j 1 , a 8 a g g g g q g q D W @.D q N q g g j k j a g g N ) | _ N 8 8 8 g g g g a a % % % a a % % % 8 ",
"& 8 g @.K.~.P.3.q 8 8 a g h N g a a a s h h g a a a g C E E C g a a s k x z r 9 j v wXbXAXcXr.g g Y @XuXuXOXg g g N C C C B w 8 g D @.@.E C g q A 3.U.U.k.D a h N V C k d , , , a g g h g a a a V V C C g g N S T.~.].K._ t B B &.2.@.C g a g g S S S Z N q B @.5.4.| V N Z 1._._.:XS.} N S M.&X&X'.&.N g N %.5.5.%.C % , j | &.#.U N g g j C E E C g g N D @.=.W C g g V I U E C h a g C ..+.2.D h a a h C C C g g g V U #.&.#.h 8 Z o.).:X>X~.Z N g g k C S A B D ( G.<X;X).o.Z ( -.G.%X!.L.) q N ( :.4.2.U j a g Z S ) S g g N ] Q.&X1X_.| N g j S _ D C d 1 v f.pXcXnXg.j a g h C C h g a g V S I L C j N Z >.(.%X-XA.S V g _ 2.2.&._ Z Z Z 5.B.P.5._ N N N ,.<.2.| C g g g V V S N N g N C L L C j a a g C W W C g N N @.U.`. Xi.N N V C ~ W G k g g j V U U C h g g h C E W C g g g C W #.*.S S Z ) C.:XoX].o.Z Z ` !.%X(.K.S Z Z X.F.Y.T.+.N g g S ..} | k g g _ Z.'.].P.N q 8 8 h C D V 8 8 a h C U S A t u / B.&X&XQ.:.a a g N A N a , , a V ' %.@.C a a g g V C C g g q q =.k.l.*.N q t N S U U C g g V i.U.`.`.*.g g 8 g k C k h 8 % % a s f a 8 % % ",
"% + q %.T.'.Q.3.0 8 & a f h N g 8 8 a h h h h g 8 g N W =.=.U h a a d v R E z 9 a 1 yXCXHXmX9.8 S  .uXaXaX6Xg g g N D E E C w 8 g D =.*.@.C g q N l.].W.l.C 8 g N C L L d , , , s k C h g a a a V D U D N t A _ '.:X>X~.] t y A 3.5.&.D q q g N D S ) Z N t A %.5.Z.2.S t Z m.*X*X1X!.) N Z M.8X1X>X4.N q N 5.5.B.5.C 8 8 V %.3.i.! V a g C E W W C g q V @.*.k.$.E g g V U @.W E k a a C #.u.u.U k 8 8 h C D C V g g V @.r.e.e.j 8 N o.:X1X8X'.Z g g g C D D S q Z u H.0X2X>X<.Z ( ;.H.<X;X!.) N N ' 5.M.5.| j g N Z ] ' ) N g t ] _.1X8X&X%.g g V D @.@.C f d P {.mXmXFX|.j V g V C C h g a g S } } I I V V S 1.;X;X2XH.N S 8 | 2.i.*.| N N Z l.T.].l._ N g N 4.C.4.%.A q q g D D ) Z N N A D W W W j a a j L #.W C N N N *.OXOX6Xz.g g g g ~ ~ E C g g N U U W U V g g V U W @.D h g g C #.e.&.Z Z Z ( S.7X8X5X:.u u ` %X1X:XT.S t u ;.(..X.Xp.S N N | u.&.*.h 8 0 ] Q.>X>X'.A q 8 8 B H _ A w 9 w C U | _ D i u / B.9X1X%X1.g a N Z _ D h a a g D 6.5.3.D a 8 g h C C C N g g N *.U.U.l.V q t N U #.! L g g q z.OX6X6Xi.8 8 a g k G C h a % a a f s s 8 % % ",
"+ O 6 @.T.'.~.l.0 6 & < s g g g 8 8 8 h h h g g q q N D &.@.D g a a d v P L z 9 k v tXZXJXmXr.j N Y uXaXxX6Xg g g j C E L C a 8 q D @.$.W C g q N k.W.U.k.C 8 g h C L k d , , , s h C h g a a a V D D C N t Z ] ~.&X:XQ.] t N A 3.3.*.D g g h N D S S Z t t A =.5.4.&.S N Z <.%X%X1XA.S S ) 4.&X&X>X4.N q Z 5.5.3.5.D g g S 2.5.e.W g 8 g C E W W C q 8 N W &.e.$.L g g V U W W ^ k , a V ..+.&.U h 8 8 h C C C V g g V W $.*.$.k 8 N o.&X>X>X~.S g a s k L D D q ) ( G.0X<X>X4.Z Z ` G.%X%XS.S N N ' 6.4.5.D g g g Z ] ] _ V g N ] L.>X8X'.| g g j D | @.C d 1 v b.MXMXIX|.V j g N C C h g g g S S I I V V V S 1.;X;X2XS.Z I g } %.*.&.D N N N l.U.[.l.@.N h V p.Z.a.&.D g g h C S ) Z Z t A D W W W j a a g L ! W C N N N %.`.`.5Xz.N N N h ~ Q E k g g g D U W U N g g N U W W C g q g C @.*.=.N S Z ( L.7X>X5Xo.( u ` _.1X).U.D N Z ;.!.)./.u.Z N q D u.&.&.C g t ' G.&X&X~.A q 8 8 B H D A 0 w q V D | D Z t u / B.&X&X_.<.q a N A _ A h a 8 g A %.5.5.C 8 8 a g C C C g g N V e.x.v.l.A q q N D W W L g 8 0 l.`.5X4Xi.8 a a s h k k f 8 % & a f f s & % % ",
"> + 8 D 5.K.4.%.8 % + > < a g g 6 6 6 8 h h a 8 8 8 g C U D V q 8 a d v v j s 8 % a {.wXtX@Xj 8 g V  XOXOXU.8 a a g j k k d a 8 a h C L C g a q N &.k.*.@.j a s g B C k 1 , , , a h h h g a a a g j V j g q N Z Z.Z.L.a.) t B B _ | U k a a s g g N N N N q B H _ %.U g g g ` Z.S.L.&.j N S o.P.Z.L.| N j N %.:.' _ V a a V _ _ W C g 8 8 g k C G h g g N D | @.E C g g N S D C k f % 8 g V I I C g a a h C C j N g g N C W U L d % N ) L.!._.S.N g , , f k C N h D ( V.H.G.S.| N S ` t.D.C.a.N g g Z ' o.| V a a g N Z Z S j a N S 4.S.L.a.V a a g V D D N a , d q.eX6XuXd.g g g h C C h g g g N V V j j j g N X.S.S.H.p.N V g V U U U j g g N _ %.*.@.C g d j | O.o.D h a a a j V N N N t N V C L C j a a g k C C V g g t _ K.a.K.2.N V C k W G k g a a g V V D C h g g h C C C C g q g V C E W C V N Z u.T.K.U.S Z N ( Z.S.Z.k.N N Z ` A.A.a.o.q q 8 N @.S U k k N ) 4.D.Z.4.N a % & f h B N 8 8 8 g V C N g N N t %.P.K.C.) a a g N V N s , % a N _ ' _ g % % , a k j k g 8 g g W #.=.@.g q q g B C k k a 8 g #.i.k.x.U a g a a a s a a 8 % % & a a < % % % ",
". . O 8 t u t 0 8 % + ; > , a a % + + % < < , % , , a a g g a 8 % & a a a a a 8 f + a % , a % j j g g # % a % j a a a a , , , , a a a a a a a a 6 q q q g % O O g g a a , , , , , s h g 8 a a a , , d a , , a g N N N N 8 % % + g g a , + > > > , , a g a 8 8 f g g , > , , g _ Z V a + O , g N t S a , , % g N N g , > > a N N g g a a a a g g h g g g N N N V N g g g N V N h h s < a a N V V g g g g g h g g g g g g N V V j d , g t ] / ( t g a , , 1 d h g $ $ q Z ] S N 8 % 8 q S S N C % 1 a g N V j a , , , g N g g , , , 6 N Z S S % % a g N Z A N a a K j K 8 8 8 8 N q g g h h g g g g g f s < < a g N S ( Z N 6 + O g j j j a a g j g N V g g a , , j N j a , > > > , a a g g g g g g h j g a a a g g V g g N N Z _ Z Z N t q 8 8 8 s a a a g g N g g g g g g g g g h g g g g g g a , + + % a g j g g % % # 8 V Z S s O 8 8 8 V N g V 8 a % a k a d . > % q u ( Z N g , > . > < a 8 % & , , , 1 , , O % O a g g j % , > a g g a , > > , a g B g , + , , , , a a a 8 a % g g g g 8 g q 8 a a a < a 8 8 8 q g q % # + % & < < a 8 8 8 % % 8 8 & % % % ",
"2 > , 8 q t t g 8 % + + > , a a % + O + + , % % , , a 8 8 8 8 6 % & & % , % % % 8 8 h h a a 8 8 6 N V N N j 8 a a , % % % , , , a 8 % % % , a a 8 g 8 8 h k , a 8 8 8 , , , , a a g q q 8 8 a a a , , , , a 8 8 g 8 q g g k f , a a a , > 2 > > , % a a a , % < 8 a + > 1 a g Z N N d 1 , d C g q N , d v a N V g g , > > d g N q N g h g s g g q g h h g g t q q g g N N N g g a a a a g g N N q 8 g g g g q 8 g g g g g g N g 1 , V g ) u ) S g , , , , , g a 3 < V N Z S a s & f h V q q C , 1 , a q g a a 1 1 , a g g a , , v j V V V V g b a g N N V N g g V g V N N U N 0 q q q g g g g g g g g s < > < g A u Z t g k < s g g g a a a g V N Z N N g k s , a a a , , , , 1 , , a a a a a 8 q g g a a a g g 8 N N q N N t t ) N N S N h g a 8 8 a g g g g g q q g g g g q q g g g g g g q 6 f 2 , a j g a a 8 a k a g N g C s % k j g N g g g % s < a s % , ; > d g N N Z N a , > ; + + % % % < , , , , , , , d , s a % g , > > , a a a > ; > > , 8 8 % + + , , , , , a a a g % g a 8 a 8 h w 8 8 % % % 8 8 B q q g q 8 a 8 8 8 8 a a a 8 8 6 8 8 8 % % & < ",
"% % % 8 8 8 8 8 8 % + % a a 8 % % < < , % + % % % g a 0 t t t N 8 % % % % a 8 8 8 8 q q q q q q Z t u t t Z q g g a a , , , , , % a g a a % 8 a 8 a a a 8 a a a 8 8 a a 8 a g N t Z t t g 8 a 8 g N N g 8 8 8 g g g g g g a a a g g a a a , , % a g g g g a a a 8 g a % a N Z ( ( Z g a j g q C a , , 1 , a N Z t N , d d a Z u / ( q 8 k a N N N N g g g N Z N g a g g N N N g g g a g g N Z N g w q q g g g g g g g g g N N N a , a g N N N N a a d d d j j j , , g Z ( Z j a a a g N Z N N g g g g N V N g a g g g g N N g g j j I Y j j j a h h g g N g h N S Z ` ) t Z t Z N N g g g g q q Z Z t N , + f a Z / ] Z g h 8 g S S N V a C q Z ( ( ` ` Z N k a j g a a a a j N j g V q q V 8 g Z N g % s k 0 Z t Z N q g g t Z N N N g g g g a a a g g g g N N t N g g g g N N t N g a a q t N k % 8 g t N Z N g q g g 8 g N q 8 8 q g g N N g g g a a g g g g , > , g g N N g g a , a a a g g 8 8 a g g g g q 8 8 8 a g N N 8 > . , g g g a + > , a a a a , , % a a a 8 8 8 a a a 8 8 8 a a g 6 6 8 a a a w w w w g g 8 6 6 9 N q q N q 0 q 0 8 8 8 8 6 % 8 s ",
"8 8 8 a h k k k 8 % 8 a g h g a % + , < , , , , 8 a S *.a.a.` t 8 % , , a a a 8 8 a g h N g g t u ( 4.A.A.i.Z q g g g a s a , , a a j j g a a a a a a a a a a a a a g g g g N Z ,.C.C.p.| g g a ) X.} I N g g h N N N j g a a a N N j j a a a a g N N N g g g h N D k a g S ` M.G.D.+.V g g N D C j d d j V :.Z.L.p.V a a V a.Q.G.Z.Z g k a N N A A g g g N Z Z g g g g N V V N j g g g N S S S B h g g N N N h g a a g N S ) I j a a j I I I V a a a j j j j j , a N ) ` ` V j a g V _ ' } S V N g N V V V N g g N V D D D V N V K g.+X+X{. .g g N V C V N h N ( ;.S.!.F.<.Z N S S | | D C N N ` D.S.T.e.j d 8 <.G.G.Z.o.g g N V.}.^.R.U N q Z D.J.G.V.` N g 8 V j g g g g N S +.+.u.) N V g D o.X.U a s h N 5.:.4.| g g g S | I U V g g h h g h g g g g g N N Z Z g a a g D _ ' _ N g g N _ o.U g g N ) 4.L.K.u.S N g g C D N h g g g N N V V h g w g g N N N , , , a N V V V j j a a g g h g a a g V _ _ D S g g g V U | _ V < + N  .O.O.U a % , g V V V s a 8 g k C C C g a 8 g h h h h g 8 8 g j K K V h w w B D I V g 9 w t ` A.K.a.S t 0 N B G G k a 8 8 ",
"8 % 8 g G E E G 8 8 8 g k C k s % % , , f f s a g 8 U z.`.].Z.N a < < s f f s a 8 a h k C k g g t ` L.].`.K.S g g g j k f d , % a k C C k g a a a a h h g a a a h h f k h g t N 4.~.'./.*.q a g | +.w.#.C a 8 g C V S N g a , a C L C j a , a k C C B N g g g k B D k a g N :.%X&X:Xs.V a g A @.| U N g g ] S.&X&X~.o.N N ` Q.&X&X~.S a d a C C D A g a a j S D j g g g N V S C C g a g C U o.o.C h g g N V C k f a a h C | o.| k , % g U #.| D g g a g k C V j , , N ) o.o.I j , a V ' %.o.S N g g j C L C V g g h C W @.W C g N V uXFXLXMXd.8 g N C L C C h y ( C.:X>X>XA.N Z Z | *.e.#.D N N ;.%X<X>XY.I j S N.*X<X1XA.N S Z (.kXlXaXz.g N ) !.;X2X(.X.t g s C C C j g g V | I.I.Y.O.N g g @.+.2.r.d , a V l.K.K.&.j a g D *.&.#.U g g g h g k h g g g g V D _ D a , , k @.*.3.@.h a a C %.*.$.C g N ) K.OXoX`.+.g g N U @.D C h g g N S D D h s 8 8 h B V N a , , g V U | U j d d d d k k h , , g C @.&.#.U a 8 a C #.*.@.D 9 & S p.S.S.*.h 6 8 V _ %.@.B 8 6 g C E W E h 6 8 g C E E C g 8 8 s K Y Y K g 9 7 C T q.Y j a 8 t a.>X`.`.S q g N D =.~ G a % # ",
"8 % % g E Q W G 8 8 a h C C k s % % % s f k s a k % U c.W.OXU.N a < s f f f s , % a f k G k g g t ` T.OX`.z.S g g g j k k d , % a k C L C k a a a g k k h a a 8 h f z x k h t t 2./.>XOXu.q 8 g | &.e.$.k 8 6 8 B C D V g a < s L L L j a , a k C C C h g a s k C C k a g g ,.:X>X>XK.N 8 g D %.%.| S g t ` Q.8X8X&X2.S N ` %X8X1X~.V % 1 d L C D B g a a k D U k f g g N V U U C k a a C @.#.#.L k g g V U C C f < 9 f H =.%.@.h % 8 g | &.@.D B g a h C C V j , , g _ 2.&.U j , a N [ %.&.I g a a j C L C k g 8 g C ~ $.W C g S g uXmXFXMXr.N g B C L L C h N Z A.>X>X5XK.t Z Z | u.i.&.D N N ;.<X1X<X^.} N X.N.<X<X2XF.N } Z H.zXaXaXk.# q N /.>X2X-Xo.q g h G D C C h g V | R.E.R.+.N g g W 2.u.r.d , a N l.L.K.w.j a a C *.r.#.U g 8 g h h G k g a g g V D @.C s , , k @.3.3.@.a % a C %.*.$.L g q Z K.>XOXOX&.q g N D @.W G k 8 g V U U L k s & & s C C V f < 8 g D @.#.W g a , 1 f f f f , , a C #.*.#.U a % a b #.r.@.C 9 8 _ Z.!.!.i.B 8 0 A o.2.%.J w 6 a C W $.W h 6 8 g C W W C g 8 % s v 9.9.K g 6 6 C ..r.9.v a 8 N K.6X].5XZ q V N C $.$.G a % # ",
"a 8 8 h E Q E k a 8 a s k k h a , % % a f k a % a % U U.W.W.l.q a , a f f f a % % , f k k f s a 8 S U.OXW.x.V q g g h k g a a , a g k C k g a 8 a g h k g a 8 8 8 s f z h h q t a.].'.`.3.g h 8 U #.$.Q x 9 8 s g N C N g 8 a f C L b d , , a d k V N g a a s d C C k d j N :._.&X:Xz.N 8 g A ' %.| S N t ] L.&X8X'.&.N N ` %X8X&X~.V , d d C V C h a , , d V C k s a g j V U L G h 8 a k E | U L j a g N C C k f s & s G =.@.H f f h C _ @.@.@.B h 9 h C C C h , , g D %.&.U j d s B [ %.&.U N a a s k k k h a a g C E W W C h N N aXFXLXMXw.q B B V V V V h B t p.oX>X6XI.t Z S | e.e.#.D N Z ;.<X<X1XoXO.g Z m.<X<X1XF.V } Z .XlXsXaXv.C U S ~..X>X^.o.g g 8 C C B B h 8 h U z.K.I.+.S V g U &.&.0.d , d N 3.a.s.#.j d j C #.*.#.U g g h C C C k g g g g V D D k s , , k W =.*.H s , f E =.=.! L N N ) K.OX].`.| g g N V @.W G f 8 8 j C C C k s % & s k C k s 8 8 g C W W C a , , , < < f f , , a C ! $.W L a , a b ! $.W B l 9 S p.S.L.3.B 9 9 t _ %.%.F w g g C E ~ W C 8 8 g C C C C g 8 a d v P P K g 8 8 k ! 0.R j s a N a.5X`.5XD q g N C ~ ~ G f 8 & ",
"a 8 % a k k k s a 8 8 a s s a 8 a % 8 , a a a % g 6 V #.@.#.| g 8 8 a a s s a % % , < s s , , a q N &.w.$.#.g g g g a a a a a a a a g k g g a 8 a a g g a a 8 8 % 8 s s s w q t _ 4.2.4.| q h 8 V V C x s 8 8 8 w N N N g 8 8 s j j j d , , a a h h N g a a a s C N a a j N ) 4.M.Z.#.g a a N _ D V j g g Z 6.L.Z.a.S N g Z M.G.M.4.g , 1 1 k N V h a , , d j j f a a g g V V V C g 8 a h C S V j j a g N V V g f s 9 s B H D C g h h V A S D D B h w h k C V h < , g Z ) } V j s a g A _ _ S j a a a s k k s a a g h C C C C h D 8 h.g.g.g.N C B B j j j j h V N X.a.a.s.&.t S N S | | D V g Z ` G.G.G.a.S g N -.G.m.D.+.g V N O.F.u.c.L 8 g q 2.t.D.t.S N f 8 B N h h h 8 g D &.o.+.S N V g N | I L 1 d k q _ ' +.I g d a g D U U V g g g k h h h g g g g N N N g , , , d C D D V a , s k C D C j g N N %.a.2.*.V g g g g D C k a 8 a g N V h h s & & s h h g s 8 9 w B C C h a , , < < s s s , , , a C C V g , , , d b L V g s # N X.;.O.D 8 9 9 q N S D h 8 a g g h C C h a a g g h h g g a , a d j j j a 8 8 s k k k a , a q ) i.o.i.q 0 q g h C k h a 8 8 ",
"% % % % 8 8 % % a % % % a a a % 8 % 8 % 8 8 8 8 g a 8 8 8 a g g q 8 q g g g a a a , , , , , , , g 8 g 8 8 g 8 g a a a a a a a a a a a a a a a a 8 a a a 8 8 8 8 8 8 s a 8 8 q N q Z N Z N 8 g 8 a g g a 8 8 9 q g N N N t q 8 8 g g g a a a a a g N N g a a a s 8 g a , a g t ( u Z g 8 a g N D g a , , a g N Z t N a d j q ( / / ) 8 , 1 , j V N g a a d d g g s a a g N V V V g g a g h N N N g g g N N V N g g h 8 g g V Z N q g g N N N Z N N h h w g g N g s a N Z ( S N j a a t Z ( ( N g g a a a d g a a g g g g N V j g N 8 K K V K g g B N g g j g g N S t Z t t N t S N N V V N N g N Z ` / ( N 8 j V t / Z N a % a g N S N I a h g N N Z ) S q g k g N N g g g g g N V N S N g V a g N N j , s k q ( ( ] N a a a g g g g g g g g g a g g g g g g g g g g , , , a g N N g a , , a g N g a g N q t Z t N q a g 8 g N 8 a , a a g N g g g a 8 8 8 a g g a & 8 8 g N g g a , , , a a g a % % % a g g 8 8 , , , , a a g a @ O a N N N g + < & a g g g a % 8 8 8 8 8 8 8 8 8 8 8 8 8 8 8 a % % 8 8 8 8 a a 8 8 9 8 9 8 8 8 g q t 0 q 6 8 q 8 8 8 8 8 % % % ",
"a 8 8 % % % % % a % + % 8 a a 8 8 8 8 8 8 8 a a % a a a g a % 8 q q q q g g g 8 a a 8 % % % , , a 8 a a a j 8 a a a a a a a a a a a 8 8 a a a a 8 8 8 8 8 8 8 a a a a a 8 8 8 g N S N V N 8 g 8 g g a a a h g g N N Z N N q q 8 q g g a g g g g g N N N g g a a 8 j d , d g t u u u g a d a q N g , > , 1 a g q g j > 1 d g ) ( / ` g a d % g N N N g d d d g q g a g g N S S N q g g g N N N N g g N N Z N N N N g g g N N Z Z g g N N Z Z Z Z N g g g q q g g k g N Z ( Z N j j g Z ( ( ( Z N j a a a g j g g g g g N N N N N N g K K j N g q w g g j j g g g S q A Z N S N N N N N N N N N V Z ( / ] N 8 k a A Z S g , > % h N N N N 8 C 8 V N N Z N q g k a N j g j j g g g N g S q q V g N N N j a k C t ] / ( N g j j N g g g N g g j g a 8 8 g g g g q q g g a , , a g t N N j d d a g N a 8 g C N t N N q q g g a g N 6 8 a g g N N g q g a a a 8 8 q a % % 8 a q q q q g a a a g N N q a a a a g g q 8 a a , a a a g g > > g N g g a , , , a g g a , % a a 8 8 6 8 8 a 8 8 8 8 8 8 8 8 a a g g g g g g g q 8 8 w g a 8 g 0 t V g q g 8 a 8 6 % 8 a & % ",
"% % % , a a % % % % % % % % , a a 8 6 8 g g a 6 8 8 a a a a a 8 t t t N A V g q 8 8 8 a a a % % a a a a a a a a a a a a a a a a a a a a a 8 a a 8 a g g a 8 8 a a a a , , a a g V S } S g g % 8 g g a 8 a g g N Z Z ( ) t q N q V g N 8 g g 8 V S Z Z t q N 8 a 8 a a , , a N Z u N g a , a N V g d 1 > > a g g V j , , , g Z ] ` ` g g a a V N _ Z q 8 a g N g V g g N S S ) ) } 0 N N N S N Z V g N t Z X.( S S q V q } } } S N g g S S ) S S N g g g g g g g j 8 Z ` ` ` S g N I u ( ` ` ` N g g g g j N N N N N V S S S S S N 0 N V K K g g h g g j j j g g g N N N N N N N q N N N S V g N N | ( ( D 8 a a N A C k 2 2 & 8 N S V j g a g g N g N N g g 8 a j Y K j j j g j N N N N g h h B t Z g a g q u ` ] ` ` q N 8 N N g g g g g g g g g g g g g g g g N N a d d j } t ( S 8 d d a S Z g a 8 q t N t N g g g g g g g g a 8 g q N } S N S 8 g g g N q g , , % a g N g g g g g N Z ( ( u g a g g N N N g 8 8 % % 8 g N g ,   N I S } V , , + a N N N j % 8 8 a a a a a a 8 8 a a a a 8 8 a V V j V N N N N V N g N g # N q g g g q 8 8 8 a 8 8 % % % % + ",
"% % % a s s a a % % , a a a a a a a g C W W C g 8 a g C E L k g q Z %.P.[.z._ 6 q q g g g a a , , , a s s a a 8 a a g g g g a a a a g k g a a 8 a k G G k a 8 8 a a d a a a j j d.OX,XOXq.j a g N V V V g g N ) K.L.Y.Z.) N N N @.| @.V N V N 2.T.L.P.%.N N q h h j d , , a Z _ o.| L k a a D @.U L d , , a N N N g 1 , a U Z._.Q.Z.Z g g h %.' 6._ N q g j S S C N N S >.C.F.^.A.S N N S o.X.o.D q N Z ,.~.Y.Y.o.t S I ^.,X3X,XI N S O.E..XoXR.N g g g j V V N V N ` D.(.(.^.y.g S X.L.:X%XF.} N j V K I I S V g S +.A.E.A.X.N B y U  .q. .g B w g N V V V g g g N N V V V N N N U @.#.#.U g N S a.Z.L.3.C g h S _ | U f 2 s h D | | U C g g g g V C V g 8 g V eXtXtX|.P a , 8 V V N N N h k B ' %.U C h t ] S._._.A.V V q B B B j g g g h C C @.U C h g h C C D S a , a I /.:X.XF.I j j g ) S L j g g N V D D C h g g C C U U L g N N ,..X.X.Xu.N g N S | } I d 1 , a V D D S N N N o.L._.Q.P.V g N D @.%.[ C g g g j C C D B a % q.-X2X2XoXI g 8 S +.u.u...a 8 a g k k k a a a g k L C k g a # I sXaXaX,XN 6 0 i.@X@XeXg.8 q g V U U C g 8 8 8 a a s s , % O ",
"% % % a s f f s , % , s f k s a % a g E $.$.W h 6 8 h E ~ ^ k g t ( 5.T.9XW.%.0 q g h k k h a a % a s k k g a % a a g k k h a a a g k C k g a 8 g C ~ ~ E g 8 8 j j j j d d j j E.xXnXMXc.j a j N I U D g q N ) oX:X>X^.} t N D *.*.i.S N N S K.>X5X5X5.t q g C C L f 1 , a D %.3.*.W d , a D *.3.&.U g 8 g A A A C h a g o._.8X8X_.S 8 a C 3.5.5.6.N q g C D | D V N Z >.^.>X>X.X} N t S 2.u.i.%.N t Z Z.>X>X>Xp.Z S } ,XlXvXkXI 8 N } >X6XiXOXN g g j C K K K a g Z G.1X1X:XO.g N ` _.1X1X.X) V V I ..&...I S N } d.oX,XoXp.Z N y ..q.h.q.N g w B C K K V g g g N C C C C N g N @.e.e.e.U g N } ^.>X>XT.) N N ] X.O...v j N A @.&.e.*.E j g g h C W C g a h T cXmXZXuXY , v L C S V N g g F H 3.3.#.C g q :.&X8X8X/.S N q A A C C V g g N U #.e.#.D g g g C E S U j d a ..7XzXzX>XI a j N +.o.! b g g g V D W C g a a j W $.*.U g 8 q y.,XiX7XE.S q N U *.+.#.d , , a C U U D q 6 t o.~.>X&XQ.N g q D 3.l.=.D q a g C W W D N 8 8 X.0XVXzX7XS N t X.S.(./.5.q 8 a k E E C g a a g E ! ! E g a U q.mXCXCXcXV S S |.cXtXcXb.N D g C @.$.E g 8 % 8 s k k f < % + ",
"% % % a s f f f , % % s k k s a % % a E $.$.E g 6 8 a G ~ ^ k g t Z 2.P.].W.&.q q g h k k h a a % a h k k k a 8 a a h k k h a a a g k C k g a 8 g L ~ ~ E h 8 8 k j f f d d d j c.nXnXMXc.a % a j I U C g q N S oX:X>XY.) q N C *.*.e.S g g S K.oX>XOX2.q q g G C L b 1 , a D *.3.*.E d , a D *.5.5.D g q y A _ _ D h q t ' _.8X8X'.S 8 a C 3.4.M.6.N q g C U D C C g N O.^.>X>XoX} N q S 2.2.i.#.N t Z Z.>X>X>Xp.t N S ,XkXvXkXq.g S } 6XiXaX@XN g g j C K K K j S ( (.7X2X,Xq.I N X.&X1X2X;X) N j V U &.#.I V S } p.oX,XoXp.S u w ..q.h.w.g g w B C K K V h g g h C C C C g g g @.e.j.*.D g N ) H.1X1X!.` Z Z ` ;.<.O.K j N Z @.*.e.*.U j g g j C E C g a C  .cXmXFXuXv O a 8 V C D N g g k H 3.3.#.C g 0 :.&X1X8X).S g 8 D H C C V g g N U *.e.#.C g 8 g k H S I j d d q.7XzXzX:XI a g V &.%.U k g 8 g V D E C a % a j W $.$.! C N q p.7XiXiXR.V q N U &.&.w.d , % a j U D C g g N 2.'.>X>X_.N 8 q D 3.3.=.D 8 8 a C W W D N B N ;.jXVXVXzX] t t ;.S.%X).5.t 8 a C E E C g a 8 g L W W L g 8 8 Y mXHXSXkXq 0 6 I.bXhXbXf.8 6 8 k ! ~ E a 8 % % s k k s , % % ",
", % % , , s a a % % % a f f s % , , a k Q ~ G g g a a k E E k a q S &.K.W.x.W q 8 a a h f s a , a a a h h a a 8 8 a g h h g a 8 a g k k g a a a a k E E k a a a a s f f s , a a c.aXsXxXz.C k k j C C k g g N S R.R.E.s.S g g g W @.#.N g j N u.R./.`.%.g h a k j k f 1 > , C @.@.@.L d , a C %.%.o.D g q g A y A B g g N :.Q.*X%XK.S g g j %.5.5._ N a g j V V h k g N X.Y.oX.XI.S N N V @.@.&.D q N Z 2.].].'.a.S }  .@XpXkXiX .g I I OXOX6X`.N g g g j C j j j V Z L.:X).OXw.N g o._.&X:X).S N g g V U U S N q S u.R.oXY.O.N A N ..q.q...N B w B N V V N h g a g k C C j g a g W $.*.=.D N V S D.H._.Z.] S S ` ;.,. .K N Z ( _ @.#.| V g g g k k k g a g V I cXcXnX6XK a b a h C C N q 8 h G %.&.E b k g ` Q._.%XY.V j 8 B h h j j g g g S | #.@.C h g g C G D C a , a T OX7X,XY.V a a g | D L j g g N C C C G s a a k W @.W C k N N ,.>X,X>Xs.N g N C W U $.f a , a k C C h g g g ..K.].).T.N g g C [ @.@.D g a a k E W C h 8 N ;.7XjX2X8X) N t ` C.S.Z.5.t 8 a k k k k a a a s k E E k s a 8 r.dXZXZXpXI q q c.pXtXcXb.j g 8 k E W C s a a , s f f < % % , ",
", % % % % % % % % % % , s s , % , , % a h k g 8 g 8 8 a h k a 8 q N V U | U j a 8 a a a s < , , a 8 8 8 8 8 8 8 8 a a a a a a 8 a a a a a a a a a a h h g a a a a a s s < , , a 8 w.I e.g % % + g a a a a g g N o.} } } g a s , k h j a g j a I o.| +.N g g , s a g d , , , g A A N d , , a g S Z S V a a h y y B h a a N ] -.N.-.o.g a a a D Z _ A g a a a g g f f g g S X.O.o.o.q N N g V N C h a N N S 2.o.2.S 6 g 8 } +.O. .N 8 N q ,.O.,.S N g a s g k g a , a 0 ` :.X.+.g g q t ' -.;.>.q g a a g C C N g q N ) o.o.} S N B q V I I I g B w h h g g g g g a a k k k g g g g C D C D N g V g  .X.:.:.Z N N S ) } I j g N u A C S V N g g g k s a a a g N N  .O.q.K # + s 8 h h N g g a g k V D k a d g Z :.;.<.+.g j , h h a g g g g g N V V V N g g g h h g h , , , N u.,.<.o.g a a a C N j a a g g g g g k s , a g C N g 8 % g 8 N O.o.o.| 0 g g a h N C s a 8 a g g g a % % % a N I } S g a g g N N N h a % + , d k h a # 8 t <.1.;.&.8 q q Z X.) ) C 8 8 a a s a a a a 8 a a a s a a % % j P 9.q.K a a q g T d P , + a % a g g a a , a , , s , % % + , ",
", % + % % % % % % % % , , , % % , % % % % 8 6 6 8 8 6 6 % % % % g a 6 % % 8 a a % , , , , > > < 8 8 8 8 8 8 8 8 8 8 a a a a a a 8 a a a a a a a a a a a a a a a 8 9 & < & % , a 6 g g N g C k s a % % % & 8 8 8 q 8 q g 8 % < + , % a % a a + j g 6 q 8 8 a + s a a , > , , g N q q % , , , g g g g a , < < s 8 s < > > a g u / / Z 8 a , % N t u N g a , , a a < < s a q q q 0 V 6 g h 8 8 8 g a a C g N S t N @.B W q N g q 8 V g V N S N N q g a a a f s g a f a N ( u u N 6 C C t t u u ) g g s a s h h g g N g q 0 q q N N B 0 g g j N 8 h w w g g g g g g a a a a a a g g 8 h g q N q 0 g , j q t B q s a g g g a , < w w y g N N N N g g a a a a g g g N S N N g 8 9 l z 9 w g g g g a g 8 g , + , a t Z u Z N % d , s s a a g g g g N N g g g g q 8 8 8 9 s < f , a N 0 u N + , s % h g a a a g g g q 8 a , , , a g g a s & h g q N q N N 6 g 8 % s 8 8 6 8 8 8 w 9 8 & < , , , , a a a a a a 8 8 8 8 % , + + + + , , % < < 8 q g q 8 % % O a g 8 8 < + % 8 a a a a a a % % % % % % % % , s O O % % a f g # s & & & % s % % % % % % % % % % % % % % % % ",
"% % + + % % % % % , a , % % % , , , a a 8 8 8 a 8 q q q g g a a a 8 a a j j a % , , , , , , , , % 8 q t t q 8 8 a g q t t g a a % a a a a a a g g a 8 8 g g a 8 g g g a a a a g g q g 6 8 h 8 6 g g g g 8 8 a g N g N N a , , % a 8 a a d j % V V q N N g a O f g a , , , a g q N g a a a g N N N g a , , s s a < < > , a g Z ( ( Z g d d a V q t g g a , , a a % % s h N g g V V 6 h h g g q h a a N g N ) Z Z t 0 D q S N S S N N V S Z Z Z Z g 8 8 a g h h g f 6 V Z Z Z N g 6 D N ( ` ` ` Z h g k j j j g g N N N N N V N N A 0 g g g V q B w w N N N N g g g g g a a g g V g N g q N g q g a j 8 q B h k h h g a , , s w w t q t N N V g g a a a a g g g N S S N g k 9 8 h w w g g N g g g q V j % a j N Z ] Z g 8 b , % a h g g g g N N N N N g g g g a 8 h h , , % a D N Z S 8 k d 8 g q g a g g g g g a a a a a a g g h s + a g N N q V g 8 C s 6 f a 6 6 g N N g g g a , , , , a g g g k s a g g g 8 % , , , , , , , , . 2 d g I V + < < > a j a 8 < & % a a a g a a a a a a a a a a a + a 9 6 w z 6 % s - 9 r $ l & % g q 8 8 a a a % % % % % , , % + ",
"8 % % 8 a a a 8 a 8 8 a g g g a > + 8 q g g a a 8 g Z ` 1.;.S g g a a g g g a a 8 8 a a s s a a a g ` -.` ` a , a N -.-.-.( % d a a g a a a a g q N N N g a a g Z X.X.O.S g V g g g h g 8 8 w V ( ;.` } N V g g N V V N g a a a g g N g q q g N V V V N g g h C V V g 8 g g g V N N g q N N Z X.` >.N g g g j k k g a a g g N Z Z Z N g g g j j g g a a g N V N k s a a g j V N N g g g N V V V V N S Z ) >.X.X.` Z Z Z ` 1.-.X.S N g N S } } S N g g V C C V g h g N V S S S Z Z Z ( ;.m.m.m./ Z V g I Y q.V S N N V S I S A N N N N N V S N N N N A Z Z Z Z N N S } } S N N N N N S S N N N N g j N g g g g g V V I V g g N Z Z Z S S N N N g g j j j j j N V } } S V g g g N N N Z Z N N N N ) ` X.N 0 N t S S S V g a a g C V I V g N N N S S V N g g j j j V N g g a g N N N N g g N V S S V h g g g g h g 8 8 a g h V V j k a 8 g N N N N g a 8 8 g g g g q V g g  .q.q.Y g 8 g q _ ( ` ( q a a g g g g a 8 a a a a a a a O O N } ) ) B 9 & a j N N g 9 9 , , g g N g a , , a g N N N a 8 q t ] ] ( ) q g 8 q N N N g a 8 t ( ] ) ) N 8 6 8 8 a < & % % % ",
"% % % a a h g a 8 8 a g h k j a > > 8 g N N g a a V p.:X7X1XD.S g a h C C C g a 8 8 g g h h g a j I Z.Q.G.C.K d , } %X1X1XS.a , a g j k k a g g N V D D V g a g y.3XrXiXXXS g # g k x k h 8 w N (.<X;X/.} N 8 g I | | I N g g g N V V N g q N V W U D N g g V D | ..I N N g V @.&.*.| ) ) ` 4.~.~.).,.` S S #.$.W L j g g N V S S S N g g j j j j g g g N S S S C g a g g j C V S V N N I ..+.&.S N Z ` C.>X>X>X;.( ( X.G.1X<X<XX.S N S | &.&...N N N V U | D D y N N K Y  .} S Z ( X.H.;X;X$X1.t S f.eXpXiXd.N N Z I +.w.&.D N g N V D U D S N N Z S _ _ ) Z N Z ) o.2.o.) S N N S | | I V N N g j V V V j g g N S U I S V N N S _ | _ S N N N V C L V N j N V y.y.y...V V N C S D ) S N N D o.L.S.Y.>.Z S S &.&.#.U V g g C @...#.} V V V D #.#.U V g g j K K V V N g g g h V V N N g N S | &.@.C g g g N C C h g q g N C U U L d a g N N V V g a % 8 g j j g q g j q.wXbXmXcXK g V D P.S.H.D.N g g k C C C C 8 8 g g h h g a & % V O.>.<.@.w & a N I I V h 9 , , g N V h a , > a N A A N a 8 q ] S.(.(.A.A 8 g C o.+.+.S f 8 Z 4.L.T.z.| N g 8 a a s a & % + ",
"% % % < s f k f % 8 a g k C k d > > a g h h s a a 8 ,.:X7X7XXXI 8 g k E E C h a 8 a g h k k g a , V Q.%X%XA.j + a +.>XqX1XL.a , a g k b b d a a g D @.@.C g a a O.rXjXlXOXN N j k x x x h a 8 N G.2X7X>X| g 8 L #.$.*.@.C a a h C C V h g g h C $.$.W C g g C W $.e.@.N q q V *.#.*.| N t Z p.>X>X>X4.Z N N U #.j.! C g g N D D D V N g g j C L C j g g N V D D C k g g h V C C S N g N I w.i.i.*.S Z ) C.>X>X>XC.] Z ` S.2X<X;X} V N S &.i.i.*.N N N S @.#.@.H w w j I q.w.| D t t ` (.2X2X%X` ( N q.eXlXnXOXS N S ..d.z.i.[ t g j C U @.U V g N V | @.%.| S N Z ) 2.a.u.o.S N V U #.&.@.C g g g j L L L j g g N V | | U V N N U @.#.#.C g g h W W W U V N N S u.u.u.| j 8 8 g D | o.S g g L w./././.>.t t N @.i.*.@.C g g D #.w.w.U N N V U e.e.=.D g g j L U U C h g a g k C C j g g N U *.i.*.E g q g C C C C h 8 q V E #.$.^ f a a j V S U g a & < f k C V h g 8 Y eXFXFXMXK a g V P.~._.C.g a g k E W E C 8 8 a g C C k s < % V 2.A.K.*.h # 8 V U | U z & > , s N C k , > > , C D D C a % N _ Y.(.!.Z.V 8 8 C 3.s.u.U a % t 4.'.oXU.| 8 6 a a h f s & % + ",
"+ + % < s f f s % % a d f k k d 2 > < g h h s , , # 2.8XjXiX Xg 8 a k C E C h a 8 a g h k h g a a I ~.&X&XI.v > % #.8XqXqX~.a + a k k b k d a a g D =.@.C s , a } iXlXxX6Xj a % f k x k k a a g ^.7X7XOX| g 8 k ! $.$.W k a 9 s k C j g a a g j ! ! W C a a j U #.*.| g q 8 N #.*.e.@.Z N Z a.>X5X>Xp.S N N @.$.e.! C g g N C D C C h g g j C L C C h g j C C C C k g g g j V C V g q N I &.i.i.&.N N S A.,X6X6Xp.Z N ` Y.2X2X>X} V N S &.i.u.&.V N N S @.#.@.H h h j K 9.q.U C N A } XX2X,X).] Z t y.pXcXnXOXN N A | u.z.i._ q g j C U W L V g g V U #.#.U V N N _ &.i.*.@.V g N D @.$.W C g a j j L L C j g g j C U W U V g g L ! #.! C g a h E W W U V N N Z p.a.i.=.C s s h C U U V g a K r. X/./.+.N N V *.*.*.@.V q g C #.#.w.I g g g D *.7.=.G g g B H W L C g a 8 a k k k h g a N U *.j.e.E g q g C C C C h 8 8 V E $.$.^ f % 8 N V V C a a & < s k k j k j a 9.uXLXLXMXP d g C P.~._.C.N 8 8 h E W E k 8 8 8 g C C k a < % C 3.K.l.=.s # & h D @.W s + > > s k C k , > > , k C C k , , 8 D ~.:XoXK.B # # C *.a.*.D 8 # N a.OXOXU.| q 8 a a f h s & + + ",
"+ + + , < , , , % , , s f f s , : : % 8 w s < > f % %.].'.`.s.a 8 8 g h C k g a 8 8 g g h g a 8 j V Z.L.P.i.j , % U Q.&X_.4., , a s f f s , , 8 8 B H D h a , a I @XOX@XE.g , % s f f f f s a g S.).R.I.V a % a k E E C s & & s k j g a a a a g C C C j a a g C U @.D g g g h E @.#.U N N S +.T.Y.~.o.S N N U W W L j g g N V C k f a a g h C D C B g g g h k k k h a a g j C C V N g N I ....| U g N S ,./././.o.Z Z ) A.:X(.(.} N N V | &.&.| V N N V U | U C h h g v P Y L h g N S s.E.E.K._ u q w.,X@X,Xz.q N V S ..w.&.D g g a j C C V g g g j V U U V j g N D @.@.@.D N g h C G E G k g a k k k k k s a g k C C C C h h g j L U L k a a g C C H D N N N A o.&.&.W f 9 s f k C V j a a d L z.d.s.S N V V W W W E C g g C U T ..I g g g C =.W J F B h B F C C k a % % a f f s a 8 a g C E @.W C g q g V V h C g 8 q h C U E M , % a g N N h a a & & a s g g % a a K #XaXaXuXv a g h k.a.A.2.N a a h C E C h a 8 8 g k k g % > + B { 6.{ H 8 % % 8 B G F s > ; > < h h f , ; > , s h h g < > % N a.K.A.i.h & # f @.&.| V 9 8 N &.z.z.e.D a a 8 a s s a % + # ",
"+ + + , , < , % , , , , a a , > : : % 8 8 8 % + f + q Z u S I a 8 8 8 a g g g a 8 8 8 g g g 8 8 % 6 Z ( Z N % + a g ( / / t O d a a s < , % % 8 8 g N g 8 8 , a g Y N g j , a b , a s a s a a g Z ] N N 6 s a a a g g g a 8 & s s a a a a a a a a s g s a a a h g V g 8 h h a h h N q q N t N ) ) o.N q t q g g j g g g g g N g f a a 8 g N B A A N q q a s s s g g a a g g j N g g N N S S S N C g V N N ` Z Z ) N Z N S X.( ) S N g N S U S V N N N N V V V N k g j j v v j g g g g I I S | q A q g I N  .I N N N N V S S S N g a a g g g g g g g g j j g g g N N V C C N g g g g h h h h h a g g g a a a g g h h h h g g g g g j V j j a a g g h h B N N u A Z Z N g 9 % 8 8 g g j j j d d d V N V q 8 g 8 g h N B h g g N N N K j g g g q B B B B h B B B N j a a , , , a s a a 8 8 g h k C C h g g g g g g g g g g g h h g s , , a g g g g g a & & < a a a O a , , v Y K d d % a % V N ) Z g a 8 g h h g a g a 8 a g g a % + + h A u y h % , % 8 w N g , > > > , a g s , > > , a q q a , , < 8 V N t N 8 s # 8 N S N q 8 8 8 N N N g a % % % , a a & % % % ",
"% % % % , < , % , % % , , , a , ; ; % 8 8 8 % + O % N ( ( N q # a 8 8 8 8 a a a 8 8 8 8 a a 8 8 a 8 N t t N % , % 8 ( ] ] A O , a a a a , , a a g q q q q 8 a a a a j j g d O O a a a a a a g g ( ] t N 6 h 8 % a a a a a a & < 8 a a a g a a a a a a a g a g g 8 g 8 6 g a 8 a g h g g V N g Z Z } N N N g N g g a a g g g g g a a a q g N Z Z A u t g g a < , a g a g g g N g g g g N N g g g g q V N N ) Z S N q N N Z ) Z ) N g g g N N N g N N N N N N N N h g j j j j g g C C j V j g V 0 y B N I g V q t B N N N N N N N g g a a g g g g g g g g g g g g N N N N N N N N g g g g g g g g g g g g g g g h g g g g g g g g N N N N g g g g g g q g N N N N ) ) S N h h k h a g g j j a a a g g N a q C g g 8 8 8 g q q g g a g 8 8 g g 8 q w w g N N N g g g a g a a a a a a a a a a g g g g g g g g g g g a g g g a a g a , , a g N g g N g a a 8 8 a a a s k d a j j a a v d k 8 N q Z t g 8 8 8 8 a 8 8 a a a a a a a a , + q u i t q % , , a q g g a , , , a g g g , > , , q q q q , , O % S S S S 6 % % 6 N N t q 6 6 8 g 8 8 g a % a % , a % % % 6 8 ",
"% % % % , a a , a % % % 8 a a , > > % 8 q 8 % + , h N t u t g N g 8 8 8 a a a 8 a 8 8 8 8 a 8 8 a 6 N q 0 g % , s a t t u N O d 8 g g a a a a g N t t q q g a a C % N 8 # j % k s a a g g g g N Z ( u N 6 g 8 a g g g g g a a 8 8 8 8 a g g g a g g 8 a g g g g q h g a h a 8 h g g 8 g V g q N t ) N N N g g g g a a g g g g g a , a g N Z ( ( ( u Z N g g a a a a g g g h g g g N V N N N N N a 8 V N N S N N N g D N N Z Z S N g g N N N N g N N N N N g N N g j K K v j g g g g g V g g D g w J N S N V q B y B N N N N N N N g g g g g g g g g g g g g g g N N N N N N V V N g g g g g g g g g g g g g g g g g g N N N N N S S N N N V N N N g q q N N N N ) S N g g g g g g g N j g a a a a a N 8 8 h 8 g h g g g N N N g a g a 8 C j g g g g g N N N g g g g j j j a a a a a g a g g g g a g g g a a g h a g g g a 8 g g , a g N N N N N g g g a a a g g , s a a j a a j a 8 g 6 V t ( Z g g a a a g g g a a a a 8 8 g g s % q Z u u N 6 a a g N N g a , a a q t N N g a , a q t t q a , a 8 N t t N 8 h a g Z Z Z N q 8 % a 8 % a a % , , , 8 % % % 8 8 ",
"8 % % a G G C a 8 8 8 h C C j a + > a g N g a a a 8 Z :.4.p. .g g g g k C k g 8 8 a g C C k g 8 a a q g g a , , a h A A A g , , g V I I j g g N N 2.4.a.&.N g g j j j j g g a 8 g C W D N q q Z >.C.C.&.V 8 8 g N V S V g 8 g h C C C N g g g g C D D N q 8 g N N h h a 8 8 a h a g h h g N V U o.| S N g g N C h g g g g g g g k a g g t ` M.Z.Z.:.( Z N g g k V g g g N C C C C g q g V V V V g g g N S } } | N g N N S S ` } N g g g V V V N N N g N S | U S q N g g.{.{.@XI N N N K I I V N y w N V I I V y w y V I | | V N N N S D D D N N N V D U U D V N N ) u.2.s.S N N N V U U V N N N N S o.o.| S N N V S | | S N N Z ;.V.V.C.>.Z S N N V D C g g V I F.H.F.y.V g V g N V S N g 8 a g j j j g a 8 a h a g h g g g V D h k k g a a h C L V g N N V d.|.I. XN a I j L j C j g g g N S D C h a a g j j g j g a a g k j g k a j q S u.t.u.+.q g g g g g V h a 8 g V I I V g a g C _ %.' _ g 8 8 g k k g a a 8 8 g C C k a s % N y.1.<.i.8 8 % V }.f.+Xr.% a q o.4.4.4.V 8 g q 2.:.:.4.g j a g d.F.F.y.# g 8 U ,.<.<.` 0 6 8 a k d a , , , % , s a a 6 6 # ",
"8 6 6 h W ~ W C q 8 g B W @.D j , , g N V N g a a g o.L.)./.d.N a g C E E E k g a g C E W C h 8 8 a g B h s , % a h D [ D h , , g S | ..U N N N ) L.].OXU.| V j N D U U V g q g C W =.@.D t t Z S.(.oXE.o.g g V V I I V N g g g U W D C N q N C @.@.@.C q q N D C C C g 8 8 a h k k k g g j U #.e.#.D N g g C C C h g g g g j C L C N N ) 4.'.:X&XM.( Z Z N C L C h g g V D W W W N q g V V D C h a g N | +.&.&.V h g N D o.o.| N g g g V C V N N g N D #.&.#.| q N Y uXmXmXMXz.N N V I  .I S N y y N I  .U D y y B D ..&...S N N Z _ o.%.| S N N S | @.@.| S N S 2.`./.OX&.) S Z S o...| S V N S +.i.u.o.S Z S S | &.+.} S N Z H.<X1X;XD.( Z N S U U L j g j I rXgXjXXX .N N N I ) D N g q h k C C C j a a a h h k k h g g V D C C k s a g C U #.T j j j  .eXMXMXxXq.8 N g ....U V g g g V D U E C g a g C C C C g a a g C C C k a N N ,..X.X>Xp.N N g g S V S g a q N D @.@.@.N g g C *.i.5.%.g g a g k C h g a a a k E E C h f g } H.$X(.T.V g K f.bXNXBXOXj V Z Z.).&X'.&.N q N ~.&X&X~.S g a I ,XjXzXOXg g g *.Y.).!.,.N g 8 a b b f a , , , < f f a 8 6 6 ",
"8 6 8 B Q $.$.@.g q g D @.=.@.C , , g N S S j a % 6 ) !.>XoXd.g 8 g C W $.W C g a h E ~ $.W k 8 8 g h k k f , % 8 h H @.W C a % g S &.&...S N N Z L.oX5XT.I g 8 N W *.=.D g q N W =.*.=.D N N ( S.-X>XR.o.8 6 g I I I S N g g g @.@.@.D t q V D 3.*.@.D N g V D W E C g a a a h G C h g g j U r.k.*.U N g g C C C C g a a j C L C g g t Z p.:X1X1XS.( N Z S U E D V g g V W #.=.@.V g g N C D E k g g V | u.i.e.C h 8 g W *.&.| N g g g C C C C g g N | u.k.*.@.S V N @XmXBXMXs.t N S  . ...D N w B S  .....D B y F @.e.d.w.U N N Z | &.2.%.S N Z S @.&.&.@.S Z Z 2.oXOXOX,.S N S } +.&.+.I V N S 2.K.s.+.S S S } +.i.u.| S N Z G.<X2X1XD.( ] S | | @.U V j j I rXkXlX+X .g N I o.o.| A N q h C E U L j a a a h C C C h g g V C W G C g a g L ! K ..Y K j Y eXMXMXlXq.g S V ..U #.U N g N S | #.W L h g g C L E C j a a g C E W W g g N >..X.X.XA.Z t q N U S S g a q V @.*.*.*.C g q D i.P.l.3.N g g h C C h g a a g C W W E C & 6 } }.3X;XT.N # 8 q.kXNXBXOXg q t C.%X>X:XO.0 N S !._.).!.S N j ..,XlXlXOXV g % &./.:X^.>.q # a k L E k a , + , s f f g a 8 8 ",
"6 6 8 h W =.~ W q q q C @.@.U j , , g N D D j , a g o.T.'.'.d.g 8 g C W ~ E C g 8 g C W ~ E h 8 8 q h k k s , % 8 g H W E k , % g S | #.T V N N S K.'.>XT.| N g g U $.W C g q N D @.*.@.D t u Z S.).:XT.#.g 8 g V S S S N g g N @.@.@.D q q N D *.*.@.D N g V D W D C g g a a h G k g a a j U $.e.#.U g g g k C C C g a a j C L C N N N S p.'.>X:XC.] t Z S U U D V g g N D @.#.W V g g N V D E k g g V | w.e.*.C h 8 g H #.%.| g g g h C C C C N g N U *.i.&.| q N I ,XmXBXnXg.N N S I  .U D N w N V I  .U D A w F @.&.w.#.D N N Z _ %.&.| S N N S | @.@.| S N Z 4.oXoXOX2.) S S ) o.+.o.S N N S &.s.a.+.S N S S ..w.&.} N g Z H.1X2X1XD.( ( Z | U U U V j j I rXkXkX@X .g g V | | _ S N N h B E L C j g a g h C C k g g g N C E G C g g g C U L T K j a Y eXMXBXlXy.g N N ..#.U U N g N V U @.W C h g g k C L C j g g g C L E L a g N ,..X:X>Xa.Z N g N D V V a 8 q N H =.=.=.N g q C *.k.3.%.g g g g k k h g a a g C E E C k 8 g } H.;X;XU.C 8 j f.bXDXFXOXg g N Z.).&X'.+.q g S T.&X&XT.S a 8 T @XjXjXOXg % a r.R.oX/.,.g 8 a k k b f a % + , s f f g 8 8 8 ",
"6 6 6 g C F C h 8 8 8 g C C N a , > 8 g V C a % a 8 S 5.4.4...g 8 8 g C C C g 8 8 a g C C k g 8 8 8 a s s , , 8 8 g B C k s , 8 g N C L C g g q Z 3.5.i.*.V g a g j C C g g g g N D H H N q q N <.p.a.*.C g a h j N N N N g g h V D D V q q N C D D D V g g N N C V g g g a a g k g g a a j V U U L V g g g h h h h g g a g j j j g N N Z | p.p.p.X.Z N N V B C N N N N N C C D D N g g N N C C C g g N S | | U C h g g C D D S g a g g h j V V N g g V | @.| S q V K g.+X@XoX+.N N V S I V B h w g N K I I C A w B D U ..I V N N Z S _ | D N N N V S D D S V N Z } a.2.z.} S S V S D D S V N g V I | | S N N g g S U U N g g V ,.S.S.A.:.Z Z N V C C C h g h V F.}.XXs.I g V V V S S A N N g g V V N g a a a g k k g g g g N N V j h g g g j C C L g a a v g. XOXE.I g g g C D C j g g g N V V C k g a g g k j j g g g g g j k f , g g } p.C.A.o.N N g q C g g a , 8 w B H D D g a a g C U _ D g g g g g g g g a a g h C C h a & a S y.D.p.*.h # 8 I {.XXXX#.% g N 2.Z.Z.a.I g a N &.a.a.&.g a , K d.E.E.d.a % % E *.u.u.U 8 % 8 a s s s , % % , , s s a 8 8 8 ",
"% % % 8 a a 8 8 8 8 8 a g g a % > + % g g g , + % + q u t t g 8 a 8 8 a g a 8 8 8 8 8 a g g 8 8 q q 8 , , , , 8 8 q g g a , , a a g g s a a 8 q 0 A q t N 6 8 % a a a 8 a a a a 8 g h h g 8 q N Z Z N g 8 % % a a g g g g g g g g g g g g q g g g g g g g g g g N g q q g g g a a a a a g j j N j g g g g g g g g g g g a a d a 8 8 g g 8 g N N N N N N g g g h g g N N g g g g N g g N N h g g k g g g V V V N g g h g g g N N a a a g g h h h V N g N V S S N B C 8 a a a N 0 V N N N N g h w w g g V V N N B w y N V V V N N N N N N V V N g g N N j j g g g N t N q _ q q g N N N N g g g g N N N g N g g g g g j j g a g N 0 N t Z Z q D V g h N g g N N N N g N N a h C h g N N N N g g g N g g g g g g a g a a a g g N N g g g g g g g g a j g j j % , O # 6 q N C j g 8 g a a a g g g a g a a a a a a a a a g g g a a a s < g 8 q N t N Z 0 B g 6 a 8 a , , % 8 w w w g a a a a a g g N g a a a a a a a g a a g g g a 8 O % 6 u ( t g % s a 8 8 g j a s 8 # A Z t N 8 , d a 8 6 6 8 , , a a g q g 8 + s O , q g N g O O % 8 8 a 8 , % % % , a a 8 8 8 8 ",
"% % % % 8 a % % % 8 a a 8 8 8 , > > % 8 8 8 % + < % g N t q g a a 8 8 8 8 a 8 8 8 8 8 8 a a a 8 q 8 a , , , % 8 q g g a a , a a 8 a a < & & 8 8 w B 0 w B a s s a , , , a a a a a a 8 a a s a q Z Z N g s s s f s a g g g a s s a a a a a a a a 8 8 a a a a a g g g q g g g g a g g g g g g g g a a a a g g g g g g g g a a a a h h B h g g V g g g g g g h h h q g N N g g g g g g g h h g g g g g N N N N N g g g h g g g N N a a a g g g g g g N N N N N N N # h j K Y K V N N N N g g g 9 w w g N N N N N B w y N N j g N N N g g g g N g g g g g g g g a g V N V q U g N V g g g g g g g a g g g g g g g a a a a a a a a a C U g V h 8 h 8 h h h h w y N N S N N h 8 s s % g g g N g g g g N N g g g g g g g g a g g j g g g g g g g g g g k k % 8 a a G k U g g g 8 a s f s s 8 a a a a 8 a a a a a a a a a a a a a a a a + @ s a N S Z _ N 6 k 9 # s & < , > % & 8 8 8 8 a a a , a 8 8 q g a a a a a a a g g a 8 8 8 8 , + s 8 i A t h s + < h g h 8 O + , % B N 0 g , 2 . , g C C a > .   % a N V a O @ @ < 8 8 g g @ < 8 8 8 8 a , , , % % a a 8 6 8 8 ",
"% % % a g g g a 8 a a , % % a d > , a q q q % < % # q N q q a % a a 8 8 g g g g g g g g g N g g q 8 a , , , % 8 g g g a a a a s a a a a a a a a 6 B 6 w h 8 a < a a a a a a a a a 8 8 a h h s q Z Z N g 8 & < , d d j j g g a w N N g g g g a a a a g g g g g g N N N N A V g 8 j j g g N N N g g g g g g g h h g g g g g a a g 8 8 g g 8 g V N N N g g g h h g g g g g g g g N N g g g g q q g a g V V S N N N g g g h N N N g g a g g g g g g g g N N N N N N h F a a K I S N N N Z V N N N N N N S ) S S N N y N Z ( ) S N N N N Z N Z V N g g g g j j g a a g N V q D q g g g g g g g g g a g g g h j h g a k k d d d s a a g j 8 a s 8 k g h h h N w y N N V g N C g g B N S S Z N N N h h N N N N N N g g g g g g N N N N S N N g g g g g 8 h 8 f s 6 g 6 h % g C h h g a g a a a a a a a a a a a a a g g 8 a a a a a g s < O s g N Z t N N 8 h a % f a a , , , % 8 g a a a a a a a a a g a g g g g q g g g g a 8 8 a g a O s 6 w y q 8 % < s s % w 8 , f , O g q 8 g , , > , % a a + > . O , % 8 g 8 % 2 O % % 6 a 8 + < g N g g g g g 8 8 q g g q 8 8 8 ",
"< < g S 2.Z.a.&.g 8 % , s j g g % 8 Z 4.S.Z.*.g a g N S S V g s 8 8 g N N N N t t t a.a.A.A.Z N g a s d d d a a a g k C k g a a % k U D D g a d % g B A N q 8 a j j j j a a a g g N N N g h w q m.G.D.A.V g , d wXeXtX@X8 V N ' D.G.!.;.N N N S @.U @.S Z N N p.H.H.C./ t A A V I I C N N N I ..U U U N g g D @.W D N g g j C C V N g a g I +.2.,.) g a j j V D V j g g h V C C C N q N D | @.U V N N Z ) o.o.o.D N q g N I I V j g g N I | I V g g g V ..&.+.} V g I {.}.3X3X;.( ` X.V.H.H.H.] N t m.$X$XH.p.N S ( G.$X$X$X>.Z ` ( G.G.H.^.S N N V ) } } V s a q V | @.U S V N g N U U U C g g V U #.#.U N g g g j C C h a g j N V C C j k g g C D D D N g g h G B V I N t ] 1.J.H.$X<.( y w B S I I V g g V U | | S Z Z N X.S.G.H.t.Z t A D D D C h a a g S I K j g g g N V S | D V N g j j j C j a a g C C C C g 8 q g C N g g g V t X.G.H.S.4.N g g I | S | j a % % g k h g g a 8 g C E C C g a g S o.o.| S g q 8 h C D V g a 8 q t Z N N g % , a f k k j g g g V U W L k % , , a s s , , , a g V S V V h a a a g g g g a g Z ;.C.A.a.` t Z ( p.p.a.%.t q q ",
"> % g | L.).!.Z.N 8 , , d j N g 8 q ( D.%X_.z.N a a g V I D f 9 8 8 g h B V N N t N K.Y././.` Z a a d f j d a a a j L E L j g a , L #.&.%.V a , a k D D A q % a j V V C k s a a g V S V N w 9 t G.<X<X-Xo.V g T mXZXDXcXI Z t o.%X*X;XC.Z N N U *.&.2.) Z Z ) F.;X3X!.` u u S | ..U C N q N I +.w.#.U N g N W *.*.W V g g h C L D V a a j I 2.Z.4.o.N a d j S D C j g g g V C D D N q N D %.*.*.U V N Z X.,.4.2.D N g g V I I V j g g V ..+...| g g g L &.u.y.+.g K K eXbXNXBX(.( ` ;.H.3X<X$X-.S Z J.0X0X1X!.V N ( G.0X0X<X<.N ( ` $X<X<X;X} N N V } O.X.I h a g S ..&.| S V N N V U U U V N g I ..w.w...V g g j C L L C g g g V D C C j a g g D U @.D V g a g F C I I Z u ` V.<X<X<XC./ y y H | | I V g N S | @.%._ Z Z Z ,.%X<X<XS.Z q B D _ | D k s a g ) } K j j g g V I o.| S N g g j C C L N g a g C U U U V q q g C C V V g Z Z m.;X;X-XC.S N g U w.O.&.V a 8 a h C C h g a g h D W E C a 8 g S &.u.&.S g q 8 h C U S N 8 8 q N V V N g 8 a f k C C N g g g V U #.W j a a a s f f d , , a N D W W L h g a g g j h g a g ( V._.).L.X.u Z ` !.).'.K.A g h ",
"+ + q o.~.>X'.K.N a , , f k N N a a S S.:XoXU.C a 8 g V U E z & 8 a g h C C g g q N I. XOXOXX.N a a d f k k a , a k L W W C g a , R $.*.*.D a , 1 f C D B g < , g N C C k f a 8 h V D V g 8 8 N G.0X<X;X` N N  .kXSXHXbX} Z Z C.1X<X>XC.N N g U r.*.i.) N N } /.,X2X).:.u u V ..r.T C g q N | w.i.w.U N q N @.*.7.@.C g g g C L D V a a j U 2.Z.a.o.N d d k C D L k g g g V D U D N g N | *.k.k.W V g N o.p.a.i.D N g g C U I V g g g S ..+.+...j g j U &.i.u.+.8 j a eXNXvXBXt.u ( X.(.2X2X;X` N q m.<X0X2XE.g V ) $X0XqX0Xp.N Z ` -X<X2X>Xo.N g V } O.+.U h a N U #.&.#.I N g V I U U U V N N I ..i.u.#.I N g j V U U C g g g D D C C j a g g W @.@.U V g a g C C I I N t ] C.2X2X2XD.A u q U @.| U V g g C W @.#.| Z N Z 2.:X0X2XL.A 0 h S | | K f < < g D | U C j g g V U @.U S N g g V C U U N g g g C U W W V g 8 g C C C k g N Z m.>X1X,XA.S g g U i.&.i.j a a a k C C C g g g N E W W E a % a L w.i.&.U g 8 a h L U K j % % a j V V j g 8 a f x E C N g 8 g C ! #.! C a , a s k f d , , a j U $.$.U h 8 8 a g k k h a q Z C.oXOXT.| t t ( Y.oXOXz.q 6 6 ",
"+ O 8 _ K.].L.3.g a , , f k N g , , N p.!.E.x.h & , a N D G c & 8 a a g k h g a 8 g i.c.W.E.I g a a s k k s a a a g C E L k g a , L | @.@.V , , 1 d C C B g < , g N B h h s a a g N V N g a a g G.=X;X(.X.Z Z O.mXDXHXkXO.N 0 ` ).%X).,.N g g L ! #.*.S N N S I.XX.XP.{ y B N K T Y C g w B U #.w...S g g N D =.=.W C g g g N C D V a , d L %.4.5.| j d d d C D C j g g h V C C V N N V D &.*.*.H k g N } &.2.&.V h a s k C V C g g g V } +.....N g j C #.&.+...h C j @XvXvXxXS.u Z ) F.XX:X_.] N N <.%X1X>Xz.V V Z G.<X1X<X4.g g S S.-X-X/.U g g V S X.} S h a V S | #.| S N g V S U U I V j g S | &.&...S g g N C C C V g g g V C C C k a g g U U | D V g a a C C K K g q A %.:X-X.X4.Z N g K U U D N g g C L E W D N N N &.R.-X-Xa.B 8 g N I I K d 2 & s A D W C j g g h C L L C h g N C D D V N g g g V U U L V g a g j C j f a N N :._.).'.a.V g a L $...&.h a a a k C C k g g g h C E D C , , a C ..&...V a a a s k L V j , , a d j V j g 8 a s k C C N g 8 g C U W L k a , a s d d s a a 8 g C W E C a 8 8 a s h h s a 8 N 2.U.W.x.D 0 t Z K.T.W.k.B 8 8 ",
"@ % 8 N ' 2.o.S 8 a , < s s g a > > a } O.o.W & O % a g g g & & & , a a s a a a a a C W #.#.j 8 a a a a a a a a 8 a k j h g a a , j V Z S g , 1 , , g h h a > , g N B h s s s h g g g g g a , a o.t.>.y.V B w V q.f.f.q.g N w W 2.<.y.I g j a k k C U N N N g ..+.2.[ A F h a j v j j g h B C S S V N g g N V C C C h g g g g g N g a , a j S _ ' Z g d d d h N j g g g j j V g N N N N D D D D h s g g S S S S j a a s s k h g g g g N S S S V N g g N I I } V 8 + d q.J.F.d.} N N N +.u.u.4.N g g ` m.D.p.#.f f q ;.m.m.M.D a h N O.t.t.2.V a h h S ) ) V h a N V S S S V N N N V V V V N g g N V I I V N N g N N j j g g g g N N V j g a g g V V S V N g a a j j j j g h z F 2.O.u.) N V g j N V V N g g h k k C g g V N V +.>.<.| g s s j V j j 1 2 & 9 y A C B h g g a s d k g g g N N N N N g g g g V V N h g g g h h g a , , j t ( 4.:.2.| g a % s L V U g a a a g g g a g a g g h C N g , , a d j V N j a , , , f k d , > > , 1 d j a a a % & a g g N g a a g j j k a 8 a a a a a a a a 8 a a g h a a 8 8 a a a a < 8 8 g D W W E g 6 g N o.) | W g 8 & ",
"+ % 8 8 q N N q 8 % % < < a a a + > % N N q h O O % a g 8 6 # & < , , , a a a , a , % a a a a % a a , , , a a a 8 a a a a 8 a a a g N t N g , 1 > , a g g a > , g t q q 8 8 a g g g g g g a a a q g 6 g # r $ 6 j d j a 8 z & h N N V g a d , a a a h q g N 6 j g N q w F g a d d d a g g g g N g g g g g g g g g g g g g g g g g g a , a g Z ( ( N g d d a g g g a g g j h g g g g N N N N N q 8 8 g g N N N g g a a a s s g g g g g N N N N g N g g g V V V g C s K K K I t N N N q V N N _ q % 8 N Z Z Z a & s 6 ) ( / ( g s h g N Z S V g a f h Z S Z Z g g g N N N N N N N g N N N N g g g g g N N g g N N g g g g g g g h g N g g a a g j g N N N N g a a g g d d s s r 9 g g S N N S g j g N N N g g g g a g a a V j g N t S g 8 s s a j g d , 2 & 9 y Z t N g g g a a a a a a g N N t t N g g g N N g g g a a g g g a % < % C q t ( u Z Z 8 a % , g 8 g a a 8 a a a 8 8 a 8 q g g g g a , , , a a a a a a , < , s a a , > > , , a a a 8 a % % 6 8 q N g a a a a a a 8 8 a a a 8 a a a a a a 8 8 8 8 8 a a 8 8 % % % & a 8 a % % a 8 6 g 8 N 6 6 g % % + ",
"@ % a 8 8 q q 8 % % % < < % 8 % . > % N t 0 g O O % a j N g a , a a a a a a a % % , % % % % , % a a a , a a a a a a a a 8 8 a a a N N u Z N 8 , , , g g g a > , g Z N g q 0 q q N N N N g a a a g j a j 9 z r h j j j 8 9 r * s g q g a , d % a a a g q N V 8 g g g 8 w k g d v v v j g g y N N N N g g g g g g g g g g g g g g N g a a d N Z ( ( Z g d d a g N g g g g g g g g g g N N N N g q 9 9 8 g V V V V j j a a g g g g h g g g N N N N N g g g V V S N 8 a a V Y I S _ B B q N g q D q a k V Z S N a s x 8 S ( u Z g s s a g N N N g a h N S ] ] S N g N N N N N N N N g N N N g g g g g g g g g N N N N g g g g g g g N N g g a a g g g g N N N g g g g g j d s f s s K j I V V S g V V N N N N g g h g V g a j j g N N I j % s a a N g g a < a g Z ( Z Z N g g a a a a a a g Z Z ( u Z N N g N N g g g a a a a a a , < % k N Z ( u Z N 8 g % 8 k 8 g 8 8 a a a a a 8 8 8 q q g g g a , , , a a a a a a , , , , a a , , , a a g g g 8 a 8 8 8 w g g q a , , , , a a a 8 a a a a a a a a a a a a a a a 8 a 8 a a 8 8 8 8 8 # O < & 8 g g S g g N 8 s f ",
"O + a 8 g N N g 6 % % < & % 8 , @ > 8 V Z t k + % , j I Y I j a a a a a g g a a % a a s a % a a a a a a a a a a a a a a a a a g a V ( ( ] Z 8 , a a g N g a % % I X.} ) S N N N N S S S g 8 a a g C j C 6 w 7 B S I } N h w $ k N g V a , , % s g g B 0 N C 8 V N V h h k a d 9.9.Y K N N N Z S S V N g g g g g h g g g g g g N Z N j j j V ` -.` ) N j j g N N N g g g g g g g N g N g N N N g h 8 8 g S } } I V j j j j N N N g g g N N V V V g g g j V S S S B E g Y y.I } N N B g L C g D g % g N Z S V a s f 8 S ) ( ) h a & s N S S V V g h V ` X.;.` Z N N N N V V V N g g g g N g g g g g g g N N N N N N N N N N j g g V V V j a a g g N N N N N h g g N S V j a s f v q.9.q.I S S g S ) ) S Z N N N N N L j g j j j I  .q.K , < 8 q V N g a a a g ) ` ` ( Z N g g a a j g g N Z ( ` ` _ S N g N N N g g a a a a a a a , % h N ] :.` ` S q g % a C g g 8 8 a a g g g g 8 8 q g g g g g , , a g N N g g 8 , < , a a a a a a g V S S N g a 8 8 s h h g q % , , , a a a a 8 a g g g g g q g g g N j g g g 8 a g g g a 8 8 8 a % % s a 8 g q I S S N % 8 a ",
"% % , s C C C g 8 + # & s f a , . @ g D o.o.C s O d K cXlXcX@Xa a g C E W E k 8 a a g k k h a 8 a a s d k s a a a a g k k h g g q l.~.~.].5.q k k C =.=.[ B a a  .rXiXiX@XS t t ,.'./.`.*.6 C g +.u.d.y.S t u ` H.}.;XF.] t N g V V V g a a g C W [ [ A N q g N V U C 8 B g q.dXcXcXuXq S N a.R.T.R.| g g g C h h h h g g N U #.o.o.j g j +.'.(.:XC.S j V V ) } D C V g h C W #.U V q g V D C C k g g N A.uXuXuXy.K j K U | o.| g g g V | +...| V g g C #.*.+.o.N N S XX,X,XiXi.A B N V U U D N g g V } +...C a g h S X.>.+.C h a g S } } ) V g N S ).;X;X(.( Z N N S D S N N N N V C C V N g g a j C D V N N N S | $.$.U C j j V D E L k a g g W @.@.D V g g h A _ I V K d a n.cXbXmX|.N S t u.T.Y.Y.X.N S V I I | U j V K w.aXtXkX|.a s f q [ A B g 8 a I D.XX).~.o.S V g V K j j N N ( Z.&X&X].e.N g V V C U U j g a a k f f f a N N :._._.).a.N g g g V V S h a 8 a C E E C g a g g N C C k a < g C | o.U V g a 8 a k C V g N q ) I.~./.T.N q 8 8 s k h N g a , s d k k s a 8 a C E E C g q N S w.i.i.&.N g g N U #.U V g g g g k k f a a a N OXE. XU.g 8 a ",
"% % , s k L C k 8 & # & s f s < @ @ g _ 5.2.H g k K q.vXmXDXuXj a g C W =.@.C g 8 g h C C k h 8 8 a s k k g a 8 a a k k C h g a q z.'.&X'.5.0 g g E *.3.[ N a a y.jXlXlX,X) ) ` <.:X'.OX3.6 h 0 u.F.H.d.} u ( -.H.=X;XH.` u Z S S D C h a a g C @.=.' _ N g g N I I C q g 8 q.nXmXmXaXS } Z a.oXOXOX&.g g g C C C C j g g V @.*.2.O.N g N u.>X1X1XS.S g V I o.o.U V g g V U #.#.@.V g g V D D D G B N S XXlXlXlXy.V g S ..*.u.&.V g g V | &...U V g g C *.i.u.+.B N I +XkXkXlXa.N N N K ....D N g g V  .+.+.U h g N I O.y.+.D g a g S X.X.} V g N ) >X2X2X;X] N N S U @.| D N N N V D U D V N g g j L L V N N N S &.i.e.U N j j D U W W C k g g W @.&.@.V g a k { =.+.I K d v #XGXHXHX+XN N q i.'.)./.o.N Z N } &...} V N g w.nXNXDXwXj a k y [ { [ B g q I J.;X>X(.X.Z V g V j L V N N Z C.%X:XOXi.g 8 N D W #.E V a 8 a k k k k a N Z <.%X%X:XZ.N g g j I S S g a 8 a C W W E h a 8 g C E C C a a g U &.*.@.D g 8 a h G E V N Z t ] ~.&X'.~.Z q w h f F C h g a < s f k k s a 8 a C W W C h q g S i.z.z.i.N q g S #.w.#.D N q g j k k k s a g V OXOX,XR.N 8 8 ",
"% % , s f b k k 8 8 & 9 f h a a @ @ g ' 3.3.W g % j q.mXFXHXuXj g g C @.*.=.D g 8 8 g C C h 8 6 8 a f k k h a 8 8 a k C C k g 8 g K.>X5X&X5.q g g W 3.3.[ N a j q.jXvXvX,X) t u C.:X:X:Xi.0 h q a.F.F.g.} t Z ' -X;X,X^.' t N N S D C j g g g V %.=.@._ V N g N I V V B V g y.mXFXFXaXS N q u.oXOXOX*.N g g C C C C h a g V @.u.p.,.V j V d.2X7X7XS.S g N I o.+.| V g g C @.#.#.@.C g g N C D U g 8 q S XXlXlXlXd.S g S | &.2.| C g g V ..u.&.U N g g D e.z.u.+.q 0 S XXkXvXlXa.t y N I ....S N g g S  .y.+.U N q N } q.y.+.S q a g ) X.X.} N g N o.,XjXjX>XX.N N N U @.| S N g V V D U D V N g j k L C V N N N _ &.x.i...N g j U W W U C k g g U @.*.@.N g a C { 6.o.V j j P #XDXDXHX+XZ N t l.:X:XoX<.Z Z S } w.} } S V N g.BXNXSX+Xa # h A { { _ B g g } H.3X2X-XX.Z S V I K K N N N ( D.>X>X6Xx.N 8 g D U #.U V a 8 a k k k k a N Z C.>X1X5XA.N g a g U S S g a a g C W W W C g 8 g C W D h 8 8 h U *.*.%.| q q h C W W C N Z u ' ].>X>X].Z q w s f k k g 8 a , a f k k s a 8 g C W W L h g g S s.U.U.i.V q g S #.e.#.I g 8 g g k k k g a g I @X6X6X XV a a ",
"% % , a d f f f 8 8 8 8 s s a , @ @ g S %.%.C a % j q.kXvXcX@Xj g g V U W E C g 8 8 g h h h 8 8 8 a s f k s a 8 a a h k k h g a g u.~.].Q.2.g g g C =.%._ N g j q.eXaXlXOX} Z Z 4.Y.Y.P.2.g B h %.u.d.w.S q y D E.E./.K.D q g g V C V h g g g V _ ' _ Z N g g j V V C h B g q.pXmXnX6XS Z Z u. XU.T.o.N g a j g k k g g g N U %.2.+.V N V +.).%X%XC.S g j I } } U V g g C W W U U N g g N V V C C j V I E.iXiXiXu.S g V S o.O.} h a g V | &...U N g g C #.*.+.| J B } XXrXjX7Xa.N y N V I I S N g g V I  . .D N q N S  . .} S q g g S X.X.) N g N ) ^.;X;XH.` N N N D D D V N g N V C D V N N g g k C C V N N N S o.*.&.U N g g S D U C j a g g C U @.D N g a h [ [ | V j j K b.ZXCXBXXX) N 0 %.T.Y.Y.o.Z S S } | S I V V S d.aXbXbX@XK 8 h y u A A B 8 g I J.XX(.Y.` N V N V C V g N N Z 4.!./.`.e.N q g V U U C g a a g h j k f a N Z <._.(.'.4.N g a g C V V h a a g C C C C h g q g C C C h 8 a g C | @.| D g 8 w f C C V N N Z _ L.~.~.K.Z q q 8 h h h g 8 8 , , s f f a 8 8 a k C L C g a g V i.i.i.w.N g g V U U U N g 8 g g j k h a a g S E. X Xz.g a a ",
"8 % , , , a , < % 6 9 8 a a a , @ + a N Z A g & + O , q. .q.K   a a a g j h g 8 g a g g g g g a a a a a a a a a a a a a g g g a a V _ o.' S g a a g N A u q 8 a g  . .I N 6 q N ) X.] ) N 8 g s B B V j s & 9 s L K W G w w s a g g g g a g g N V A Z N g g a d j j j 6 w g g q.Y q. .8 N 0 N S ) +.N N N a g 8 a a g g g N N Z Z S g j g V ,.-.1.` N g j g Z Z N N N N N V V V V g q g g g g g a a g 8 S O.} o.| N g N N S } S g a g N S S S V N g g h V S S S w 0 q I O.O.X.0 B B g g V V V N N g j V K V N g y N N V V V V N h h Z ) ) S N g g N o.1.1.X.N N V S V V V N N V g N V V N g g g a a k j V N N N S S S V V N j g N N V j g a g g V V V N N g a g J A I V j j g  .q.q.y.S 0 B g W o.` o.Z N Z g N S V V g g V S q. .q.j O % w N ' S Z g a a N ` X.} +.N g g 8 g g k g g N t S X.) U V g g g N V C g g g g g g g a f , h t Z ;.` ` _ q h a 8 g g g h a a a h h g g g g g g g g g g s < a g V V N g g 8 8 a s g g g q g N | o.) | q g g w a g g g g 8 % & a a a a % 8 8 a s g g a a g g V V V V 8 a g g g g g a a a a g a a , % a a g | | | C 6 % % ",
"8 a , , , , , % % 6 9 8 8 a a , > > a g t q 6 # < , a j 8 a , , a a % 8 a a 8 % 8 8 8 a a a a 8 a a , % 8 8 a a a a a 8 8 a a a a 8 q t t N a , % 8 0 q t q % % g g a 8 8 g C D t t q q q 8 a s q q a a < & & & , , a 8 7 r s % a a a a a a g g g N q q a a , d , d s % h C 8 a a j N g C C N N q S q g V a g a a a g g g g N q t N a j a q ( u / Z N g a g N N g N N N g g g g g g q g g g g g d j L g N S t Z D g g g 0 q N g g g N N N N g g g h h g g N N Z F F V V V S Z Z A h g g g g N g N g a j j g g w B g g g g g N B h g N Z Z N g a h g N Z Z N g V N N N N g g N N q g g N g g g a a a a g N N N N Z N t g N N j g g g g g a a g g g g N g N g a a g 0 N j g g q N I V I N N C a g N t N q N V q N g g V q g U g 6 I I j f x a 8 N S g a a s g t t q N 8 a g 8 a a h 8 g h q g N q g g g g g g 8 8 g g g g g g g a < % k q t u i t N 6 f s + a 8 g g a a a g a a 8 8 g g g 8 8 8 8 s < , a g g 8 8 a a & % , a a a % s 8 g g 8 g 8 8 8 8 8 g g N q 8 % 8 8 a a a % 8 8 8 8 8 a a a a 8 a 6 % a 6 a a 8 8 % % 8 a a a a a & + % % a 8 8 8 8 % + & % ",
"8 a , , , , , , 6 9 w w q a a , > ; , g g g & @     a a a , + < , , , , a a a % % , a j k a a % a , , , 8 8 a a a a a a a a a a d , g N q g d , , a h B N q % % , + & 9 9 9 9 6 N N S N g a , s A ( S N g a 9 a j g j h w w g 8 a a a a a a g g g g g g a , , 1 1 , f 9 z z a j j j a 8 6 g g N N } N g N g k L k k g g g g N N V B a f a g _ ( ( Z g s f k C D V N g g N N g g N g g g g g g g , , a 6 g V 0 B B 8 h k g V I N h g g N S S S N g g g g N N Z N 9 r g g N S N B B h a a j j g g h h a d d j h w w h g g j g h B w h N Z Z N g 8 s h N S S N h k g N V V V N N N g g N N g g g g a a a g N N N N Z Z N N N j j g g g g g a a g g g N N N N g g g V g K j a k h B N q N N g k , j V N S N N C g h g 8 C g g U V g g 8 % < s a g V j g a < r r F y a j % a k a s s 9 & a h g g C j g g g g g g g g V g g g g N N a @ @ f g Z ) Z _ B % s 2 O s a a a a a a g g g g a a g g g g g a < < , a a g a a < < < < < , , , > < > , d a g a % 8 8 g N N N t 8 8 8 a s s a 8 8 8 8 a a a a a a % a % % a % s 8 & < a < < & & a a < % + % % a a % 8 8 % s < @ ",
"8 a , , , , , a 8 8 w w g a a a , > a g V V s + @ + f a g a & < < , a a k k a , a j C U U U j a a , a a a a a a a a a a a a a a a a N V g g a % a C @.@.D N a a f % f s & 9 w g S ) &.| V j , g o.;.X.} V g g g g g V N 0 w N g g g a a a a g g N N N g g a , 1 v d k s 9 8 % K d j j j g V V } +.y.Z N N N | &...U V q q N S S D B a f a g 2.:.:.` N g j U %.o.o.S N N V I I S S N g j N N Z S k f k a N D g C g 8 h L #.d.g.d.j g N S o.,.,.o.N g g N V S S N h z V g I I g q w w g k j j g g 9 a g j j j h w w h j V V N B w w h V S S N w 8 8 h S } } V g q Z ) o.+.+.| S A N N V V N N N N j j j h N N N N S S S S V j g g N N g g g g g g N V D V g g g j g.q.f.Y g C A A 2.O.O.} N a , j U S | V g g q B H w C B q g N D D D k < < s N V I K j s 9 9 p F k L % 8 k a s 8 z 8 a g 8 a j j j g g g V ..&.&.S V g g g N V k s + s g Z ' ] ' D 8 h & % f s a 8 8 a g h V V V g q 8 g N V N g , , a j j N j g % , s s f d a , + 1 + , d a g a a g C U | | ) Z g a 8 a h g a a 8 a a a a a a a 8 6 g a a h % 8 8 s h x x s & + % , < < % % & % s 6 h k s s & @ ",
"8 % , a d d d s a 8 8 g k C k h 8 6 8 V @.@.C 8 w 8 q C W @.C 8 % a g D D D j a j g R.5X7X,XI V % a L v v j 8 a 8 h k R R k s 6 g V U @.D N q q q R.Y.'.`.Z q q N V U C g g N S u.>X>X,Xs.q V N D.$X;XH.X.q q V I | | S g 8 8 a C C C h g q N B A _ A N V g j R r.#.U j a a g j L U K N g N p.,X,XiX2.t Z ( H.<X;X-X5.t y D y.y.2.&.N g N u.>X<X<XV.` ( ( S.2X<X>X2.N N S O.p.p.o.S g g I +.<.4.D C g g I T ....j K j Y tXZXCXCXh.j S X.1X<X1X_.` S j K r.r.y.+.q q g V U U D V N g g C U U C g s s V I | U k w c k C U | | G w h h V S S D B A A S y.d.d.u.Z Z ` V.;X3X;XD.Z t D ' ) S } S A D g V I V g g N S ) X.,.+.| V g g N V I I V V N N D @.@.D N g j Y bXCXSXtXV } i 4.>X>X>XC.Z N g U u.u.p.} N N N @.@.@.H B N N D &.e.&.W j a h U &.2.o.S N g j L W U U N g g h B B G B g g g N U U ! j V N Z H.iX2XiX>.g V N K r.T f a g t :.&X&X&XZ.( q g j k C C C g g V | w.&.| N g g S &.i.p.,.V g g S &.u.#.D g g g C W W C a , > , f b C j g g 0 +./././.S.Z N g g g j h g a 8 a g k C k a 8 q N C E L j g q 0 [ 3.k.k.H 8 8 s d f f s a a a a k C C k g 8 a ",
"% % % a s k k g 8 8 a g C C k h q 0 q D @.=.D N q q N D @.@.C a % a B _ @.D h a 8 g ].7XzX7X} 8 g a v d d j 8 s 9 h L R R k s 6 g S @.@.H C N N ( oX'.>X'.) t t N S U U N g N N p.,X,X,Xp.6 N t H.<X3X(.O.N g V U | #.U h a s k E W W C g q w A A [ _ A A g j ! *.*.#.V g 8 j L U T I V N ) F.iX3XrXu.N Z ] G.<X<X;X:.t y S y.y.>.o.g g N y.;X<X0XV.` / ( G.<X<X1X4.Z N } y.D.C.,.) a a K +.V.C.o.C g g I #.#...K I j q.tXDXSXCXq.a S ` <X<X1X%X` Z g K r.r.y.} g g N V U U U V g g N D @.@.U j f s N ) X.| C s + s K ..+.| h 8 w N V S S D A y A S y.y.y.<.Z ( -.G.3X2X3XJ.) Z 0 A | | +.S t N V I U U C g N V S X.,.,.| V N j V K I I S V N N D @.#.U N g C Y bXSXSXtXS X.u D.>X1X1XV.Z N q D s.t.p.} N Z N @.@.@.@.V t N _ *.i.*.| N g V @.k.3.5._ Z N N K T ..I V N N V D D D B N g N V U #.W j V V ) (.kXjXiX>.q g g V T K L g g t <.:X1X1XS.` t N V C C k V g g S +.u.w.#.N g 8 V &.p.t.>.Z N N } *.u.&.U g q q N U W L j , , s k k C V N N q O./.oX).S.t g g j j C j g a 8 a k C G k a 8 q N U W U C g q t %.l.P.z.@.g 8 , a d d d a a a a k E E C g 8 8 ",
"% % % a s k k g % 8 a g C C k g 8 8 g C W W C h 8 g h C E C h a , < h D [ D g , g N `.7XlX7X} 8 8 8 R R R R % # s f L R R k s 8 g N W W W C N q Z `.'.oXT.S N g N S U U N g g N A.,X,X6XA.N V S H.;X>X^.+.g g V D | @.C g % < f C D U C g 8 g B B [ D V N 8 g #.#.&.#.S q 8 j U L U I V N ) F.7XiXiXu.q 0 Z %X0X1X>X:.N V D u.p.u.&.C h C u.>X3X2XJ.` Z ] G.2X<X>Xa.V N I +.p.<.2.S a a K &.p.M.o.V g g I #.#.T g j g q.pXHXJXGXh.j } >.1X1X2X:X` S N U r.d.u.+.V N N V U U D V g g N U @.@.D j a a N } X.X.N a d j K  . . .K C g g V K I C B y t N d.F.A.u.A u ] M.>X2X;XD.Z Z N [ o.....S N D V V U C C h g g Z } +.+.S N g h K I I I S N N N D @.@.U N g j Y DXHXHXpX} ) t 4.>X1X2XD.) V C #.d.y.y.S N S N U #.#.@.V q g U *.u.&.I N g N W *.3.%._ Z N N K U ..I V g g N D D D B N g N V U #.E j N N } ^.iXiXuXy.N N N U $.U R g g t :.'.&X>XZ.] q g h C C h g g g V | &.&.#.C g g D *.s.p.,.N g V U $.$.@.D C h h C W W L k a < s k k C C N N t o.T.oX'.A.N g a g j C j g 8 8 a k C C k g 8 a h L E E k g q t @.l.x.k.W a % % a d k s a a a a k G E C g 6 6 ",
"% % % a a s a a 8 8 a a k k g a 8 a a k C C k g 8 a g k k k g a , , g B D C a , , 8 &.K.T.K.N 8 f 8 a a a f 8 9 9 f j v v j a 8 a g k k k g 8 8 N a.a.s.u.N g g N V C C j g g N } A.A.A.+.q g g t.V.A.u.U g g h C D D V g 8 & a N V V g g a a g h C V N N 8 a U D | U V q 8 g C C L N N V S O.Y.A.U.U a g V t.G.G.S.) q a g | o.o.@.g a a I F.H.G.;.Z N N 2.H.H.I.| N j V } ,.:.' S g a j U o.:._ N g g V U U C N N g V |.eXeX+XY a V ) G.G.!.A.N g a j U ..o.} V N g N V C V N g g g V U U V h a a S X.X.} N a a d V K I V j j g g j K V V B B D N I I I U B [ u -.F.F.F.,.N V B D V N K j g h N N N V h h g g S ) | } S N g h N V V V N N N N D D D C N g j K +XyXeX|.g S Z 2.S.S.F.o.N N s C #.I } N N V g V W U C N g N S | o.o.S N g g C U @._ S N N N C K U V N g N N V B V N N g N N S U C h g g S t.XXE.I.I g g g V U C C g N t ] Z.Z.K.2.Z g g g h C g a a g g S U U E 8 6 6 g D o.o.} g a g C L E C C 8 8 g j C j g a s a a s k k h g N q S i.z.A.,.t g a g g j g a 8 8 a g k k g a a a g k k f s a a q D @.@.@.C % % a a s s s a a a a h k k h a 6 % ",
", % % , a a a % a a 8 8 a g a 8 a , , a a a a % % , a a a a a , > , a g N g a , , % N N Z Z a a k 8 g a j C s z 9 a a d d a a a a a a s < % % 8 q S V S V a a a g g g g a a g N g S S S N 8 8 8 S S S V g a a a h h g g g h w 8 S Z N g a a , % a g g g h g a g N Z Z N g g g g g g g g V S Z | t V a d v j S Z ( X.N g j g Z ( S D g h a g X.` ` Z N h g V ) S S q a j g S ` ` / N h d d g S Z N N g g N j g g g C B g V I S j j a g N X.] ` S N g g g N Z ] ] V g g g N V N g g g g g N N N g s h ) ` ] ( N h a d V I I S g a g j j j j g h h B g V j j V w J i u ` ) } S 0 B q h j j K j a g N N g g g h h V S S Z Z V V k k g N N N N N N N V N g g N V j j v K K K 6 V N ) ` ) } N g h 9 s N g V g g j a g j g g g N N N N ( ( S N N g g j N N N N N g g j j g g g g g g g g g g g g g g g f s g g N S } I I g a g q q N N g a N N N ) Z ) V g g g 8 8 g g a , a a g g g g 8 8 8 h N Z Z Z g a a a a s a a % a a a g j j j a a , a g g a 8 q 8 g N S Z N 0 g 8 8 a g a a 8 8 a a a a a a a a a a , , , , a 6 g N g g a % , 8 a a a 8 8 a a 8 a a a a % % 8 ",
"a , % , a a 8 % g a 8 8 8 a 8 8 a , % % % , % % % , % % % , a , > > a q q a , , , a q t q q g k a % a , a j % 9 8 8 a a a a 8 a a , , , % % % 8 g g q q 8 a a a 8 g a % % % 8 g N N N N N g g g g g a a a a a 8 8 q 8 q g g 9 q N Z N g a a , , a a 8 g V g 8 g N Z t N N N g g g g 8 q S S N N A B a d 1 d j N 8 V d v K N ( ( Z N h G k g S t Z N h k k j N V N 8 a j g N ( / u t g s a a g N N N N g g g g q 8 h J B N V S V j k V V S Z Z N V C j N Z Z ] ( N g g g N N g g N g g g g g g g h h u / u u y h x k g N S V N h g g j j j g g g g 8 j j j j 6 w y t t q N N 8 C g g a , d d a C g N g q q q N N t N t N N g g g g N N N N N N N N g q g N V g g K j j j g B N q Z t S N N C 9 c a a j a a j 8 a a a a g N N g t u / Z N N g g g a g g g g N g g g g g g g g g 8 g g g g g g g a 8 8 a g g j g a g g g h N N u Z q 8 V g t N 0 g a 8 a g 8 8 N g s < , 8 a g q 8 h h h h N t u t a % % % % & % % k g a a a a a a a a a a a a a 8 8 q q 8 0 0 q q g 8 8 8 8 a a 8 a 8 8 8 8 a a a a , , , , , , a 8 g q 6 8 % % d 8 8 8 8 6 % 8 8 8 8 % % % % & < ",
", % % a a a a a a a 8 a g g g a a , 8 a s s a % a , a a s s s , > > a g g a , > + , q q t 0 a % s a j , , a % a 8 a a d d a a 8 a a , < < < & 8 N g g g a a a , g g a a < % 8 a g g N g g 8 % a g j g a a a a g N N N N g g w N ( ` ) V a a a d k j g g V g g V ) ) Z Z N N N g g V g q N N N V t w k n 1 d v K  .q.a a j N ] ` ] Z 8 g a g } ` ) N 6 + s a g N L g d j N ) :.` ] ( g a a j V S S N g g g j V h h w A A N N S N g g g N N S V N g 8 q N ) ` -.] Z g g N V V N g N g g g N N N g w w u ] -.] A w s a g V } } N g g N V K K V N h C g K v v v a B A A S N S V 0 C 8 K P P v d a g N Z S D N q N Z Z ) X.} S g g g N V S S V N N N N N N g g g g g g g g h h g D N S Z ) N q w # s g g C g a j a h j j g g N N S } -.` ( N g a a a a g g g g g N g N g g g g g g g h g g g g g g g h h q g N N g j a g 8 8 t A ( ] D g N g g V a g a , , a a N D N h a a a g N N g 6 6 6 0 N Z Z t g < % & s f a 8 a 8 % j K K j + a a a a k j a 8 a g a 8 g g q g 8 8 8 8 a a 8 8 8 a a g g g g a 8 a a , , , , a 8 g q 8 g a , s 8 g h g g 8 8 8 8 8 % & & & & % ",
"% % % a s k g s a 8 8 a h j g a a a a g C C g 8 a a a j C C k , . > a h h a > . > f h D H C k % % Y #XuXuX|.j O a a j j j k s 8 a a a s s s 8 6 h q D D g j s a k C k k s a a 8 g g U V g a & f j V L k a a a V #.*.2.o.S N N D C.D.C.O.N a a d C L V N N N N | o.o._ Z N N N D C E C q q g g D [ N h , > P |.eXeX+XY j V | Z.Q.L.p.V V j  .^.XX^.a.k & s d j K V a a j I p.Q.Q.M.' q a k T +.+.D V g g N L U G G w w B D o.+.S N h g V I ....I N g N o.Z.G.G.m.Z N N V D D V N g g N V V V V N h B ] M.G.Z.@.g g L d.XX,XXXr.j N S }  . .I D N N  .#XuXeX#XY g A D %.| | S q V N g.@XeX+Xh.V g S o.2.&.@.D Z ) :.p.L.A.o.V N N I I U U S V N g N C C V g g g g V V D D N q D ) p.,.p.} N N 9 G C V L g g j g C E U U V N V +.p.G.D.:.S N g j f k j h q q g N C C j g g g g j V C h g g g g V C B B q q V V V T L L g q ' 5.M.M.*.N g q g C g d n , + , g D @.V h a a g V D D B B w w D 3.K.Z.2.g , , s k k k a a a K d.OX@XF.q.a a a g k C k a 8 a 8 8 k h 8 8 8 8 s h h h a 8 8 a g k C j g a 8 a s d d a a a 8 N N g k s , a g h C C C h a 8 a a < s < < # O ",
", % a s k E k k a a 8 g C E C h 6 8 h C W W C h 8 a h E $.~ C a > + % h C k , . > f W *.7.~ s % , h.AXLXPXnXa g a j L T U C 9 6 g j k k s s 8 8 N D @.@.D h s a C W ~ E x s < a C L #.#.C % + s C U T L g a g V z.R./.Z.) t A 2.&X;X>Xp.V j j ! #.#.@._ Z N _ 3.a.K.2.Z N N D @.=.e.W h g g h D S _ C + f d dXGXFXmXh.8 N o.:X2X2X.XS N I d.jXzXlXE.g & f f K Y K C d a  .^.1X8X8X-.Z V V d.I.K.%.D g g V U E W G h q N #.u.u.y.D N q S w.d.d...V S N 4.1X*X0XG.Z g g S @.#.@.U V g g V U U C N N V >.H.;X-Xd.j v v tXPXHXPX{.a N ) +.d.s.u.| N V I mXDXFXmXj N N _ *.u.&.} N N g uXLXGXLXg.a S ` C.T.U.a.) Z ( ;.,X6X7XY.N V g ..w.i.&.U N N V V C D C N g N V @.@.[ D N N S X.F.S.A.>.Z g h h W @.@.C g g C @.*.*.@.S N N ,.oX1X7X~.) g j b E E L C N g N D W U C j g g j C U U j a a g C L C H B N N V } w.d.r.C N Z ' &X>X>XW.D g g h L k ^ f 1 , d L #.3.*.C g a g U &.&.@.D 0 N [ ].>X>XT.N a 8 g E ! W C g g g @XMXMXMXh.g a k C W E k s % a h k k k a % % 8 h k x k h a 6 g E $.$.W j 8 g g k k k k a 8 q V [ @.D h a a q W *.$.! h 8 a % a s s s % O O ",
"% % a s k L C k a 8 a g C E C h 8 8 g C $.$.D h 8 q h E =.$.C a , > a g C k , > + , G $.7.Q f % 1 h.ZXGXLXnXd a 8 g j K j g 9 9 g g C k k h w q V D @.@.H B 8 8 g C W E k < % , j j V C C f s k L | T L j g g V s.E./.C.) t Z o.:X<X>Xp.N g 8 L *.&.&._ Z t Z 5.K.K.3.Z t N N @.*.j.@.h g h G @.+.&.F O s , pXDXDXmXd.q N ` %X<X2X).N q N y.kXvXlXE.g % f d j I N g a a } !.1X8X&X] t g V d.Y.Y.*.D q g D U W W C h q V +.d.d.u.S N N S w.d.d.w.N N t 4.1X1X0XG.Z g g D #.$.#.U g g N V U U V g g g >.H.;X;Xd.j v v eXHXHXPX{.j Z _ ,.p.A.p.| N S  .vXDXDXcXK N N _ 2.u.u.| Z N I uXLXHXFXg.g S ` A./.~.a.) Z ] ;.>X2X7XY.N N g ..w.i.w.U N N N C D D C N g N V [ =.=.D N N S } S.S.A.:.Z q g B @.@.@.B N N D #.*.*.%.S Z Z p.>X1X1XL.S q g j b k C h g q g V C W C a % % a C W #.L j g g C C C D A N N V } w.d.i.U g Z ] &X*X1XT.V q q h C d f f , > , C @.%.%.C g g N | &.&.o.V 6 q _ '.>X>X!.N a a j L ! U I g g N ,XMXMXnXq.a a k L W W k h 8 a f k k k a % s a a a a g g g 8 g E $.$.W V g g g k k C k g 8 q V [ =.D N a a h D C C U C a a 8 a f s s % % O ",
"% % % a k k k k a 8 8 g C C C h g q q C @.=.D q 8 q N D @.@.D s , , a h N h , > , f W *.7.=.x a d h.ZXLXPXnXK g g j K K C C z p q g V C k h w q N D | @.D h 8 8 N D $.~ G f a a U T U U C a & 8 U I U V N g N V K.^./.A.X.Z S &.&X&X>XZ.S N N | *.3.3.%.( Z | a.l.P.3._ Z N S &.@.$.D g g h B @.S } k $ x R cXHXHXmXs.8 q ' ;X0X2X^.S N S p.jXzXjXE.C h x L I  .I V j j O.^.1X1X&X-.Z V I d.S.S.%.A q g U U U U V g N V ..q.y.y.S N N S ..q.w...S S Z p.>X>X2XG.N g g C @.#.@.U g g N C U D V g C N y.H.;X;Xs.K v K tXPXJXPX#Xj Z ] :.p.a.2._ N N y.cXHXHXcX .g N _ &.u.&.| Z Z } ,XLXPXFX{.S N ` D.!.I.a.) u ( <.>X>X,X^.S S N | &.i.w.U N g g D C C C V N N N _ [ @.D N N S } F.Y.S.,.) Z S W @._ D V N N D @.*.*.@.S Z Z u.oX>X>XL.} N C L L W U C N V D U W U D V h N V U U U V g g g V C C D V N N V } +.u.&.V g Z ` :X1X>XR.V g g C W L b b d , d U &.2.&.V g g N | &.+.| D q V ' ].:X>X!.N a g j L U U K g g N @XnXMXnXs.a a g C W E k g a a a h k f s , + , f E E k a 8 6 g C W #.U N 8 8 g k k k h a 8 q N [ [ H B a a g U | #.r.U a % a a s s s < < < ",
"% % % a g k s a a a a a k k h g g q 8 g C C h 8 q q g V C C C a , , g V C h , + > , N A D B a , d P b.{.{.g.8 g 8 g j V j g 7 6 q g g g h g w N N Z D D B h 8 8 N N V C g % 8 a a j K V g 8 8 a V S V N h g N N o.<.<.X.Z q g S 4.<.p.} N N q S S ) ] Z N t Z | _ | ) N N N N S S U C g g g g V S S h & s a {.+X}.+X..g B S V.V.V.<.N g g I F.H.H.>.q 6 s g N S V N a a V ,.C.D.Z.( N g N | ;.;._ N g N V V C V g g N V S } O.O.N N N V I Y Y I N N t X.Z.C.D.X.N g g V U U D V N N V V V V N g g g ) t.V.V...g j a f.,X+XeXq.g N Z ` X.O.o.S N S O.{.}.}.{.I S N D | | | ) A Z S y.+X}.{.I N t ( >.<.,.o.Z t Z ( p.p.p.y.N g g S } | U V N g g C N N N N N N N Z D D S N N V S o.,.:.] N N N N S S A N N N B D @.@.D N N N ) a.Z.Z.o.N N j g h U C q q g N V C h h N g N N N V N j g g g g V C V N g g N S I | U N g N t t.t.1.w.a 8 q q C j k a , , a N S ) ) g a g N S } I S N 8 q N 4.4.M.X.g a g j j j N N N N q w.R.E.|.N a a a k C C k s a a a a s s s a % , , % % a a g % a V L U C g 8 8 a a f s a 8 8 q N A A B g 8 a g I I C j a % g a a a < < < < < ",
", , % a a a a a a a a a g g a 8 a 8 8 8 8 8 8 8 g 8 8 8 g g a a , , g N N g a , , a q t t q 8 , a % d , , a # g 8 a g g g a 9 w g g a a 8 8 g N g N N N g g s a N N g q a a a j j j N N g h h g g g g g g g g N N N N N t q 8 g Z t Z N g N q N Z Z Z t t N N g t N t t Z N q N q V N g C B g g V N f & s # j V V S g 8 h N Z Z ( Z g g g g ) Z ` N q 8 s a g S N g a a g V ) ( ( t N g g S ( ` N q N N N g g j g g N N N V S S N g N N j V V V N Z q Z Z S S N N g g N V V N g V N N N N g g g h 8 Z ( ( ( V g k 8 V I N } N V N N N N S Z V N N V j j K j g V g g N V N N N N S N V j V g B B Z ) Z N V N t Z N ) N N V g a a V N N N N N g g g g g g g N N N N N g g N N N N N Z Z N N N g 8 N N N N N g g g h N g g N N g S t Z N q N N g V V N t t N N j g N g g g g g N V V N N g N g g g a a g g N N N N g g V V q } S Z V 6 N N q g q h a a a j N N Z N g a g g g N N N a 6 g 8 N t Z N a a a a a a a a g g 6 g g q N # a a a a a a a a a a 8 a a a a a , d d d , , a g a a g g g g g q 8 8 , , , % % 8 8 q q q 8 8 % , a j j g g a 8 j a 8 % % % < < < ",
", , a % 8 % % % a a a a a a 8 % 8 8 % % % % % % a a % % a a a % , % 8 0 t q a , a a g N N N a , 8 a j v K j g h 8 8 a a a g h C g g a a % 8 a g g g g q a a s g N Z t g g g j j V g 8 8 g N g 8 g g g a a a g g N N N N N j f g N q N g g V q N N Z Z N N N V j N N N N S N g N 8 N N q N N q g N g , < f k S S S S g 8 a g ) } Z N h k g j S Z Z Z B z c s N S S V j j j N Z Z Z N C g g S u ( N g g N N g g j h h q q N N N N g g g g g j g g V D N S N V j V g g g g N N g g N g g g g g g g z k S ] u Z A B h a I S N ) N D N N N N N N N N 0 V V K I N g w g g g g g N y N N N K K Y I F y Z Z q 8 g B N V S S N g N j s j N N N g N N g g a a g g g g N N N N g a j j g g N A A A V C j g g N N N g g g a 8 a 8 a C N a g N Z N N V N g D N N Z Z N N g a g g N V N N g g g g q q g N N g a , a g g g g g 8 a j V 6 I N N g 8 V D N N 0 q g j j j N N Z N a a g a 8 8 q g g a k 8 N q Z N a a a a a a a a # g a j g a V V a a a 8 8 8 8 a a 8 8 8 a a a a , , d d a , % % a a 8 6 8 8 q g a , % + + + % % 8 8 8 8 % % , , + a % 8 j j a a a a % % % , & % ",
"% % a , 8 8 a a a a a a a a a a % % , a s s , , % , , a a a a , % 8 q A _ D g , O 8 N Z Z N 8 # w w % 8 % % h w # 8 j V j g 8 6 g j d a a , a a a g g g a a < , N ) ) S g a 8 a 8 N I S N g g g g h h g a 8 a g N N N g g a % % g 8 a 8 8 a 6 V A _ S t 8 a d j N V N q q 0 q I } | V q g g g N C g , + + s N Z u t C k d k N N S g a , % g S ) Z N h & & 9 N N t q a , a a g N N q a + g D ( ` ) V g j V V V V N h w y A D A V w 8 a a d j j g g N 0 B 8 C a d j N N N V N N N N g g V D D V g a 8 N ` ] ) V a a a V } O.O.S N g j V K V N N h g C N g N N y J h g g g B B F A N I K K j g 7 p B S V g C k w h g N N a a , + a V S S S V g g h g h V h N g N N V V j j d d j h g B B B q a a d N V V g g a g g a k a a k j a j V V g q g q q @.' _ Z t 0 g j K C B N N N N N V S V q q q N V h , , , a j N N N C g a a + I K K K 8 q q N _ S A N g 6 8 N S ` S k s % a a g a a & O s O h 8 V g a , , s f f s s a k a s k a a a a a a a a a a a a a a a g g a a d , , d v L j a a a V C C V g 8 a , , , > > > % a a 8 8 a , > , d K K j j a , j a a 8 , a a % % ",
"% , , a a a a s a a a a a g g g % % a k E E k a + % s k k j d a 8 N o.Z.L.a.U a a V %.Z.Z.u.U g w F B U B q F 6 B @.s.I.I.&.V 8 g j j j d a a a a g g j k s % 6 >.D.!.I.w.S N V I.uXxXiXs.N g g V C C k g 8 g g W @.@.E C s < s f a C g a h S u.T.`.L.+.N g j L #.&.| S Z N } I.I.I.&.N N N V D | D k d a G [ %.3.D C g % g | &.&.V C f a L ..&.o.| F 9 r x D D D B g d j C D U D h g g =.U.Q.%X2.S g g I I U U N g w A [ =.@.D g 8 a a k v C V B N q D C $.j j h N V V S S S S N N V U &.&.| V a a } t.V.p...g j Y {.rXkXrXd.g g V I ....D C g 8 V | U #.W w z h g V C D H J B N g.XXXXE.&.w F N | W E E h 8 g g C @.D k f + f S o.2.&.I g g j V C U C N g N V D U U L a a g C W =.=.H g g j K U U D N g g j C C E C a a a g L U D N N S | 3.].'.L.2.S N I s. XOXI.+.N N X.L.oXE.p.} N N N Z N s a a g j V D U C g a K T @XeXpX|.U g N | U.T.U.+.S N S ,.F.!.I.C s % 8 g k k a x < s < ^ E #.U a a a h k E G k a a O a E W C C 8 a g k k g g a a a a g g g g a + n n.fXnXfXc.a a V i.I.I.i.S q a , s d 1 , > + , a g h h s , > , n.aXnXuXr.a + a a a a a a 8 + ",
"% % % a s s s s % % a h k k h a h 8 6 C ! ! ! a a 8 a C ! T j a N ( m.%X;X%Xa.N N Z C.(.-X^.| g g g A _ _ A N N N :.%X1X-XD.Z N g j C C k g a 8 g j C C k g 8 q ;.$X<X>XF.) S I +XHXmXHXXXN I 8 V D E D g g g h @.*.j.=.N 8 8 h f G g g C 0 N Y.-X>X>Xm.Z N V =.i.a.+.` Z Z ,..XoX:XF.` Z Z ) ,.:.:._ B q N %.4.M.2.H g g S ,.C.2.I N g g U &.*.i.| g 8 h G G C W B q q N L U U C g V Z 4.;X<X1XY.) N N I &.| *.D N t A | 3.i.u.C g a g C L V V N g N V | ..U V V A A ) ) ) ) S Z N S o.a.Z.:.) S N X.V.D.D.2.V I Y 3XDXNXDXF.g N V | &.2.@.C g g C @.2.2.@.C a C K I | _ D N N S ^.2X<X2Xt.N N V } &.#.L g g g N S | U V g a h o.4.i.&.I g a g D D U D V N N V | @.#.U h g g C *.3.3.o.V g j L T ....I g g N U U U U V q q V #.| S S Z Z ) Z.>X>X7X<.] } S |.iXjXrX>.( ] m.0X<X0XG.` N N S ) } S V N N N S S } I I N I I NXNXDXcXj g } X.:X1X%XS.` ( ] D.-X-X>X#.f % a k k k G a 8 8 k W $.! E q q q D #.*.#.L 8 % a C W @.} S 8 8 a g j k k g a a a j j j j d n + wXPXDXPX|.a g N H.H.;X-X] Z g a N C C k , , O h B A B a + 1 4 wXGXGXAXq.d d , a k h a % 8 a ",
"% % % a s f f s % % , s k k k a O 6 w @.#.U U a g g h D #.#.K g t Z V.%X;X(.4.q 0 N D.-X>X^.S 6 a j D _ _ A N g N ,.*X<X*XD.Z N g j C C C h a 8 g h C C k g 8 t m.<X1X>XF.S N V {.FXDXHX{.j j g V D U D N g g N $.j.j.=.C q q g h E h g D N ) !.>X<X1XC.Z Z N @.l.a.2.) Z Z 4.>X,X,X!.o.Z Z ) +.<.,._ B g V o.p.4.o.B q q S <.C.d.+.S N S | *.i.e.@.V g C E W W Q G g g V D U L C g N Z m.<X0X0X!.} N N | e.#.e.D N N S &.i.a.u.U N g j V U U U N N N S | ..| D N N A _ +.,.X.} S N S &.a.C.<.` S N X.D.S.S.&.g V Y 3XSXNXDXF.N N D %.5.3.%.C g j L &.5.3.&.L j j V ) _ _ S N g V F.2X2X2Xt.N g S O.w.w.T V j N V U @.@.D C h V +.p.a.w.U N g g U | @._ A N N C &.*.*.@.B g B @.3.a.i.+.V g j U ......S g g V | #.#.@.S g N D #.| | ) ) Z ` S.8X>X7Xt.) ) S XXpXgXrX>.Z ( m.0X0X0XH.o.N g V } } S V g g N S U | | S g K  .bXSXHXaXK g S X.:X1X>XD.` ( ` D.:X;X>X&.k 8 g C C C C h a g C ~ e.$.W h g N D *.e.$.U a % a k U | } S 8 8 a g k k g a a a a j k j g a 1 > +XJXHXPX|., g N H.;X;X-X] q 8 a g V C s , > + h B u B g > 1 n tXPXPXAX9.> , , a k k g 8 8 8 ",
"% % % a s s f s % % % a f k f a w h g E E L W g 8 8 g C D L N g a N u.E.^.I.#.8 s j u.A.I.d.j , > , s h k s , , % | /.:X).i.a a a g k C C g a 8 a g h k h g a g ;.!.~.W.z.V N j |.MXMXMXc.j a s C V C V N g g g =.=.=.W B g q g h C h g N q N s.:X-X.X<.S S B W =.&.| Z N N o.R.`.`.a.S N N V ) X.} j a , g U +.u...C f h D +.u.u...V g N S | #.#.U N g N C E W G h g g g N C C U h V N <.-X<X<XA.S N N U &.@.#.V N g Z o.2.2.o.V g g g N V S S N N N V I U U U g a g V I  .K g j j C U r.&.+.S L j ) 2.3.l.$.k a K +XBXvXMXc.a g V ' 5.5.o.V a j C | %.%.| C j j N S ) ) S N g V F.1X>X1Xt.V N S } .. .I V g g V S _ D D N g g | +.&...I j g g V D | D N q g N | &.&.U N q N D %.2.&.} N a h L ....I V g g V U @.| D N g g V D D S S N N Z a.oX'.,X<.) S I E.uX,XXX .N Z :.&X%X).Z.G s < g V S C h 8 6 a k x x x 8 a j q.pXcXmX6XU V V X./.'.'.p.` ) ` p./.).'.@.g 8 g C C h g g 8 8 g E #.W L a a a C T #.T b , > , 1 b R K j a a a g k k g a 8 a a k k j a , 1 4 #XAXFXBXn., a h P.~.].T.D g , , a k d , > ; ; , a q g , . > n wXAXAXMXq.d a a a s h s a % % ",
"% % % , a s a a , % % , a s a a h 0 # g g g C 6 8 8 w w g g g a % % j I I V d O < + j V V j % > ; ; < & & % > > 1 j I S S N + d % a g h g g a a 8 a g g g a a g t X.S D G 8 a , a 9.9.0., , O + g N N g g g g g C C C B g g g g N V g a g 8 q I X.X.O.Z q g 8 h g C N N N q N o.o.%.S q q g g V V j a , < d V I I V a < < a N S I V N g g N V V V V N g g g N C a a g g g N j j j 8 g 8 N >.>.1.O.N N g V U N D N g g N S } ) S N g g g g g N N N N N V V V V V a a a j V V j a a a d j K K S N a % g A Z D z s , % I y.q.d.j O g N Z ] ] S g a a g S ) ) S j d d j N Z A N g g g } V.;.m.( g j V S V K V j g g N N N N N g g g S ) S S N j g g N N A Z N N g N S S S V g q N V S ) ) S g g g j U S V N g N N V S V V N g g N N V g g g q t ) 2.X.2.Z N N g I r. ...a % 8 y %.] %.D s @ @ s h V h s < & < < 3 3 c $ f a g q.q.q.T a g q Z %.) ) ) q g q S o.) o.V a 8 a j g g g g 8 8 8 N V V h % , , a j V j j , , > , 1 d d a a a a a g g a a a a a a g g a , ; . > Y r.9.4 o > + J J [ [ 6 % > > , d 1 , ; ; ; , a a h , . ; > P 9.P r.% % a a 8 8 a a a % % ",
"% % % % a a % % a , % % % % % % 6 8 6 g g 8 V 8 g w w w 8 8 g a 2 . , a % , < @ .   a g g g O > ; ; > % & @ 2 > , , g q N g . 1 , a a a a 8 a g 8 8 a a a 8 a g N S 0 8 h & & , d d + , , M 3 3 8 q g g g g g g q g q q q g g N N N g g j g a g q q V g q h 8 s 8 a a g C g q g 8 g 8 8 h k a a a a , 2 s a N N S N a a , s g g g g g g N N N g N N N N N N N g a a g g N N N g g a j g g V t N S g S N N N q N g N V V N N N N N N g g g g N N N N N N N N N N k a j j N V K K j d a a a j j g a a V _ Z y w O ^ k g N q S h x j N Z Z Z Z g j j g Z Z Z N j j j g N N t N g j N N ( u ] N N j V N N N j j j N N N N N g g j V S Z N N j j j j N N t N Z S V N N N N N N N N N N N N Z N N h g g g g N N N N g N N N N N N N g h a a g N N N N t N q N V g g 8 a a % & r 9 q 6 q 8 & = & s N N 8 a f s < 2 @ @ = * c w q q q 6 6 8 h g g N 8 8 g 8 g g q q 0 N g g g g g g g g g g g g g q g g , , a a a 8 g g a , + > , , , + a a 8 8 a a a a a a 8 8 8 a a , 4 4 , , a O 1 1 > + 9 e e w $ % > > , , , > ; ; > , a q g a . > d j % + C 8 g h % % + % % , , , ",
", % % , , , % % a a , % % % % % g N g g % # g g g w w w q q g a < @ s j a a < 2 < % g N N N 8 s > > < & 9 & > > , a Z Z ) S O , a a a a 8 8 a g 8 a g g a 8 a g N ] t q B 8 h g g j a j a % @ O 8 g g g g g g g g g g g q q g N N N N g g g a a j g V N j C a f s f % % g g 8 a 6 a a a k h % 8 a a s s a g Z ( ` S g a s k V N g g g N N g g g g g g N N N N N a a g g N N N g N g L j j V g N g g S g g g 6 g g g N N N N N N N g g g N N N N N g g N V V N N N N N V S S V N V j g a g g N g E V S ) Z N k 9 8 a N ) ) S 8 6 h N N u Z Z g j j g Z Z Z N g d d j N N N N g j I S ` ( -.S K j N Z N N j g j N N N Z N g g g g N N N g g g j N g t t t Z N N N N N N g N N N t N N N N N h g a 8 g g N N N N g g g N N N N N g a a 8 g N N g 0 V N N V C C j a j g l l l z N N g a < @ & g Z u t g g a , , + @ $ $ z F u Z ` ] g g C B h g g k s , f k h N q A g a g g a 8 a g g g g g q q q g a , a g q q t t g 8 8 , , , , % a a 8 8 8 a a a a a 8 8 8 8 a a . , j j j % , > < s h y y y 9 < + , 8 8 8 , > > + a q q t q % , O 8 a g G 6 9 # 8 % % % % , , , ",
"% % % , a a a , , a a a a a , a g a a I T T T 8 8 8 g h C k g 8 O O 8 N g g 8 O 9 6 Z ] ` ` q 8 , , h B B h 8 8 V S ` ` ` Z 8 k a g g g g a a g a g g g g g a N t ;.` X._ q t N N } O.y.| q F B g N C V g g g g h N N h g g h S O.>.>.I g a s a g a h a 8 a + a f k a % a a 8 g g k a a s a % g N N g 8 q Z ;.V.m.;.Z 0 8 g Z S S V j g g g V V N N g g N S S S C g a g S ) } ) S q g 8 a j a j N g N g g V g V g g g N S I } S N g g N V D S V N g N V I I S Z Z Z ) X.<.<.;.) S Z N V D D Z N S N ( ;.;.,.| g V S ( ` ` ` _ D g N S ' ` S j a a j S ) _ S j a d j S _ D C g g g N X.` ;.Z j + V S I I V j g g N S _ _ V g a g N N V j g g g g S ) _ ) Z N N N I } I V N g N N ) } ) S N g 8 h h N V N g g N N N N N g g g g h k d a a g N V V D g g q 6 g g g V N 8 % 8 g N S S V a 8 g ` m.m.,.) N q a a a a x k y u u ` N.-.@.g 6 8 8 6 h s , . > % a C q V g g a g N V N N g g g N V S V N a a N S :.<.:.` u t y g h h g a a a a a a g a a a a 8 a a s a 8 a a V q. .q.K a # 8 N ) ) N 8 # 8 g B A A B a a 8 S ] -.6.( q 8 g C a 8 8 6 F J 8 h k f s , , , ",
"% % % a s f s s % a s s s s s a a a K @XxXaX4XK a g C W $.W C a 9 & N _ ) D G 9 w A K.(.&X!._ t a g D [ { H B g N 2.>X8X8XT.N a a g j k j g a a g g k k h g g N 1.$X-X).K.] ( ] C.XXH.^.p.q A 0 C U U L g g g h g N C h g g N ) ^.XX^.p.N 8 h f G h C g g h g G k E k s g a a k C C g 8 a a g E D D B h N o.G.<X<XH.:.A A [ 5.a.*.#.V g g g C W U C N N S | &.*.#.C N N X.4.A.K.a.D V a k E b L U j V g V W L W C g g V ..u.u.+.V g N V | #.#.| N N N S o...| ) Z ( ;.S.>X1X(.D.( Z Z D [ [ ( Z N S V.;X2X2XE.S t ` ;.1.V.;.) N N S o.4.4.&.K a j C %.5.3.%.C d a j D @.@.D h a V S Z.Z.Z.} R d I o.&.w...K N N D &.3.3.| V g g V D W E C j g N &.3.a.2.) N V I u.u.u.| V g V | u.u.u.o.N q h G C D C V g g N U U U U V g g C D E R C g g N U @.#.D D N 8 N C | +.) C g g D ) O.O.} N g ) C.$X<X%Xp.) N N K K j h V q ] ` H.*X%XP.G q C h h E d M > , , L $.[ @.V g g N U r.*.#.N g g S #.*.#.U N g Z ,.Q.&X_.M./ u A A D D V V 8 a a g k k g a a a g h h h a 8 g S }.kXkXkXd.% 8 B } >.>.} D h w B [ %.=._ N g N 3.Q._.Q.5.t 8 g L C $.~ B h # h C E E k a , , ",
"a % % s k m k k , % % s k k s a a d K uXnXnXaXj % 8 g L $.r.U a & 8 N S ) ) B w B A Z.(.*X%X:.N g N _ %.%._ N g N 4.qXqX8X).t g a g j k j g g a g h C C h g g N ;.;X-X>X!.u ] ] t.;X-X-Xp.t _ q U U ! U h g g g C C C C h 8 N &..X1X>XA.Z q g C k C C B g g g C C L C j a 8 g k C C C j g g C U U W G w q ` H.0X0X<X<.t q A 4.5.i.#.V g g g C W C V g g Z | 2.i.=.D S Z ] C.~.L.K.N D j % C W C C j g g C W W U N g g N ..u.d.u.V N g V | &.&.@.N N N S o.&.+.| ) ( ( %X2X1X7X<.( u t A [ %.' Z } Z V.3XjXjX.XN N ) ;.m.V.<.) q g N 2.4.p.&.j j a V &.a.l.&.C , d V | %.@.D g a j ..p.Z.a.| a a V o.i.i...N g N S &.i.i.o.V g g D W #.W C g g V &.3.a.2.) N N S w.u.w...V g N I u.u.d.} N B w k B #.N 6 N V g T w.U U g C g V W ! T K N g N S #.&.| D N N V U @.o.} N q q N } >.O.} V g Z D.<X<X7XZ.Z N S K K K I V Z Z ;.%X<X;X].N 0 N q h E d d , > , C W @.| V g 8 g U r.e.$.S N g V @.&.#.U g g t a.>X1X&XM./ u i A H W D N a a a g k k k g g 8 a k k k k 8 g g }.bXhXmXg.g 8 N } y.y.O.V 6 g N %.6.%.=.q q 0 l._.&X&X4.t g a K #.$.W h 8 8 g G Q E E s + , ",
"% , , s k k k f % % % a f k s a % a P uXMXMXaXK a g C W r.r.T j % a N ) } ) B g 8 A L.>X1X%X_ 6 g V | %.%._ V g g u.jXzXqX>XN g a g k C k g a a a g k k h g a g >.-X-X,X~.( ] ( D.>X>X>Xp.t B 0 W W ! U C g g g C N C C h 8 h o.;X2X>XA.) q w h G C D V N g N C U U V j g a g C C C j g g g C U U U G h h o.H.2X2X-X2.A y D l.a.i.#.V g g C W ! E C N g Z | 2.i.*.D Z Z ` D._.S.Z.N N C C W E C V g g g C R W U C N g S +.d.d.u.S V N S @.&.&.#.S N V I &.u.&.| S Z ` ).7X7X7XD.Z Z N D H W D N N N V.rXzXkXXXN N S ;.m.C.<._ N g N u.K.L.a.V a j K 2.a.l.*.L d j C o.%.@.D j a j &.Z.Z.a.| a k S +.i.i.#.V N N D &.l.a.@.S N C D U @.U C g g N &.a.l.3._ N N I i.d.d.&.I g V } d.p.s.| N h 8 x h E C N V g g U ..#.#.g V g V C U U K N g N I o.&.| S N N S U o.+.| C g g C } +.O.} V g S S.<X<X8Xl.Z N V N j K j g t Z >.-X2X>X`.D q A N N E k d d , d L | @.o.S g g N #.r.r.&.V N N S #.e.*.#.a g N a.oX>X>XL./ u u A H W C g a a g k k k g a a g g g g g g k % N XXvXvXvXd.% % g I O.q. .j % g N *.3.%.@.g a g l.'.&X&XM.N g g K T #.U N g g g E $.~ E f + < ",
"% , a s s s s s % % a a s s s a j d j n.uXuX@Xj a g V L W T K a + , j I I V a , % g u.F.F.d.V 8 1 d V S D V d a a  ./.)./.s.a d a g k C j g a 8 8 a g h g g a q } F.a.U.k.N N N X.A.E.A.| q 9 8 C C C C g g g g j g h C h a g _ S.H.S.2.Z N B h D D A N N N N N U S N g g g g g C N g g g g V V V j f , s L p.H.H.F.D g h B *.&.*.| N g g C L C E C g g N ) o.&.*.D N Z ] 1.V.t.p.N q g C U N D g g g g C C L L V g g S o.u.y.+.S N N V D | | | N N N S | +.| I N N S u./..XF.O.N N h C C C V g j j O.F.XXXXr.j s h S o.o.| C g j g } :.2.&.V j a V | 2.2.| j a j V D ' _ C g g g ..4.4.:.S a d S | &.&.U N g g S | &.&.| V j N D U U C V j g N _ %.3.%.Z q g N &.+.&.| V g N I +.O.,.} N g 8 G C V C L N a j I V I T a N g C V I I V N g N S | | S S N N Z S | | C s & 9 h S | } V s 8 g 2.!.!.[.=.w g a a a k k a q g S s.^.A.i.N q N t N S j a a a d j S S S g a a g C U W U g g g V D | @.U , a a U i.s.z.&.N q 8 g k k j a a a a k k k g a a g a a j g a a , K g.6XuX6Xr., > < C D U C 1 > , a W @.@.E , , a U a.L.K.| a % d v K K K V g g q D E G C a + , ",
"% % a a a a a a % a a a , % , a j j a v v v Y a 8 8 g g j j a , > , g N N j , , , a V S S I a d 1 1 a a a a , , d j } Z S V + 1 a g g g g a a a a a g g g g a a N U g B F 6 w N N S  .S g h & s g g g g g a a 8 g a a g g g g N ] ` ` Z t N B N V N N N N N g g V N g g g g g a g g g g g N N j j d , > > a V } } } a a a 8 S S ) S N g g g h g h h g g N Z S S D N N Z ) X.X.) } V g 8 g V q D g g g g h j V V g g N N S } } ) Z N N N N V S S N N N N S S S V g a N V O.O.S N N g g g d d d d s k V I  .Y d s s s y Z S V f , j g S ( ( S g j a g Z ) ) Z g a j N S Z A N g j g S ` ` ` N a a S S S S V j g g N Z S S Z N g g V V V N j g N N Z ) _ S N q g g V V V V N g g V } S } S N h 8 k C g g N g g V K j V K 8 N g g N N N N N g N V S S S N N N N S S N g < $ & 9 g N V g s & % C o.' H w 9 8 a a a k f a g g g V I N D 8 0 N t N N g a a a a g g N N q 8 8 a g g g g g g g g g N N g , 1 % j V j V 8 8 8 % , a a a a a a a a g g a a 8 a 8 a L j % % + , 8 g I j 1 ; > > 9 w k f , > > % j g h k + > , a S _ Z g , + 1 d d d j g g g q N g q g a % a ",
"+ % , a , % % % , a a , % % % % + a j d % O a a a a 8 8 a a a a , a g g g g , < + % j g g j % > 1 1 , a 8 , , 1 , a N N N j > 1 , a a a 8 8 a a a a a 8 8 8 8 a g g % % w & 8 h N g g 8 8 k 9 s a a g g g g g g g a 8 g g 8 8 g Z Z N t q g g q q t N N N N g 8 N N g N N g g a a a g g N N N g j d 1 2 , , g N N N a f h 8 S Z N N V V N g g g g g g g N N N N q q N S Z S S N g N K g g V N D N h g g g g g g N V S S Z Z Z Z S V N N N N N N Z Z N N N N N N g g N g S S N S N g g a a a d a % s N V S j a s c s w t Z N a , j g S ( Z S a j j g Z Z Z N g d j V S Z N N h j N S Z ( ] S a k Z Z Z N N N N N Z Z Z N N N g g N N g g g g N N t Z Z Z N N g j N q g N V N N N S N S N N N 8 a h g g g g V V a j j j a I a a g g g N N N g g g N N N N N N N N g a s < s 9 w N N a < 3 & s N t w 9 w h g g a g 6 6 h k 8 a g 8 a 8 g N N N N q g g g g g g g g g a a a a g a 8 g g g g g g g a + , O a a 8 g a , , s , a a g g a 8 8 8 a a a a a a a % a , , , d b g g N 8 d d > + 8 7 9 8 > > , % g 8 8 a > 1 , 8 q t 0 8 d 1 , , , , a g g q q g 8 6 q g 8 g ",
"% % % a a a a , a a a a a , % % 8 a a a d a a a a 8 8 9 a a a a a a g N S N a % % + N N N j % > > , a g a a , , , j Z Z S g > , , a g g g a a a 8 g g g 8 8 8 a 8 g a s z 9 6 g N S V N g a s & a g g g g g g g g g g g g 8 8 g N N N g g g h N N N Z N N g g a g g g g g g a a a a g g g N N N V V d 2 < a N N N S g k h q ] ` ) S S N N h h g g g g h V N N N g g V N g I Y K j j v j g S N N V N g g h h N N N V Z Z Z Z ( S S N N N N N N N N N N N S S S V N j N S ) ` ` ) Z N g g h V N g f h S ) S S j h z h N Z ( S g a j g ) ( ) S g j j j Z Z Z N j j j N Z Z Z N g g N S Z ( ` S a a N Z Z N N N N N S S Z Z N N g g N N N N N g N N N Z u Z N N g g N N N N V N N V S S } N g N g k g h g g j j j j j j K a I g g g g g g g g g g g g g N N N N N N g g a & 9 h N Z Z g s 3 & s Z t N B g g g N N g N 0 y A w q g a , a a g N A N q N g a a g g g g j g a a g g g g g g g g g g g g % s % a g a j a a a a g g N N N g 8 8 a a a a a a a d j % , j d + % g V t g % + < & q q t g a , a 8 N N g g , , , g N u t q , , > , , a a g g q q N N q g g 8 a ",
", % % a f k s s , % % a f f s a h 8 8 a k L g h 8 8 9 z z f s g 8 q ( :.4.&.C 6 9 8 S S S D 8 < , a V D H B a % a V ( ( ) N a , a j C C C g a 8 8 k E E h a 8 g g N V C C g 6 g } F.F.F...8 k a j C C j g a a g j C k g a a a g g g h h s a h C I I I V g a a k C C C g 8 8 a h f k h g g g C | X.} V g a h S X.` ` t B A ( m.G.D.>.S N g N h g h h g g N V S V C k j g K g.@X#X|.v d d j S S S C N g g V D D S V N N S >.p.C.p.S N g N S D S Z N N N S &.i.&.) S S Z p.D.C.G.` ( ( Z _ @.| ) Z [ Z X.V.V.V.,.N N A ' :.1.;.S g V V u.F./.I.I j a g Z ( Z Z g a j V } o.' S g a N } X.;.:.S a a Z ) _ U S N N N S o.4.2.} N g g S S I I V N N N S _ ' _ N g a g D D D D N g V ..E.E.E.O.g N g C C C j V V a K |. X@X|.j j g K j C h h g g g g h j j g g g N V S S V g 8 q N ` -.o.S g s 8 k | X.| ) N t Z >.p.4.Z.] u i t N V g , 1 , 8 V D D D V g a a j L C C k a a a g k h g g a 8 g g h h g h h q N V N V g 8 8 g D 3.a.:.` q 8 a g k k a a a % T  X X Xg.a g q y.H.J.XXU g w g ) ` X.) N q g N 2.4.5.%.g 8 6 _ 6.5.5._ 6 % < < < s g g g g N #.i.&.| g % 8 ",
"a , , s k L k f % % % s k x k g # 9 k W j.$.k k s 9 h J Q G h h q A :.S.).Y.*.h 8 q o.4.p.3.B 6 a V @.*.7.@.B 8 8 _ o.5.5.D g 8 h C W ! W C a 6 g C $.$.W h g g N K U C D N q ) F.kXkXkXE.q C g U #.$.W C g h V C C C C g q g h C G G k a 8 g C w.&.} S g g k E *.*.@.C g g C E G G C g g N U *.C.u.| j g N | :.2.:.N A ( -.%X1X2XE.} N N V C h k h a a g V D U j j a j f.aXLXLXMXh.a j j U o.&.D N g g D | o.| D N N :.!.1X1X>X) V N V | &.&.| S N Z +.U.`.K.2.S ) ) ).1X1XqXm.] ( ` 2.4.5.o.( A t V.<X0X2X/.Z Z _ 1.V.J.V.o.S g  .,XxXBXkXd.8 g N ) o.o.) V g K O.p.A.a.&.D N S ,.D.D.p.| g j ) o.2.e.#.U V N o.s.`.T.u.S N V ) o.+...S N N Z %.4.a.&.D g g C o.&.*.o.N N ..A.nXvXlX^.S N g k W W V K V % q.nXLXLXnXq.a a U V | D h g g h V V U C h g g N D }  .} N g N ) :.4.Z.o.V g a D u.p.p.o.Z Z X.F.:X>X:X5.u t A D @.D s f a 8 D *.*.k.D V g j W #.$.! k a a g j L L C h g g g k C C h q N 0 S | | #.D g q V 3.].>X_.4.q 8 g k C j j a j % c.MXLXIXuX8 N Z XXvXgXvXa.t y A X.1.1.;.A t Z o.~.&X'.L.S g q a._.&X9XK.q 8 % s s s h g q q _ P.OXOXz.S 8 g ",
", , a j C L C k % % % s x G k g 8 q g C ~ $.E k a a a C E E k g 8 N X.F.).!.&.q 6 N X.<.C.,.S q q N %.3.*.%.N q N S o.2.%.) N q g C $.$.E j g g g E *.e.W h g g j K L D D Z Z ) J.gXgXkXJ.q t t | 2.3.%.C q q g D _ _ D N w w w A _ D V N g g U %.o.3.' t t N *.&.&.%.S N q V D H D V g q N | 2.p.u.I a a j D %.2.o.S g N ;.(.1X,XY.} N N V C k E a a k h h D C j V N g f.kXHXBXDXY j I I +.} +.} N C g S O.X.O.S N t -.$X0X0X>Xo.V g V | ..| ) S N Z o.U.`.L.4.( X.( H.iX2X>X1.( ( ` :.4.2.o.( A t m.=X<X<X(.] Z ( ;.V.J.V.X.N N N 2XhXNXbX .N B N ' ` X.o.N N Z ;.V.D.t.X.Z Z u p.J.J.F.o.q V ) o.&.&.| V N N o.L.:X'.p.Z N S ` :.&.o.S N N Z o.,.p.,.) N N S ,.>.>.) ) S ) F.kXvXvXJ.N S 8 G H U ..g V j Y mXAXFXnXV g 8 V S o.X.S N g N S ` X.) N g g N } O.} I g g g N &.2.i.| N q N | u.a.s.+.Z t S A.>X:X>X4.t t V V B E k a % a C =.j.k.D N q g D #.&.#.C a 8 a V | U D g a 8 a k C C j g a g V @.&.| S N N g i.OX:XH.` g a a k j j j a a a h.IXMXLX@Xg Z 0 H.kXgXkXC.Z t Z X.<.t.o.Z t Z ` _.&X&XY.S q S a._.&XQ.4.N g q q h h h g q q t ].>X:XU.N 6 g ",
", , a g j V V j % % & s x k j g q q N E @.@.L j a g g C R R j a 8 N O.D.^.F.@.g q V X.<.t.,.D g N V =.*.*.#.V N N S | #...I N g g C #.$.W C h g g C $.$.U h g g d j C F A y Z Z XXkXpXkXF.V B A o.2.2.&.D g h V D _ | D N q 9 h A _ D N h g g | &.%.5.' u A A %.&.&.o.S N N V D D D V N g N | &.2.u.U d d C U &.%._ N g V ,.(.2X6XE.+.N g j V j C a a k g h D D W U N N f.kXPXPXmXq.j V g S } &.} N k g S O.X.} N h N :.$X0X0X1XX.V g V | | } ) S Z Z o.L.~.L.p.Z X.) H.2X,X,XD.S Z ) o.5.5.o.D A Z J.2XgX0X!.( D _ >.t.D.p.o.V D } rXvXNXbXq.V B B _ ` X.} N g ( ;.V.D.y.+.) Z Z 4.V.t.t.} N D } } +.#.| D Z Z :.A.).^.u.S N S ) o.o.| V N g N o.,.u.+.S N N D &.O.2.} S S } D.NXNXNX}.S V 8 k =.| | g V K 9.dXPXLXMXI V g D &.>.X.S h g N Z ] ) S h s a g } } } I g g N S *.*.*.@.S Z S +.u.u.&.) N N ) K.OXOXoX2.N N V V C C C g a g C @.$.*.D N N N | &.*.#.j a a g V | U S g a a s k C j j g a g V | @.U D 8 g g i.`.oX(.<.g a a s j j j j j j d.BXBXLXeXI Z t XXkXpXjXu.t t Z | +.2.| Z t Z o.~.&X'.U.I g q ,._.>X&Xp.g % q N h k f a a q | '.>XoXK.N 6 8 ",
"% , , a g j j g % & & s s k h g 8 q g C C C h a g g g C C j g a % a S +.2.@.k # & 9 V D | D s & a a E k k L a a , a C L L j a a a h C D C N g 8 g V D D C h g g d f c z r w g g  .E.g.c.U % 8 6 V I I C g a a g j V I C g 8 < f h C g a d a a L @.U | N q g a C L K C j a a a k k j j g a g C U } o.V a d j V _ ' S g g g } C.S.A.&.S g g g V j k a a h g N D C f s a a I F.,X@X|.P a j j N C D L a s < N } S S s 9 h D m.G.G.Z.S N g V I I S ) S Z Z ) 2.4.o.} N S N *.U.z.z.| N N N S U @.D C 8 q ` C.H.S.+.g j C U @.&.@.C k d j p.F.XXF.K a s k B H D N d % N _ | ..T L B w N D +.O. .V h h S I I U D C N Z } ,.p.p.| N g g V C C k h a g g U o.#.U N 8 s k F H W g j j N q.A.E.I.o.q a f E W N U g g V K |.@X@X Xg N q N S } S h s 9 s N N N h s 3 < f V I I S 8 g N N | D U S N N Z S } | U S N N Z +.s.u.u.} N g N N g h g g a g j C U U N g g N S U | U d a a g V V V N g a s s g g g g a a g j D U D V 8 g q @.a.p.C.X.8 & a s g j j j g g K |. X@Xy.g N 6 w.|.c.|.U w 7 w B C L C h 6 g V 2.a.i.&.d , a I 2.a.a.U , > a a s , > > , a g ..+.u.U 8 % O ",
"% % % a a a a a % < & < a a g g 8 8 g g g a 8 8 a g g g g g a a % & g N g g & @ @ @ 8 q g a @ X + + 1 , , d + , % , a d a , , a a q g g g g 8 8 g g g h g g g g s < & & 9 9 s s O d , j a O 9 & a g a a , % , , a j j j a , , , a a , , d a a j N g N g a a , a d d a a , , , , a a a a a a g N Z ) N a d g q N A N g j j N Z Z N g g g g g g g j a g N g N S N z l k k j j j % , , % k W h N N h , < < g S Z Z s r 9 g Z ( Z t V N N N V V V Z N Z Z Z Z Z Z t g B 8 B C h C 8 N g g g g N V j k h t u ( ] V K a s k B B h s , d d q N V g d 1 1 f g C C a f , h N g j d f 9 9 h g V I V j s 6 N V N N N N N N N Z ) S V N g g g s s s s a a g g V V V g a s l & l x , a j a V g S g g 8 , f f g 0 S N g V g K % a Y 8 I V N N N g & @ = l h N C h < < 3 s j N N V q g N g N g N g q g g N N N N N N N q N S N N N N q g g g g a a a a a g g g 8 q q g g N N g a , a g g N N g a a a a a a g g a a a g N N N g 8 g 6 N S Z ( t 8 8 a a a a g g g j g g g g g g k O a d , j 8 9 $ $ & a s a & % a 8 N q 8 a + > 1 j g q g a > 1 , , , > ; ; > , % g g V g , f > ",
"< % % % 8 a a a 8 & < 8 8 8 q 8 g a a a a 8 a a a a a a a a g a s a q q q 8 & & = & & 8 a < = X 2 + , , , 1 > , , , a , , , a a g g q q g g g g 8 8 q g g g g q g 8 6 6 8 s s s , < % , s < c s g a a , , , , a g a a a a d , , , , % , d d a g N q N g g d , d a a d d d d a a a , a a g g g q Z ) N a j j g t t g a d j N Z t N g N j j g a a j a g N g N Z q z 9 s k g g j a , f a a N t u Z g a f a g S Z Z k s s N Z Z N g j j g g N N N N N N N Z Z Z Z A h z 9 h h h B h C C V N g g N N a C A ( ( Z N V a f k B h s , 1 d j g V V g f 1 1 1 a j g a 1 f k h a a a s s h k g N V j j k 8 N N g g g g g N N N N N N N j d , , , , < a g g q N N N g s s s & r c , d n , j N V g N j s f , g q V V g V g 8 g 8 V 8 V V N S g a & @ = 9 g g V g & & < s g g g N g N N g N g N g g g g g g g g q N N g N Z N t N N N g N h g 8 a a a a 8 a a g g g g g g g a , , a a g g g g 8 a a s 8 8 q a a % a a g g g a 8 a 6 q g q Z t 8 9 9 s 8 8 8 a 6 j V a g 6 q V r O , , , , + $ r = & % a s s & d a g 6 % a > 1 > a q q g a ; > % , , > ; ; > , a g q g 8 % 2 > ",
"2 + % a g j g a a % % a g g g g g a 8 a g g g g a 8 a g g j g g g g N Z S V s & < < a g g s 2 @ 2 , f s a f , a a a a a a a g g g g g g g g g q 8 q g g g g g q N Z S V N g a , s & & O s % a a g N g a a a a g N N N g g j a a a j a a j g g S ) ] o.Z q g , d a j j j g a a g j g g g g N S ) ` X.V a j j N N A N a , a j S S V V h g a a g k j g g N N S } Z B 6 8 g N N I L C C h 8 N ' ` ;.) g k g S ;.-.X.D h q N ` } I I g j N j N V V N N N V S S S S V h h h h B B C C N N S S S S S V 6 g ) ;.;.` Z g g k C C V h f d , j N S S N k , d 1 Y  .Y K , d k N j j d d h h N V }  .I K j N N N N N h h h N S S V V N g a a a d d j g g N Z ) ` X.} S g s f s s h a d j a K I } } S N j d k V N V N g N V g V g N g q N q N V N s < & 8 N S S N g s s j S I I I g g g g V g N g g g g g j N g q N N g N V N N N N g g h g 8 a a a a a a g g g g g g N N N g , > , a g g g g g a s s s g g g a , a g j N g a a h % g N g S N 8 9 9 s s a 8 8 8 a q g C V g 8 7 & s , d , 8 & 7 7 8 a g g a a a 8 N N g k > , + a N N V g > > % a a , > > + % 8 S N N g # % O ",
"& + % a C U C j a , a h C U D V 8 % 8 g k C h a 8 a g C @.@.V N q N X.t.D.p.D % a a g N N j < + a 8 k g h C 8 q q g C D A N t q q g j C C h a 8 a g j C j g g N ` m.S.A.O.V g a j a G 8 C g N V S S S N g g g N ) } } } S g g g V U U V Z u ( 4.Q.G.G.:.u t g L I | S N q q N D D _ ) Z u ( 4.L.L.A.} g g h N A H C s > , a N S V g a a a s k L C g N N Z o.C.C.a.' ( ) } X.+.} I g S Z ;.H.G.G.V.S N Z 1.H.G.G.:.Z t Z ;.>.O...j N N V U #...U V V N V S S S N N N V Z S _ Z Z Z Z ] >.C.V.>.` S N 1.J.$XH.C.S N V S } } I V h N S X.>.,.,.D k j K yXtXyX+Xj g N S I I I K N N Z A.XX}.}.q.N V V V L C C k h V V S I S N g , a j K Y I S Z ( ` V.G.H.D.X.Z N V S V I N g g N y.;X;X3XV.S S g D | @.S N g g C C N q C V N D S I } } V g 8 N X.t.t.<.| N g } F.-X@XE.I g g g S N V h g g g g j C D N g N q N V N D N q g h h h g k s a a a a k j g g g g N V V C , , , a j V V j g a a s k C C h a , a j L U L j s f & f C g S q 8 8 a f k k h a C k g C E @.C w 9 9 g % j a h w 9 w N S I V g 8 8 8 D A A B % % a B _ ( _ N % a g N C C k s 8 q N a.C.Z.4.N 8 g ",
"& + + g W #.W L a a a k W $.@.U a a s L ~ ~ L g 8 g C #.e.r.U N N ) V.H.;X.X&.8 a g V S S V a , a q D C D D q t t A @.%.=._ A t q j E ! W C g a g j C L C h g N <.%X1X;XD.} N g C g Q g C g V S ) _ _ D B N N V o.2.u.o.Z t g V U *.&.) Z u ` Q.qX1X1XM.( N N #.i.4.%.S t t D %.' 5.:.( u ` Q.8X8X:Xu.N g j C D B C f , , d D | C k h h k k k C W V V N ) p.).).'.4.` ( ` <.A.u.a.N ` ( m.<X0X0XG.X.Z ( G.0X0X0XM.] Z ` 1.V.p.d.N N V K #.r.e.#.V N N V | #...} N N S } +.,.X.X.) ( X.D.;X;XG.;.Z t V.3XgX0X(.Z S S } >.>.O.D B g S y.V.G.A.D N I q.SXJXJXbX .g N ) O.q.q.I S N ` ,XvXvXkXJ.S S V S U E C h g h N I | U V k s d I  .w.+.} ( ] ` %X<X2X-X1.Z N S O.O.+.S N N ) XXzXvXNX}.} } t &.*.x.#.U C q g B H h C g 8 V S | O.X.S N g S V.H.;XH.t.S N >.2XBXMXsXr.N g g U j C C h g a k L E W g g g g C W E W h 8 g C D E E k a , , a g j k g g g g S U U W f , , d V K K C h a s f G W D C s , a K #.w.! E 8 s + f G C H g a 8 a h G G C g % 8 h $.W $.C g 6 w V j q.j V q q N | +.q. .S q N N [ _ _ H a a 6 H 6.5.5.[ a a N D @.W E k g q ] _.)._.T.Z 6 q ",
"$ + + g W $.#.L 8 % % k W $.@.S 8 % a C ~ ~ L g a 8 C e.k.k.#.g 6 Z V.;X>X^...6 j g S S S I , % 8 N C D D C N q t A { %.=._ u q g C W ! E j a a g k L L j g a N ;.%X1X1XH.S g 8 a k G h D q } V S _ [ D h w w N %.3.i.+.S q 8 h @.&.&.) Z u -.G.1X1X1XM.u N N #.u.3.&.) t t S %.5.%.' ( u / L.7X8X>Xu.g a C D H H C f 1 d k V S D C g a g k E W W U N q ) A.).:X>Xt.Z Z X.t.p.d.i.} Z u m.<X0X0XH.) Z u G.0X<X<XM.Z Z ] 1.V.y.i.N g g V $.e.e.r.N g N S @.$.#.U V V S I O.+.o.} Z ` ] G.(.(.>X( t Z V.=XgX0XH.S N Z } >.y.O.S N N S V.J.G.C.A g j q.SXJXJXbXY N N ) O.q. .I V N Z ,XvXvXvXJ.N S V V L E G k g g N U I U V a d a V O.u.2.` ( ] -.$X1X<X1X` ) t S O.O.O.S N t Z ^.vXvXNX}.S } N %.*.i.*.D q q k B J H C N q N D +.>.O.I N q Z V.=X$X;X;.) S } rXBXBXxX..g g 6 U C C h a 8 a k L E E C q 8 g C D E W C q 8 N D W W L d a , a k k k j g a g V U @.W f , , a V U U L g a 8 a F E D C , % , V r.d.$.L 8 8 < s G G C h g a a k L R k a a g j E $.$.C g z 6 C a K j g N 0 N | w.q. .S q 8 N A [ [ C a % 8 A 6.5.5.A 8 % N _ =.$.W h q q ( ~.:X>XL.Z 0 8 ",
"& & a C @.$.#.L a a a k E @.U C 8 8 a k E W C g g 8 V #.*.*.U g g S p.^..XE.#.g s 8 V V S I , < a h C D D C N q q B H @.H B N q g j C E C j g a g j C C j g a N 1.%X-X.XF.I V j a k m a j 6 g 8 _ [ @.G k s f C @.=.*.@.C g f k L U U V Z Z ` M.1X>X>XM.Z S V U #.&.| S q q S | %.| _ ) u ( 4.&X>XoXi.j g V V B D B s , d k S S D C h g g k C E C V N N ) A./.)./.,.Z S X.,.u.u.&.S S ) <.;X<X2XD.S S ) G.0X1X0X5.A A S >.p.&.e.N g g C #.$.$.#.N g N V U | U I j j V K I } } S t S X.~.oX).!.u D S t.=X3X3XY.| V S } >.>.O.U C V S t.D.C.a.D C a q.bXJXHXcXY a S }  . . .I V N S OXvXvXcXF.N N V V C C k h g g V | I | U h k g U +.w.&.| ) ] -.(.1X>X:X` S N V } } O.S D D S I.nXvXvX}.} S N U &.*.#.D g g B B F G C N g N S | ,.+.U C g S t.H.;X-X} 0 q } 7XBXxXfXw.V V g W C C h g a a k k C C B g q g k C C C k g g N C D U k d a a a k j j j g g g V U U L M f d j K U I V g a a a k G C C s a g L r.e.$.U a a s s x F B h a a a j j K j a a a g C W W k 8 7 # L j 9.K a 6 9 h V U Y I N 8 8 g B D D k s , a C %.3.6.D s % g V E E k s a q ) L.~.~.K.S h h ",
"O # 6 g N N g a a a a s k C V g a a a g k C h g g 8 g C C C C 8 % 8 V } ..U f + @ + j g g k + < % a a a a a a % a a k k h s a a a g h j j g g g g g g g g g a g Z 5.o.o.I a , , , > c < k k k C g g a a + O % a a j j a , % + > d j j a j g N o.2.:.4.Z q j a d j C C j a a g C C j N N g g S 4.4.4.I a a j V A N g a a d j S S N V h g g h k C h N N t Z o.4.2.&.V g N S I U U k a g q S <.1.t.o.g 8 w ) ;.;.,.D 9 w q Z | C C N g g N S U U S N N N N V V V N d d d d j k j h C N q N | @.o.V a 8 S ,.t.t...g 8 a N N Z N g g a g _ _ _ D a d d v g.{.F.h.d d g g j j j d g g g #.F.g.g.K g g N N j j g g h N N S N S V g j a V V B N g q t N _ :.2.&.N B C C V N V g j j a U i.x.z.| g g j L D _ D V N g g g h h B N N N N S S N s & 8 q S ;.` X.V h k j +.s.c.c.j g g 6 V g h g g g g k j j N N g g g g h h h h g g N V V N j a a a a a g g g g g g V V V j a % a g N V N g j a a s h k N h a % 8 g V S V N a a a s f h g g a a a a j j d a a a a j j j g a l O ,   , , & s & & s d k d a % , , g g g s > > + % N A B a + . a a d f 2 > , a g | } | I 8 % % ",
"9 9 w g g g g a a % % % a 8 8 q g 8 8 8 a g g a g 8 a g a g g % & & 8 g g a & @ @ + a 8 6 a @ < s a a a a a a a , , a , , , , a a a a a g g g a a a 8 a a g a q q D q g s + , , 1 > , . + s % 8 g g a , , < , s a a a , , , > > , d , , d d a V g q N q a j d v a d a a a a a a a a a a g a g N u Z g % a j N N t g a a a g Z Z N N N N g g h h g V N q t t Z N h a a g g a a g k s k a g V t N N k 9 x S N ) S h < x g N S g h N N g N N N N N N N N N N N N g a 1 1 d d s s f h g h h C N 8 g f < N S Z Z N a s s g N N N h k d a D A u B a f 1 1 a N N a 1 1 C N j d d d z z k 8 N a g 8 x F g j j g g g g N S ) Z S S N C N D V y w h h h N Z N N N g h f 8 C g N j j v , j g B w w a % d a g N N g g g g g g g g g N N N N N g s l l h Z ) Z N B s c f 8 N a V 8 g j g C V g g g g h g g g g g g h g g a a g g g N N N N g g a a a a a a g g g g g N N g g a a g N V V V N g g a a a a g g g g g g N N N g g a a a a 8 g g a a a a a a a a a a a a a a a , r @ f , 1 d % & = $ % % , , % + > , a a a , > ; > , g N g g > > , , > > ; ; > , 8 N q g g % , > ",
"9 9 q q g g g g a , % % % % 6 8 g 8 8 8 8 a a 8 g 8 a a 8 a a % < & a g q 8 & = = # g q 0 a O < a a a a a a a a , a , , , , , , a a 8 a a a a a 8 8 8 a a a a 8 q C 8 8 f & s , 1 1 1 , , k c k g N g g g g a g g a g a a , > , a a , , d d , j g g N q a j , d a a a a a a , , , , , d j j g g Z ) N a j j q N t N g a a N Z ( Z N N N N g g g a g N N N Z Z N a < s j g g g g a & x f g j q N g h < f N g V g , < f a N S q g V N N g N N N g N N N g g g N g a , , s s s f f f a j g j j 8 j < 2 B D Z Z V j k g N A Z Z N a j g S Z Z S a d , d g D D g d , V N g j d a 9 z J q V N V a z 9 g j j g g g N N N ] Z ) Z t N N Z Z N N h h j j N g N g g g h 8 N q N N j K j C C B w h h a a , g N g g N g g g g g g g N N N N g q 9 l z w u Z ( N q # & x g V 8 V g g j g g h g g g g g g g g q g g g g a 8 8 q g g N N N N N g a a a a g a g g g g g N N g q g g N N N N g g g g a a a a g a g g g N Z Z N q g g g a a 8 g g a a a a a a a a , a a a a % a a & # d d , d O & & $ + % % , & % > , a a a , > > , a g t q a , > , % > > ; ; > , % N 8 q g % > > ",
"7 6 6 q Z S S N a a < < < 8 8 8 8 8 8 g N h g a g 8 a j g j j % + % 8 g g g & # s a D } } | 8 8 q g N V V N g 8 8 g g j g a a a a a g g g a a a 8 a g g g a a 8 8 C g h k 6 a a , P P 9.a % 8 0 ` X.X.) N q q g S } } V g % % % h N a a d a a j V N D t q g 6 g j j j g g a a d a a a a g j j V } X.V d j j N Z Z Z N g g S ;.1.,.} Z N N V V V h h h N V S S C s f j j N V S D g 6 s 8 g h g N N a % , K q.q.Y v , d j } y.X.+.S V N N N V V N N N N N V V V g a a s s k k k j V g g I q.q.q.K , + N ) ] ` S N g N S :.4.:.S 0 N N o.>.>.O.j a k C N Z Z N j j N S I  .I g 8 w A q } I U q r # g V V j h g N N Z ;.;.:.] t N t ` ;.,.| V g g j I  .q.q.V V V Z o.` O.) g g g N N N V N g g a j V V N V N j V K K K V N N N N A N N w 9 w q ( ;.;.o.V 8 h h N g g C g 8 g 8 8 g N N g g g N V V N N g g g g h h h g g N N S S S N g 8 8 g h h g N g q g V D D D g q q N ) }  .} N g a a a g g g 8 8 0 N ` X.) N g g g g h h g g a a a a g g a a a a a a a a a a a a j K K T g h 9 9 a a a a 8 8 % a g N j a , > , g Z ] Z q % % a a a , > > , a 8 S Z S V % O O ",
"w w N | s.I.s.r.a , < s s s h g q q g C W W C g a 8 g L L L L a a g S } X.} V g 8 N p.G.H.S.) t ( :.Z.T.T.l.o.Z N Z D @.W D g q g k E E C k a a a k C L C g a a V &.@.%.=.N V V |.bXcXcXF.g V u G.%X;X!.1.( ( ;.!._.!.A.X.N N S A _ D V h g g U &.%.5._ Z Z A @.| | S N N N N C V V N g q N S +.+.+.V a d j V %.' ) V g V X.D.(.).p.` N N S U U E C h g N V V V C j N N S X.O.2.&.S C N V U S } } N V K |.mXNXvXg.P K O.}.3X3X>X} S N N D | | D V N N V U U D V N N N S U | U S g S q.,XkXkXyXI g g } y.V.V.,.) Z ' V.$X3X;XC.( _ o.H.=X=X}.O.S q A 5.<.<.>.V N X.t.H.XXF.y._ _ ] ] >.X.>.Z H H N K K K V V N N 2.~.:X:XS.` _ ` G.$X<XXXy.} I  .+XpXkXrX>.) Z X.=X$X;XG.( Z ( } p.t.D.X.N S q C D D D S N j K Y .. .U V N N D o.<.,.o.D Z ` D.%X<X>X2.V g g +.+.#.U V a C C C W D C g q N V D | U V g g h C C G C N g N S | +.+.U j 8 8 h C D D V g q N | u.i.i.@.N N | Y.,X,X@XN g a a k C V g N N A 2.L.!.A.2.N g g h C C N N g a a h k F h a 8 a s s f f s g q S F.eXiXiXy.q t N V V S V N q q N S o.| S g a N | Z.L.M.' N g g V C G k s a g S Z.S.L.a.N g a ",
"6 6 q @.T.OXE.d.a % % < f k h g 8 q N H *.*.E h a 8 j W #.! U a 8 a S X.X.X.V q 8 S H.<X2X-X;.u t ' L.>X>XP.' 0 Z D %.*.*.D N q j L $.$.W C g a a C W ! L k a g V 2.&.*.@.N V S {.DXDXHX+Xq S u %X0XqX;X1.u / ;.%X1X>X!.;.t q N _ %.' D N 8 g @.l.3.l.' u t t =.&.%.| Z N N S U | | D N q N %.a.s.u.U j j j S &.o.} S N S t.%X2X7X^.X.N N U #.#.@.C g g N D D D U C N N ) <.p.A.2.N g q V | S +.O.g N V +XJXJXJX|.K 8 X.=XgXgXjX} S N N | &.@.| V N N V | #.W D V V V I +.&.| ) N I q.rXDXDXbX .N g } y.V.V.;.u Z -.G.<XgX2XD.( u ` H.3XgX3Xy.N A _ 4.1.1.>.S S ( V.XX,X+Xy.) Z ( ` t.>.y.Z u A A S I U U V N Z 4.%X2X7X!.` ( ( $X0XgX3XV.} S } eXmXBXvXy.) Z y.3X=X2X%X` ( ] ;.V.t.H.X.N } N @.@.U U S N g K  .w.w...I N N U *.p.t.o.Z t ` G.2X<X2Xp.| S N p.u.e.W V 8 N D V U @.D N q N D | &.#.D g g N D @.@.W D N N S &.u.u.#.C a 8 C W W W C g q N *.U.W.U.=.N 0 } .XjXsX6XS j a d L R L V g q N i.`.>X/.s.N N g V U U V h s 9 g k H W k a 8 a g k C k h g N } F.kXvXvXF.N t N S } } I N q q Z ' 5.2.| N q q o.Q.%XQ.:.N 8 q D W W C g g N Z L.~.].l.N 8 6 ",
"% 6 g @.U.OXW.i.a % % s k k j a % 8 N [ 3.3.H h a g C %.3.*.| h + 8 V } o.} N q 8 S G.;X2X-X:.u t ] Y.OXOXI.Z 6 t C #.r.#.U h 8 h L #.$.W C g a a k W ! L s a a S %.j.*.W j j j {.FXFXLX|.6 N t %X0X2X1X` ] u 1.-X1X>XH.X.q 8 g @.=.W C k % a U e.&.3._ t N N @.@.@.W V g g V U | U D C V B =.l.s.+.| N q D | } O.) Z Z Z >.;X2X6XR.| q q V @.=.@.D N g N S | U C j g N ) ,.p.i.&.C g 8 C N &.S | g N N yXJXJXHXE.D 0 ) (.hXgXgX .V g V U | o.| V N N V U W E C N N N  ...| *.D S V  .cXDXmXvXN J y X.O.f.>.O.Z Z / H.0X0X2XS.u Z X.%X2XgX;XO.q N D >.t.t.O.C g Z >.,X+X,Xy.) A Z } q.q.q.I A y y %.}  .| N A u 1.2X2XqX(.( S Z G.2XqX2XA.N S I eXBXBXMXO.} t t.<X0X0XH.;.Z ( ` <.D.V.>.Z N S S K r.K U 6 N I +.s.d.q.I N N U w.d.u.| S N } F.>X6X>XA.S 0 N ..w.x.*.D y t A } | U C w w y D | ..T v a g N _ %.%.@.D N q N o.u.e.#.h 8 8 g E $.E C g q S 3.U.T.U.#.j q X.-XzXjX,X} V a d K U I I g 8 N u.OX5X`.l.Z N g N L R b f & $ h D | @.G 8 & 9 g V D V g 8 N V {.tXbXcXF.g g h K T Y K g 8 8 g =.5.%.@.g 8 q %.L.~.P.%.a , a k E E k g g g D k.`.W.e.j 8 % ",
"a a g U i.U.c.e.a 8 % , s k g a , < B _ 6.{ D g , a N _ %.@.D g < s N I } S k h g V C.H.(.G.o.A A _ s.I.I.s.D B w B L T L j s 8 g V U U U N g a a j L L k a a a V D @.W k d d d |.nXaXnXE.g V N !.>X-X/.) S t } G.(.(.A.} g a k C U C j k a a L e.#.*.D N N g E E H C h g g N S U D V N g N H @.u.+.%.D B D S V  .I Z _ Z o.^.XXXXz.| N N D W @.U C g g N S S S j k g g S o.&.&.@.h k w G N #.D C g V K }.bXCXbXw.B y D F.2X3X,XI j g V D D D | N N N V D D C C V V V I ..@.[ B t N I eXpXpXaX..w y O.O.f.q. .N D ( G.;X=X;Xp.S ) o.H.-X;X(.+.V g V } >.>.} C h V | XXXXXXy.S N V S  .q. .I B F J { I Y K V A { M.1X<X;XS.N N N S.;X>XoXp.V I I @XxXaXiX} S 6 ) H.;X;XD.X.Z ) ) 4.a.p.o.S N D V K T V U g V D ..+.+. .I N N S | ....I V N S u.E. XE.i.S N I q.w...U B y u Z S I V j s 9 w B I I P n d g V D | | D S g g V ..*.&.U g 8 a g G W C B g q N o.i.a.i.C a g } !.2X7X,XS j a a j V V V V j V *.U.W.U.i.N N g g C k j , @ * g S S S B & & & g N V N a 8 6 g b.eXpXeXq.% 8 g k b v j a % a g @.[ [ W a a g #.a.K.a.| d 1 , s k k g a g g D *.v.v.$.k a a ",
"+ % 8 g V I S N a a % , a a g a . + 6 q t q , > > > a g N h a , @ @ 8 a g a & @ + % S S ) S 8 8 q q S V S S 0 w w g j j j a a 8 g N V V V g g g g g g g g a a g N N V j a a a d , Y I  .j 8 a q u ` ) S g g g V S ) ) S q + + % g C h a g j g j S N S N q g 8 g V N g g g g N N N N g g N C D D V g 0 w w h C L j g q h 0 0 } I } S N q q g g g V N N g N N N N g g g g N S D A H w h w g 8 N g f , a a v 9.9.9.U g h g S O.X.} V g g h B B B C N N N V D D B B w q g g V D y F A V V q.q.q.+.6 f f j g I j d d g q ` -.;.,.V g N N ;.;.;.>.N g g N S ) ` S h g N g } S V V N q N B D D D C B p F w K v d s w 0 u ;.;.X.} N s C ` ;.X.X.S g N g V q.O.+.q N N S } >.o.S N q q g B D D V g g a 8 j V g C g B w N V V V V N N V V V V V N N N S +.} } S q q N V j j d g g N N j j d d s < 9 a j v n 1 d d j V V V a a a a g N V V N g g h g h C g h g q g N D _ D f s g N ) X.X.) g a , , , s g g 8 8 8 g V S A A t t q g g g a , 2 . a N N N k < @ + a a g a , % h 6 N K K Y j h 9 w h s s a a % , % g 8 8 a + > + g N Z S a . ; , , a a a a g g 8 g V j a % + % ",
"a g g q q q q 8 8 8 , % % a a a > > a g q g , > ; > , 8 8 8 , > 2 @ a a a a < @ < O g q q g % s w 0 g q g N q h w q g a a a 8 w g g q g N g g q g g g g g g g g t g g a a a a d j d g g j C a g u u t q 8 % & % 8 q q q a 2 2 2 8 h g 8 g j g g N t Z t N C g j g g g g g h g g g g g g N V N g N V q h z 8 a d a k 9 z h 8 j g N N N N N N g g g g g N g g N g 8 h B N t Z N y y 6 h k h N V V , 2 s f a % d a d a j g g N t N N g w h h w w B N N N N A Z Z u y B V g N V 0 J y A V g g N N g a f k j K d > , d g Z i u Z a j N N ` ( ( ) g C g g N S S N g g V N I S N I V g g w w w B B w w F 8 n n 1 f h w Z Z ) N N B & k Z ( t N V N S N g N V N g N N N N N N N h h h h q 0 N g h x s f j g N B B J w w w g g g N N y q g j j N N N N V N N N g N V N a , , a g g g d d , , < < < a a d 1 , , a g g g a a d d d g N N q g 8 g N g g g 8 g g q g g N N g + & h q t t t q a , < 2 & & 8 8 a a a 8 0 0 q N q q q g a a a , 2 . a j g g a , 2 > , a a a , % r 6 q a % 8 8 w r r 9 8 a 8 & & 1 , a % % , > 1 > a q 0 g , ; > , % % 8 8 8 a g 8 8 8 8 8 8 , a ",
"h g g q N N N q 8 8 a % % a a a > > a g N N a > > > , a a a , > + + a g N g < @ 2 + j g g g O < w q V g j V q h 9 w a a a a a h g N t t N N N q g g g g g g g g N N g g a a a j j a j a a a + 6 ( ( Z g s < & # s h g h s s 3 < a h a 8 g N N N Z u ( t g V a g a g g g h h g g N g g N g g g g a K a k G 8 a a a k 8 h F h C j g N N N N g g g g g N N N N N N a g N N N A A A H 0 B g a K j j 1 > , f a h E g k a j g N ) ( ) N g g h h h h h N q t N Z ] ( Z y B N N K V g N q y A q N S N @.d d a j j d 1 1 d g ( / ] ) g j C N } ) Z S h G f g N N Z N g k I V I K j K j N w w w r w h g q h a n 1 > d x H S } } S S V % k ) ` Z S V g N g V S I N V N h q V N N g h k h h N q C g q h 8 k g q V q g F 9 w h h g g q q y N g j j g g g N N V V N N N V V j d d a g g g j j d d s s s a j j d a a g g g g g a d a a N S ( Z S q g V g 8 g 8 g g g g g g g q # & w t Z Z Z t g a < < < 9 9 8 h a a a g g g g q q g g g g a , > + g V N N g % < , a a g a , % r 7 A D N V 9 7 r 9 8 8 a a a , , , g 8 a d > > , j g t N a > > , a a a a a 8 8 g a 8 8 a a a a ",
"8 8 0 N } +.o.S q 8 8 a a a a a > % g S o.%.C , , , a h N V s a % , N } +...k O + O N N N j O % 8 6 V V V C 6 9 w h j j j a s h q N V V V N q q N N V S V N g g N V V C k s s s a 8 V j L k f U ` ;.X.o.j f s s k h g g g a % + d j g g g g N X.2.:.4.Z q g a a j j j g g g h h g q g N N N ..I.g.|.S q N g ..w. .#.g 9 B q N N N N g g q g g g N h N N N N N V h j N N Z _ ' [ @.N V V K {.f.{.h.d , a 8 C D 8 U g N V X.p.<.4.S N g h C h h B V N N ` <.D.V.:.u w N f.b.{.E...N B D N S } N N j d Y g.g.|.h.P j N :.<.M.p.S g a a S S S S a f f k V S S V k d V q.{.f.b.q.g j B F F F B B j g N s.b.b.h.v g N S >.y.y.O.S g C N ) N V g 8 g g g g V N N g h h S S S V g q g B 3.%.a.) t N g $.F.f.E.V g h 8 s k k g g g g N D L L V g g N V V V N g g g g g g v j g g N N I I K j g g g N V I I V N N N C C C j g a g S :.m.<.+.N g g g g h g g g g g N N N N h 9 q Z ' <.:.] N g s s f k B g a % % 8 g h g q q q g h C C h s s a S >.y.<.| a a a g N V j a 8 F 7 w N g V h r 9 9 a j j d a a , a U | U U , , , V | o.o.N > > , a k k h g 8 8 8 8 8 8 8 8 % % ",
"B N N | K.`.U.u.g 8 % a s k g g j g ` Z._.].l.U a g V _ %.@.C g N I y.H..X^.w.j g g } O.+.+.k s h g ! ! T ! g 9 9 h L K K j h 8 g C D @.D N g q N C @.@.U N g g V I ..! k f a a h g L j C O , g H.<X%X/.I V 6 g W @.o.| S N g a j j j j N g S Z.&X&X'.4.S V d b j V V g g g h B h q g V N K |.lXBXBXH.) Z S F.XXXXXXo.Z _ Z }  .#.W C h N C C D C N g g h C C V V j g N S O.u.i.| g V P f.mXDXHXeXK B H +.F.A.s._ 0 Z X.H.3X1X1X} V g j V K K C V N S t.XX3X=XG.D N I eXbXbXnX|.N N S | w.u.w.I j V {.NXDXDX@Xj I ` H.<X<X;Xs.C x h | } } | h s s k S I I V k d a {.CXHXJXyXK g h J H U I K V V  .lXbXZXdXq.S Z V.3X3X3XH.) S N S | V L C g L V U ..| | N h a V u.t.p.,.) Z ) 2.>X).>XS.` X.| XXcXkXcXg.K K k b b b v j a j I | #.#.W j g g V V U U C V h j C L K S V N u ( X.<.y.| N w B _ O.O.&._ Z Z Z ' @.@.&.| Z ) 4._.*X1XK.S q g g V C C h g g h C C D D N q t ` G.1X>X).) N g h C D S V k s a f C G C B g q g C H W C h h N o.G.%X%Xa.D q g Z ) } ) N g w 6 U w.r.r.C h 9 g j K K v g a V } K.~.~.K.I N N 3.~._.].5.h a a j W W L j a 8 g h k k g a a a ",
"w 0 q | U.OXT.*.g 8 % s k k k g 8 q ] Z.&X&XK.S g g Z ' 5.5.D N q S y.H.<X.X+.8 g g } X.,.+.g a 8 g ! ! ! W 8 8 9 k R T U C h 8 g C @.$.E N g 8 g U $.r.U N g g S  .w.$.E f 8 8 G C C C W % k N G.<X;X:XS N # V @.%.2.X.S N g j L v V K V q ) ~.>X>X>X2.q a , j v K C g 8 8 h F Q B V V g j |.mXvXNXH.( ) X.H.3X3XXXX.t ( Z O.y.#.D g q g h C C C N g g h C D C K j g g S y.s.s.w.V j j h.CXHXJXpXN 0 A } t.y.V.6.i / ;.J.3X<X<XX.V g N K K K K j g S C.3XgX3XH.Z q j tXCXCXDXf.V V N | +.+.y.V } g J.NXSXHXpXV ) ( H.0X0X2XS.N f s U } } | a < < k I } } K k a j #XSXSXJXyXv C h J W T Y K V V } NXSXHXcXY S ` ;.3X3X0XH.( ` S S @.C C g 8 j g I | I | g j f D u.V.p.>.Z t ` p.>X-X2XD.( ] X.XXmXbXmXf.j d a v v v v j j V I ..r.e.! j 8 g V C C C V g g g V U V S A u u ' ,.p.s.o.u i A ' ,.t.4.o.Z u ( %.&.*.#.S t u 1.%X1X1X~.U q g N C E C h g 8 g C D W U D N t ` G.;X;X(.` N g N S | ) S g a , s k C h g g g g C =.$.W C q t ;.H.<X1XL._ 0 w Z X.o.| C g g 8 Y q.q...V g 8 g K Y P K j a q ) L.'.'.L.S 0 t 4.&X&X&X5.q # g C $.$.W j a 8 8 g k j a 8 8 a ",
"w 6 0 | T.OX`.z.8 8 a f s g k j g q ] S.&X>XK.U q g Z %.5.5.D g q ) V.;X<X).&.g g q } X.O.&.h 8 6 g #.! ! #.g 9 w k L T T C h 9 8 C W W ! C a a g L $.r.! j a g I ..w.#.E s 8 8 C D W C j a , g H.<X2X.X+.g 8 N o.+.,.X.Z N g j L j j V g N } Z.8X8X'.2.N g j j K K j g g g k F H B V V g K #XmXNXBX(.Z ) X.V.3X,XH.>.Z u ) X.O.#.E C g g g C D D C g g h C D U C g q N } 2.a.s.| I j j f.DXJXJXpXI A A O.F.f.F.6./ ] ` $X0X0X1XX.V g K K K K K N N S C.>XgX3XH.q U j tXHXSXmX{.N N S ..u.y. .S V g J.SXHXHXiXN S ( $X0X0X<XS.t k s U S } | h f s k U } } I k d K #XGXJXJXwXK g w J e.T q.V g N X.vXHXJXbXq.N u V.;XgX0XG.] Z N S U E G h g h V S | +.| V g s j 2.t.p.,.S u ` <.7X>X2XJ.` ] ` XXBXNXmX{.j K a v v P v d j V I &.j.$.E V g g k C C j g g g h C C U C A A u _ ,.,.u.%.y y y A p.,.u.o.S Z N ' *.*.#.V q Z 4.&X1X1XK.| g g N V h C k g a g C E E E V g q ] !.1X>X-X) V g j V U | D a , , s k G C h q q g C E W G h h q ;.%X<X>X].A w w A o.o.| H g 6 g I q.q.q.L h 8 a K K P T 8 8 q } L.'.].Z.S q t 5.&X8X&X5.V 8 g L $.r.W j a 8 a a g s a 8 % % ",
"w 8 q D 2.a.2.| 8 8 a a a a g g a g ( :.Z.Z.o.g a a g Z _ _ N g 0 N X.C.S.p.D 6 a g S } } U h a 8 g V j j K g 8 h h j K V j g 9 8 j j j C g 8 a a j R R k d a a V I U L k a 8 8 N V V V h a s N 1.J.S.p.I g a h N S ) S N g g j j j j V g g ) ,.Z.Q.Z.` N g d d j j j a g g h h C g g N g j h.@X+XeXp.Z ` } y.F.F.y.) t t Z S I D C h g g N C C V N g g g N C C C N q N Z _ | | | V g j Y wXtXeX#XV N A S O. .O._ t ( Z y.J.G.G.' D V S I I V U N N Z :.S.(.G.t.A W j b.yXyX+Xq.N N V D | | } S I j y.yXyXtX|.j I Z D.$X$XH.4.N a 8 S S S I a < s g V S S N s a K h.tXtXpXf.K C h F W V I V S S X.3X+XwX{.I S o.` D.H.H.p.Z A N V C C k h g g N Z S ) S V h h C | o.o.} Z N ) X.!.D.G.1.) ) ) A.+X}.+X .g j a j d j d a j N V @.W E C j g g g j h g g g g h j k k a w y t A o.} | | B F A D +.I I N N N g V W W R j g g ) C.G.S.2.V g g V h g k g a a a h C C C k k N S p.S.D.p.N g a a k j V V 8 % % a g g g g q q g B C C h g 8 q Z C.D.C.i.w w 6 N S S V h % 8 g V K Y K h g h g j j j j h h 8 V +.a.4.o.N 8 N _ 5.M.5._ g a g N U U V g a a a a a a a 8 % % ",
"8 8 q N N N N g q a 8 % 8 8 8 a , , g N Z N a , , , 8 8 q g a , 9 8 N Z S V 9 $ * & a N N a % O 8 g g j K j h 6 h g g a a a 8 8 g j g 8 g a a g a a a a , , a a g g g g a 8 a g N N N N g g a g S ) Z g s s s s g N N N g a < s a a g V N g N ` ( ` ' Z q g a a a a g g g g g g g a g g j g V Y j Y g 8 g g j g K N g w w h g g h g g g g N N N g g g g g g g h F h y u u ] A A H y V V g I I  .K O % h g g N V h a I g S ] ] _ y w q q N g N S B A y ] _ ` ` ( y A g K P K I N B y y N Z A A N d , j Y K P n 1 j g ` ` ` ` N g h g } ) ) ) g h f h V S S N g s a 8 Y j T j g g g w N D N N N q Z } K v v a 8 w q ) ) X.D w x s g j g g g g N N Z ) ) Z N N g g C N g h B N N N ) Z Z Z t q g V I V V N N N g C h C g g N N q B g g g h g g g g g g g g g g g g f > < s w N V N j g 6 9 % 8 K j j d d j a a d d , 1 d a g N S S S g 8 g j g g g a a a a g g N g O + % 8 N Z N N a , > > > 2 s a 8 8 8 a a a g g g g g g g g g 8 < f g S ) N V 8 s % a g a a , O a a a a g g 9 9 6 w a j g 8 w 7 % a g N g g , , a g t u N g , > a g g g a a a a a a , a a a % % ",
"+ & a q q q q q a 8 % % 8 a 8 % > > 8 0 0 8 , , > > % % 6 8 , < & & 8 0 q 8 & @ 3 l 8 g a + < < a g 8 a j a h 8 w 8 a a a a 8 9 g N g 8 g a 8 g g a a % % % a a a q 8 a a a g g N t N N g g a 8 N q 6 % < < s a g t t q q 8 & & a a a j j g N N t Z Z t g g a % a a g g g g g g 8 a g g j N g 8 a d 8 s 9 g V a a a s l r 9 , , g g g N N g g g q g N N g g g w w p y y u u A y y 6 B H g g q g a a a C j a j j d a K a N q t y J p A q V N Z N y y y y i t Z N A A S V j g g B y y y t N N y w s f j g a a 1 n j N _ / / Z g L C N ` ) Z S N C k N S S S V g g C 6 V 6 g g C g V g g S g V A N ) N j d d f & 9 w N t N h 7 c < s g g g g g N Z Z ( Z Z N N g g h 8 8 a f h w q Z Z t N V g f a g g 0 N D N B t N B N q N h w w q g g g g g g g a g g g g g g a f > 2 s 8 g g a g j a f 8 a K d d , 1 d , , 1 , > > 1 1 , a g g g a 8 g g a a a 8 a g g g g g a . 3 s a N g q a a < 2 : X @ & < 8 a a g g g g g q g g g 8 8 8 a > c a g N 8 8 < < + , a a a , O a 8 6 6 6 8 9 7 9 h a j j 8 z w , , a 8 % % > > > % 0 q g a > ; a q q 8 8 a a a a a % , a a % % ",
"+ % % a g g g g 8 % % % a a g a . . 8 q N g , > > > , a a a , , @ $ 8 q g a % @ < , a j j a 1 d g N 8 a g g g q w 8 a g a a 8 8 q S S S S N 8 q g g g g a a a a a g g a a g g g q N Z Z N g g g N g 8 < < s a g N Z Z N g 8 < < g g g g g g g N Z Z Z N N g g a a a a g h g g g g g g a g V N a f f & l 9 s R j j j h l r 9 s d g g g N N N V V N N N N N g g g w z y t u Z Z Z N 6 B g N A A V k k a j K j K j v , j a C N N A J w B q } S ) Z ( y y y A B N N B w S N N S y F y y N A S A B w s c k h L j 1 n a g _ / ] _ g C g N X.` ` ` N g h N S ` ) S g g C g W B B H D N V j V S N N A A ( Z I v d d r z B S N V h & 3 2 d g g g N N Z Z ( ] ` ` Z N N j h g g k h g g V Z ) Z Z N g x s g C N B y u A t N S N q q B w F B V N g g g g j g g g g g N g g d > , a q N S N g g g C h j Y d n > , a a j j d , , , 1 d a j g g a a a a a a s a a g g g g N g 2 3 s g S S N g s , 2 2 2 < s s 8 q q g g g g g 8 g g g q g g a O s 8 N } V g , % O a N V j d + 8 8 8 a 8 w w 9 8 a d v v a 8 9 > > , a , , > > > , g N h a ; > a N g g g a a a a , , , a a 8 % ",
"@ + % a j N g g 8 % % a h k h a + + 8 N D C s , > , d C D C k , + s V I I I d , O a d.+X@X|.v , N S d.g.g.w.N q q g j j j g 9 8 N :.p.a.4.) t t N N C C C h a a g h k k k g g g O.u.p.p.| V q g g C C k s a g S C.C.C.,.S q & s C V h g a a g j S S Z N N N g h k g g k j j j j j C j a 8 g C C k f & r 9 8 L j K V h w 9 h k L g g N N V S | o.| S S N N N N N k B V N ) ,.p.u.*.N D q B @.@.D h g 8 j g.+X+X+Xr.a g a #.o.| @.B 8 V V F.F.XXD.` Z y A H C j j N q g g V D y p y B S } O.| D y 9 9 g g U V d , 8 q :.4.M.4.V N N ` D.G.H.D.) N N S X.>.>.} V g a g U B D D q g K y.}.}.+X .t t / t.J.f.q.g 9 F V } I } C a f , k j j V V S ( ( C.S.G.D.X.Z N V V S D D N q N _ 4.4.4.) N 8 8 f s k C N t N _ 5.a.A.2.Z N N h F H D S N g g j j j j g g N N N N j d g N Z X.t.V.p.,.N t t } F.F.|.0.j j N S U U L a , , k j j j j g a a a s s g a g g g N N V V < a 8 N 2.A.2.+.N a < , f k C N g g N V D D C N 8 g g g g g j h % a N >.J.C.*.g 8 8 S y.p.u...g 8 8 g k C F h w 8 j g.#X#Xg.j % + < f k g a > > , s N V g a > > g S S U V g a , a s f f s a 8 8 ",
"@ @ + a j j j g 8 % % s k C N g + % w A { [ B a , a V ' %.%.S g a j } >.y.O.K j d Y pXDXHXmXh.j N S ,XuXeXOXN q q g V K K j s w ( C.).'.~.2.Z Z N D @.W G h w 8 h h C k g a g V A./.>X/.u.A w y V D | I N N S X.;X<X<XH.;.t 8 h D D C g a a d j D D S N N g h C C k k g g j j j C C C g g g B C C L k J F V ..O.O.} Z N t N S I V N N N S | &.i.2.o.S N N C C C C V V S O.F.XXXXI.I I g U @.&.%.[ V S  .yXSXSXJXg.C A N u.y.y.p.U g  .y.tXhXbXrXX.) Z V L v v n K I V I | @.[ J B N I q.h.y.| B J B ) } q. .U N D ( G.%X$X%Xp.S ) ;.$X<X2X;X,.N N } t.D.D.,.D g j I  .I ....g I q.yXSXSXSX{.S u -.<XrXtX+X} N A ) O.X.O.} N j a j V C V V Z ) ` %X1X1X(.<.N N S } X.o.} S Z ` >.:X-X:XC.) S g C k a L V N Z ` ^.>X,XH.X.N g g D @.U D N g g j C C k g g g N S S I V ) ( ` m.%X<XqX%X-./ ` H.jXzXlXE.} Z ] :.5.:.2.D q g V D S V C s a a s k k h g g a g V S S S V V N X.(.1X1X-X) V g j U | | ) Z N N D #.$.W D g g a g N V N h g N ` H.;X%X!.) N Z ,.H.-X(.C.Z q h C L W L h a j 9.dXZXGXcXq.a % a B H B g % % s h A A N g , , g S ..#.U j a , a f m k f a 8 8 ",
". @ < s j j j g 8 8 8 f x C h 8 % 8 B A [ [ C C 8 8 V @.3.%.D g a g I O.q.O.K a d V pXBXLXBXq.j V S 6XuX,XOXq g g g C K L k s h Z Z.'.>X].2.t t N D =.=.G h 8 8 h k G k a a g V u.^.>XoXi.N q B D o...I V N ` ;.$X;X<XH.;.t g C C D C k a a d j U U D V N g h C G C h a a a j C V C C k h g k C N U g h B q } +.y.+.) Z N V S V U C N g N | 2.a.a.+.N g N D U L L K j g  .F.XXXX|.V V g | | &.*.@.t Z S yXSXSXHXE.V y g u.y.t.A.S q I q.tXkXvXrXX.S N V L v v v , j d K U C H B V N I q.f.g.+.D y q } } O.I I g D u D.;X$X(.4.t Z ` H.<X2X;X>.N N ) t.S.S.t.S 8 N I I I q. .6 K K yXSXCXHXf.N Z ` 2X3XrX+XS N Z ` >.X.O.} V V a V K U C V N S ` !.>X2X).>.N g S X.X.o.` Z Z ` <.-X(.>X<.Z ) 8 U ! % U V N S Z .X>X,XH.} g g V @.@.W C N g g j C L C h g g N D D I S Z Z ( m.%X2X1XG.( u ` !.zXzXnX XS t ( :.4.4.3._ N N C D D D h s , , s k k h k g 8 g V U U U V N t ` H.1X>X-X` S g N | +.o.) N q g D #.*.@.C g 8 8 a k C j g g q ;.%X<X;X).( t u <.%X1X;XC.N g f C U W L k a d P dXAXGXbXP , , s B H B g & + % w A Z A N , + g D #.$.W k a a a k E E k a 8 a ",
"@ + + < f k h g 8 8 8 h C J F k % % 8 h C G k a 8 a j E =.$.U h % a L #.r.! v a , j aXLXPXIXq.d d I 6XiX6XOXj % , s C E E C s % q s.4X4X4X$.a 6 h G Q Q J f 9 8 g k C C g g g N z.`.5XOXe.g a g U | | U V N Z S `.>X,XT.| q g C C j j d a a k j L L C C h g g h C C f , , , k C C k f , , s k C C C g a g h L ! W L V g g g V U C V g g N U &.i.i.@.N g N C L L b d a g } A.oXOX`.D g g N W #.r.H q N N eXLXGXPXg.P a j r.d.d.i.} N N d.uXnXnXsXV N N C C L K v d d d v b L k k g L j q.c.d.#.V N V I I I I S V N S u.E.oXR.u.Z t ` ).2XqX>Xo.t N S p.S.S.p.V g g V U ....I V N g uXFXLXFX#Xg S X..XiXiXoX+.q g S I } I V j g g N V C C h g N S ].5X5X`.&.g a j | _ @.D D N t 2.oX>XoXa.N q C h C C U S N g +.E.5X6XU.S V g g #.! E E j 8 g C g D C N g q B B H C R d j V O.).1X5XT.S 8 g s.aXnXxXv.N g V @.*.7.=.H g 8 g k C C k s % % a k k k g a 8 g C C L C C g g | T.6X6XOXV N g N U U U U a a a C ! $.! E s < & < f k s a h 8 O.H.;X,XU.U q 0 <.%X;X:XL.q a < k E W E d > > n nXLXPXMXn > , s 8 k k & > . 2 & w A w s 2 > s L ~ $.E k a % a k m E k s a a ",
"+ + + % a s g g q 8 q g h f h s % % a s f f a a % % a g k k g a % , s f b k a % d , c.n. Xn.d 1 , j s.z.i.w.a , , a h B B h < , q I #.T ! f f f 8 w h h h 8 & % g g j k g a g N D &.l.3.D a , a V V C V N N N N @.*.e.#.N 8 a j j j d a a a g j C j j j g g g h V V d , > , g B C k 2 , > , j C j j j g g g h k C k h g g g j V j g g g N V U o.| S g g g N j s f f a 8 S &.a.a.&.q q g g C V U C h g 6 h.@X|.#X9.j , d L U U | S N t } g. XR.z.N g g h N j j j d d d d v j j j a j g K #.U U N g g j N V N N N g N S &.i.w.I g N Z <.D.D.C.D N g g X.;.X.X.g q g N V U I V N N 8 z. X X X .% N V u.I.s.w.V g N N V D C C j g g N N k h h g N V %.i.a.u.| g g k D B D g h g q | 2.u.u.| g g F g V N N N g g S r.i.x.@.g N N N V C j g a 8 g D S N N N g g N B B a f , , a N 4.Z.5.&.j d d T z.s.W.! g a g C W G C h a 8 a g a a k s a a a h k k g g a g h j k j g g 8 g #.k.j.r.g g a a g j j g , % % g C L C h a & & 2 s s a a < % S y.t.d.U a 8 6 ] M.C.p.o.8 < < g B D C , > 1 > v. X Xc.> > > & 8 h f < > . > % h A B s 2 . , s k k k s , % a s k f s , % , ",
"+ + % % , a 8 a a a a 8 8 8 8 % % , a a a , % % a a 8 8 a a a 8 g a 8 a a g a % j % a a a d + a a a N N t g a d , a g t w w < a g N g g g g a g q q q q q 8 a a a a a a a a g g g N N N N g a a a g g g g g N N g N N g g g g g g a a a g g g g g g g g g h h g N g a , , a g N V g a , , a g N g g g g g g g g g g g j g g g g g g g g N N N N N N N N N j g g s s g g N Z Z Z Z 0 V S N N t N q C N q V I N g j a a j j g N N Z N N V S I N g V N B N N g g g d a a j j j j g g V N V N N S V g g g j j N N g N N N N S S N N g g ) ` ` } g g g a S Z N V 8 h g g j j g g g j g j g g V g a V N S S N V N N S N g N j g h g g g g g h g g N N Z ) ( ( Z N g g N g N 8 g g 8 V V N S S N V C 8 h g g g N q g V N N g g V V N g N g g g g N N V g N N N N N t q 8 g , d g q ( ( u Z g d a g ` t S g g N g g C g g g g g g g g a a a a a g g g g g g g g g g g g g g g g g g g g g g g g g g g a a , a g g N g g 8 & & % < a a a % 8 g V V N a s s w N Z u t q 8 a a w t t g , , , + g g g j + , a 8 q g g a , , , a t t t g , , % % , a a a , , a a , % % % % % ",
"+ + , , , a a a a a a 8 8 8 , , % % , , % % % % a a a a a a a a h g 8 8 a g a 8 a a a g j a a a a g q t t 0 j d , a q t t q a a N Z N V g g 8 8 g t t t q g g a 8 8 a a a a a a N N q q g g a a a a 8 q g g g g N g q g g g g g g g g g g g g g g g g g g N N g N N a a a a N N N g a , , d N N g g N N N N g N g g N N N N g g g g g g N g g g g N N N N j g g a g N N Z Z Z N Z t ) S N Z u Z 8 N N V S N V N g g g V N g N Z N N V V N g g g N N N N N N j g g g g g g g N N S S N S Z t ) N N j g j j N j g V N N N N N N N g q S ) S S a a f a V N N V a f g g j g g g g j V g a g j V V N g V N g V V N V N g g g g g g g g g g g N N Z Z ( ( ( ( Z Z N g N g g 8 g j a V g q V V g N g a g g g N N g g g g q g N N N N q N N N V S N q N g N N N N N N N q h a j V N ( u u N 8 a 8 g ` u N g V V g N N q g g g g g g g g a a a a g g g g g g N N g g g g g g j g g g g a g g g g g g g a a a g g g g g g 8 8 8 % % % a a & f 8 g g 8 a s 9 h t t t q 6 8 8 a y t t q a , , a q N N g a , j 8 N t q g , d a g t t t N a d , % % % , a a a a % % % % % % % ",
", , , a a d a a a a a a a a a s % % , , 8 8 a a a a a g j j g g 8 q q g N N g q g g 8 g N g N a a j N S S N g , , a N N N N a a N ` }  .I g g V N N Z Z N g a % a a a d d a a a g N N N g g a a g g g g g g g q N g g g g g a a g N g N N N g g N N N N N N N N Z Z g a a g Z Z ( Z g a a j S S S V V N N N V S N N N N N N V V j g g g N N N V N g g g g g g h g N N S ) ) ) ) S t S Z ( ;.;.;.S N g Z Z N S S N g q g V V Z S g g N N V V V S g g g N V S V N N N N V V S S S ) Z Z :.:.;.1.Z N a a g j V g g g N N V Z N N N V N } ` ` X.N C a g I } } I a a g j V V N g g g j a N U V j j g g V V V S N g g V V V V N g g g g j N V V S S ] ;.;.;.;.] Z N V V N V a j K j Y q.q.h.Y g g a g g h h V g g N V V N V S q q S } X.O.S N S N N I V N N N N Z Z S A B 8 g g N ] ( ( Z g N N S 1.-.;.S S N q Z S N N N g g N N V V N g g g g g j N g g N N N N N N a a a a g h h g 8 8 q g N N N g a a g g N N N N q a a a a a g g a h N O.O.} L % 6 w t ( o.) g 8 8 a B A A N a a a j t Z Z N C a g q ) ] ) S 8 j 8 S ` ` -.Z 8 a a a a a s a a % , , , a s a , % ",
", , , d j b j j a a a a k f f d % % , a a s a a a a g C W W C g q q N D W D V g N N g S U S V 6 a k U @.@.D a , , a V Z A B a a S V.oXXX@X} g N Z ) | | D N a a a d b b f , a a g N C C g a a a k k k h g g g g g h N h g a s h C V V V N N N N D D C N N q N N ) S V j a g S ` :.| V j j N | o.&...I V N N S U U S N N N N S I C C g g g V D | D V g g g V C U D A N Z ) ` } +.| N Z Z ;.(.%X%Xa.V q Z Z ) _ ' A N q g S U } S N g g N V I I I N N N D &.&.+.I N N N S | | | ` ) Z ` S.).(.!.` N d j j L L V g g N D | @.| D A V S C.G.H.S._ g g V 2.p.p.2.N g h V L U C V j g N g L U N g j j g U U I U V g N U | #.@.U V N g C L U U S S ) ` D.H.$XG.;.Z N C U V U j j v v h.pXtXpX{.j j a k h j C h q q N U U U I S N N *.OX:X-Xt.Z S V V $.U C N N N Z ) | ' [ q a g N o.o.o.' g g S >.%XG.^.,.S N N } &.o.o.S N N S | | ..I V g g N V I U N N g N V D D D g a a a j L C g g g g N D @.U D a a g N S S S V g a a s g g g g 8 N O.>X2X,X Xg 8 q ` C.!.L.%.q 8 a A [ [ D h 8 a j Z ' o.D V a g N A.L.A.p.g g g p._.&X).4.q % a a s f s a % + , a s f f s , % ",
"a , , d R R R j a a a s b E k s % 8 a s k k g a a a j W $.$.U g q g D @.=.@.C g g g U @.*.@.N 6 a a *.*.*.$.a , , s V D D C s a S XXlXaXnXw.q g S | 2.2.| V a a a b ^ m f , , a g C D C h a a s k k k k g g g g h B C C h g g k C D D C N g N B D H H B g q g C _ | L j a g S :.4.2.U j a N %.i.i.w.U V g N S o.@.| V g g N I U U C N g g V U #.#.D N g N U U W =.A N N S } | ....N Z Z <.1X0X2XR.g N S ) 3.%.3.H B w g D | } S C g g g K U I I V N V o.i.z.d...N N N D &.&.o.) ( Z ;.:X8X2X>XX.N j j R ! ! L g g V @.*.*.*._ Z u ' _.1X2X:X:.t A _ S.!.!.S._ N N C U U U C g g V V L U L N N V N U U U U V N V U #.e.e.| V N N C U ! ! S Z ( ` %X<X2X-X<.Z q V @.L T K v d v b.FXFXFX@XK j a k C C C g 8 g V U | &.| S S N s.sXlXlX^.S N V V $.W E C N N S } o.%.=.h a j N &.2.i.@.g a N p.1X0X>Xp.S Z S o.u.e.*.U N N S &.*.w...V g g N U W U V N g g D | | U C k a a j L C g h g g D #.*.*.@.g g g V | ..| D q a a h k k j g N N y.kXVXVXlX} N t <.%X;X-XA.N 8 a D =.%.@.k a a g =.3.3.%.g 8 N ) '.>XoXE.N g N E.8XqX7XS.g a a s k k s a % % , s f f s a % % ",
"a % % d ^ ~ ! k a 8 % d E ^ k a a 8 a s k k g 8 8 8 a L $.$.C 8 8 g C W $.W C q q q U D W @.N g , % e.*.*.j.% , , s C D D C s a g R.xX6XnX..8 V N | &.&.D g a a a L ~ ^ f , , a k k C C h a a , h k C k g 8 g g C C C k g a 8 a C U W C g q g C D E H B 8 8 h G @.@.L d % a ) 5.a.3.U g % g %.l.k.r.U V g V U #.&.| V g g N L U W D N g g V U #.#.D g g N D U W =.A t N S | ..#.W g N Z 1.>X0X1XW.8 N N S i.' *.B B w g C U I N h a 8 g V U U K N g N | s.I.u. .N g N U *.u.&.} Z t ;.>X8X8X:X] g g j U #.! C g g V U *.*.*._ Z ( ' H.<X1X*X6.u u _ S.!.!.S._ N N C C U C V g g N V C U ! V g g N U U U @.D g N S #.i.i...V N N L ! r.! S N Z ` H.;X2X-X4.N g C #.U ! L j a K {.AXDXFXXXg j a E W E C g g g V D | &.I N N N i.sXiXkXE.N N V C ~ ~ E C h N S | %.[ [ g a a j &.u.i.#.a a N <.1X<X6Xp.S N S I &.&.&.S q q V @.&.#.#.V 8 8 j W W W L h 8 g D @.@.U j d a a g C C g g q q V &.i.*.W a a g N | ..| V 8 8 & f x k j g S t 1.kXVXzXjXN N t m.;X<X;XS.q a s C =.*.=.k , s 8 =.3.3.@.a a N S '.oX/.I.g g 8 I.8XqX7XA.g a a f k k s a , a % s f s , % % % ",
"f 8 % a G ^ E k h % s k G Q C a a % 8 a g k h g 8 8 h L W W C g 8 a k E E C h g q h h U @.W D g , f E *.=.C f > > , j C V g , , g I.uXfX4Xe.g g N | &.@.W h % a a L ^ b n d , d g k C C g 8 % , h k C k g 8 g h C C h g g a a a C C V g g g h C C C C k a a h C D H k , a j D o.5.2.U g s h H 7.$.$.C g g g @.#.U W V g g h k W U S N g g V U W U V N g g V U @.D B N g V C W ! ^ k g Z 4.!.<X>Xz.b g g I *._ @.B h 8 8 k U I N h g g j C K I V V N N S &.u.y.+.N g N U $.&.o.S Z S :.!.,X>XY.o.V K C C ! U V V N V U #.*.@.D A Z ] G.%X;X_.o.N N _ 4.S.S.4._ N N N V D D C V g N N C U U C V g C D U U D N N N D #.e.e.| V N N C R j.$.C N N ` !.-X>X!.o.q 8 h W @.W C a d 9.g.mXFXnXXXY j h s C C C h g g N S | #.| V N V i.5XiX6XI.I N N C W $.G k h q N | #.[ H j , a v U | #.U d , N p.%X1X`.u.S N S U @.W $.N g g V @.| #.U a g a a E E E ^ g h g C @.D W g a % a g C C g N g g V @.%.@.W s , g N U #.S N 8 % & s k k g g g N t.2XzXzXOX+.N Z <.H.%X(.p.N % a C @.=.W f + , f H =.=.W h , 8 ) K.'.].a.V % 8 a.5X7X8XK.g , , s s s s s a s s s s s s s , % ",
"8 8 % a f k f s a % 8 a 8 g 8 6 a a 8 a a g g a 8 8 g j C C g a a a s k k j g a # 8 8 g h g q + , a g V V g , > > , g h g a , 1 O N T T L g 8 N N S A N B a % a g V V a d a % a a g N h g a a a a s h g g 8 g g h h g g g a a s j j j g g g g g g g k s a a s g g h a , a g N ( ( _ g 8 8 8 q A C C g h g q D D S D g 8 q a g C V N N g g g V C V j g g g N V C B h g g g j k k f s 8 q Z -.1.;.U a a g V | Z D B h s a g j V N g g g g j V V N g g N Z ) } } S j g g j K U V N N N S X.2.u.X.S q g N N V N g g g N N D D D V g 0 q X.;.1.;.t 8 q N ` X.X.) g 8 N N N V V V V V N N N V V N N g V V V V V N N N N V D S V N g g N N L V g g N Z ` ;.,.o.S g g k h B B j g a j Y  .q.q.V 8 g x F h g V N g g N V N V N V V N S w.....V 8 q g h C k w 8 8 6 8 g g B B d , 1 j V V N j a , a S ;.;.+.V q g g h j C C 8 h q g D N D C 8 j a 8 k f f 8 O % 6 a C g h a a a a a g g g g q q g C D D N % + 8 8 g N g g g 8 & < s f g a a # N } >.y.I 8 6 6 u ` ` ` Z # , , g N V h , + + , g B B h , % g N ) _ S V j a 8 S ' ' ] t % % % , a a a a a a a a a a a a , % ",
"# 6 8 8 & % 8 8 h 8 g h 8 g N g a a 8 8 8 8 8 8 a a a a q q g a a , % , a a a a g g g g g g g a , a g q 0 8 , 1 , , a g a a , 1 % g a % a a a N N N q 6 q g % a N S g 8 a a a a 8 q g g g g a a a a a a g g g g q q q g g a a a g g g g g g a a 8 a a a a a a a 8 g < , d g t Z Z S V g k h w A 6 g a N V g S N t N g q g g 8 g g g g g g g g g g g g g g N N g 8 g g g g a a a % < h h N Z ( Z j , j j N S t N N g g a a a g j g g g g g g g g N N Z N N N N N j j a g j j g j N N N N N N N N N S S S S N V S N N N N N N N g k g S N N S g k < a g N N g a a g N N N N V V V N g g g g g N N N N g g N N V V V N g g N N N g N N g g g N N N t t N N N g s s w q q h j g g g N V N N g g w 8 8 g g g N N N N g g g N D N q g g V N N S D V V N N B C C j j g q g a 1 1 d N g 8 a 1 1 a g u t t q g g g a a g g 8 C g 0 N q N g 8 C k 8 a % & s , k g g V g g a a g g 8 8 8 g g q q q g N q q h f g g g g N C h s & & & a a a & + a j a a a & l 7 y Z q q g & , a g q q 8 , > , , 8 q q 8 < + 8 8 q q 0 8 , , a h t i t q , d % % , , % % , a , , a a a , % % ",
"% 6 8 8 % % % 8 6 6 6 g q q N 8 8 8 8 8 8 8 8 8 8 8 a 8 8 8 8 a a , % 8 a a a a g 8 g 8 8 g 8 g a a N N t g , 1 , , g g q a > > , s , , d a 6 q t Z t t N q % g t Z t g g a a g g g g g g g a a a a 8 a g g g g q q q g g a a 8 q g g g g g g g a a a a a a a a q g , , d g t ] u Z N 8 a g t N q j g N N g S N t N N N V V g g g g g g g g g a g g g g N N N g 8 a h h g a a a % s h C S S ] ) j a V N S S N N N g g g g g g N a g g g g g g N N N N Z N N V N j j g g g g g g g N V V N N N N S S Z Z N N Z N S V N N N V V g k a V N N N a f 2 d j g g d 1 d g N N N N N N N N N N N N N N N N N g g N N N N V N q g N N N N Z ) Z Z V N C N V N N N N h a 8 D N q g B h N N S Z Z S N g 8 a g g g g g g g g V N q g D V g N g V N N S N t t t Z N q g g g g g g d , a j N N q g a , a g Z Z q g N V h a a g h g V t t Z t Z S 8 V h a f 8 a a % g 8 q g q q g g g g g 8 8 g g g g g g g q q 8 a 8 q g q N q g 8 8 8 8 8 a % X X s k a a < = = & w q 0 6 8 + , a g t q 8 , , 1 , 8 q q a < , O 8 N N N a , , + 8 t t Z N , , % % % % % % , a , , a a a , , , ",
"8 6 6 8 s f a a a a 8 I +.X.O.q 8 8 g g h h h g 8 8 g g g g g g 8 a a g h h g a q 8 U | ..| g N g g o.:.o.| a a , a V S V g , > % a , % a g g N t ' 5.%.' N 6 g u :.X.o.I 8 g g N N V N g g a a h g g g g g g q V V C V g g g g S S S N N N N V U V V g g g g h N C a , d g ) <.1.,.S 8 8 g Z _ S U g N N N o.:.:.o.S N N N N S D V N g g g j j C j g g N V V V h g j g g g h k h h 8 g N S ` S V a N N } t.>.>.} N g N S I I I g a g g j V V V N g N N S } I V g g g j j N g g g g N V D D V N ) Z ( o.o.+.o.t Z N N V V V N g a g  .O.O...j a , a j V V j d s j S } | } S N N N S D | S S N N N N V V S V N g N N g g g g g N ;.V.1.,.| q B g N N N N N g g h D D N B g q N S S Z Z S N q g C U S V N N g N N S V g g h h g C g h g q N Z ( :.1.4.` t g N g C C V j a a V ) ] ( V a , , g S ) V N g g g j C V C g N q Z ,.;.:.+.q g q g C k h g 8 g q N O.X.O.D g 8 g C C h h g g h h h N g h 8 g 6 S X.} o.N q q g h j N N a 3 5 + , , , < @ * * w [ _ D k + % a N ) ) V a , , , q q w a , > % a g g g a , , % g t t Z g % , % , , , , , a a a s s s a a a a ",
"a 8 6 a k C k h g N N A.,X,X,Xp.g a g C W W C C 6 8 g V C V g g 8 g h C D C N g N N U.OXOX`.} S Z ) L.Q.L.A.N g a N | %.@.D s , a k k k C V g Z Z Z.~.~.K._ q Z ` _.!.~.a.g N g S D U D V g a a C V V N g N N g @.@.@.U N g g V i.a.4.| Z N Z ) &.#.U V g g N D @.#.K j j N >.H.%X-Xp.S g S o.5.&.&.S Z Z ` S.).:X!.;.N N S } e.&.U N g g V C L U C g g N V U @.L V j N N S S D C h 8 g V } O.+.U g N S t.-X.X.X<.S N S &.w.&.&.N g g g K I I I V g N S &.w.+.} g g N V U U V V N g g V D D C N ` ( <./.:X>XI.S Z N S S D V N g V D F.^..XE.U h g V ) } } I j a V } &.u.&.} S N Z ) %.&.%._ Z Z Z S | | D V g q g N D C N q g N J.=X$X(.p.t B g h V S V N g j V D D _ H B q N D 3.p.4.o.Z q g D u.2.o.S N N V U U W D h j g g C E W C N ( X.D.:X-X:XC.( S I U *.@.U V a g S :.<.5.' k f a g S ) | V g g g U #.#.#.S N t ;.!.(._.L.S N N S =.#.! U N V S y.XX-X,X@.h 6 g C E C C g g g h N C C N g V g u./.^./.u.N N N D @...} V l @ , j V L x & l w =.L./.~.i.g 8 N o.4.Z.2.L a , a g V B h , + , a N C N g , , , C @.%.%.C , 1 , a s s s a a a a s k k f a a a ",
"a a 8 g C L L C 8 g g E.iXiXiXF.g 8 g G ~ $.E k 8 8 g C D C N g 8 q B D H D V N N N R.6X7X>X` Z ) ` &X1X&X).S N g S %.5.5._ g , % h G E L g 0 t ` L.>X>X~.o.N Z <.1X:X,XT.S S N S | #.| V g a a V V C V N N N N @.*.*.| N g g D K.L.Z.,.( u ) o.4.2.&.) N N V | &.&.U K N S V.;X<X1XF.S g Z :.Z.s.s.X.) ( X.(.2X7X-Xt.( ( ` O.s.u.@.V g g V U U U C g g N S @.#.T K j N S ) } D D V g N | y.d.s.&.N Z ` J.2X2X2XV.X.Z ) 2.a.u.i.C g g N I ..| I V N N U e.i.u...V V V S | @.D D V N N B H @.H A ( u m.>X7X6X/.Z Z S S U U U V N N ] G.%X1X%Xo.t A _ ;.;.1.X.D V Z } u.d.u.o.S Z S | 2.a.3.o.S Z S | +.&.| N g g N C W H C h g Z $X0X0X2XS.t D g C U U I N g j V } | %.@.B w B [ 5.4.4.o.Z N V ..i.p.u.| V N S | @.$.W C h g g G E W D Z ( ` G.<X<X1XG.( ( S S r.*...V g N ` m.M.L.5.C h k j S ) | S N g V #.e.i.u.} ) Z 1.;X<X1X).` Z Z ) u.&.e.I g N S D.2XrX2X&.N 8 g D W C C g q 8 g C C C V g S t p.-X.X>XC.Z N Z | &.u.O.S + O g I } } V 8 q N 1.%X<X;XC.Z N S ,.L.~.K.U a a g V D D C < + % g D @.W C , > O V @.%.*.C + . , s f k f a a , a f k k f a , , ",
"a a a s k L L K g N g |.iXiXiXy.8 % 8 C =.$.G a a a a j C C h 8 6 8 N D D D V N V N R.5X6X5XS N Z ] &X>X&X].Z q g V %.3.%.D g % a C k k C j g S ) A.:X:XI.| q t ;.&X'.>XU.N V 8 N U #.@.C 8 8 a j C C C g g g V @.&.*.U g 8 g U a.L.K.2.Z t S %.2.i.*.| N g N | | ..K j a g 1.;X<X1XY.) g V +.K.s.s.X.S N ] !.2X1X.X<.S S } o.u.i.@.V g N V U U U C g g N D @.&.#.I N g S I I V C N g N I ..q.u.&.V Z S C.3X,X>XV.} Z S &.2.2.u.C g g N U ..| I g g g H *.i.&...N g g N D U D N q q h G W W H V S u p.>X8X6X/.Z N N S S U I C N Z ] Q.*X1X:X5.A A Z ` ;.;.` A N N I w.i.w.| S N S o.i.k.*.@.V N S | &.&.D N N N V C C C C h h N H.0X<X1XA.q C q C D U S N g N V | | | D g 0 B { 3.a.a.X.Z V I | u.u.u.| g g V U @.#.C 8 a a g E G W D N Z ] D.2X1X2XD.Z S S I e.2.&.V g g } 4.Z.P.%.h & s k U &.S V N g j U r.u.w.} Z t ;.(.-X:X~.) t t Z %.#.&.#.N g N A.iXiX6X*.C 8 g C L C E g a 8 g C E C V g ) N C.oX).:Xp.Z N N D &.w...S g g V I S S V g g t 1.%X<X;XD.Z g N o.Z.T.l.U % % a N S D V < + a k C C V g , , s C H [ @.C , , a s f k f a % % , k k k h a % % ",
"% % , , s k k k 8 8 C i. X4XU.r.+ + a W @.G ^ & @ , , a K C s < > > k U D C j , O k e.U.W.k.b % 8 S k.W.W.k.C 6 g h C E L k s a 8 j k k x f % a N w.c.c.j.L , a | a.U.v.$.f , , b C W C h 8 8 h g j j d s , a a j L U U j a a N p.,.e.L % a N D *.*.U C a 6 N D I T b , , g X.S._./.l.C a s L w.e.*.L a j I i.`.`.z.U d a j | *.@.D N g N V C C L C g g N C D @._ A N g j j b b L a g g V ..Y ..L h g N d. XE. X+.D N V @.=.&.#.j a a j I | U V g 8 s G $.j.@.U s & h h C W N N g a h f k k k j g g +.Y..X).a.N g B D _ } S h g B A a.L.Y.K.H h 8 g ) ) ) S g s V D @.$.W E j g S U @.#.W G s s V S D D S N N g V V C C h h g N a.^.R.U.*.g h g N C D V g g g j L L E B B B q @.@.#...I N N V U +.&.~ s s j g I ..| h 9 c s s L C L k f a S u.!.^.Y.*.C h C U | &.#.a d d g o.o.3.[ l * = c B #.L j a , s E W @.@.V N N } K.I.R.j.G 6 0 N H 7.Q h k # 8 *.E. XW.E s % , a b b a a a a a g j C V N N Z %.z.U.z.j.g 6 a k W ~ C j g g g j V V j a g N | a.T.K.o.g s + U *.3.7.x < > , d j V j < + % s s k x f s % % s G Q G f & O a a s s < , % % a g k C h 8 8 & ",
", , , , s s s a 8 % 6 a C C g % . + 6 N t 6 l * @ > , a g a + + > . a g q 8 , . > % 8 q g a , > 8 q g g g g 8 8 8 a a s s a , , 8 g 8 % < % O , a j V j d % O % N S D C s % + , O + g g h h 9 h a a a , , , , , d j j j g a a g ) Z V , O < 8 N t N a a a a B D g j , + < a N X.( ] N # & < d K N N a O % , N | _ V a , , a g N D V N g g g g g g g g g g N V A A A N g d d d d a % g a g V g V C g g 8 N U N S g 0 0 8 q g g g g a g N S S S V k h f f h N N g s & f h N V N V g a a f h k j g s 8 N X.X.X.S 8 h h V S S Z g h 8 0 ) ` X.| q 8 & 8 V V N N , , a g C C k f a a g N V C k s & & h V V V N N g N g N h h g g g g q S V C j 8 g 8 g V A V g g g j j j C g g g 8 C V V V N N g N N N N k O > d a V S S q % s < 8 g g g a < % a S } } S h + + 8 g N N N % , , % V N t h l = l s 8 a d 1 , % % a h C C g N 8 q V g N G h 9 w q q h 6 h z 9 % g N N g k 8 8 a , d d , s < 8 8 g g g N 0 0 0 g B C B g 8 6 8 8 a s 8 a g g g a d d a a % 6 q N D D N 6 + o g V N N # @ > > , d j g < % % , % a a % 8 % % & s s s < & % 8 a a < < < % , a g g g a 8 9 7 ",
"% % % , , , a % g g a 8 6 8 8 a , s g Z t 6 h & + , j j g g 8 s d , g N q q s , a a q 0 q 8 , , g g g g q g g g a a a a a a a a N V g 8 a a a k g N g 8 a a a k N t 8 % + % a d j j g N g g 8 8 8 8 8 a , , , a g g q g g g a q Z t N a a f N S ) Z N j j j N t g j , , f g N Z u ( N w k k g g N N g a j j N Z Z N j j v j N t N N g g g g g a 8 a g g q q N N y y h g a , , a j g D S N S N S S N S N N V g N N N V V N g g g a g N N N N N N q g j g g g I I g f h N N N N V g g a a g g g g G h S ) u Z Z N h g N Z Z N N h B t ] ( ( ) g k C g } S S S g C g N N g g a g g g N N N g a s s g g g g g g g N g g g g g a a g N Z q N N g V N N N N N N g g j K v K g g j 8 g g g g g N N q 0 Z N j % f L g S Z ) N g f h g V V N s s k j S Z Z Z h s s h V N N V a f k g S Z S S h & & a V K a d j j a a g C 8 q V N N S N S 6 # g V N V V g % a h g N N S S 8 6 a g a a a , a a 8 8 q q g g N N N g g q q q V V N q q q g N q g a a a , , % g g g q q t N h f % V N t t 8 s < , , a g g & & h g g a a g g h 8 8 8 % % % 8 a % 8 8 , % , , , 8 8 8 8 8 8 9 r ",
"% % % % , a a 8 % 8 a g g g g h % % 0 Z u t B # O + g V N N q % % % g Z t t a + % a N A A g % O % 8 g h h g 8 6 a a a a a a a g q N g q g a 8 g q N g g j g % g N N g g g a g g 6 N q V 8 g h C g g g a a a a 8 g g g g g h h g Z N j a , a 0 ) Z Z V g a j N Z S S g s k k N ( ( ] Z q h g g N Z S g a j N N Z ( Z g g j j Z Z N N N g g g g g g g g g g g N V q g g j d d d j g g S N u ] Z ) Z 0 N N N V N S N N V V N N N N g g N N Z Z S V N g j j I V I g N C N S S Z ) Z N N g g N N V g a a S ` ( ( Z g g g Z Z Z Z N N N N ` ] ( ` N N j q } ) S S 8 j N S V N g h N V N N S S N g h h g g g g g g g g g g h h g g a g Z ) N N N q N g Z Z Z Z N g g j v d v a g I N g g g g g N N N N Z Z N % a j q S Z ] N 8 a a g V N g a a g N Z Z Z Z g a a g N N N N 8 a g g ) ) t N g k d d K j j a a j j a a g g N S N t ) Z Z N 8 N g g V N g N a j g N S Z Z N 6 g h a a a a g a 8 q g N N g g g g g g g g q q N q t Z N Z t q g a a a , a a 8 8 g g q q q 8 a + S S Z Z 8 & < , a g g g 8 8 q q N g g g 8 q g g g 8 8 8 8 a 8 8 8 < % % < a 8 a a 8 8 & & & ",
"% % % , s s a a % 8 a j C C g 8 % 8 N ;.<.,.%.q 8 6 S y.t.t.o.q % 8 _ 5.5.%.D 8 g g N Z A N a , 8 a g g g a 8 8 8 a a a a a a 8 N } X.| | V q q g S } S S g % 8 q V C C N g g g } F.d.F.I N j C S S V h g g g q V S S V N g h B _ } U d a a t <.D.D.A.I a N N ) ` } C a a a N X.` X.S q g N } p.<.,.V 8 g S ` ` :.X.V g g V ` X.| D V g g V C C V j g g g N S D h g g d d j K Y S N Z Z ` C.V.D.2.t N Z N } S S S N N N S I } S V N N Z o.,.O.} S V V q.+X+X+Xq.V S N o.t.>.<.) S V N V I I S V 8 a ` 1.1.>.} g g N S ) ` S V N Z ) V.V.V.V.S V N V D.J.J.d.g j N Z S V N N N N N Z S S V g g a g V V C C g g g g j C C j g g N Z X.) } S g S N | ` o.o.S N N K }.{.+Xf.K V N g V V V N g g B D ;.;.o.g a j N >.1.t.| N g g N I ) S h a g N ` X.;.X.V 8 8 g S S S I a a g S t.V.1.>.N j d 9.}.{.|.w.g g j j g j N g N t ( <.1.<.w.g N N } F.F.F.f.j g N } p.<.,._ w q h g g j g g g w N B D S N g a a j U U S Z t Z u ;.C.C.C.) g g s d k d s a % 8 g N D V N 8 g 8 O.t.V.t.V 6 & , g N N N 9 8 t N +.+.+.+.q q N N S S V g g 8 a g a s < % & , a g g g a & $ @ ",
"% % , , f k k k k g g C W ! U j s g S S.-X).U.D V g O.^..X.XK.S g N 3.].].T.*.g g N A _ ' D g , a g C C C C g a 8 g g k k g g g S t.F.I.c.#.N N S +.u.+...V a h N B C C g g N S XXlXlXlXs.V g 8 | | U D k g g g V D | D g 8 s C &.i.e.L j j ) (.jXjXiXd.j V N | :.,.W s , a V y.t.t.o.V N S p.:XoX/.+.g N } ,.C.C.,.} V V } ,.p.3.@.V g N C E W L C g g g N D D C k a a j K T ....S ) ( C.>X<X1X~.S S ) } u.w.+.o.S N S +.u.u.&.B y t _ a.Y.F.d.S j V {.DXDXDXyXN S N p.^.F.H.>.S S V U | | } V C V O.J.H.F.u.V g h S } X.} V N S X.H.;X;X(.O.S I  .2XjXjX,XI V N S S D C V N N N S ) } S N g 8 V C U U U C g a j L W U C j g V o.a.u.i.o.N S S 2.2.4.2.X.V V q.bXCXHXpXY g g N C D D V q q B @.C.C.k.U h V X.H.(.:XU.W B V I +.,.+.U k g N O.t.C.u.U h h C o.,.+...g h V +.(.<X2X(.S a d b.bXDXMXOXI a j K L R j g N t ;.%X>X>XI.V V V g.lXvXmX|.j j I p.,X>X>X*.h 8 g N C C j g w w B D @.| S j d j L w.i.&.) Z ` ` S.1X2X1X<.g a f k E E k s k g h D #.*.| N N g t.XX;X.X&.g 8 a g V S V 9 8 S ` ~././.T.S S N S | #...V g 6 g g h s s < & % a g V C h < @ @ ",
", , , s k k k k a % 6 g W ~ E k + 6 N A..X).I.V 8 6 X.!.(.).K.N 8 g 5.].&X].*.6 # 8 A _ _ C , O O % g C C g 8 # g g k C C k h g N <.I.T.z.| q q S +.&.+.| g 6 8 k F B h h g N S F.xXxXMXF.V g a U o.@.U h a w g D D | D g 6 9 F @.e.r.d d a Z (.jX7XiXq.a V N &.4.p.#.k , a K u.u.u.| N g N t.:X:X`.&.a 8 V X.4.4.o.S g j S :.4.l.@.N g g C W W W C g g N C D C G h a a V T #.#.I N N u <.>X1X8XT.N N S S w.w.| S N q N o.u.u.&.C B N | K./.E.s.I j j b.FXHXHX+XN S N C..X^.^.>.S V V U #.#.} V g g } D.H.F.2.g g g S } } I V h g S G.;X;XXX} g N } iXvXzX2XV g V S | @.W C V N S S } } D V h g V D U W U C g a C R ! W C g g N +.a.4.2.| q N q 2.4.a.p.} N V q.bXCXHXpXI g V D C D C V g a C @.p.C.3.C 8 g ` H.%X:XK.D q q V } o.o.C a % g } <.t.+.C 8 6 h | o.} I 8 8 g ...X2X<XH.S V K {.ZXCXLX6XV % a j j v R j N q X.).*X:X`.K V g f.cXmXmX@XV j I p.>X:X:X*.g 8 h V C C j g w w B H @.U K a , a K #.e.@.S q ( u S.7X7X1X;.g , s k Q Q C a a a a C @.@.D N 8 q t.(.;X).@.6 8 a g V S V h 8 t ( ~.`.`.T.N q N S ..&.#.L g 8 g g k f s < & % a j C C k s @ @ ",
", , a s k k k k 8 % a C ! $.U g # % N A.-X.XU.C g 8 ,..X:X>XT.A g g 3.].5X].e.8 a g V D D C f 1 a s k k k k g a 8 a g g h g g g N t.R.`.v.@.g g N o.w.e.$.C % % f k f f h g g N F.MXnXMXd.j a a I | #.E h 8 g h D D | D g 8 s x *.k.r.j d g S .XzXjXiXq.% V g %.4.a.@.f < , V w.y.u.@.C B S p.oX:X`.e.g g S o.4.Z.2.S g g S 2.5.l.@.N 8 g C U L W C g g V D D C G f 8 g V ..#.#.| V N N 2.:X1X8X].N N S S w.w.| V N N D #.i.d.e.C N N | a.I.I.d.I j j b.LXLXPXeXg S N p.).F.^.X.N N N U #.#.U N a 8 } D.^.Y.*.g 8 g C S I S j g N ) F.-X3XXX+.g V } iXzXzXrXV g V S D E G C N N N S ) S S V h h N S U U U V g a C L ! W V g g N +.a.2.u.@.V D N %.&.a.i.I g j q.DXHXHXpX .V D q B C C V g g C | L.Z.k.G g N ` H.).:XU.D q g S +.,.o.D h h C +.p.p.2.E s 8 k | | ....a a C &.oX2X7X).N g j n.DXmXIX4XV a K R b b d g N t :.:X1X5XU.j j g g.nXMXBX@Xa j I p.,X>X5X=.g 8 j j j C j g 8 8 h E W U L g a g L $.e.&.| q ) u S.7X7X,XX.a , a C ~ $.C a % a k W $.#.D g w q a..X>XoX&.a s s h N S C s a t Z `.OX`.`.N q q V U #.! L g 8 a g f k s s & % g j C C k s 2 @ ",
"% % a a a a s g 8 a a a g k j h & + N X.t.d.| C g g S 2.A.Z.%.N 8 g _ 5.P.3.C % % 8 N V N g , + , a a s g a a a 8 a g g h g g g N } &.*.W C g q N D V C G k & & 8 a f x a 8 N N d.E.XXE.r.j , d C V j g s a a 8 V V V N g a s s W C E b d j S <.!.^.F.I j k 8 D ' ` H s < f a  .S | C g g V | a.a.*.U k g N _ ' ' _ V a g V _ ' _ D N g g g j j V h g g g N V C h h g g N S S V C C 8 g o.u.A.L.&.D g V V V U C h g g B | ....I j h g V ..u.w.Y V a a r.@XsX@Xg.j g N } u.p.+.) N g g k C C V h 9 k S X.t.,.D h s s C S S V k f g S ,.C.C.y.I g g U d.XXXXg.I g N N N k k h h N N q S N V 8 k a g S S | V 8 V 8 g j C C C g g N N +.| #.j g h C D _ | D N g j K +XeXeXE.| N N N H C N g g g g V :.2.@.w 8 V S <.D.,.*.B 6 k V | o.S B k 8 g } X.+.S k s & x D S V K % % k V p.S.L.5.B 8 a r.+X,X@Xs.S a a d 1 , f , 8 g ) 2.Z.Z.=.k 8 j r.|.#X#Xr.K V V o.Z.M.K.B a % 8 a j j j 8 a a a g k j j g 8 8 h D W D N V N Z o.s.K.u...% d % h W C N q a a a k C V N q 9 F o.p.A.2.W % & & a g g g , % g ) &.l.k.&.V q g g C C k k a % 8 a a s s < 8 a 8 V g j k + + + ",
"% % 8 a a a a a 8 8 a a a a a , o O g V S S g a % # 6 t Z Z t 8 % 8 q Z S S a % , , g g g a > > , a a a a a a a a a a a a a a g g N V V h 8 8 8 8 g g g k f & s + % % s , % g g 8 N S V a + + , j j a a a a a g N N N g g a < % N 8 a , , a q ) ( Z S 8 , s 6 B ( Z B & < k a V N S g % 6 8 q Z _ V a , % a N Z A V a a a g V A V N N g g g g g g g g g N N N g h h B N Z Z Z N g g a a V V S ) D g g V g g j g 8 8 8 q N N N g a a g g V S V j j a a d K K j a a a g V S ) S N N g g h h h h g & s N Z ] ( N h c s h N N j s s a g S ` ) S j a % g S } } S g 8 h h g h s s g g N t S N V g F h N S Z S V g C g a g C C j g g N S } g K a a 8 8 B B V N g g j j j I } V q t A A B N N g g g g N ] ( B 8 s k N X.` Z A w 6 h g N ) N g k k h S S S N f & # s N N N K % + , 8 N ( Z t w s a C I S } V 8 % , , < , f s a q N Z ( Z g % % 8 j v j j j , 8 6 t ( / ( g a a a a j j j a 8 8 a a a a a 8 8 8 q g B g g 8 8 8 g N N g a , d 8 g V q N q a a , a a g g q r 9 t Z Z N h s < 2 , a g d , , 8 q q g g q 6 # 8 a a a a , % % 8 a a 8 & & 8 g 8 N 8 8 g % < + ",
"% % 8 8 8 8 8 % 8 8 8 8 a a 8 + < & g N g g a , s s q q q q q h a , 8 0 q q a , , , 8 q 8 % > > , a 8 8 8 8 8 a a a 8 8 8 a a a g g a 8 % & 8 s 6 g 8 8 s s & s a j % a s , k g 8 8 g g a , , , a a a a a a a g N N g g g g , % Z t g , a k q Z t t N a d L 8 V Z u g % f f q N N S g 8 f C g N t q 8 , , a g N y w a , , a q N t g g g N g g g a a g g N N N g 8 w y t u Z Z q g j k k N N N N q 6 g j a a a a h h B V Z Z S N a d j g g g g a 8 a d a a a j V a s g g N N N N g g a a a g g g z k Z ( ( ( V F l s g N N g a < s g N N N N g f k j N V N N j k g g g 8 8 8 8 g N t Z q V q k g Z ( t N N g V g a g j j g g g N N K 8 j a j k h B g q q g j a a g V V q q y y w 0 q N N N g g N Z t w % s k q ( ` Z Z w h G N N Z t 0 g h g g N N N h s s f V N N K , , k a N Z t y p z w g N 0 N g g g k a , s % % 8 8 g t t q 8 9 f k g a , % d a k q t ( u u q a g j g a a a a a 8 8 a a , , 8 0 0 0 8 8 8 8 g g g a a a a , , d 8 g t 0 N q a , % % % a g w $ $ N ) Z N a O 2 2 , a a a , , g g q 8 8 8 a a % % % % % % % , a a a % % % 8 g q N 6 8 g % < % ",
"% % 8 8 a a a 8 8 8 8 a a a a % < + a I I I P + + < g N t q 8 8 , , g N V g a , , , a g g a > > , a g g g g a 8 8 a a a a a a a j g a a s s s f 8 h g g h 8 # a a Y j K d O a 8 j g g a a , < , a d d s a a g N S S S S N g a g ` ( V a , a 0 Z ( S V a a g 8 Z ` ` S 8 a j N } ) ` N 6 s k g g N g s , , s g t N g s , , s N N N N g g N g g g g g g g N N N g g h N t ( ` ` ) V g g g N ) ` ` S 6 g j g j g j g q q N ) X.X.) g d j j N N N N g a f f j C N g s f k h N V V V g g g h h g g g w q ( ` ` ` S w h h N V S V s a s g V S S S k s s g N S S N g a g N B h h g g g N ) o.) @.g g q Z ;.] ` ) N N q g g h j g g g V j q.V Y j a j g B N N g N j a a g V V N y B B w q N V N N N N Z ( Z h 8 s j t X.;.` ) 0 q C N } ;.X.V g g g S } Z I g % 8 8 S Z Z S % % f a N Z A y 9 $ 6 N X.` S V N g g a % a 8 8 8 8 g N N V 8 9 s a a a s k a 8 h q Z ' ] ] N g g g j j j g g 8 8 8 a a a a g q q q w w w w 8 a a a a a a a , a g S ( ( ] t a , + + , a g q l # g } N I a + @ @ & a a a , , 8 8 g g g a 8 % a , % & & % < , , a s a a 8 8 q t ) N V V 8 8 % ",
"8 8 8 a s h g a a % a a k k k a + + K {.,XeX#Xd + % g C D C 8 + + , V U | C a , , a N V B g , , a g C C C C g a 8 a g g g a a 8 g g g f f s a 8 g D U D D g 6 g  .+X+X@Xc.a a % a g g g a % & , j K L C g g N A a.A.Z.,.S g N } D.V.p.I a g t ' %.%...j a g N 4.G.S.a.V g N ` D.G.L.*.g 8 a g j S B s a , a g N D B s a s k C D D S N g g g j j h g g g N V V C k C V Z -.D.Q.L.a.N N N ) S.H.!.a.g N j V T U #.D N t ) p.G.H.V.V g g N S S V V h 8 8 a C L N 8 a a a N S S S V g g h C C D S V N t ;.G.H.G.5.t w g S | O...V s % a S } } S g 8 8 g I } X.I g a N S @.@.@.D N N S p./.Y.T.| N Z ` G.S.Y.A.) N N h h C k j g j K F.eX+XeXh.a j g D D [ D V g g j N S D C N N N N S S S V N N V D :.o.W h a g ) D.H.G.a.N q S X.F.!.!.u.S N S y.XX^.XX#.g g V p.S.F.A.N % a a V S S t w w B &.D.J.C.o.N g N C E ~ W C g q g V U U G f a 8 8 g h k h 6 g N o.S.G.D._ N g N ..w.w.@.N N q g h C j j h g 8 8 h C k h 8 8 a h C C j a a a N u.Z.Z.a.Z g , , , d g g q s , h.,X+X+X0., + @ s h j j , % % a h k k s 8 + s s s s s < , % % a d k f a q q Z u.p.a.&.g 8 8 ",
"8 8 8 a h k k k a 8 a k L L k d % , q.kXHXHXdXP , < h D @.@.C a > , V | @.U k a , a C D D C a , 8 h E @.@.E h 8 8 a g k k s a a g j C L x s a 6 g U &.&.@.V 8 N f.bXmXBXsXL a % g k C C k g f k L U ! E B N A ) ].:X:XS.` t S ,.<X<X;Xd.N g A 5.P.z.x.U N V o.).<X;X/.o.N ) 1.;X<X1XT.D g k K I D D g a , g V D _ D g a a k D | @.D V g g N C C C h g g N V D C k j N Z 1._.1X>X>XX.) S 1.<X0X0X/.V V N I r...i.%.S ( ,.(.2X<X;X| j g N } | S V g g g j U | ..| g a a N U } S N g g N D @.@.) S D Z C.1X0X2X~.Z t V X.<.p.u.U h a g S } } S h a k C +.u.u.+.C V N ) 2.i.3.o.S Z ] G.2X>X>X,.Z ) ;.%X1X>X).o.N N h C C C C j V V tXDXDXFX+XK K V | %.*.=.S N g C #.w.&.@.B g N N | | } S N N A [ p.p.*.C a N X.%X2X2X).` Z ` t.1X<X1XS.) N } H.zXzXlXE.V N } ).2X2X:Xo.g k j T ..&.D B B D C.;X<X>Xs.S N S &.3.k.*.D g q g U #.$.! C h g C U E C G g V S A.1X<X<X2.S q S a.R.R.P.A u y N D D C C g a 8 a C G C g B g N D #.#.U N j a I Y.&X&X~.) g a 1 1 f k g 8 + , +XHXDXDXn.> > < k G D C s , s j C L L k k a a a s d s a % % , a f k k g g q ) Y./.oXz.V g a ",
"8 8 8 a k C k k a a a k L E b d O O  .kXHXHXnXn , % a V U U j a , a V o.&.@.L a , g D _ _ D s , 8 N W $.$.E h 8 a a g k k d a a g N L L k f a a g | &.&.+.S q V y.hXDXFXsXj % # h h C B h g 8 8 D | #.W B t Z ' &X1X1X!.-.u ( <.<X<X;Xy.N q t %.P.K.i.I g N ` !.2X<X-X>.Z ` m.<X<X<XL.A 6 a j I } S j a a j S | _ S j a a j D | @.D N g g h C C C h g g N V D U d d g Z ;.%X2X2X>X] ( ( 1.0X0X0X(.V S V  .s.+.d.) Z u ;.H.<X0X;Xo.V N S o.o._ S D C V V V S S S g a a N I } ) S N N N S o.o.X.) Z t m.<X0X0X_.u Z Z X.C.D.p.} N g h ) X.X.} C h a V } O.>.} V g Z X.p.a.a.o.) ( ` H.2X>X>X<.Z ( -.<X1X1X:Xo.t N B C G G C h g V yXHXDXHX+Xj V V | %.5.%.S N N V I I U I V N V S }  .} S N t A ' p.t.w.V g N >.;X<X2X(.] u ( >.<X<X2XG.) N ) H.vXzXvXA.g g S H.2X2X%X) 8 a j I  .y.I g 8 N V.=X0X3Xd.Z q Z X.%.%.%.D q q V ..w.w.K g 8 g V U D C B q N Z V.<X<X<X<.Z q S A.'.'.T.( u t A D D D V a a a g k C C N q q q A _ @.D N j a } ).>X1X'.( g a 1 1 f k g a d , }.DXSXDXb.d , s F H H D h a a g j j j j a , a a a a a a % % a d f k k g g t ) Y.oXoXA.S g g ",
"8 % % a h k k g a , , f E E k d , , I pXBXFXnXn > , h H @.@.k s % a C @.*.#.C 8 a g C D D C s a 8 g U ! ~ E g 8 a a g g s s s a a j C C g a a g g | *.&.| N 8 N y.vXBXBXuXg a g k h N N B B g 8 D | @.W B t Z ' ~.:X>X!.` t Z :.%X<X;Xt.V N S *.l.l.i.I N N ) !.<X;X^.} t ( m.<X1X1XL.S g j j V D D g a a g V S D D j g j C U | D C N g g j C C j g g g N C D C j v N N ;.%X1X>X:X( ` ( 1.1X0X0X!.N V V } d.} u.o.( Z ;.H.<X<X>X) N q Z ) } _ _ q q q V | ..} S , % a g S ) ) S V g g N | %.} Z Z t m.<X0X2X).Z Z S o.p.C.p.} g a h S | | I N g g C | ,.,.o.C N N ) u.a.u.o.S Z ( G.1X-X>X<.Z ( ` -X>X,X'.| t V B C H G C h g j ,XDXDXFX+Xj I V } o.%.o.S N g j r.....I N g g N I } I V N q A [ <.>...V g N X.=X3X2X).` Z ] >.3X<X2XS.Z N S F.lXjXlXI.V V S (.1X2X%X} g j V  .O.O.S N g S V.=X3X>Xd.N t ) &.4.3.3._ N g I #.#.T U j a q N D D C C g N Z p.;X3X;X>.N q Z u.R.E.z.A u y u D U S N a a j k j j j N g g N D | | _ S j a S !.&X&X~.N a , , 1 f f a a 1 , +XHXNXDXg., < s h B A B s & a j L E T b g a a a a a a a a a a d f f k g g g N K.R.R.i.N q a ",
"@ & # % 8 g g 6 & % % % < s a , > > , T e.r.0.1 1 > f w B B 8 & & r 8 g U j s 9 & & a a a a , , a g g j d a a 8 a a g g a < < , g g g g g g a 8 a a g g a a a g N  .d.e.W a % 8 a g N V B 8 s 8 g N N N h g N N o.o.o.| N g f h ` X.} S j a a h N C C h g g C D D | C g j N ( -.1.<.S g d d g N g h g g g g g g h h 9 h q q D N A A N 8 h V g K j C C g g C G g C a g t ( :.6.5.D B N N Z ' -.:.S V N N N V S D N N Z S X.o.o.X.N N N N N N N N N g N N N V S V < + h V N ) S N g g s s g h N N 8 N S } ,.o.S N g g j C V V V g a h a j j g k g g g N V V V N y F A V K K V N N u ' :.:.+.S q N S | | U W C g B N N D V g g % a q.h.d.r.I j j V V S S S g g a g j V V j g a a k g j N j g g f C S S U a g V S >.y.} ..N 8 N ) X.m.-.) V a j U ..w.T j d a g ) :.<.` S g a j V } S S q g V S 1.>.| g g g g N S V V g g 6 g k a C f < a g a g j a a % a 8 V U S  .N j g g j K I S g y w g N K g V 8 a g a a a a g g q q g V V j a d g N ) _ D j a + , % % k s > > > +  .y.y.y.j + @ & 9 a g a 2 @ , a a a a a a , % , a a a , a a , , , , a a a a g j C C j a 8 % ",
"& < & 8 6 q g 8 & % + + < , , , ; ; % h N g f + .   a g q w 8 & r r % a d a 8 w $ & % , , , , % a a a a , , , % a a 8 8 8 a < , a g g g g a a a a a a a & & & s a g j g a % a a g g 8 g g 8 8 % g N g g h h N N N q N g 6 % & & N N N g a , , a a g g w w a s s g k a , a g u ( / ( g % a a 8 g h h h g g g a a h h w B g q S q q N N g N g a j a a a j g g g g g g D N t D y y w w g g N N Z A g g g g N N V V N N N N N N N N N N N N N N N g g g N N N N N g f < k V N Z Z N g a s s s a g g g h h N S S N V g s s s k j j j h h g g g g h h g g g g g g N B p z j j j j g B y A Z Z S N q g g V g g k h 8 N N N Z N N h s k a j j j a 8 8 8 g g N N g a s a g N g g a s s a a g g g g s s a N N k 8 s V N ` ) q g a a V N Z ] Z N j , , g h h a , > s g A ( Z N g a a a g N N S h z z q ) Z V a h k g g N g N g V g g h 6 h & & s g 8 a h a a s s < g j 8 V a a a a d j j j w p w 8 a a % g q q g a a , , a a 8 w a g a d d , a q t N h a > > , 8 6 8 a > 2 < O V S Z S g & @ @ < a a , @ @ , a a , , , % % % , a a % % , a , , , , , , , , , a a a , % % % ",
"% < 8 6 8 q q 8 8 & & & , a a % + > 8 N 0 6 a O 2 , a j 8 g g g 8 8 g K K j 8 6 8 8 8 a a , % 8 8 a a , , , , % a a 8 8 8 & < < 8 g g g g a g g a a a a % % < a g g 8 % % a a j g V 8 N N j k g N N t q q g N N Z N Z Z g g f h t t 0 8 a a , , a a 8 q g g a 8 q g a , j N u ] u Z q 8 a a q g g g g g g g g g g g w B q q S g g V N g V g 8 g k a j K j j j j a 8 V N t A N q g g g g g N N t g 8 g g N N N N N N N N g g g g N N g g N N N g g g g g N N g g d , g N N Z ) N N g s s g g g g N g g q N N N N g g a a g j N V N N Z N N N g g N N g g g g h h h h g j d j g N u A t N N N q N N N g 8 h h g N N Z Z N N N h N N g g g j C V N N N N N N g s g N N g g g g g a g g g N N j s a q q w 6 w B 0 ( ( t N w B H Z ( i u g a a a g N g 8 % , d g t u u N f c f d j N 8 g # l r 6 N t q 8 N V g t N t t t Z N N N q N a 8 g h q q g a 8 a h 8 g g 8 N a a r r a a a a 6 7 7 6 V V V V a a a a , , , 8 8 8 w 8 8 a d d , % 8 q t q % + + % 0 q q 0 % , < + N N t N 8 & $ & a a g a < + , a a % 8 8 % % a a a a a 8 a a , , , , , , % % % % % % + + & < ",
"% 8 8 g V } D V q 8 8 a a a a a + & g } X.S E a % , a q.q.q.I + N 8 a P P q.N g 8 8 g g j h s 8 8 a a a a , , % a a g g s a < , a g N N g g g g a a s a a < < a g N j j k d a a a q. .w.V % a a } o.o.) N t N Z ` ` X.] q 8 8 8 A Z N g a a a s h h g g g g a g N V j a j N ` <.-.:.) g a j N V N h g g g g j j g g q N g N +.O.q.q.V g N g h k s % 8 a a P h.q.r.j N N N _ D D V h g g N V S N N g g g N V V N N N N N V V V S N N g N V V V V N g g N V V V g a a g | ;.>.<.) N g g k j N N N N N S } o.>.} N N g g g N V V Z Z ( ,.2.2.&.Z N N N N j j g g g h h j j j j g N N _ ` } } V g V V I S V C V N S ) :.:.,.) N V N S V N N N N N N S } o.) Z N g g S S S N g g g g S S S S N g g h S A F 9 w A u 1.-.` A 0 8 N Z ;.1.>.I j a g V D D N a a g N ] ` ] D 8 + % a  .+.+.U % & r 8 D S N N N N N ) o.X.X.Z ( Z Z o.o.%.U g g g g g N g 8 8 a 8 V o.} +.V w r r h g g g z p 6 a q.q.T g a a a a a a a a 8 8 w g j j j d , , 8 q N N a , % 8 Z ' ' ' V 8 a % } >.;.o.N % & 8 g g g g , , , a a a a a a % a a s g s a a a , , , , , , % % , , , % % % < s ",
"a a g } a.I.z.&.q 8 a a g j j g 9 9 Z V.H.F.z.h a v f.kXbXbX@XK 8 j {.cXbXcXd.6 q g V U U L k 8 8 g k f f d , % 8 g h C k s < , g V U W C j g a a g k k k a a 8 g K T T v a , % c.xXnXnXc.j j K p.!./.K.o.Z Z ` !.^.).Y.o.N D D @.%.@.C a a a k C C D B q 8 h C D o.K j g Z :._.%X).i.N g j S D C j g g j j j V V C g N N } |.XX+X{.K g N h J J J F C j P +XcXcXnXr.N N S } ) | U C g j V I | | V V g g h C C C N g g N U @.#.U V N N V U | | U N N N V U U D C j j V A.).%X).,.Z N g j V S S S S Z >.^.-X-XA.S N N V V S S S Z ] -.!.%X:X/.o.S N N V K C j d a g C K P P v j N N +.p.d.d.} g V I q.y.+...S N S >.!.).).Z.S S N S S S N N g N Z 4.Z.L.a.) N g V } O.+.} N g N S O.+.,.} N g V U y.+.$.C N Z ;.H.<X>X`.o.N } t.2X2X,Xs.V g g N A A V g g g I D.%X:X).+.V K w.,XiXiX.XD q g N ,.>.4._ Z Z ) p./.!.!.-.] ( -.L.(./.z.S g g N V V g k a g g u./.H..X..h 8 w C K K K g 8 a r.dXmXmXfXa 8 a a d k k s s 8 w G W #.L d > , g V D D k a a q :.Q._.~.5.q g a u.H.(.^.| 6 8 a g V V g a , a a k C C k a 8 8 g C L C k a % a a a a a a , % a a f f s a 8 & ",
"a 8 g | I.OXT.u.q 8 a g j C N g 9 w Z J.;X-XU.g # j q.CXHXHXpXj j j {.bXbXmXE.j q g C #.#.W B 8 8 g k m M f s % 8 g C G G k < % g C #.$.W C g a 8 g k k k f a 8 N I ! ! j a a d |.MXIXIXE.a , a Y.:X,X).,.Z Z X.)..X:XY.) 0 q N &.*.*.E a % a k C E H N 8 8 h E o.&.U j g N <.:X1X>XI.V a g S _ C C j g j j V K L V g N N O.@XeXpX+XY g g w J F z 9 g a K eXGXDXLXc.g V S } o.&.U V g g V U &.&.U C g g V C U U V g q g U $.#.| V N N S | #.#.@.N N N V U @.U D g j V Y.2X2X1Xt.Z N N C U U ) S S Z p.>X7X7X^.Z N N S U U I S Z ` -.*X1X8X>X:.) N V K L L K d a g V T 9.Y K j N t 2.F.F.g. .g N } y.d.u.&.S N S <.:X>X8XY.( S t ) | o._ S V S _ K.~.'.L.o.t g D +.u.p.&.V g V | u.d.p.X.N g V ..d.y.r.V g Z ;.;X<X2X).S q V y.jXzXzXE.j a g N _ A A h a g } H.2X1X;XX.q N y.gXVXBX2X} q N ) V.V.A.o.Z t ] L.>X>X>X;.( ( -.).1X>XT.| g N V S D j k a a g A.,X3X,Xw.j 6 g L T Y Y C g a h.ZXDXGXpXa < , a j k k h s 8 h G $.j.! j > > a B D D j a g q 5.&X1X>XP.t h g p..X;X:X2.8 a g N S S N a a a g C E E k a 8 8 g L W E k a 8 a a a s a a , % % a f k f a % + ",
"8 8 q } s.R.I.*.q 8 a g j j g g w q ( J.-X.XU.h j K q.bXDXDXpXj j j {.mXmXAXc.g q g C T $.W C 8 8 g k x M f < % 8 g B G G k a % a V #.$.W C g a a g k C k f a 8 C U ! W j d d j |.MXMXBXE.j j j F.-X>X/.o.t Z X.oX>X>X/.o.N V D *.*.#.L a , a j C U D V q 8 g C @.&.U j g N <.:X>X>XI.V a g S S C C g g g j V K V V g N N O.oXeXiX@XI g N w Q F 8.k C j P eXGXAXIXd.g V S | &.&.U N a a V U ..#.U V g g V L L C V g g N U #.#.| V N N V @.#.#.@.N N N V U @.U V a g g Y.1X1X>X<.Z N g C U U S S Z t <.>X2X2X!.N Z N C D U D S Z ] -.%X>X>X>XX.Z N V S L L j d a g V T 9.Y K N N N ,.F.F.g.} g N I q.u.u.&.S N Z ;.-X>X1XL.u S t N S S V N q N Z Z.Y./.L.o.N g D &.u.i.&.V g V | p.p.p.X.N g V | q.q.q.V g N ;.$X<X2X.X} g I f.iXiXiXc.a a k B [ [ H C g g ) S.1X<X<X;.Z S y.gXVXVX<X) q Z ` V.D.p.| Z t Z A.oXoX:X;.( ( ` _.>X:XU.U q g N V U C s 8 8 g p.>X;X;Xq.j 6 g U Y Y Y g g a h.ZXDXJXpXd < , a k C k g 8 8 h G $.$.W j , > a N C C j a g 0 :.&X&X&XZ.q g g p.(.;X.X&.g a a N V V N a , a g C E E C g 8 8 h E W E C g 8 a a s s s a % % % a f h s a + + ",
"a 8 g I a.I.z.&.q 8 a g h h g q w w Z C.H.Y.z.C % d Y cXvXmX6X% a % g.dXpXnXg.a 8 g V U ! W k 8 8 a f f f f , % 8 g B C C k a , 8 V W #.U V g g g g k k g a a a N V U L k a a a c.nXaXnXs.j j g A.).:XI.o.t Z o.T./.).K.) q N V =.@.E C a a a h D D D C g g g C | @.L j j N :.).'.oXz.V a j S D C k g a a j j V C D N V N } XX,X@XXXV g C w Q F J 6 g V K #XbXcXMXr.g V N ) o.| U N a g C U #...S N g g C L C j g g g N S | ....V N N V U #.@.U N g g V U | D N g N g A.>X:X>X,.Z N g C L D S N S t <..X>X>XY.N S V B C D D S S ` ` (.).oXoX` S N N V V C V g g q V U T P V N N Z ,.D.J.y.} g N S  .+.&.&.U Z Z :.).).>XS.Z _ N S S D D V N Z Z 4.A.L.a._ N g C &.2.*.| V N V S u.u.,.} N g h U w.q.r.C N Z ;.H.;X>XU.V g V O.,X,XuXg., , k w y A A h g g I D.-XH.-X} N V O.2XgXzX-XS N S ) t.t.+.U S N Z i.`.R.OX` ( ( ] Y.oX/.x.V q g N N C C f a g g u.XX(.XX .j 8 h L K K Y g g a q.cXcXZXwXd < , a j V h g 8 8 h F Q W U j s , a g N V g a g 8 :.~.~.~.s.g 8 8 u.^.(.^.%.8 8 a h V V g a , 8 g k C C k a 8 a h C E E k g 8 a a a s a a % + % a f f s a & % ",
"% % 8 g N N N N 8 6 8 % % a 8 a 8 8 N ( ( Z N a % a j V V N a a a a d n P v d a 8 a a d j a a 8 g 8 k , , d % a 8 8 V g g g # k g g g g g g a 8 g a a a a a a a N g g g s s a a j K I I N a a g ) ] ) Z N N N N S S Z Z N N g g V N g g g a a h g N N N g g g h q C g a d g Z ' ' _ N a , a N q B h g g a a g g h g g N N N S S S V N g g h h h 8 g g g V I Y K Y j g N Z S ) Z N N N 8 g D g S N g g g N j j g g g g g V S S N V N N N V V V N g g g g N N V N g 8 S ` ` ;.` ) N g a a g h V N N N Z ) ` ` ) S N g g g h N N N Z S S S ) S S V S V N N g N B B g g j j j g N N t N } S } g g q g V N g V N g Z ) ` ` ` ) Z N g N g g g g g N N ) ) ] ) S N g g g S V g h g g S N S Z S N g k C S N C s w A ( -.-.' A h 8 a V S S V j d , s w y y y s a g N ) ` ] N g g a j } } X.N h 9 l C N V N g a 8 g V V V V N N N N S S S D 8 g 8 g g 8 a f s a h N S ;.) V g w w g h g g w w B 8 I Y K j O < % g g q N q g 8 8 s h h g 8 , , g N V N a , , g Z Z ) S N a f % N ( ( ` N 8 & & 8 g g a , < a a a a a a a a a a g g g a 8 8 , a a s a a a a a 8 8 8 a a 8 % ",
"% % % 8 g g q q 8 8 9 % % 8 8 a , a q u u N a , > , a g g g a < & < , d d d a % 8 % , a a a a 8 g 8 a % % , + a g q q 0 g g % j g g g g g g g g 8 a a a 8 a a g g g w s s s a a g j N N g a a a N Z Z N g g g g N N N N q q 8 8 N g g g a a a g q N N N q g g g q h a , s g N ( ( Z g a , s g q w w g g a g g g g w w q N N Z N N N g g g g g g a g N N N N V N V g N N t u Z t N g V g g V 0 N N g g j j g g g g N N N N N N t N N N N N N N N g g g g N N N g a % g Z u ( ( t N g a s s h h g N N N Z S S S N g g s s h g g g N N N N V V N g N N N N N y y B B g g g g g B B Z Z ) S  .V B B g N g g h g q N Z Z Z Z Z N g g g g g g g g g N Z Z Z Z N N h h g N g 8 h h g N N N N N N g g g N q h 9 w F u ] ] A p r 9 9 N N S N d , , a w w w w 8 < a g Z Z Z q f f , a N N N q 9 & l s g g a a a a a a a a a g g g g g N N g 6 g g N C g C a a a j g N ) N g g w w 8 a g w 7 r w 8 g N 8 a , s 8 g N q N q g a 8 8 8 q q q a a q t N g a , , a g N N g a , < # N Z t Z q 8 $ & 8 8 8 a < < 8 8 8 8 8 8 8 8 a a 8 8 8 8 8 8 a a a a a a a a % % % 8 8 8 8 % ",
"@ + + 8 g g q 8 8 8 8 8 a a g a , , 0 q t q 8 % + + & 9 w 9 & & = & , , 1 , , + & & , , a a a a 8 6 g a % a + 8 N q t q N V 6 g g g g g g g g g 8 g g g g g g g q q 8 9 9 8 8 a g g g g g a a a N N N g g a g g q g q g 8 8 8 8 g g g g a 8 a g q N N N g q a g g h % % s g t Z u N g , , s g w w w g g g g g g 8 8 w w N N N N y w w w h h g g g j N N g N N N g a N Z t Z ( Z Z t V g g V 0 t N j j j g a a g g V V N N Z ( Z N N N N g g N N N g g g N N N g k j V ) ` ` ` Z N g s s s h g q h g g N N N N N g a s s h h g g j d g g g g g g g g N N B y y y B N g g g g y B Z Z S Z  .N q w g V g g h g q N N N Z N g g g g a d j g g g g N S ) ) S N N j k g h 8 8 h g g N S S S N N h g g S N h 8 w F t Z Z u 9 & 9 s N N N g d , , < h y w w & < a g N Z N q s f a a V Z Z N h r s g N V a a a , % % % , % a s s a a g g g a j a q g 6 8 g 8 a h g N N q g a w w 8 8 g g 7 F 0 g g K g a , f a N Z u Z t g g s a 8 8 q g a a q t t g a , , , 8 g g a , > < O N Z t Z q 8 $ $ 8 8 a a % % % 8 8 a a 8 8 8 a a 8 8 8 8 8 a a a a % % % 8 a % % % 8 8 8 8 8 ",
"@ + + 8 h C V g 8 8 6 F ~ @.| N , > 8 q y g 8 + + + & w p r & $ = & , d d d < # 9 9 a d j d a a q 8 C j k k 8 8 N Z | o.&.| 8 g g g g h g g g g g g C C V g g g q g h h s 8 a a g N V N g a a a N S S C h s s s h h h g g a s s h g g g a 8 g V D S S N g q g V D H h , s g N _ ( D j a , s B B B g g g g g g h s w w w g g N N B y w h h V V N j N N g N S _ | C g N Z ( :.a.4.5.Z N N V @.D D S N g j j g j C V V S ) X.t.V.<.Z N N N N V V V N N N N V V V N a 8 q X.<.<.<.( N g s s k k B g g g N V S S S N g g f x G C N g a a j j C C j h g N B B A B B y N N N g g h B B ) ,.F.J.{. .N w N S D C G h q N V S S S N g s f g j j j g g N S >.t.p.O.S g g j j C g g h g N I u.u.u.S q q g D t.>.&.C g C N ) S V s s < a N S S S j a , s B B H B f , a g N Z Z N h h g S >.1.1.X.t 0 q N O.O...k a , , , s s < a a a a a a g a 8 j g I i.u.s...g g g h U V N g g 8 g g V K V w F 0 S y.f.h.Y d s q ) ,.:.,.) N g s f h h N N a a q t N g a , , , a g N g , > % % } >.;.>.V 8 $ & g h h g < % % a a a a a a 8 a a a a a a a 8 a a a a a % 8 a 8 a a a a a 8 8 ",
"@ + % g D @.@.D q g 0 =.U.U.I.| + > a N S C s 2 @ + s h B B s & $ & f v L b s 9 9 s k L L C g 8 g g W ! ! W g g N o.U.R.T.i.N N g j C L C V g g g L #.#.| V g g V C C k f a a a C U #...V a 8 g | ..@.E k s 9 s k C C j g a s f C k j j g a g D &.%.| S N g j U &.*.W d a g Z 2.2.&.U k a g C D H C V g g g k k f f s 8 a g V C H B g g h C L U U V g g V @.*.*.$.V N Z :.L.>X'.T.) N N S i.3.*...V g g C C U W V N Z X.S.-X;X).S N g N D | U D N N N V U U U C V S ) !.>X>X>XC.Z g h k E W D B g g C U ..+.I V g h C W W U S N g j C U W U C N g N D D H D B N N N V V C C B N ) XXjXrXiXd.N N S +.&.#.=.C q N S ) | | S h a s j C L C V N S ` S.-X>X!.X.N g h D U U V N g S y.7X7XiXF.S V U c.;X=XXX+.g j V  . .U b f , a S X.2.o.L d d k D @.*.@.k d a g D _ X.] Z N N >.H.;X<X%X` ( ` C.;X;XR.r.g 8 g k k k k f % 8 g k k h k 8 g N u.>X7X7XF.S g 8 C $.! T K j a g I  . .Y q 8 N h.bXbXZXpXd a q 2.~.)._.4.N g a k E W D N a a g V A N a , , a g D D U d , < 8 u.H.(.^.@.8 & 9 C U U C s % , a a a a a a a a a k k k g a 8 a a g g g a a 8 g h k k h a 8 8 ",
"+ O % h @.&.&.| t V q k.OXoXoXu.O + a V I S s & @ > a V I C f & $ 9 k L T L k s 9 h C W U U h q N N $.r.$.#.g g N 2.OX5XOXs.Z N g V W W U V g g N U $.r.#.C g g V D L C k s a a L #.i.&.D g 8 g ..+.&.! C a 8 a k C C V g a a a C C C k g g V U 3.3.%.) N g C W 2.i.#.j g g ) 4.a.4...j a g D _ @.U V j g d j k k f s 8 a s j L U D g g g C U W #.U N q S &.3.*.e.I N Z ,.%X7X1X:X} N N S a.z.a.#.C a g C W W @.S N Z ;.(.2X0X1X) N g N U #.@.U N N N V U @.| U q N Z !.1X1X1XC.Z N h C W @.| D g j V ..w.+.| S g N U #.&...) Z V S | #.&.@.V g N V D D D D V N N V V U U C B N S XXvXkXkXy.g N ) ,.i.*.*.D t N S } o.| S g a a V L E D V Z ) ` ).2XqX:X,.N g N U ..| I V N } A.iXjXjXF.t 0 g d.0X0X2Xu.g g V  . .T E f a g } <.4.2.U j a j | &.a.&.L d a h D ' :.` Z N N <.;X0X<XH.u i Z 1.<X3X,Xz.V g N C C k E h 8 8 h C C C C g N N t.2XjXjX(.) N q C j.$.r.K g 8 g T r.q. .V g V q.mXbXCXeXj g N p.:X1X>XA.N g a k ~ $.D N % , h A D C a , , a V _ =.=.C a a g p.-X1X>X2.8 6 h D | | I g , , a a s a a a a a s k C k k a 8 8 a k k k a 8 8 h k G C h a 8 8 ",
"% % 8 h | &.o.) q Z t a./.!.(.+.O @ a V S V s & @ < d K I I h 9 6 8 j K Y K h w w w C U W D B 0 N N #.#.#.T g g N o.~.oX`.a.N N g j U W U V g g N U #.$.U V g g N V L L k a a a K ..&...V g a g } +.&.@.k a 8 a j C V N g a a s C C C k a a h U %.&.%.) N g V U &.4.U j g N ) <.<.,.| N a N ) _ | I V j j d j j k f s a s d j K K V g g g N C H W D N N Z | +.+.w.I N Z ;.(.>X-X).) Z S S 2.a.u...N g g C L E @.S Z Z ;.H.<X<X;X} V N N D @.| U N N N V U @.U S N ) ` H.1X<X<XV.Z N N C W @._ N g g V | q.+.} V N N D | +.X.` Z Z S | +.&.| S N N N S D D V N N N N K K K C V N } XXgXtXrXf.N D ` <.u.2.&.S t N S } o.} V g a a V D D D A Z ( ` H.1X2X(.:.Z N N } } } I S N ) t.jXjXzXH.` } I F.<X0X>Xp.N g N } U U x c 9 g ' <.4.5.I j g N } <.p.+.K d a g D ' ' A h g g +.^.;X<X%X( ( o.4.2X<X>Xp.Z t Z S V C C h q q g B C N g a V Z J.gXzXzXH.) S g V j.E ~ C g 7 w W $.#.U q q g f.CXCXHXdXj g t M.*X*X%XC.N g a k ^ W D N , , g V A B s , a 8 u ' 6.{ B q g q t.H.;X%X:.0 0 g S } } S g a 8 a a s s a a % a a k k f d a 8 a a g k g a 8 8 a h k k h 8 6 8 ",
"+ + % g D | ) Z 0 N 0 &.z.u.A.I + @ a g N g & = = % a N I V h w 6 8 g j K j g 8 w w B D D B w 0 q g U U U U a q q S a.K.A.&.q q 8 g C L C g g g g C W W C g g g g N C C k a , a C K U V j a a g S } | U k a a a h V V N g a a h k k k k a 8 h D D @.@.D N g j U | %.C g g N S X.X.| I j a g S ) S V j g a d d d d s s a a a j j V N g g g h B B B B N g N } +...I V N N ` A.).Y.Y.Z Z S N | &...L j g j C C C L S N N ) C.(.H.G.) V N N V D U D N g g N D U D V g S Z D.!.D._.X.Z N g C U | S N g g j I  . .S N N N V U | } ) S N N S | o.| V g g g V V V N g g g N V K K C h g N g.}.J.+X .6 g S ,.&.o.| Z t Z S ) | } V g g h g S D D N q N ( M._.(.C.` Z N N S } I I I g V O.XXH.;X>.N V g +.H.$X!.o.N V V U D C z s w B _ :.:.o.S g g N } O.O.} V g a g A _ D N h g g D s.!.S.L.t N A Z F.D.I.o.t t Z S N C g g w q g N V N g g V N O.XX;XXXF.N S g N $.j W h 8 6 9 F W W E h G 8  .eXwXeXf.a g t :.L.Q.S.;.t q a k C C C h , > a g N h s , a 8 t ] ' _ N 8 g q ,.D.H.S.) 8 8 g V S S V g a % a a a a a , % a a s k d s a % a a g a a a 8 8 8 a k k s % % % ",
". . + % g g g g 8 8 8 a a a a , 2 @ , a g 9 = = * & 8 q N q 7 r 8 8 8 , , , , 8 w w q q q 8 8 9 9 8 a g a a 8 8 w w q q g g g g a a a a 8 a a a a a a a a a a a 8 g g a a , % % , , , a a a , a g a 8 8 a s a 8 8 q g g 8 a s & % s a 8 g g g g g N 0 w h w h 8 N g a & < a N V N g s + @ % 8 q q V 8 g j , , , , s + a g g V q q N q g g 6 g 8 g g g g N N N g a a j N N N N N u N N g g j K % d a d a K a j a a a a a j N N g g g g g g g g g g g g N N N N N g g g N N N N g D g g g g N V g g j j j g g g g g g g N N V N g g % j N N N 8 f s k g N g a k s a g j g j L , f a a N S N g s & g N N N N N N N t N Z Z N N N N g N q t g < f a A Z u N N V A Z Z N N j a , d a g N N g a d 1 a N N N g g g g N N g a a g g g N N g q a g g N N g N g g g g g N N N g g g g N V N N g g g g g g j 8 a g g N V g g 6 k g 8 N g g f + a a a j g a a , s % a j a g a a s a % % 8 s 9 s % h a K % a a a g g N N N N N g g g g g q % > > % 8 8 8 , > + % q A 0 q g a g g N g g q g a 8 8 8 8 8 8 % , 8 a a a a a a 8 a a , , , , , % a a , , , % , % % 8 8 8 8 % % + ",
"> > < a a g g g 8 % + % < , , > : > % 8 8 9 = * - 9 N Z ) A 6 # 8 8 % % , , , , 8 8 q q 8 a & & 9 9 a a a a 8 9 9 9 8 a a a a a 8 , a , % % a a a a a a , a a a h g g g g g f f & % , , , a a a a a 8 % 8 a a a S N S N q g s # 8 s a 8 h h q q g g q w h w h w t N 8 8 s h N N V N s 3 3 l h N q A q g j a s s , d 8 g N g Z N N V q N N g C g g g g g g N N g a a a g g g g y A B F H C V P d , , j a V g V a a a < s a a g g g g g g g g g g g g N g g g N N g a a a g g g g C g g N q g V g g a a a g g g g g g g g N N N g a % V I ) S % % + g V } ) N h 8 h g S N V V , c k g S S Z V x l a g g g g g N N N N N N N N N N S } Z A h % 2 % N N N N g h A Z ` ) S N , , < % 8 g N g a s , , a a a g g a g g g g g g g g g g a a a g g g g g g g g g g g g g g g g g g g g g g g a g g g a a f % a g g N N 0 N 8 B h q N N g d + s a % k a , s < f % a V N g g a a % % % & s + 8 6 a g C g C % , s a a a g g N g g g g g 8 & 2 2 % 8 8 8 , > , , N Z t q h a g g a a a 8 8 a 8 a , , % % & % a 8 8 a a a a a 8 8 , , , , % % a a , , > > , , % 6 9 9 8 % % > ",
"O O % 8 q q q q g 8 % % s a a , > > , a g a % + s a g N Z Z N g 8 8 8 , < , , % 8 8 q g a a % & 9 8 g g a a a 9 9 9 a a a a a 8 8 a a a , , a a s a a a a a , a q g q g q 8 8 8 8 a a a a a a a g g h g a 8 q g q q N N 0 g h 8 a g g g N N q N N N N t q 0 q N ( ( N 0 0 t u u Z N 0 9 9 w Z ( Z ) q q g 8 a a % a 8 g g q ) Z N N 6 q g 8 g 6 g g g g g N N N g a a g g g N N B 0 0 g a d d d j g D N S N S N g g g g N N Z N N g g g g j g g g j N N N N N N g a g g j j N N V g N S N S S N g a g g g j j j g g g g N V N N D t ( ( ( ( t B A Z ( ( / u Z A t Z ` ( ( S 8 N N Z ` ` ` ( y 8 g g g g g g N N N V V N N N N N t ( ( ( V a f f N Z Z N a g N ( ] / ( Z q g B B t Z ( Z N N g a g g g g g a g j g g g g g g g g g g g g h h h h g g g g g g g V g g g g g N N N g g a a g g g a s , g g N S S N N 6 g q q S Z N D 8 N g g S N N g 8 g 0 t ) ( Z N a 8 8 a a s a h h g 8 K N N g 8 % a s g g g g g g g g g g h a < > 8 8 g g , , , % t Z u N g 8 a a g g g g a a 8 a a s a < % % a a a a a a a a % % , , % , % % 8 a a , , , , , 6 9 w 9 8 % % , ",
", , a V +.u.&.| g q 6 g C L j a > > a g g g a , , g  .J.H.J.q.j 8 8 a s s s , , 8 a g h h s , % 9 w j j j j g 9 9 9 g j j g 8 8 a a s s a a a a s s k f s a , 8 V _ %.@.D h g g g h h h h g g g V I U C g 8 g V u.p.p.,.Z g g 8 g V N N N N N | a.a.l.| t N D 5.D.G.4._ t Z ` ` -.` A B y ( <.D.Z.K.o.S V g L L C U N V S ) Z.K.a.*.N N N N C h h h g g g N V C h s a g g V C D D q g K 9.|.+XwXc.N Z N ) ] ` S N t q N D | ' _ N g g g C C C V j j g V U | | S N g g V S I S V V N S o.2.2.&.V g g j j C C C j g g V C D D V N A ( D.H.H.S.] Z A ' G._.G.C.] u ] <.H.G.G.<.Z ) ] <.G.G.G.-.A w g N V V V N N N V D @.@.D N N Z <.G.Q.Q.%.g s a Z ) S V d a g ) G.G.G.M.( t A A ' 6.6.` ( A V h k j k k g g j C U U V N g g N N j j h g g h C C C C h g g g C U D V N g g V U U U C g a g g j j k a g N S O.a.a.a.S Z N S a.C.a.2.N Z Z Z X.` _ _ N Z Z :.S.D.C.D g 6 8 h C k h 8 8 g N |.|.XXd.g a a k C L C N g q q h C G k a , , a N D V k a a 8 ) 2.a.a.o.g a g j C L C g a 8 a s f f a , % a a g k k s a a , a a a a , , , a h k b d , , , 8 h B k h a % % ",
"a % g ..I.`.T.a.t q q C W #.I j + > a g V N j a % a y.3XrXrXF.V g 8 a f f f s , a g h k k f , < 9 h C K K C h 9 9 w h j j h w 8 a a k k g s a a a k k L k s a 8 S 3.U.U.*.V q g C C G C B h g g | +.w...V g N S .XoX>XY.} N N g N D S V N N ) a.oXoXoX2.t t ] !.;X<X~.%.0 t ` 1.<.:.' A u ] G.1X:X:X2.S N N I U U ..V N Z X./.>XOXU.S N N N E C C h g g g V C C C h g g V U W @.@.V j K f.cXCXZXsXD t N o.` o.o.A t 0 N %.3.4.2.N g g V L U U L C g g I &.i.u...V N N S I | I I N N ) a.R.R.s.) g j C L W U C N g N D @.#.U S N t ` %X2X0X;X:.Z u :.1X0X1X%X` u ` m.<X0X<XG.( Z ` G.0X0X0Xm.( q V U #.#.U N N g D #.k.e.W N N Z G.<X0X1Xa.g a g S ` } S d a g ) 1X0X1X_.] i u ] M.M.M.-.( A A C U C V j g g C W e.$.W V g g N V C C N g g h C W @.E C g g V U #.*.@.V g g C #.e.*.W j a a h C C k g g N ) C.oXoX`.o.Z t X./.:X:XU.) Z Z ] <.,.:.o.u u ( M.:X%X%X@.B 8 g G G C C N g I f.MXmXBXuXV a a C $.j.#.D g q q C $.$.W h , , g D | | C d a q ` L.&X'.u.q a g C ! $.W k a 8 a s f f s a % a a k L E k s , a a a s s a a a g C ^ ^ b d , % g C W Q G s % O ",
"% # 8 | I.OXR.a.t q g D #.#.U j + + a N V N k a g q y.;XrXrXXXI q 8 a f f f s , a a h k k d , < 8 g C L K C h 9 9 h j V C j w 9 a a k k k s a a a k E E k g a 8 S 3.U.U.*.V 0 q C G W H C N g N +.u.u...S N V ) E..X:XF.` N N V V U S V N N ) A.>XoX>X,.t u ] !.<X<X~.' 0 0 ) ;.:.o.D N q ( J.<X>X>Xt.Z N g I I | | N N Z X./.,X5XT.S g q g C h C h g g g C C C C k g h C U #.#.| V j V q.ZXDXGXaXC g N | | | o.D g q B &.a.a.2.V N g V L ! W U V g g U i.x.i...V N V I  ...} I N N } A./.oXA.} N j C U ! W C g g N U #.$.#.D N N ` H.<X2X-X,.S Z o.-X<X<X(.` Z ( m.<X0X2XG.Z t ( G.jX0X0Xm.N q V U #.#.U N g g D =.k.k.@.V N Z G.<X0X1XZ.Z N N ) ` } I d d j S 1X1X1X_._ t A ' K.L.M.:.( Z V C U L C j g g C #.j.*.@.V g q N V D V V g g g D @.$.W C g g V W $.e.#.V g g C $.k.j.@.j a g j C C C j g N ) S.>X,XOXo.Z t X.).>X>XR.I N N ` <.,.2.) t t Z 4.>X>X>X%.B 0 h G H C C 8 8 g q.nXmXBXeXV a a C e.j.$.U g g g E j.j.$.k , , N _ %.%.L j 8 q o.~.>X>Xa.q g g L $.$.! C a a a s h h s a a a a k E E k s , a a a f f s a a g C ! ~ m f , % g C =.~ G s % O ",
"s a g o.K.`.U.i.q q g C U U I j $ @ a N V N s < a 8 p.,X7X7XR.N q 8 a s f f s a a a h h k d , , & g j K K j w 9 8 g j j j g w 9 8 a k k k a a a a k C L k s a g | 3.U.x.*.D N N h C C C h g g g | +.&.| V g N S .XoX>XY.) t N q V V V N N N S p.oX/.oX2.Z ` ` !.;X-XR.W a h U ..#.U G k h S C.;X-X:Xp.) S V ....#...V S ) O./.oXOXU.} V V V W C B g a a g k C C C h g g V U U U U V K  .f.mXDXGX4X, k a j U U L C s a g U #.&...V N g h L U L C j g g U &.i.*.| N j N K I | I V N N S u.I.I.p.S N g N V U U V g g g V U @.U V g g S H.2X2X:X+.g g I OX,X,X.XS g ) p.-X2X;XA.S I S F.2X;X2X>.V j g S | | S N g N S @.*.=.U V N Z (.1X0X1XZ.S N g ) ` ) V d a h S >X1X,XR.| g N D &.3.5.| N g s d C V C V g a j E #.W U V g q N V V V V g g N C W W E C g g V U @.#.U V g g V W $.=.U g a g j k j j j g g S p././.'.2.) Z :.).:X:Xx.j g g V  .} ..| N N V u.oX.XoX@.h 8 h C C C C j I V f.nXmXFXsXg a g C ! $.W C g g g U #.=.W C , , g S ' | C g j V 2.~.&X'.d.V g g k E W E j a a a a g g a a a a a k k k k a 8 % 8 a s s s & 8 8 C E E k , , , g C W W C a % + ",
"a % 8 V %.2.&.| g 8 8 g C C V h = = s g N g & # l O Z 4.C.A.i.q 8 8 8 a s s a , a a g g g a , , 8 a g j j g 8 9 9 a j j j g 9 9 8 a g k s a % % a g k k s a a g N D @.| D g q 8 8 g k k g a q g S } | D g g N S ,.u.p.,.N q N g C j g g N g N o.p.O.A.) t Z t 2.t.p.$.s O < k g C a < s a g O.D.p.A.` t q g V N N V q q N S u.s.s.&.N g N g C g h g a a g j C C C h q g j V C V D g g V g +X{.+Xv.O E a a K L j k d s d j K I U V g g g C L C j g g N U | ..| S j g g V I I V N N g S ..&.&.+.V N g g j V C N g g g N D U U V g j g O.t.D.p.V a k g d.y.y.u.a k g I p.D.p.} 8 j g +.H.y.H.S a a a V I S N g g N V D D D D V N N o.D.D.Z.o.g g g ( ( ) V g a h Z p.t.p.w.j a k C S | o.I g a , , g N V V g 8 g C C C C N g q N V N N V N g g V L C C V h g g C U U U N g g N C U U V a a g j h a k a g g N O.a.2.4.Z N t Z ,.C.p.r., a d j K V U j 8 a 8 V i.u.u.W g # 8 h h g j 8 j # j E.F.XXq.8 8 g k L E C V 8 g g V C C C k a , q N S D j a a 8 ) 4.4.4.} 8 8 a g k C C g 8 a a a s g a a a 8 a a g g a a % % 8 8 a s 8 & % 6 g k x s < , s a j L C g 8 % & ",
"& & 8 8 0 q q g 6 8 8 & % % 8 a 3 3 , O g j   + & 7 w t t t 0 9 8 8 , , , , , a a 6 g 8 8 a % , 8 8 8 a 8 8 9 8 6 C , % j # F 9 8 a a a a a a a a 8 8 a a g a 8 g N 0 g g 8 g 8 g a % % a a g a g g g a a g g g N N N N N N 8 8 h a a g g N N q N N t t N N N N N V a % 2 < , j a a O + s a N S Z Z N N N g g h g g g g g N N N S N N g g g g g g g g g g h g q V g g g N j g g C 8 N V S V q j , , a j j a j j g a j a g N g V g g g V g a a g j g g g N V N N j d a a g j g g N g g g N N N N N N N g N N N g g g g g g g g g j j S S V N g s s a N V V j a s k g N N N N g g 8 N ) N ) g a f g V N N N N g V N N g g N N N g V N Z Z N j a g ( ( Z N g g w t S N V g a d % a g q N g g d > , g g g g g g g a a N g q N N N N N N g g N q 6 g g g g g g g N g N g g g N N g g g g a g g g a a , , a g N N N Z N N V N N N Z Z a O a a j j a g % + a a 8 g q g g a 8 % a a a a a a g g g g g g g a g g a a a 8 8 8 8 N g q S a , + 8 0 q g a , a a t i u t q a a a a a g g a a a 8 8 8 a a a a a 8 g a a a % a a a a a % % & a 8 8 8 & % % % , a 8 a j % % f % ",
"& & % 8 8 q 8 8 6 & & $ + % 8 % o > v v d d , f & & w t t q 9 8 8 8 , , , , , a g 8 N q 8 g a a 8 8 a a a 8 9 8 8 j d a K % h 9 8 a a a 8 8 a a a 8 8 a a a a a g N 8 g g a k a a a a a a a a a g a a a a a g g g N N N g g 8 & s a a a g g g g q q q q g g q q N g 8 O & # % g g h < & s g N S N N N g g g g a a a a g g g g N N N N g N g g g g g g g g g g g g g g g g a a g h 8 B Z S ` S } N j j V V N N N g q N g N S Z S N g g h j g g g a a g g g g N g a a a a a a a a g g g g g g g g g g g g g g g g g g g g g g g g g g N Z Z N a a a a N N N g a s f g N N N N g g g Z ` Z X.N h k g N g q N g g N N N g g g N N N g g N N h d a g Z / ( N N h A _ ] S } V j j a g S N S S N j > , g g N g g g g g a h g q N Z N Z N Z N N V V h C g g g g g g g N g g g g g g g g g g g a g g a a < < a g g N N N q q q q q t t g k < f g g N 8 g V g C g g N q q a , a , , , , , , a a a a g g g g a a a g g a a C V g V N 0 N 6 , > 8 8 q 8 % + , a t t u t g g a a a a a a 8 8 8 8 8 8 8 a 8 8 g 8 g g g g 6 g 8 a a 8 % % % a 8 8 8 % + % % a j g j g 8 a % % ",
"& & & 8 a 8 8 8 & & @ @ & & 8 % > > > P P n 9.; > & g N V N a % % 8 a < , , , 8 8 8 V N N N 8 a 8 8 a g g a 8 8 g a P n Y a # h 8 a a a a 8 a a a a a a a a a g q N g g g % a % a s d s a , a a a a a < < a a g g N V N g 8 8 9 s f f a 8 8 g N g g g h g g g g N Z w 9 z w t ) Z _ B 6 8 q N Z Z N N g q 8 a a a a a s g g g g N N g g N N h g g g g a g V V V S N g g g g g h h w B t Z ` ] ` S g t Z ] X.` ` ` Z ( ( ( -.] ` S g g g j g g g g g N N V V N N a , a a d d s a a a g g h h h g g N V S S V N N g g g N N N g N g N ] ` ` ] V h g N Z ) Z Z g a h N Z ) ( Z N N t ( ;.-.;.( w 8 N S V N V N g N N N N N g g N V a d N N g s a g ] -.-.( q 8 y u ] ] ;.S N V N } ] ( ` ( N N a d g N N g g g g k g k g g N N Z } ) X.S q g g g g a g g g g g N V N g g g g g g g g g g a g g g a s s a g g N N N N w 8 8 g N N N 8 % g q N ) Z _ Z q t q Z _ ( ) g , , , , , , , , % % 8 h h h g a a a a g g g g q q 0 N S Z ) 8 , > 8 8 g 8 % + O % q N Z N g a a a a a g a 8 6 8 a g h V h g q S q N g N V q g a a a a a % % 8 8 8 8 8 & % , a j K j a j j + , ",
"@ & < a g h g a < & @ @ < s s , > > n wXpXtXuX1 > , h D | U d , % 8 a s s s a 8 g V 3.l.z.x.D g 8 a g j h g 8 8 j 9.uXpXaX|.g k 8 a g k g a a a a g k k g a a g V &.w.e.W g k s s f L k j a a a g s f s s s a g N D U D g 8 9 s z x C h a 8 h C W W W C h a g C S D B w B N ] D.S.~.l.B w A ` :.%.D C g q g g h f f f s s s k j N N g g g V C C C V g g N U &.*.&.I N g j j j C h w A u %.~.).).a.) Z ` m.(.!._.1.] ` -.D.%X%X%X) N g g V C V j g g N V | ..| S a , s d f f k s a a g h C C B h g N S @.&.#.D N g N V D U U V N N D :.m.m.<._ B y B ] ` ` ) B h w V ) o.` ] A t _ M.%X$X%X1.A w V | ..| | V g V V S U U N g N j a d C C g a d V L._.&XL._ q u ] _.%X-XC.) Z Z :.)._.).M.) N 8 j V I S N g g h C B G C g N Z o.A.I.R.u.N g V V h g h h g g g D @.U S N g g N V C C V g a a g C C x f g g N V D W H k 8 8 h C U D C w N Z o.L.L.~.2.Z u Z 5.Q.Q.T.C d , , s s s , a % 8 a F H H F a a a a d k k g g g N *.K.K.K.| , > a h h g , + , a D 3.l.i.U k a a g k k h 8 6 a h C E W D g q t S K.`.`.z.N 8 8 g j k k a % % a g h f s s a a j uXaXaX@Xd O s ",
"# % 8 s C C k f < + + & s x k a , 1 P dXDXZXnXn + , C ..w...b , % a s f f s a a q A K.].5X`.| q q g h j k h h a j h.AXLXIXuXg 8 a h C C C k g a g k E E k a 8 a V i.c.U.*.g g a k E ! E j a a g j k k s s < a g U @.#.U h 8 s f E W E C g g V U e.e.$.C g 8 a k S D B w q u <.%X1X1XP.D q V o.2.i.*.D N g g k C G k h a a g k L C N g a g k L E L C g g S &.z.U.s.o.N g j C C k G B B t 2.>X>X>X].o.( ] G.2X1X1XC.-.] -.G.0X0X1Xo.V g g C C C C g a g V &.i.&.U a a s k k k k j a g h C C C C N q N S &.k.i.| N g N U #.#.! C N q _ <.S.S.Z._ w B D o.,.,.o.C h 8 C o.<.:.' A t ] Q.0X0X1XM.( q N &.i.w...V q N V U $.#.U j g j d j D D N g j S _.1X7XoX&.N A :.1X2X7X!.` Z ( C.1X1X1XD.( N g U U | U V g g k G G ~ D N q N 2.OX:X>XA.V g V C C k k h g q N @.e.r.#.V g g N C U U C g a g C W ~ ^ x h g N | &.*.=.C 8 6 g C U | W N N Z 4.&X:X>XL.] u ( M.>X>X5X$.k % a k f f s s a 8 h W $.$.W s a a s f k k h g g N z.OX>X).| , > a h C k a , , a | l.`.T.#.g 8 a h G E C h 8 8 g D #.=.W g 0 t ;.oX6X6XT.S 0 g j L E L k , % g V C G z s a , P MXFXLXnXj a , ",
"% % 8 g C C k k , % + < f k j g j a I kXHXGXnXn + , V ..w.#.v 1 , a s f f d a a q Z K.'.5X`.) 6 q g h j k h g a d h.ZXGXGXeXg 6 a h C E C k g 8 g C E E k a 8 8 N i.K.U.&.g q 6 C E W W V g g g j C k k s a a g U o.o.U N a s f E W W C N g V D k.j.$.C g 8 a k C C h w q t m.<X<X1XK.A 8 g S &.i.&.| V N N C G E C g a a g C L C j g a g k L E U C N g S 2.A.I.K.o.N g N C C k G g N t ,.:X;X>XT.) Z ( D.7X1X7XD.` ] -.G.1X<X-X| N g g C C C C j g g V w.i.u.| g g g j C C C V g g N V D D C V N N S &.z.k.@.N g N U #.$.#.C N g ) <.S.G.Z.| g g D o.,.,.o.C s a C ..,.,.) A t ( S.0X0X<Xm.Z 0 V *.s.i.#.V g V V U $.$.U N g g j C _ _ V N V S _.1X7X.X+.g t ` >X<X7X!.` Z ] Z.%X1X>XC.Z N g W | | U V g g h C G W C N t N 4.OX>X>Xs.N q g N h k k h a g V @.e.i.#.V g g N C U U C g a g C W $.Q F g g S | &.*.=.C a 8 h U ....D q q t ,.oX:X:XA.] u u a.>X>X5X*.h % a k k k j h g g V @.*.*.@.d , , a f k k g 8 8 t a.oX>X).o., > a j C V d 1 , a S a.~.U...8 8 a h G E G j a 8 h U $.$.W N q ( 1.:X8X>XI.S N g N L E E f , , g N C E x s a , 9.mXmXFXaXj j % ",
"% % 8 g N V j a , % & < s g g a # q  .kXDXmXaXn , 8 N _ o.U j , , < < s , s a g V ) a.P.~.P.` N q a g g g g a a d h.dXCXZX@XK 8 g g C C C g a 8 g h C C h a 8 q S u.a.z.&.N C N V C D C N g g g g j j g a 8 g N S } } S N g h h D D S S N N N S &.#.U C g a a g k f s s g N ;.H.$XH.p.I j k K w.o.| S N N N V C C V g g g j j j k g a a a k C C C V N N S O.u.u.u.| N g j j k C a 8 N Z t..X;X>Xd.N S ) C.>X(.>XX.Z ( X.S.>X;X>XS g g g C C C C j g N V ..&.+.U g g g j V V V N g N N Z S S A N N Z D @.*.&.U V N N V U W U V g g V O.y.p.y.C a a j I  . .I k , , d K  .I V g g ) D.;X;X;X1.D B S +.&.&...S g V V I U U V g g g N S ' ' Z N V ) H.%X;XH.O.N V ` >X;X>XF.} Z N o.:X:X:X4.Z N a g S S S N g g h f F C h N N N o.I..X.XA.) V V j C k k g g g N D | #.U N g g g V V V V g a a h C E G B q N Z ) o.| @.C g g j K U U C g N N +.^.^.^.u.S Z S u././.`.@.h 6 g C h h j g g g N S | | U d , , , f f g a h g N 5.~.)._.O., , a N V N d , d j } p.S.A. .j a a g h k k g g g h C W W U N t u -.-X7X,XY.S q N N C C f a , , a g k k f s , a P dXAXAXuXa % a ",
"& % 6 8 g g g 8 % % & < a a 8 6 w h N } I K 0., a 8 q N S V a + % % , , , , , a 8 0 D D D S q q 6 8 a g g a 8 % d d 9.P 9.d % s a g h h g 8 % % a a g g g 8 a a q S N S N 8 q 8 g g N N g q q g 8 g g a a a g N V S S N g g h h N N N N g g N V V V N g 8 8 8 , d , > < s 8 Z 1.>.O.V a a % , K V N N N N N N N g g g g g g g g g a a a h h h h h N N g N S ) ) D N q g a a a k g 8 N q N ` ` X.| 6 V g S +.S O.S N N N ) >.` ` V g g g V V N V g g g V V V V N g g g g N N V N N g N N Z S N N q N S S S V N N N g g N V C V g a g V } X.} g % , d j K K j 1 , > 1 v v j a a g q S >.;.>.N 8 8 g D D V V g 8 g g N V C j g g g N S ) ( Z N N Z ;.;.;.X.N g g S ` ` X.S g N g S ) ) o.N q C s d N N N g g g g h h g 8 g A N Z &.` X.S N g g g g k g g g g g N N C V g a a g N N N N g 8 8 g g g B g q q Z S S N N g 8 8 g g N j a a j 8 N O.} S S q g 8 N } S S N 8 8 h B g g V g g g g N V Z N a , % , s f a 8 h q 8 Z ) ] ` q a , a g N g a a , a N S ` S g % a a 8 8 a a a a a a g N V g a 8 N t ) ) S S q N N g h g a , , , 8 a a s s , , a v P v j K j % a ",
"9 7 w 9 8 % 8 9 8 8 9 s 9 9 8 8 % s 6 g g 8 a > + k 8 q D g , , a % , d d d a O , , % % + , , < & # g 8 8 a + 3 2 , a g a a & @ % a q q h f + > > < 8 w w 9 2 , g K a a k a a 8 8 N q g a % s % , , , , a a a g V N N N q h z 8 g q q w h w 9 8 w w q 0 q h f s , > c l $ w g N I V g # z & , d a a a a g g g g 8 a g g a a a a a a 9 9 r w 8 8 q w w y y y N g 8 < s j j a g g h + s s g N N S g F q g C V V g q N B B N t N N g g D q Z t Z A A 6 h g h C 8 g g g j j g g g g N N N N N N N N N N N j g g N B h g g g g g g a s a I ) ) ) q a > , d d d a , > 1 d d a , , a a j j g g j d , < z h s s s s d a a 8 W g g C O j N V S N g g g N N N V N j j N V N q V g f x 8 h h q N q g f + a N N S N g g % a a s 8 g B N q A N S N g N g g g a a a j j j a a g h % & a a S N Z Z 6 r z w B q q g g g g g g g g g g a 8 8 a a a g h g g g g N 8 a g g g g g g 8 a g g h g g a a a a a a g q q a , % % , a a 8 % 8 8 a 8 8 g a 8 a a g 8 8 a g a g g g g g g a , , k a a % > 1 > , 8 q g a , , , , % 8 a g g 8 8 g 8 % s , + % % % % % % % , , , a , a a 8 8 6 ",
"# & $ & & % % % % % 8 % % % 6 & O & 6 w w 6 , + d j 6 q q 8 , + g 6 % % + % a , % % + + + > > > O O g q q g # & & & g g g a & & a N t 0 q 8 > 2 > % 0 q w 8 % > + g % 8 g 8 g g 6 q 6 q q % s % < , , < , a g g q q t t 8 g h & g g g 8 w 9 w s w g N g g g s a , % s 9 w w 0 N # 6 q # F s s , a , a a g g g g a a g g a a a a a a 8 9 r w g g 8 8 w w w w g a % % a a g g g g g 8 h 8 q N g V g 8 g g g g g g g w w h h g g g V N S t ( u ( u Z N C a a % j K a a g g g g g g g g g g g N N g g g g j g g g g h g g j j g h 9 f a S u / ( t k s < d d j g a a a j d a a , a a g g g a a , < < h h w 8 < a a d V g q 6 g C 8 N g g g g g g g j a g g g g g g g N q N g g F h B g q N q g k s k N t N g g j a k a a 6 8 B w 0 N 6 N N q g g g g g a a a a a a a # g % s d g Z t Z Z 0 r r 9 N q g 8 8 8 a a a 8 a a a a a a a a a a g q q q q 8 a a a a a g g g % % a a g g 8 8 a a , , a g g q a , % , a a a , % , a a , % , a 8 8 8 8 8 8 a a 8 8 8 a 8 8 8 a , , a a a % > > > % 0 q q 8 > ; > > , , , a a 8 % 8 8 % a 8 O + % % % % % % , , % , , , 8 8 8 8 ",
"% % % a s k a a % a a a a a g g 8 g t _ ' Z C a 6 8 u <.4.:.| # t t S | I S S q 8 9 w h s a a 8 8 q } } ` } g a a g N S S N g g 8 S X.X.} N , , a g Z ( ( Z a a N >.X.| _ t Z Z ( :.X.o._ q B 8 g s s a a 8 g V | X.:.) t q w 8 g j j g a a s j g V S N g g a a j g N y D S V y.y.y.y.q V q B g a a a a g g h C h h g g a a a a j j g g h h N V j g g h h N V V j g g N S S S S A N B q S y.y.y.w.% j V g K j K j g g g N V V V g g Z N >.;.<.` N N g V g.q.f.j j g g j C L V N g g N V I I V N g g j V K V B h w g g j j j h w g g X.1.N.m.( y h g N V S Z g g N N V N h g g N N Z S S V g g g S S S C B g N V I f.f.f.q.N t t _ ) S S V N N g C C V N V N N N >.>.<.) N N t S o.X.>.) t N g S o.X.X.Z q g 8 j C C g g N N V @.S o.) N N N N V V V N g a a g C N I a a a g O.>.;.;.N h h g I S V h a a g j g a g a a a g j h a a a 8 g N N N h g a , a a g g g a , a a N C N g a a , a a g g g 8 , a a s s a a , , a a a a a a a a g g j C h g a a g g V V g a a g N Z S V a , 8 q u ( ] A a , , , a a a a 8 8 8 h C C C g 6 a 8 % a < , , % % % , s s a 8 8 8 ",
"a , a d L R v j a a a j K L K C q Z / 4.L.4.&.N g t 4.8X7X8XOXZ u / 4.T.T.K.%.t t y y A B B q q g V p.V.V.u.N g g N ) X.X.) g g N t.).%X!.+.j d j I :.<.:.) g g X.!.~.~.Z.( ( ] M._._.!.4.u u q g j k h q g N S E./.'.K.Z q w g N K K j a a j K I  . .K g a a j S S A u ) S O.3XtXrXXXS t q A B g k k g a g C W L C j g a a a j v j g g h C K K K K N N V U Y  ...S N N ) o.:.5._ A Z S d.rXhXbX Xa V K j 9.K T V g g g I U Y I S N ) X.(.;X;XH.) } I {.mXmXDX}.j g g U #.$.@.D g g V | w.w.| V g h V Y r.#.H h h g j V K C h h q A Z._.%XQ.' t y N S } X.) B N N Z S D A V N N Z ' 2.2.| D N N } O.O.o.D V V S y.tXbXbX;XS S Z 2.i.i.2.| V N g | #.#.| D V V ) ;X3X2XG.X.( ( <.-X(.-XV.` ) ) p.oX/./.,.S S V ..#.#.U V N N | z.K.U.2.S N N S @.#.@.D N g g C #.....j a a I F.(.H.S.S g h N +.O.#.C g a h C C j j g a a j C C k k a 8 g C W @.E k a , a g C V g k a a g U @.W E a a a a g j V N 8 , a s f k s s , a a s s f s a a g g C W W C g a g h C W W C g g N _ %.&.@.C a g N ' 6.5.' N a % a k k j g q q q W *.7.$.G 8 a a a s f s < % % % s k k a 8 8 8 ",
", , , d L R L v a a a j T r.T V 8 t / M._.~.a.N S t M.qXjXjX5XS ( / 5.~.'.].5.t t i A A J B N q g S F.H.H.p.N 8 h S X.>.>.} N q S A.:X>X/.+.j a g } 4.M.:.Z a g X.(.>X>XL.( ( ] M.%X>X&XM.u u t N V C N g g S ) '.>X,X~.) 0 w B I I K j a a j K r.r...I g a d j V D D t t t y.hXhXkX,X} N t H C C k j a a g D $.$.W C g a a k v v v j g j C I Y Y K g g N U q.q...I N N ) :.3.3.7.A N N J.kXSXSXuXj a d j q.Y  .V j g N U q.q...S N Z ;.-X2X2X(.S I g f.DXDXJXwXj g g W e.e.#.D g g V #.i.i.#.V q g K ..d.r.E h h h V K I K C h g D S.%X*X%X6.u w V ) o.:.) B w Z S _ D D A A Z ( o.a.a.&.D N g S O.O.+.| N N N J.bXSXDXrX) S Z o.a.K.z.%.S N N @.*.e.&.S t V ` 2XgXzX;X;.u ( D.>X1X1XJ.` ( X.S.>X>X:Xt.Z Z S &.&.w...S N N +.T.`.`.a.Z t Z | l.*.&.D N q g W e.} +.V j j  .XX<X2X).S 0 g V y.q.#.L a 8 a j k k C g a a j C L L k a 8 q C @.=.=.C k , a g C C h s , % g W *.*.$.a a a a k C D C a a a g k k k s a a a s k k k k 6 8 h E $.$.L g 6 8 h E $.$.C a q N _ 5.3.=.C 8 8 N :.5.M.%.N 8 8 g L W U V g q q @.x.x.x.W q 8 g g h h f s , % , f k k g 8 8 8 ",
"a , , d L E E L a a a C ! r.U j 8 g Z 4.].T.i.g g 0 ,.8XqX7XOXN t u 2.].OX].3.q t y B A B B g g g D K.^.Y.d.N 8 g C | O.O.I g 8 N p.).oX~.+.a % g U 5.4.o.Z a g o.).>X>XL.( u ( C.&X>X:X4.u N N Z V V V N N Z ) oX>X5X~.] t N B S I L j a a d K r.w...V g g d k C C H w 0 q q.pXcXkX,XI N q C C C k g g a g C W @.E V g a g k L K j g g h C K Y Y K g g B W ..r.#.U N N S %.3.7.7.H q q f.tXbXNXuXK a a K r.T T N g g V U #.....N q Z ` %X>X,X^.O. .V {.FXDXHX+Xj g V W e.e.#.U g g S #.i.i.#.S q g K q.r.r.E h h N V K K K V h 8 V L.(.%X_.' y w N ) o.o.) N g N V S D C B N N Z o.p.a.&.D h g I }  ...U V g g f.vXDXBX,XN N N +.a.P.z.%.S N N @.*.i.&.S t A ` <X0XjX.X` t u t.>X;X>XV.( Z ) A.>X>X-X1.u N N | &.u.+.S Z N +.T.`.`.a.Z N Z | i.*.@.D N q V @.*.&.&.V g g | .X>X2X~.A 0 g S y.O.#.L g 8 a h C C C h a a g C L L L a 8 q C @.*.$.C a , a g C C h s , a h W *.*.$.a a a a j C D C a a a s k k h h 8 8 a s k k k g 8 8 h E $.$.L g 8 8 h E $.$.C g a h D %.*.#.k , 8 N ' 5.5.%.h % 8 g C E U C g q q @.x.x.x.W q q g g h h s s , % s f k k g a 8 8 ",
"a a & s x G F k w 8 8 h G E C h , d g o.u.&.T 1 d a ..OXOXOXc.j 8 q @.x.c.x.U % 8 8 9 s s s , , < f *.u.u.#.s & & s C S S j < & g *.U.U.U.$.a , s k @.{ H h < , I A.K.z.e.N N N 2.K.K.K.o.q g a N N N N N N N Z K.Y.!.a.) N N w V C C h a 8 s k U U D N g g s a v a z r 9 w U |.6X4Xv.a 8 + f d d k g g g h V C C C g g a a k k j g w w h h V V K N g w F J W E ^ x f g C H =.$.F 9 h g d.eXtXpXc.E 8 g C L C E h h w B D U U C B y _ ' ~._.'.Y.N N 6 g.aXcXcX{.V g V C #.#.U C N N V U #.#.U V g h V I ..T C h B N N K K V N g % a u.A.A.a.V 8 a g V I I V s a g j j k f s g g N I ....U j d a C K L L K v j j  .,XaXaX|.j j C o.2.i.*.U N g g U @.@.| A N A ) .X-X:XA.} S N &.`.R./.u.S S S *./.(.^.>.) ) S } o...I V V S } i.z.z.&.Z N N Z | @.D V N N V D @.%.=.h % 6 C K.~.L.3.y w h C +.} U C g g g g j k h g g a g g j j f a a g C U W U j a , a a j N g d a a h D @.W E a a a a g j N N a a a a a s s a a a a a k k s a a a g C E E C g a g g C E E k a a s k C W b 1 > , a D | @.D a , % a g V C N g q q D =.=.$.G q g g g g g a a % % a a s s s a 8 8 ",
"8 % # & 9 9 9 9 6 9 9 9 9 w w a > 1 % a j a d > 1 > 8 V g a d o , + a d a d d % % + + % > > > > @ O C V N k + @ @ @ 8 g g a & @ % g g q q 8 + , < & w y w 9 @ + % V g g j 8 8 8 g V V V g % a , g g g g h g N N Z Z S Z t g N 8 w w h 9 8 8 s k h N N g g h w & d . % r = r a C a j k O s % , , a a a a g g g g g g g g a a a a g g 9 9 w h j j j g 6 e w w g 8 c 3 & 8 a g h h f 9 s + a K j N V k 6 g h 6 q B w w w B B C N g w w A t _ ( ] Z N S 8 K K g I V j g g g N C N g g g g N V V V g w q g j V N g 8 B N N V K V N a s , V N N V a f s a j V N j a , a d d d , , , a a g V V j a , , s a a a d d d d g I N N j a , a g N N N N g N j g N N N N g t N ` ( S g 8 g q V D N S g q g 8 B S ( ` t q S N g V N g q N N g S N S N q N N N N N g q q g g g N q B 9 9 9 w _ ( ( A e r h g S N j j g a a a a a a g g g a a g a a , 8 g N N g g a a % a a g g g a , % a g N g a g a a a a g g q a 8 % 8 a a a a a a 8 a g g a % a 8 8 8 g g a 8 a 8 8 a g g a % > > % a a , > ; . % q N N g > + , 8 8 a g g a 8 6 g g w g 8 6 g q q q q a 8 % % % % , a a a a 8 ",
"+ & 9 & & # 8 9 9 9 8 8 8 q g % > ; % 8 a , > ; > > , 8 8 , > > , , , , , , 1 , < > > > > > > > + < 8 N N 6 & @ & & 8 g g a @ @ s % N 0 N 8 s + O h 6 q y 6 2 2 a a a , , a a 8 g g g g a a < < g g g g a 8 8 g N N N N q 8 8 8 h B 9 9 s s h 8 g N g N q 9 r & , . % & r z 8 a a a a & & < , , a a a a g g g g g g g g a a a g C 8 w 9 9 8 8 V K g g y w w C C l - x % a a j j a s , f k g N q 8 8 g g h h h w F w J B q N g g g h B N N Z N t q g g g g g j N a g g g g a g N N g g g N N N g h g g j j j g g q V g j K g N g s a g N V N k s + j N S I g , , , a a , , , a a g g I g j , d , s s a a , a a j V N N q j C % a a g g g g g a a a g g g g g N N Z Z S V 8 a k a g g g g g f s s N Z Z N N N N g g g g g j g g a g g g g g g g g 8 a g g g g g g q 8 9 < < s N N Z q w r 9 a 8 N j j a % 8 j j 8 8 a g g a a a a a a 8 q q g g g 8 a , a a a g q , , a a q q g h 8 a a a a 8 g g a a a a a 8 8 a a 8 8 8 8 8 a a a a 8 8 a a 8 8 a 8 8 8 8 8 a a , > % % % , > > > % N t q g + > , a 8 8 a a a a % 8 8 % % % a g 8 g q 8 g 8 8 a % % % % a a 8 8 ",
"+ % % % & % 6 8 # g h C 8 6 N a > ; % 8 8 , > ; ; > % a g a > + % % , , , , , , , > < 2 < > > > s a g N q q % l & 8 g g g q + # a g Z t A 0 a % % C t u A 0 , > a a a a a < 8 8 g g g g a < < < a g a a a , a a g N N g g a a a 8 q 8 % a , % j V V S g g 8 s s d d s # 9 g 6 V j j j a G s % % a a g g g g g N g g g g a a g a 8 8 w F h j Y K j a g B w h N 8 9 $ E j K Y P j K a a s 8 N A t h g a g g j h g h w B q g I j j a a a g N N N N g a a a g g g g g g g g g g g g g g g N N N N g h g g j j j g g N N V I K I N g a a g V V N g a g V S Z ) N a k a g g s a a g g V N S q N 8 g g g g g a a a g N q Z N N V g 8 a a g g g a a a a a a g g g g g N Z Z Z N 8 a h a h g N g g s s h N N N N g g g h g a g a g a g g g g g g g a a a a a g a a a a g g g < 2 2 a g N q 8 s x f d Y K j a a a j j a 6 g g a a g g g a a a a q g N g g a a , a a g g g a , a a g g g g a a a a a g g g a a a a a a a a a a 8 a a a a 8 a 8 8 a a a a 8 a 8 8 a a a a , , , 8 8 a a , > a 8 N t t N % a , a a a a a , , % , , % % % % a q N N g N g 6 8 8 , a a a 8 8 % ",
", , , a k k k g % g % ..d.d.g.j , < 8 w N h s < + & w B B B < % 8 8 a j C j j a % 8 s s f , , a g g <.1.>.O.8 8 g N } X.X.S g a N X.p.;.4.Z g N N 2.<.M.4.Z g a g N B B h 9 w w N V A V g 8 & % a g a a < , , a j j j j a a , s g N V a j d , h.g.f.F.V j a a k a C B 8 N V I {.J.J.q.6 D 8 8 h g g g g g g C D D V g q g g g g K j a g % K |.f.#Xq.V g q g N j h q g g V J.}.}.{.V V N q [ { _ S j a a j K V V V g g g h.{.f.h.v a a j I K I I a a , s k k h g g g g V V V N g g g V S I S S V w g g j V V N g V g  .g.q.g.I N N V ) X.X.} V N N ] D.D.D.p.g N N Z S D B B N N Z :.Z.4.A.} N N S S U D A N Z S ` V.y.y.,.N B w g j j j a a a a d k k k g a g S C.V.p.O.N g N g V S S N g g g h N V h g g g g h h h h a a a g j j j j g a a g g k s a a a a s j j j , > , d j K I V , 1 > n {.f.#Xr.j j j g g C C g a a g j j j a a 8 g N V N g g a % a g C V N a a a a h N h h a a , a g h N g a 8 a a k j g a a a a a j k g a 8 8 8 a g g a 8 8 8 a g k k g 8 8 8 q N V N a a 8 t :.4.4.5.N 8 a a k f f d , % + , < s , , % 8 N | &.&.#.V 8 8 a a f f a % % % ",
", , a j R ! U K j I a |.aXaXcXg., < h A A B f < + 8 B A [ J h 8 8 w N U #.! C 8 8 8 h h h g g a g N (.-X.XF.t q g } p.D.V.o.V g Z C.%XH.%X;.N S S S.%X&XQ.` N a N A D H B w w w A _ _ _ N q 8 8 h j k f < < < a k j j j a , < a L I r.d v n d wXLXAXFXg.I a % % N D C q S S y.bXDXDXpXS | 0 w h h j h g g N W *.*.W N q g h h j K K a V j |.LXGXGX#XK g j N K I #.U S I y.hXNXDXkX .S S Z 5.5.5.U j a g K T T U g g g  .pXFXZXAX9.d a K q.q.q.q.j a , a k C C V g g g C U U D V g N S | w.w.| D h h j V K K V N q N OXMXaXnXu.0 N _ :.<.t.,._ N Z :.1X1X1X%XZ N Z ) | =.[ D A u ( Q.>X:X8Xp.Z Z } O.u.3.{ _ ( ( 1.;X=X3XF.Z A w g j k j a a a d k k L k g a h S -X;X-XF.} N V N } } } S N N N C C C k g g g h f k k k g a a j L R L j d a g j j C k g a a a g j K v 1 > > d K I I K , n n n.GXGXIX@XK a j j C ~ C h 8 a h C L R k s 8 g N D C g g a % a k E U C d a a g C D C j g a , a k C C V a a a g C C k g a a a g L L k a 8 8 a g h h g a a 8 a k E E k 8 8 q A A A A g 8 0 Z L.&X&XQ.S 8 g j E ! ^ b a + + , s f f , % 6 N 3.U.W.x.| 8 8 a k k k f % % % ",
", + , d R ! U K O a 8 |.lXaXcXh., a B H [ H f < & a B [ [ A k s 8 w B W *.#.V 8 q w B B B h g g V S -X;X;X^.N g q } C.H.F.,.V q N D.>X;X1X<.N N S !.1X8X_.` g a N D H H B w w N _ o.%.| V g 8 8 C C k k s < < a k j V j g a < s U T r.d d d n uXAXAXFXq.g g j k U D B N S g y.CXbXSXpXg V q H H C C j g g N @.k.k.=.C g a h C C K P g j % g.AXAXPX+Xj j U I K Y g g q V y.bXDXDXFX .g Z ) 4.<.a.| V g j K #.$.#.U V a P uXDXbXmXq.d a K q.q.q.q.j a a a C U U S g g g C U ! U C g g N | i.i...V h h j K K K C V D g E.aXuXnXs.N t A :.p.p.,.D t _ 5.1X0X2X>XS S N ) %.*.=.[ A u ` _.7X>X>X,.Z S } O.u.i.%.] u / ;.;X3X3XH.t A y V C L k g a a k k L E C h g B _ ;X<X1X!.` N N V | } } ) N N N C C k k k g g h k C C C g a g C U #.W C g a g j C L C h g a g k V I K d 1 1 d K Y  .Y , d 1 b.DXZXPX4Xj a K C C E C h 8 a j L W ! L k a q N D D C g a % a C W @.W d , a g C W U C a , , a k L D D g a g h C L C j a a a j E W C k 8 8 a h k k h s a a s k ^ E k a 8 q A A A A g 8 N _ Q.&X&X_.| g g V W $.$.E s % % , f k k s 8 8 t a.`.OXU.U 8 % g k x k f a % % ",
"% % % s G ^ E C g V g  XcXcXcXg., , h D H G f , , a B A A A f s 6 w C W #.U j 8 q w h h h h g g g S /.;X-XY.N q 8 D u.S.A.+.N 8 N p.:X-X>X,.N q Z K.&X>XQ.) g a g V C C h g w g D | | U C a a a V C C k s < & a h j j g a a a s U U ! d a , n wXLXLXIXg.j g h a L j g g N g q.bXDXHXlXI g 8 C h C C h g g V @.*.j.@.C g g g k C j j g j j |.FXPXPX#Xa g V V V U C V V S y.kXBXFXnX .8 N _ 2.:.u.U j g g C ! $.#.g a g Y uXGXDXFXq.j a V w.w...T g a a h C D D S g g g V U U U C g g N U e.i.| N h h j K K K V V q S OXnXvXnXs.q N A o.u.u.+.C q t 6.*X1X1X).S N N S @.@.@.D A N ` S.1X>X:X>.Z N I  .w.*.=.D Z Z >.;X;X;XA.N y w N C C C g g a g k C C C N N A ] -X;X>XY.) g N N U I I S N N N k k f k k g g h C C C C h g g C U ! U V g a g h C C C h g g g B S I V d , , d V I } S a d P @XHXHXLX@Xj % j C C E k g a a h C U W L k a q g V D C a a % a k E W D d , a g C U C C a , a a j C D D g a a g C C C j a 8 a j C L C j a 8 a s k k h s a a s k E G h a % 8 y B A B a % q Z L._.&XT.S g g V W $.$.L g % % a h k h a a q t 4.].`.z.D 8 8 g k k k f a % % ",
"& # & 9 z z F k g 8 8 w.|.@X|.Y > > a g h h , > > > 8 g g g , < 8 a s k j j a , , a a a a a , , % h w.I.s.#.a O & f U ....D s & g U l.5.a.S N 8 g *.3.3.3.B < > a j d s a , a a V V V j d 1 , , g N h h 9 & & a g h h g g 8 s s G C C h a % j g.@X@X X..g 8 z s d , s & s h T  X@X@Xc.a O + f k g g g g g N D D U D N g g g g j C j g 6 6 r.@XwXuXh.g q q g C C k , j + K |.4X4X XL 8 g C U } | C h w g k F J J h q N K g.wXwX#XU B N V | o.| S g g g h B B Z A g g g g V C V N N g N S U | S N h h g j V V N N N I q.{.{.{.+.V g h I Y Y K k a 8 _ C.G.H.p.j a g j C C k k h N Z +.Y.F.A.} V g j C L E L V N N o.A.A.a.&.h 6 a h V N N g g g g h N B V N N A ( S.S.S.u.V g k a k k j h g h s s s j j g g g h h N N N g N N V V V V g g g g N N N N N N y N V V S N s < & s V A @.D s + , r.+XeXuXc.j a a j C C g g a a g g j j k a 8 q g N N h a a , a g j C N s , a a g V N g a a a a a g N N a a a g g g g g 8 a a g j j g a a % 8 a a s a a 8 8 a s h h a % % % 8 a g s > > O a 2.Z.Z.2.a % q N A D C j g 8 8 a a g g 8 q q t o.5.2.&.S q a a a a a < , % % ",
"$ $ $ $ & 7 9 8 6 8 h N 8 8 g % , + + 8 a a , > > + % 8 8 8 < > % % % % , , , > , , % , % % > + , a 8 g q # & & $ % 8 q g 8 # + a 6 S t N 6 a % 8 k 0 t y 6 @ . a a a , , , % % a a a a 1 1 1 , 8 q w 8 9 & 9 s a g g g a 8 a s w 8 # s a O , a j j 8 g g 8 l s d , s O + s % a d a , f f 2 > , a 8 8 g g g g g q g g g g g g g % 6 h w g C j d a a g N g B C 8 < + E % g V V 8 8 f 8 8 a a V g h w 9 w w w B w w w C g a K K a q w y q t N N q N h h B y y t t g g g g g g g g N g g g N N N q B h g g j g N g g S g g V g S S a a a j j d a a g S Z ( Z N j d a a a a a a a j g q V g g 8 j a a a a a a g g g g N N 0 g h + 8 g g g g g g g q g N N N N N N N t N N g 8 a k a g g g g a s 9 & a a a a a g g N N N g g g g g g g g g g g g g N N g g q w y N Z N g 9 & & w N A t q z & & j j N a a a j g g 8 8 a g a a 8 a a a , , 8 q g g g g a a a a a a q q g a a 8 g g g 8 a a a a a 8 8 g 8 a a a a a a a 8 a a a a a % % , 8 % 8 a a a a % % 8 a a a 8 % @ @ % % a , > > > % N t t g % a q q q q g 8 8 8 6 8 8 8 8 8 q g t Z t t N q 8 a 8 % % % % , % % ",
"% # # # & & % % % 8 a a 8 8 a a # 9 g 8 j j a j % 9 7 7 $ $ # < O , g g g a > > > > % + # O > > , a 8 % % % & 8 8 8 q g 8 a % & % h N N N g % < & & 8 8 8 % > 2 8 8 9 8 8 9 9 s a 8 8 a a , , a g N w 9 9 s s % % a a 8 8 a a % a 8 & % % % , , d , , , f f + f g g a a k d , d a a a a < , , d a g g g g g g g g g g g g q q 8 a a a g g g g a j g g g g g g a s < k C N S S g q h G 8 a g 8 h # z w w A Z S V q N g 8 g N g N g g N N g q w w w w y w w B w D g g g g g g q q N V N S N N ) N F r w g q g w w w D V I Y N N g g g g g g g g g q N Z Z N N g g g a a j d a f 8 a g g 8 a , > d g g g g g g g g g g g g g g a a g a a 8 a a g g N N S N q g C a a a a a a a a j S g N g g k % f a a , . < x q N t Z g g k f a j g g a , a a g q N N g g h N u u N g f & r z N N t q 9 & @ < a g a a g g g g g g g g g g 8 8 a a a , a a g g a 8 a a % % a g g q 8 8 w w 8 8 8 8 8 8 8 8 8 % 8 a , , a a % % a a a , , , , , > , a V a a g % a a a a % % % % % O @ X % % 8 & @ X < % N q q g % f 8 q g g q 8 8 a 8 % 8 8 a a 8 8 N t N N N N N g 8 8 % % % , + + ",
"% % % & < < % % % % a a a a a 8 z w 8 a j v j % 8 9 r 7 7 & & , % a 0 N N j a > > , 8 w g a > > , a a , < & 8 a 8 g g g g a & % # g N Z S g % & & 9 h h g a > + 8 w h w w 8 8 w 8 8 8 a a a a a 0 N N g % a a g g j N g a a a a a a a 8 8 8 a s a a a % , a + C S ) N g g a % a h h h g a a a d g g g g a g g g g g g g g g g g g a a a g g g g g g g g g g j j a % 8 q q S ` Z S q g 8 8 g g g k z g 0 N S N N S g g g g B A N g g g g g g N h B B g g V N N # g g g h C C N N t N t Z Z Z ] 0 y w g g j N h w F g g g g K V S g g h h N N g g q g N V V N g g N j K j d , a j q N N j j d , a g N S V N g g g a a g g g g a a g g g a a g N N S ) } S q g g % a d a a a a g S Z u Z t q g 8 j j j d + < h t X.] ` Z 6 % % % g N g a , , , g N t q 8 % 6 q u ( ( Z 8 # # q Z ( ] N 8 # + & a g h h g g g a g g g g a a a g g h s , a a g N N g h g 8 8 g N V N g w q g g h g g 8 8 a a a a a a , , a a h h g g a 8 a a s , , , % g 8 N N g g 8 g a 8 g g g a % @ @ % a g g & @ O # N Z Z S 6 % 6 8 g g g 8 8 8 8 8 a a a a , 8 8 t N N q 8 6 # 8 8 , < , , > + ",
"% % % < a s a 8 % % 8 s k k h a # 8 V |.wX@X|.j a a 8 s f s a a 8 N ,.>X).oX..% 8 q A _ [ D a % a a s f s s s 8 q g V C C f & + 8 _ :.>.>.) q g 8 B _ } S N a , a j C C g a 8 a a a g g a 8 a g F.XXF.F.V N g V I +.&._ N q w h h h h g 8 8 g C D D @.N q g N 3.Z.L.p.) Z V V D _ D A N q g h C j j g a a a g g k g a a a g g h k g a a a g j j C g g g g N V U ! V V S ` V.G.D.A.S S S S +.O...N 8 N N d.@X|.,Xq.g a j N V U V N g g g V C V N g g j q.wXeXtXf.g a g C W W D V S S S 2.a.a.a.N q g j K I I N g g j g.eX@XeXq.g g g h V V h g g g C D @.@.D V N N q.eXwXeXh.g A t _ X. . .V a g V S | | D g g a a g j j g a a q V A D B N N Z ( C.D.S.C.X.S D g V N V N g q Z X.!.!.!.1.Z A q V I I K g a N ( D.G.H.C.S g N S S S V d , , , N D _ D C j g S 4.L.S.D.S N Z ` S.G.H.t.S g g I  . .U k g 8 a g h h g a 8 a h C C C k g q q N ) | U D N q g C _ | | V g 8 g K U L C a a a a s k d a a g g D @.*.@.A t q q g C C h g N Z ) a.a.i.a.S t t N D @.@.A q 8 8 g V S V g a g N 2.C.D.C.S g 8 g C C C h g a 8 a k C k a a 8 g +.i.u.*.V 6 a 8 a f f s , > > ",
"& % % < s s s a a % 8 h G E k g g j K eXcXcXpXP d a g k k v d a N ) M.jX1X7XI.g q N _ 5.5.%.V 8 a a k k x s s 8 g N D W E k < % q 2.D.G.D.;.N g g D %.,.X.S g 8 j K T U V g a a a g k k a a a j }.rX3X,X} S g } u.s.A.2.Z t y B h C C h q q V D *.3.3._ u u ' ~.&X:X!.` t N S | %.%._ Z t N V U L j j a a a k f k k a a a s k k C k a a a h C C L V g g g C U #.#.S Z ) ;.H.;X;X.X( Z S S ,.t.y.T 8 N V {.lXiXlXf.j a K V I ..S N q q g C U I K V K P b.ZXZXDX+Xj a g U $.*.#.U g N S d.R./.I.S g g V Y q.q.K g V I eXGXZXFX{.j g h V C C V N g g C @.*.*.@.D N } F.DXCXDX+XZ %.u o.y.y.q.I q w D | *.*.| N g a a j C C j a a g Z _ [ [ A Z ( ] !.%X>X_.:.u Z t D S D S N t ] <.%X:X1XM.( ( A _ O.} ..C q t ` %X;X<X!.) q N S ) D D k , , s C @.[ U C a a I A.:X;X-X` Z Z X.;X<X<XG.` q N } >.>.#.G g 8 a h C C h g 8 a C L E E C g q g S o.&.&.@.V q N _ &.3.2.S g 8 j T r.r.T j a a a k k j j N N N @.l.P.3.%.N t t A _ @.D N Z t ` ~.].].T.Z t u A %.3.3.[ t 8 a S } X.} N g q Z D.H.-XH.) q 8 h E W W C g a 8 k E ! E k a 8 g s.U.U.v.U # 8 a h k k s , , , ",
"% % & < s f f a a 8 8 h E E C g a a P uXAXZXdX9.d a g j v v d d g ) D.zXqXzXI.g q N ' 5.M.5.S 8 a a k x x s s 8 g V U W W k s % q 5.S.G.D.;.t q g D 2.,.o.S g a j K T U C g a a a k C k d a a j }.gXgXrX} V 8 I a.I.L.4.( t y B h k C h q q V _ 3.3.3._ i u ' ].>X8X_.X.t N S @.%.%._ Z t N D U R b d a a d j f k f a a a s k k L k a a g h C L L C g g g C W #...S N Z >.H.2X2X>X` Z S S u.C.u.r.a g N XXcXaXnXg.j a K V U #.S N w w N D U U I g j j f.ZXSXSX}.j g j U r.r.#.U q N S s. XXXI.S g j K Y q.q.I j j j +XFXDXGX{.a g h C C C C h g q C @.*.*.@.V N N J.DXSXHX}.0 t u :.t.y.y.I w w D o.e.e.@.V g a g j L L j g g g S ' %.[ _ Z ( ] _.>X7X&X:.u t N D D D D N N ` 4.:X1X1XC.( Z N S >.O.#.h 8 q ` ;X<X1X!.) q N Z S [ H x s < s D %.@.U V a a I F.>X3X;X` Z Z X.<X<X2XH.X.t N } 1.t.#.G g 8 g k C C k g g g C E W W C g a g S +.&.&.D N q N | 3.a.i.D g 8 j T r.r.r.j a a a k k k j g q N @.l.U.l.%.Z N N S @.@.D A Z t ] ].OXOX].Z t t _ 3.l.3.[ q 6 a S X.O.} N a q S F.-X;X^.} q 6 g L $.W C g 8 % k W $.^ k a 8 q s.W.W.U.@.6 8 a h k k f , , , ",
"% % % & a s a a a 8 8 g C G k a O % K uXnXnXuXY a a g g k d d d 6 Z A.jX7X7Xd.8 g N _ 6.:.| N a a a s f f s 9 8 g N D U C k s 8 w @.4.C.p.) q 6 s C o.o.} N a & g C E G C h 8 8 s h k k a a a j }.rXeX,XI N 8 V w.i.i.%.A g w g s d k a a a h C =.=.%.A t u ] L.'.:XK.) N N V U @._ A N t N V L b d d d a d d j k d a a a a s k k k a a g h C C C V g g g C U U U V V S >.S..XoX/.} S V S u.u.i.W a g N E.aXiXaXw.j a C V D | D N g w N C D V K K K P b.mXZXCXwXj g j K #.#.U I N S } s.E.I.I.S g g V Y 9.Y K g N Y @XAXAXAX|.g g h j C C V N g q V @.*.=.W V N I F.mXZXZX+XI A u ' O.O.+.I 8 h B U #.#.U V g g g j C C j g g g S D D D D V Z ( Y..X>X/.o.N B C V V C V g N ) :.>X>X>XZ.) A q N } | E s 8 q ] !.%X-XK._ N B S _ _ D k s < s D [ %.| K d d Y A..X;X(.X.Z Z o.(.;X;XF.X.N N } >.y.U C g a g h k k h g g g V D U U k s a g V U U U k g 8 g D #.&.&.B g 8 g L ! ! T a a 8 8 f h f g a 8 q C *.k.*.D N N N V D D D N S N ) U.`.W.U.S q N A @.*.=.C 8 % a V } } I g 8 a V s.!.^.F.S g 6 g C W W C g 8 8 g E W E k a 6 N u.c.v.x.@.q g a g k k s , , , ",
"% + % % < a a 8 a % 8 a g h g 8 k f a K r.r.q.j a a 8 8 8 a , a a g N X.O.+.K d , a N N V g , , , , a s < < & 8 g g N N N g a & 9 F D _ ' B 9 3 & s j V N a @ @ r p z z r w 9 9 w w s a a a a g V +.#.#.g s s k C U U j g a , , , , , , , , a d k k C g g g q @.| o.V a a % % a k h h g a a d d d d a a a a j g a a a a a a a a g a a a a g g h j g g g g g j h f & 8 g N | *.@.@.g g % a C g k x k q q | u.u.u.D h g h h B B B g g g g h h h g a 6 a j d.g.h.v g g g j V V V V g N V | | } o.q g g j V K V N q 6 q I y.f.d.S 8 g g h h h h g g g V D D D C V V V K q.q.9.v a g q B D C C h & s N V S S V g g a g g g k j g g a g h j k h g g N } ..2.| g 8 a a a d d d a a j I } } +.S g j a k N V x @ @ s g O.>.,.D g 9 8 8 h A V g , , a B A A N g a a j } >.>.X.g 6 8 V o.>.>.) g % % a N V V g g g g g g g g g g g g N V N 1 , , 1 d j j d d , , , k C I V w w 8 g j j j j 8 9 9 9 9 w 9 a a % % a f L k g a a a g j j g g a g a L ! U E a a a a k k k a % @ @ a g N g & @ * + C } } D % # 8 g C C C h g a a a g k s a 8 6 q V U U D g 8 6 a a a s s , % % ",
"% + + % % , 8 % 8 % % 8 8 8 8 % # & 8 O % a % g 8 9 9 9 # & & < > , a 8 g a > > > + 8 8 8 % > > , , , < < & % 8 q g g g g a a & O 9 0 q N q $ 3 @ > a a a , @ X 7 9 w 9 r 7 7 7 9 9 8 8 a a a a N g a + % & & O % a a % , , , > , , , , , , , , , % s % a a O g g g 8 a d d , d , a a a a , , , a a a a a g g g g a a a a a 8 8 a a 8 8 8 a a a g g g g g g g 8 s & s a 8 g N 8 a s s % s k % 8 # z w q N q t 0 q B w 8 w h w B g g g g q 8 q q G h h g g g 8 a g g g g g g g g g N g N q q S q w w g g g g w w w H N g N g N B g g g g g g g g g g g g q q g N j j , d 1 d b a 8 g q 8 h s % a g N N g N g g a g a a a g g g a g a a , s a a a g g g g a s f , , , , 1 , , a j g g V g a , + f 8 a 3 X = l 8 N Z Z g % < & % h N N a , , a g N N g a a a g N t N g s # & f g N q g s 3 3 & g g 8 8 g g g a 8 8 g g g g g g N g , > > , , , , , , > , , a a g g 9 9 w a a a a 8 6 9 r 7 7 9 9 8 s , > > , , , % , , a a a a a a , d , , , O , , a , % % % % % O = X % % a & @ X = @ h g q g # & 8 8 8 8 8 8 8 a a a 8 % % % % 8 g q g g 8 8 g 8 a 8 8 8 a , % % ",
"% % % % % % 8 8 8 a 8 8 8 8 8 8 & $ & 8 8 8 8 6 6 6 7 7 & & & O + > a a a , > ; ; > & & 8 , > > , , % % % & 8 a g g N q N g % f s % q N q q s 2 2 , d a j % 3 3 + g k C h 8 9 w 8 8 8 8 a a a a g V 8 % s + < < a , % a a , , , g g a g a % , , , , , , , , , a g g a a , 1 , , , a a a a , , , a g 8 N V g N g q N N q N h 8 g g a a a g g g g g g g g g g g a % & 8 a g g g g a a s s s s s s w w w g N Z N N g g w w w w y g g g g g g g w w h w w w w w w w g a a a g g g g g g q g g N N q z r g g g g w w p h N N N N y w g g g g g g g g g g g g g g g g h a a , a a a g g 6 8 h g s , , g N N g g g g j a a a a a a g g a a a a < a a a a g g g a a < , 1 , , , , , a a a g g a a , , , g 8 l 3 X f g g } S 8 a < < s g S N a a d a q A t q 8 , a g N t g a & @ 3 < a g g 8 @ @ = & 8 8 a 8 8 a a a 8 8 g % C 8 V N N N , , d , d j % a , % d a a N N S h # a a j K d j a 9 9 w w 8 6 a , , > > , , , % a , d a a a 8 a , , , , , , , , , , , % % % , < X X % 8 8 % @ X = @ 8 8 q 8 & & s 8 a 8 8 h 8 a a a 8 8 % 8 8 8 8 8 8 8 a a a a 8 8 8 % % % % % ",
"% % % a a s g a a 8 8 a g g g a & $ & 8 s a 8 9 6 8 9 w s s 9 % @ > a g g a > ; . @ 9 9 h a > > , , , < < < a 8 q N S S U V # a % g S } ) g % > , n K K q.a > . d 9.K P K a g g 8 a h s a 8 a a }  .V K k f s O k k g g a , , k Z S S N q q a k s , , , , , , d V S N g , a s a a g g g a a d k g N q g g q S | N S q 6 q N g B g a a a g g h g g g g a g g j j f s a g N V V N h s a s f h h g f a a g S S S S N g g h h h B g g g g g h h h h h w w w z F F h g a a g h h g g g q q g N N N w p w h j V C B w w w N V S V B w g g g g h g g g g g g h N g g g q g g j d a a q V S | I I g d j g N V V g g g a a a g g g g g g g g j k s a a a g V V N g a a s j j d s s s a g N V V N a a , a g 8 s @ O , j q.} O.I a a a j ..O.q.K j v j q t A B a , , g N A S h < @ < < g g g a & @ = < g g g g a a a a a a h 8 h 8 N S S S j % a 8 8 N g g C a g g N } ) ) B a K d v 9.Y Y j 8 6 9 h g g j a , , a d d d a 8 a a j D S V g a a a a a a a a a a a s g g a , @ 2 a j N g 2 @ . % a N N g % O 8 6 h g g j % 6 a a a a a a 8 6 8 8 a a a a a a a a s s a 8 8 % ",
"% % % a k E G k 8 8 a j C E C k % % % a s s a a 8 8 g k E E k < % & w B D C s + % & p F F h < , % , s s s s a 8 N | z.U.c.r.g j g y.F.H.H.O.g j v pXDXDXkXK d 1 9.dXZXZXeXv d v j j k k s 8 a g +XbXvXpXY a j V U U | D N q g D ~.&X_.4.( t t g h h h s a , a L %.%.| V g g h h V A A N g N V U @.#.S S Z S a.R.`.T.&.N N N g h k g a a g h C C C g g g g V U W E C N N S } } } I V g g N S S S j a a j I  . . .N g a a j C V N g g g j C C C V g g g g C L C C a a h h B k h g q w g B B B B g h g j K I U C h w g V I ..| D w a a j C C j g a a g V C C C N q y [ +.q.q.Y S A u p.3X+X,Xq.N g S | *.*.@.V j j g k j j h g g g S ) | D B g q g S } | ) V g h B D S C V h g N S %.+.o.) N g g N } I K d d j  .3XzXkXeXN j j y.uXiXiXg.a , g N %.[ J f s < h D %.o.I k < < s N S S g a % & h V S V h a a a g h h g g g g S R.oXOXz.V N Z S &.&.%.D q t Z 4.%X%X%X&.% d P pXAXAXdXK a 8 g L K K K g g g N U W U V N S N i.T.L.L._ q q g V C C B g q q N D @.@.C q a a V } O.I h % a k ..y.u.o.C a g j r.e.e.$.g a 8 g k G k a 8 % 8 a g a a a a 8 a k L L k a 8 % ",
"% % % h E ~ W E 8 8 a C W $.W C % , , s k k g a 8 a j R ! ! b a & 9 y A [ H g % & w F [ J B g , % , s f f s a 8 q o.T. XW.k.a g g D..X;X;Xt.q j K cXHXJXNX .V d 9.CXDXGXdXP a a j L E G s 8 s N tXNXDXvX .V N g | &.2.| Z q B %.&X1X&XM.( u A A D C C h a a j | 5.4.5.D q g N C D _ _ Z t N D &.#.*.D N N Z I.>X>X`.o.t q V B H C k a a g k C E U C g g V U $.e.#.D N N ) X.O.O.} S g g Z ) ` S V d a V  .q.q.q.K j a a j K I V g g g j L U U K j a a j I T I K a a g k C C k h q w g B C C B h g g V Y q...D g q g I q.w.w.D g a g k C C k g a a h C E E C N q i _ +.y.q. .Z u ] !.jX3XtXq.N Z S o.i.e.@.V g a g k k k j g g g ) o.%.%.D y t N o.o.2.o.Z N B B | | | D N g V D i.a.4.o.Z q g V X.} V a d a O.kXNXNXvXI V V y.kXiXlX|.d d K S %.=.Q x < & s W 3.2.+.V a a g S } I V a 8 a h ) | D C g 8 a h k k C C g g S OX>X6X`.N t Z ( 5.a.3.%.u t ( Z.1X*X-X..% n P pXGXPXZXY j a j T q.9.T N q g D @.*.@.D q Z t Z.>X'.'.` t q N D @.@.D N t t A =.3.*._ N g g S O.y.+.V 8 6 N O.t.t.O.N 6 8 j j.x.j.$.a % 8 h E Q E h 8 % 8 a a g s a 8 8 g C ! ! G a 8 % ",
"% + % h E ~ W E 8 8 g C W #.W C , , , d k k g a a a j L ! ! v a & 8 y A [ D g % & w F [ [ A g a % , s f f s a 8 q | R. XW.i.g g g A..X;X-X<.q j K cXHXJXNX .j d 9.CXDXGXdXP d d j C E G s 8 a N tXNXNXvX .V V g | +.2.| Z q B @.'.1X&XM.( u A V D C C N q q V @.5.4.5.D q q B B A _ A Z t N _ &.#.$.C N t N K.OXOX`.o.q q N C G C j a a g C L E U C g g V U $.e.#.D N N ) X.o.X.} V g g V ) ` S K d g V  .y.h.w.K j a a j K K V g g g j L U U K j a a j Y T Y K a a g j C C k g g g g h C C C h g g V Y q. .L g g N I q.d.w.U g a a k C C k g a a h C E E C g q y _ q.f.q. .Z u ] !.jX3XrXO.Z Z Z o.i.e.#.V g a g k k k j g g g ) :.2.=.D N y N | %.%.o.Z N B B | | | D N g N D 3.a.4.o.Z q g V } } V a a a O.kXvXvXvXS N N y.zXjXvX+Xj j K V =.=.Q x , , s W 2.u.O.V a a g S } } V a 8 a V ) X.D C g 8 a f k k C C g g S OX>X6X`.N t Z Z 2.i.3.%.t t ( Z.:X<X-X#., P P dXGXPXZXY j a h U q.q.T N q g D @.*.@.D q Z t Z.>X'.&X` t q g C W W D N q t A =.*.*._ t g g S O.y.+.C 8 6 N O.t.t.O.N 8 8 j j.x.j.$.a % 8 h W ~ E k s 8 8 a s f s a a % g C ! ! C a 6 6 ",
"% % % a C E C C 8 8 a j C U C j % > , s s f a a 8 a j K R L j a % 8 g A D V a % % a B A A V a , % , a s s s a 8 N | z.I.I.e.g g N u.F.!.!.o.g j v pXDXDXpXK a , 9.pXmXmXeXv j C g k k k a 8 a j }.hXkXpXK a j V U U | D N q g D /.).~.2.Z t g g k k h g q q N D %.%.@.N a a h h B V A N q N S U W ! C V N S d.R.`.T.&.N g g g h k k a a g k C C C h g g g V U W E C N N S } } I V j a a h S S V j d a N } +.....N g a a j C V N g g g j C L C V g g g j K K K j a a g j j j j g g g g j C V j h g g j K Y I C g g N I  .q...D g a a j k C j g a a g C C C C g q B _ +.q.q.Y S Z u 4.>X;X,XO.N q D o.*.*.@.V j j g k j j h g g g S ) | D C g g g D D | D V g h h S S D V g g g V @.&.o.S N g a V } S C s s a  .,XkXkXuXN g g u.6XiXiXg.a a g N =.[ H f , , d I +.O.} j a , a V S S N a % a h ) ) V N g 8 a s h h a g g g ) R./.OXc.j g N V #.#.#.C q q Z 4.).(.).$.O d n tXZXZXdXK a 6 w C U K K g a a j E W U V g S N p.~.L.S.` q 8 a h C C N g q q N D @.W V g a a V } O.I g % a j | ,.,.| j a a j r.e.e.$.g a 8 g G G x f s 8 8 8 s s a a 8 % a k L L h a 6 6 ",
"8 8 8 a a g g g a 8 8 g g g g a % + % & 9 9 9 % 8 8 a j k k a , + < a g g g , > > , w g N g , , , , , < & < a a q N S S S V # a 8 g D ' A q # + > n P K q.% <   a K a g j 6 8 8 9 9 h a a a a d K  .j K d s s O k h g g a , , d N S V j a a s f s < a a a a g N V V h a , , , a a a g g a a d k a g 8 g g q S } N V g 6 8 g a h g a a a g g h h g g g g g g j h s s 8 a g V j k s < % < s s g g h a a g V S S C g h 9 s h h h h g g g g j k j g g g g g h k h g a a a a j j g g g g g g j j g g g g j j V N N h w h N V S C A w g a g g g g g a g g g h h g g g 8 g j j d d a g N N S Z N 8 8 g q N V V g g g a a a g g g g g g N N j k s < < , s k j g a a < s d j a a , < < a j j j j a , , s q 6 & X o > a  .I I I a f % g | Z ) N a j j q u A B a , , d N V S V a 2 2 < g g g a & & & s N N N g a a a a a a h 8 N 6 N S ) S j > , % , d , a f , a a g I S S g # d , n P n v g 9 7 r p w g g a , , , d d d a % 8 a N S S S N % > , , , , , , , , a s k k a , + > a j N k 2 @ o O a g g a + O % % g g g h % % 8 8 a a s a 8 8 & & & < a a a a a a g g a 8 8 8 ",
"8 8 8 % % % 8 8 a a 8 8 8 8 8 % % + + & & & $ # & % a a a a , , + , a a a , > > > , 8 8 q a , , a 8 8 8 8 8 a g g t N t N N % s s & 8 h w 8 & 2 , , d , j + 3 3 s g g g h w w 9 8 8 9 8 a a a a g V 8 8 s + < 8 s 8 8 a a , , , d a a a a , , , < , , a a a a g a a a % , a a a 8 a g a a a , , , a % j j a N N N V N a g g a g g a a a g g g a g g g g g g g 8 & & & a g g a a , % & & & 9 a a 8 8 8 g g N N g w w h h h g g g g g g g g a a a g g g g g g g g g a a a g g g g g g g g g g g g g g g g g g g w y y N N N N y w g a a a g g g g g g g g g N N g h g a a a d j g N q t N t B h g N N N g g g g j a g g g g g a g g g g a a , , , a a a a a a < , a a , , < < , % a a a a , , > 2 w # 3 = X < a q V N % a s & 8 q ] Z g j j a q t t q a , 1 d g g N g < 2 2 < a a a , + @ & < g g g q a a a a 8 8 g # C 8 S N N g , , d , 1 d > , , + d , a g g N h $ a a d P d a 8 9 r r r 7 8 a , , > > > > > > , , d a 8 q 8 g % > > > + + % , , , , , % , , , % % 8 a a a + @ @ + % % 8 % @ @ a 6 a % 8 g 8 a 8 % % + % % 8 8 6 8 8 8 a a a a 8 8 6 6 6 6 8 8 ",
"+ % % % % % % , % % % % , , , % + + % 8 8 % $ @ @ & a % g a O , % % 8 a a a % % % 8 8 q g g a 8 q q t q g a a a g t u / u t 8 % < % % & & 9 & % g 8 g g 8 6 9 8 a g g g g 8 8 8 8 8 8 8 8 8 8 a g g g g g q q N t Z Z N g g a a a a a a a g a a a a 8 8 a a a 8 % g a 6 g N t Z Z Z N q g g a s a % , , d a g N S N N a a g N Z N S N N N 8 N g g g g g g g g q 7 z 8 C j j % g a g 8 F z 8 a a a a a g g g g g g g g g g g N N g a a a a a a a g g g g g a g g g g g g g g g g N g g N V S N N g g g g g a g N A t ) Z Z S Z N g a g g g g g N g N N Z Z Z Z N g a g g g g g N Z Z X.Z Z q S N N N N g h h h j a V j V K j g h Z ` Z S N q N g g a 8 8 g g a a g g g a 8 8 8 g V q N g a f % c # h < @ 2 s g Z Z q g a a C N Z ( ] N d d d q N t q a a a d g N j a % + + % , d , , , < & , a j a a a a 8 8 8 8 a g g g g g g g 8 % a a a a a a a a a a g q g q s s g g j g g g 8 8 9 9 8 9 8 a , , , , , , , % % , , , a a a , , % % % % , % % a a a a a a a 8 g q g N q q a + % % a a , % % % 8 8 8 8 8 8 8 8 8 8 % % % % % 8 0 Z g N a a a % 9 9 e 7 9 8 8 , ",
"% % % , < a a , % % % , , a , % + % a g N g < @ @ , j w.f.h.P > % 8 a f h g a % 8 a g j C V g 8 q g A A C h a , a t ( -.] N % + < s f f f s g q N _ =.=.D N 8 8 g g j j g a 8 8 h h h h g 8 8 g V S } S N q t Z :.2.,.) N 8 8 % a a a a a g g g h h h g g g a a h k j g N Z ` <.;.:.] t q 8 % a C g a a d j | 4.,.o.N a 8 N :.2.o.| N N g g D C C h g g g N V B z z 8 V K f.f.g.d.g 6 g h h j j g g a g C L L V N g g g V S S V g a a a g j h g g g g g h h h h g g g g N V V N N N N S o.+.} S N g g g g g g N N t X.,.,.,.) N g a g j N N N N q Z | &.,.X.( t g g g h h h g N Z ` p.,.,.Z Z N S S D D C h g j Y f.q.q. .g g V ` 1.1.,.] q N q g g g g g g g g I | | S g q N S u.,.2.S q 8 O s h C f , , g Z 5.:.o.| g 8 N Z <.m.t.} d 1 a 8 N A N g a a j S S I K g 8 8 g j K v j a a a g v K j g a a g g h N h g a a g g h h g a 8 a g h k k g a q g N N B B a a a g N N N g 8 8 & & a a g a 8 % a a f f s a % , a s k k s a a 8 8 a a a a a a a a a a a a a N t S o.o.U V 6 a a a a < , < , 8 g g j h g a 8 a a a a a < & 8 0 ,.d.d.h.d , % 9 r p r 9 8 , , ",
"% % % , s f f s % % , a d s a , # 8 q Z ) D h a O g y.vXmXmXeXP , a f k k k a 8 8 a C W W L h a a g C E W k 1 , 8 V :.M.5._ a , g V U T U V N N ] L.'.~.L.o.t N j C E E C g 8 8 C E W G h g g g &.d.z.3.D t Z _ L.].'.K.| g g k d d d d a a g h D D C j g g k k E E C g N N X.!.).'.K.S N j k C A A g a g S Z.&X&X_.` Z Z ] _.&X'.I.S N N S *.$.W C g 8 g V U U B g a v 9.tXbXmXaX .g N V #.T T j g a g L #.$.$.V g g N U #.#.W j a a g C L L C g g g h C C C N g 8 a h C U D V N N S +.a.d.+.S N g g g C C N N Z Z A.'.oXoX2.N g g C C C C N N N ) T.`.`.T.` Z N g C C C k N N S C.:X).oX2.S Z I  .w.w.W C j j f.pXbXmXeXK a 6 C.).)./.4.Z V g h h B h g g N V ,.p.p.o.Z t ) ;.).(..Xt.S V g D _ | C j g N ;.G.%X%XY.} N Z ;.%X*X-Xd.j d f C [ A B h a a j | +.+.| A y w B U ....D N q y D | ..#.C g a g C L E C g g g j C C C k g 8 a h C E C h g 8 g C E W W f < 8 g V S V V a a & < f f h g 8 8 8 h C G C h g g g C W W C k 8 & a a f s s a % , a s g g a a N Z 2.U.W.U.*.g a a a s s < < , a h C E E C a 8 a s f k f f < a N +XnXMXdX9.1 , a s w w a a , , ",
"< % % < f k k f % % , s d d a , & 8 t S o.| C a d v y.HXDXHXdXn , < f x E k s a a s L ~ ~ W j % , d L ! ! b 2 > a D 3.P.P.%.g a N } +.w...S N N ( !.:X'.~.X.0 N V W $.$.L h g g E W $.~ C g 8 g w.s.U.i.S 0 t ) ~.>X5XU.| q 8 s d f f k a a g V W W E C g g j L E ^ C N t t :.'.>X5XU.S q g k C A Z N q q ) L.1X1X&X` Z Z ( &X>X5XR.S q g V $.#.$.D g 8 g D | #.W V a j 9.pXGXFXmX .g g a T K Y K g a j U r.j.e.U g g N @.r.r.#.j g a k W ! W E g g g V D E C V g a a j U W U V N N S u.I.I.u.S N g g j C L N g N Z K.>X5X>Xu.g g g C L U C N N N S OX5XOXoXZ t N V C L G C N N Z F.,X>X5X2.N N } q.d.d.#.K j j q.bXGXGXeXa j N A.>X>XoXa.t q q B C C C g g N S p.F.F.t.( u ` <.%X;X>XV.Z N N S o.o.S V N N ;.%X1X1X^.) N Z -.1X1X>Xs.a + s B A A A h a a k @.i.u.o.A i y A %.2.u.| u e y _ 2.u.e.E g 8 g C W W L j a g C E W W C g 8 8 h E W E h g 8 g C @.$.~ f < a g V U U L d , % < f k k g 8 8 q B H W D B g g N D =.*.@.C 8 & < s s f s < % % a f k k s g 8 N *.W.OXW.$.6 a a s f f s < , a C W ~ ~ L g 8 a s k k x f < a Y tXGXAXZX9.> 1 a a h h s a , > ",
"< % % < f k f s % % , s d d a , # & q S | U k , % j q.HXDXHXdX4 , , f k m k s , % a b ! ~ E g % > , b ^ ^ b > > , C 3.P.K.@.g a N ) +.+...S N N ( Y.'./.Y.} 0 N N U ! W C g a g C W =.W C 8 8 g &.s.c.i.D 0 N _ ].OX5XU.U 8 % , d f f s a 8 g j E E L j a a g k E E L V N t o.'.'.OXK.N 8 g g k _ _ V g g ) L.&X&X&X` Z Z ] &X&X>XU.S N N D $.#.$.C g 8 g D | @.W C d v 9.dXGXFXnXY N j g T P 9.K j a g U $.r.r.C g 8 g U *.$.W j a a k E ! W L g g g N C U C N h g g j U E C N N N S w.U.U.u.S N g g V C L N g N Z K.oX5XOXu.N g g C L U C N N V S OXOXOX`.S N N V C C G C N N S S.>XoX>X&.N V S  .w.r.! K j j f.mXFXFX@Xa j N A.:X>XoXa.N N g B C G C h g g V p.F.F.t.) Z ` <.-X;X>XV.Z N g S ) ) V V N N ;.H.>X>X!.) S ` ;.*X1X>Xz.j % s w w F F h 8 8 g @.3.u.2._ y y A =.3.*._ i e y [ 2.2.*.L g 8 g C W W L j a a j E W W C a % 8 h C E E k g 8 g C W W W f < % a K U U L k < , < f k k s a 8 8 h G W D C g g N D @.&.| C % % & s s s s & % & a f k f s a g N &.W.W.U.$.8 a a a s s , < , a j E W W C a % a a h k k s & % v wXAXAXZX9.> 1 , a h h s , , > ",
"& % % , s f s , % % , a s s a , @ O 8 N V V a + + , Y pXpXpX#X1 , , s f k k a % % a k k L k a % > > d k k d > > , g ' 5.%.A a 8 g Z S I S N g q Z u.K.a.i.I g j g j C C h a 8 8 h C G C h 8 8 g U &.w.#.V q N D 3.K.K.2.S g a f s d d a a a g h C C C g a a a k k k j g N N ) a.A.K.2.N q g g k V A g a a N :.L.L.L.S V V S L.L.K.w.N N V V #.W U V q 8 g V D D C h a j K +XpXuX@XK j N g U K T C g a g C U W U V g 8 g V U U C g a 8 a k C C j g g g h V C C h h g g h C C N g g g N | &.*.| V N N g j k k j g Z N 4.K.I.I.+.V g g j C C V g g V S z.z.z.z.S N N h C C C h N N S u.Y.A.I.| N N V I | ! L j j j h.eXeXuX|.j k 8 ,.S.Y.K.&.N V g h h C h g g g N +.,.+.} N t Z X.S.S.S.>.Z V g V Z S j j j g ] M.L.S.u.S S } ` G.G.L.*.j s k B F y y w 8 , a D o.o._ B w w y D | U C w e y A _ | W C a 8 a j C C C g 8 a h C C C k a 8 8 g C C C h g 8 a h C C k s , % a j V V j a , < < s f f s , % , a k k k h a q g V D D D g % # % & s s & & & & 8 s h h a 8 N N @.k.x.e.W a 8 a a s a < , % a g k C C k 8 8 8 a a f s a % % d b.uXuXuX9.> 1 , a 9 w s a , % ",
"% % % % % % % % % % , , , a , > . . , a a , + o 3 < O 8 % a > o % 8 8 a a a a 8 8 8 8 a a g a % > , a g g a , > , a N Z A q % % 8 q g g a a a 8 6 q g h g % O O a a g g a 8 8 a a g g g a 8 8 g q g g q 8 8 6 0 q t N q 8 8 8 % , a a a a a g g g g g g a a a a 8 a 8 6 g N N S Z S N 8 6 8 % 8 g a , , , a N ) Z Z a 8 , a N Z N N 8 q q 8 g 8 h g g g g N N N k k % a + j j j K 8 6 6 6 8 g 8 g g a a j j j j g g g g g j N g a a 8 a g g g g g g g g g g g g g g g g g g g g g g g N N V N g g g g g g g g g 0 0 Z ) Z S N q g g g h h g g g q q N N N N q q N g g g g g g N t N ` Z ) q q 8 N V B B h s a g 8 N 6 6 8 % s B N ` Z S N 6 q 8 g g g g g g g g g N g g 8 8 q q Z t Z q 8 g % a q h a , a a N _ Z t g % 6 g t ( / ( g + , , 8 y y y 8 8 a a N S N g 8 9 8 8 a a a a 9 9 w g N N N g a 8 a g g g a a 8 a g g g g a a 8 8 a g g g g a 8 8 g g g g a % 8 a g N g g a a , < < a a a > > > > , , , , a a a a g g g 8 8 & & & 8 9 8 % 8 8 8 a g g 8 8 6 6 g N g a a % 8 8 , , , , % % a a a a a a 8 8 8 8 8 a 8 8 8 % , v , . > o + , 8 9 9 9 w 9 8 & ",
"+ % % % + + + + % % % , , , , > ; ; , , , % . X o @ h a j g O s 8 8 8 8 8 8 8 6 8 6 6 6 8 a 8 8 a a q q q 0 a , , % 8 q q 8 % , 8 8 6 + % & < < s % 6 & & < < + a a a 8 a a g g 8 8 8 8 8 a a g N g q g h B g g N N q 0 q g a % , , , a a g a 8 q q 8 a a a a 8 8 a 6 6 g V N q q N q q h g 8 a g , > > > , 8 N N g j d d d g N N V N V V g h a 8 a g g N g g q 8 h 6 V g j % j 8 h h h k h k 8 a a a a g g g a g g g g g a q g g a a a a a g a g g g g q q g g a a a a g g g g g N N g g g g N g g g a a a a g N t ) Z q N N V a a a a g g g g N V q g g q V V g g g a a a g N S t Z N Z g D N N N w w 9 9 9 g q V N N C h 7 h Z ) t N N N D h g g 8 a g g g a a 8 % 8 s f g 8 D q g g h x & s 8 h , . , s q q y 6 f s a k N u / ( N a d a 8 B y w 8 a a a g g j d a a & < , , , , < s a a a g g q q a a a a a 8 8 8 8 8 8 q 8 a a a a a a 8 8 a a a 8 a 8 8 8 a a g g N N N q 8 a a & % 8 8 a > ; ; > + + > , a a a 8 8 8 8 8 a 8 8 8 8 8 8 8 8 q 8 q q q q 8 g 8 g g % 6 g g % % % % % % % % 8 8 8 % % 8 8 a 8 % % % % % 8 a % a O , f f s O 8 9 e w w 9 9 8 ",
"% % % % % % , a % , , , % % % > . . , a 8 % + X X & 6 8 q 8 O $ 8 8 q g 0 q g 8 g q q q q q q q q 0 ( / / Z 8 8 , a g g g a , % g B q % % + % f % % 8 9 s < @ + , a 8 a a a a a a a 8 8 a a 8 8 q g g g 8 8 8 q g N N g q 8 % < , , , a a a a a g g a a a g a a s a a a g g q q g g g g 8 8 a s 8 , , > > , g N q g , , , , g g g g g g g g g g 8 8 g g g g g q h w 8 a g g g a g g w w 9 8 w h g a a a g g g a g g g g g g g g 8 a a a a a a a 8 a g g g g g g g a 8 8 g g g 8 a g g g g g g g N g a a a a a a g N N N N g g g g g g g g g g 8 8 g g N N g g g g g g a a a g N N N N N S N 8 q q y B h 9 8 9 h g q q g g h 9 8 N N N t q g N N g g g g g g a a a f f < # 8 h h N 0 N g g s @ & 9 a < > + + g B w B 8 % < % 0 ( / ( g , , , 8 N q V 8 a a a V g a , d d < s , > 1 , , , % a j a g g g 8 8 g a a a a a a g g g g 8 8 a a a a a a 8 8 a a 8 8 8 8 g g N N N Z N q q 8 6 8 g g q 8 , > > , , , , % a g 8 g N q g 6 8 8 8 8 8 q q g q g q q Z N q q 8 8 8 8 a a 8 8 % % a a , , % % 8 8 8 8 8 8 % % 8 8 % % % 8 8 8 8 8 % & & & & 8 8 B 0 w B 8 6 # ",
"% % % % % , , a % , , , a a , , + < g V S C s < O 8 D a.K.z.W 8 g q D @.=.=.D 0 q q N C D B N q N Z 4.M.M.5.N a , a g h g a > % 8 _ *.j.$.k % % a g h h f s > + a a g g g a a a k k h g a a 8 8 N V C k h a g h N N N N g 8 8 a a a a a a a g h C C C h g a a a h g a g g g g g N N g g a a g k j k d 1 , d C _ ' S j , d d I | U V N g g j C C C h h g N V D D G h g a g j j j h g g g h h h h a a a a g j g g g g a g h V C C a a a g g g g g a g g g h h h h g a a g j C h g a g g g N j g g g g g a d d a g g N A D D V g g g g N C D C g 8 g g j V V g g g g j C C k h g N N ) } | &.D q g B H @.~ G h g h N N V B h h s a V S | S N g g h C C C C h g g g h k k h 8 8 h D z.i.i.U g a + f D D b f , , B [ [ @.k s s g _ a.D.D. .d 1 , a N q V a a 1 v g.|.@Xg.K 8 % a v n d a a g g ..d.d.e.W g a g k k s a a a a g h N g a a a a a s g g a g g g h h k C g q q Z o.a.a.2.N q 8 q h N N g , , , s k j h g 0 g t | 3.3.3._ q g g C D D V N N N S &.i.4.| N 8 a a a a a a a % , a s s , , % % a a a a a 8 % a g k k k g a a 8 w h s s w 9 8 N *.*.3.#.g g 8 ",
"% % % % a s s , , % , a d f d s & 9 N _ :.%.D g q 0 X.H.;X>XA.N t t @.x.U.U.=.0 0 N D =.=.H N q t ' Q.&X&XQ.Z 8 a a g h h s > % N 4.T.R.c...g a N V U U V g a % g j C k k a a a C C E C h a 8 8 V S C C s 8 a g V V V N g a s s s d k a a a j C =.#.E C g a a g k k k g a a h C C C h g a g k C D V g , a h ' 5.5.%.V a a N o.2.&.U N g g C E W W C g 8 g D @.&.#.K g a j K K K K j a a j C C L g a a a g k j j g a a h C W W E g a a g C C C j g g g h C C C C g g g k C L C j a g g j C C j g q a a k f f k g q N D @.@.W k a 8 N U $.$.W C q g g C C C C g g g C W ! E k g g N o.u.i.i.U 8 g V | e.r.T j a a N V U U V g a a D &.u.*.D g g g D E E C g a 8 a I S S V g q S +.>X,X,Xp.S N N $.+.+. .K a g S o.5.2.U g g V 4.).%X.Xd.d , d j V N D a a , v @XxXnXiX} 8 g g K K K j N t Z 2.^.XXOX*.g 8 g k k k d a a g h N C C g a a a s k k k a 8 8 a k C C C B q q S A.`.`.I.S q 8 g C C A V q 8 g N D @._ D t u Z 4.].].Q.o.0 q N U &.&.U Z t t o.U.`.T.a.t a a a f h s a a , a s f f s a , % a f k k f a % 8 h E ! E k a 8 g h F G k s 8 q V z.E.E.d.N a a ",
"& % + , f f f , % % , a f f d a # 7 u ` 5.2._ N N q >.=X3X3X^.S t t %.U.W.U.=.0 0 N H =.*.@.B q q _ _.&X&XQ.Z 6 a , g k k s < a ) D..XoXE.+.N g N S | | S N a a j k L L j a a a k E W E k a a a V U U C s & 8 a C V V N g a s s f f k k a a j L *.$.! C a 8 a j k k k g 8 a h C E C k a a a k C D S g a a N %.5.M.6.V 8 8 V o.a.e.U g a g C E E ~ C 8 6 g D %.*.q.I j a j K P P K v a a j K U L j a a a g k C C g a a g L ! ! W g a a g C L C C g g g h C U C C g g j C L E C C a a g j C C j g 8 a g k f f d a g g D @.=.W k 8 8 N E $.e.#.C a g g C L L C g a a V ! ~ E k g q N +.s.I.x.D 8 g V ..r.r.T j a a V I U U V j d d U *.x.e.D g q g D W W C g 8 8 a U S S I V g S p.>X2X2Xt.t q g } <.t.+.K g g ) :.4.p.| N g Z 4.:X>X>Xd.d , d C D C D a d , v 6XBXMXlXX.q D q I V ..V N t Z 4..X-X5Xj.q 6 g d d f d a a a g V D C k a % a g k k k a 8 6 8 h C E C C N q _ K.OXOXR.S g 8 g C C D V q q q V @.%.' _ u u / K.&X&X~.' 0 8 N U *.&.U N N 0 &.`.].`.K.q 8 , s f f f a a , a s k k s a , % a f k k h a % 8 k W ~ W k 8 6 g C E E k a 8 g V F.XXXXg.j a a ",
"% % + , f f s , , % % a f f a % 9 9 t ] :.o.D N g q 1.;X;X;XF.N q N @.x.x.k.#.N q g C W W G h a g S L._._.L.A 8 , , s h h g < 8 u C./..XE...g g N S } } S N g a a k L k k a a a k k E G k a a g D U E G s < a a h V h g a 8 & < s d k a 8 8 h C @.@.W C a 8 a k h k h a 8 8 s k G k h a 8 a h C D S h a g C ' 5.5.%.V a a N o.4.w.U j g g C L G ~ C g q N W %.&.Y K g a j v v v v d a a j V K L j a a a g k k k j g a g C W E C g a a g C C C j g a q g C C C j g g j C C C C k a a a g k k k g 8 8 s f f d a 8 g g B H W E k a 8 g D @.#.W j g a g C C C k s a g C W W E k h g N +.i.z.e.C 8 h V ..r.r.P v j j j V U U j a a d L #.*.#.C g g g C E W L g a a h I S V S N q S ,.7X7X2XD.` S S ..,.<. .K j g ) :.2.4.| N g N ,._.%XoXd.d , d h g V C a d d K @XxXnXlXo.q B 0 U I I N t t ( 4.(..XOX*.g g g a d b s a a a g N C C g a % % s k k s g a 8 a k C C C g a g S s./. XR.V a 6 8 h C V V g q q N D | _ A t u u 4.'.'.Q.%.g a j L #.#.U N V q @.U.U.T.a.q 8 , a s f s , % % , s s s s a % + & s f k s 8 % a k W W L h a 8 a j L C k a 8 8 V s.F.E.r.j a , ",
"% + + % a s s , % % % , a a , % % % q N S S h a 8 8 ) t.t.t.o.q q q C W E E C g 8 a g h k h g a , d %.5.5.:.g 8 , , s g g g 8 8 t X.,.+...j a a 8 g V V N g a a a a k k a a 8 8 a g k k s a a a N V j h s & & a a g g g 8 % & < s s d a 8 8 g C C C C h a a a g g g s a % % a f k f s a 8 a a h N N g a a g A _ _ Z g , a j S } I j g a g g h h C h q g N C D U V j g a g k d d d a a a g j C j g a a a g k j j h g a g j C C j g a a g h j h g g a q g N V N g a g g j j j g g a a a a g g g a a a a s d s , % g g g B C k s a a g N C C C h a a a g k k s a a g g j k k k g g g S | | U g % a N S I K v d d g g N C C h a , a V D W D g g g g h C C j a a a g V j g j g q N } u.t.t.S q g 8 g ` } K j a a N ) _ | C a g g ( 4.M.Z.| , , s g h B C 8 a , a w.I.F.I.N 0 h 8 j j V g y y t ` t.t.i.D g g a a a d a a a a g N V N a a % % a a s a g a 8 a g h h g 8 a a g I &.w.#.g a % a a a g g a 8 8 a j V g g g N q _ 3.2.&.N a , a g k C j a h 8 V #.&.*.%.0 % % , < s < , % % % a a a a % % + % 8 s a a 8 % 8 a k k g a 8 8 a d k k s & % 8 g .. . .U a % O ",
"% + + % % % , , % % , , , , , > . . + a a , + . @ + 6 0 q w w & 8 6 a g a a a % a , % % , < < , ; > g N u Z 6 % > > , a q q 8 q t N q % % % % s % 8 a a s < & < , a a a a a a 8 a a a a a a 8 8 g g 8 8 < < & % a a g a 8 % & < , a a a 8 8 g g g g g g g g a a g a a a % % < < < a a a a a a a a , , > > % 8 q q 8 , > > , a g g a a a 8 a a a g g q q g g N N g g g a 9 9 s s < a a a g h h h s a a a a s g a g a a a g h h g a a a a g g a a a g g g g g g g g g g g a a a a a a a a a a a a g a a a a a , , g g g g g a a a g g g g h h g a a a a a a a a a a a a a a a a a g N g g N 8 + 8 q g g g a a a 8 8 w y w h s a a g g g g g g g g 8 a g a a 8 % 8 s s a < & < a g N g V g a g , k N g a , > , 8 h w h & < , 8 0 A u ( g + , < 8 h B B 8 , , % g g a a 8 8 s < , > d , s 8 6 t S N N g q 8 8 a , , a a a a g N N g a , a a a a a a a 8 a 8 a a 8 a , , a a g N g a a , , , , , 8 a > > > > > , , , , d % a j a a + % + + % < a 8 8 8 6 q g N N q 6 + + % , , , , % % , % % % % 8 % % % % % % % 8 8 8 8 8 8 8 8 8 8 a a , & & & & 8 6 N 8 8 s O * 5 ",
"+ + + + + + % , + % % % % % , , : > , a a , + . o $ & 8 h w $ $ g 8 g g q g a + a , % + % % % > > ; a 8 q N 6 , , , % 8 8 q 8 8 0 g 8 % s , + < < & # & & & & < a a a a a a a a a a 8 8 a a 8 8 g g g a g f s < a a a a 8 % < s a a a a a a g g q 8 q g g g a 8 g g a 8 a a a a 8 a a a a a a a a a 1 > > > 8 q 8 a , > > 1 a a a g g g a a g g g g h g g g N N g g g w 9 9 9 h 8 8 g h h w w w g a a a g g g g a a g g g N N N g g g g g q q q g g g g a a q a g g g g a 8 8 a g a 8 8 a g g g g g a a a s s g g g N g q 8 8 8 g g g g g g g a a a a a a a a a j g a a g g g 8 N N q g V h a k N N N g g a a a w w w w h s s a g t q g N N g q g g g g g a a a a a a , < s a 8 V q Z N g a O & g g a , , < s 9 9 9 % 2 c s 8 t u Z q % s a 8 u t Z 8 a k j V 8 K a g a % s a a a a a s 8 g V g q g g 8 g h g % a a a a g N N g a a a a a 8 8 a a a g g a a a a a a a a g N N a a a a a , % % a > > > > > > > , + , + , , O a , % % % , < < a a % a 8 6 q 8 8 8 % % 8 8 a a % % , 8 8 8 8 8 8 a 8 8 8 8 8 8 a a 8 8 8 q g g a a a , % + $ & 9 8 6 h # 6 9 O = = ",
"+ + + % % , , % % % % a s a a % + % a j N j g a O + % a 8 8 8 8 8 g Z ] ] ( N a a , % a g g a , , , a j j g a 8 % a g j g a 9 8 g g a a , , % % % , a a % & < a g N j g a 8 a a 8 g N g 8 6 8 g Z } N } g h k % a 1 d , , % , a a a 8 a a g g g N N g g q q g N S N N 8 a g g O.} S N a % a j g g g d 1 , a N S S N a , , a g g g a a q q N N N g g g g g N N V g a a g g N V N N g g N V A A N g a a s N V S N 8 h g N } X.) S V q N q ) S } V N g 8 a g h g 8 a a g g N N N N 8 8 8 a g N N N q g g g g g g g g q N N V V N g q g g g N N g g g g g g g g g g q g N V h g g g g g g h g g a g N ) ( ) g % j g t ] Z N k + , a Z ] ] ) N N g N N N N N g g g g I S I g 8 g g S ] ] ( Z t q 9 & g g g a a a g g 8 a a a 8 8 q N Z N g a 8 q Z -.` ;.) q g g N N q V q g q N X.X.` ) N q g g N V a a a g g g q 8 a g 8 K j Y  .K j O j g 8 } S N N 0 g g g j g j 8 6 8 g S S Z N N g 8 g g N N q a & % a a g a % % % % & < a 8 8 a a a a a a % 8 8 8 8 a g g a 8 g q N Z Z N N a g 6 N Z Z N % 8 g q S ) Z Z 0 h 6 q N N N q 6 % % % % % % % % 8 8 g V N a % + % ",
"% + % % a a a a % % % a k C j a a a j U w.w.| N 6 8 f k G C j g j V ;.G.Q.G.o.g , , a h V N g 8 a g j v v j g 8 6 g C K K j 8 8 a d k k s a , % a a s s a a a a N S I K k a a a g g V N g 8 8 g XXjXrXeXI 8 6 8 d d d a < a a d C C C j g g g V | | U V g g N } >.X.U a a g } H.2X,XE.T s s g g N N j , , j I o.+.} j a a a V V C j g g N S | @.| V g g N I } } I K g g Z ) ' _ V N g g V D _ ) S j a s I X.O.} a a g O.}.rXrXiXo.V S ) A.A.I.u.N g g g j C V g a a g V I I S V a 8 g k C U S N g g g V V V N g g N S D _ D A N N V D W @.W V g g g V C C V g g g N D U U V g g g V C C C k h N X.G.%X&XK.I V N 1._._.Y.e.k h V <.D.S.p.} N g g S | @.D V g h I rXrXrX|.U g q ) !.(.H.m.] N h s h j g g a a g h h h h g 8 g N D +.} C f g V ,.G.G.G.,.N N V S } X.o.N g N ) D.G.H.V.) g 8 g N N j d a a g N B F h g # j Y tXkXcX@Xa j N S E./.OX&.N N g V #.I ..C g g ) a.Y.Y.A.S N g V D | | D w 8 8 g g N g a % % $ & s s h g a a j j j j k g a a a g g g a a a N :.L.Q.A.| % j g %.2.5.%.g a 8 N p.S.S.2.q # 8 h S } ) N 8 & % a a < < , a 8 g V I I N a % % ",
"% % % < s f f s % % % s C E C g a 8 g #.c.c.&.N 6 8 k E ~ W V g % g o.~.>X'.&.% , , k C C C s 8 8 g K Y Y K g 9 8 h U T T C h 8 a d f k f s a % a a f f s a a a N U #.! E s , 8 g h V N g a s g XXkXkXpX .q 6 z f d d s s a a j L W W C a 8 g C $.e.$.C 8 8 j #.p.,.$.f + a y.7XiXiXR.j % < g U C C k , , d | i.i...j , , a N C k d a 8 g D &.e.e.L a 8 j U #...#.K g q N _ @.@.D h 8 a j U #.#.U k % < U u.p.2.E k 8 } ;XkXkXiXU q t S E./.`.K.V g g k C L L C % a h U #.#.U C g a f E $.#.D N g g g j C C V g g N D @.#.@.V N g V @.*.e.#.C g g V U #.#.U V g g V @.*.=.U g 8 g N C E C k g t -.%X*X*X_.] Z ( N.*X1X1XK.N t u M.!.'.T.+.g g N | *.i.#.V g h I rXkXlXOXU 8 N i.'.>X>XC.Z 0 8 s k j j a a a s h C G C g 8 g C #.u.+.C s % N Z.:X1X;Xa.N 8 h U #.2.*.g 8 w | !.-X>XS.D 6 8 h S V j d a a g B J Q G k % a K nXmXAXaX, a g } OXoX5Xl.N q q U e.&.w.C 8 6 N s./.`.T.N g g N @.&.&.@.a 8 8 g g j j a , % @ 2 s s h g 8 a a j L L k g a a g j k k g g 8 N 4.].:X`.&.% a g 3.K.K.i.g a 8 D K.)./.s.h % & h U +.| V & O , a s s s < , % g I #.#.L a % O ",
"% % % a s f f s % % % s L E C g 8 8 g #.c.U.*.g % % f m ~ W C g % a &.].8X'.*.% , , s C C C a % 8 h C U U C h 9 9 k U T T K g 8 a d f k f s a , a s f k s a , a j U $.~ m s < % g h j j g s s g ,XbXkXlX&.B 7 r s f f f 9 a a g L W W k a 8 g C $.$.$.C 8 % h W a.2.$.c % a w.iXlXxX Xk % & a G C C f , , a U 3.3.@.k , > , h C k s 8 6 g D =.j.$.L a % g U #.#.#.C g q N _ @.W E g % , k E ! ! L g O & C &.u.*.G f 6 | ,XvXvXlX| g N ) R.oXOXU.V g h k C L L C , , a L #.#.U V a s s E $.$.D g g a a j L L j g a h C W #.W C g q V @.*.e.#.V q g V U #.#.U V g N D #.*.$.U h 8 g N C C C h g t ` *X*X*X%X` u ` N.*X0X1XL.Z u ] 4.L.`.I...j g V #.e.i.&.D g j I jXkXxXOXU 6 g i.oX8X>XC.Z g f c k j k a a a s f x x x a 8 a C #.u.+.E s # g a.>X1X:Xi.g 8 s L $.#.@.8 # w @./.>X>XS.D % # s C C f d a a g B H ~ G k a j T MXmXLXxXa j V ..5XOX5Xa.V q 8 D e.&.&.E g 8 S z.OXoXR.N q 8 h @.*.&.W a & 8 a j j j d , > + 2 < s f g 8 8 a j L L j a a a g j k k g a a g 2.].].W.$.% a g *.P.P.i.g , g D I././.z.k < % f U ..| C %   < a s < < 2 % % g L #.#.C , + @ ",
"% % % , a s s s 8 % % a k C k a 8 8 g | i.i.| g a a s x E E C g , s @.l.T.P.W , > > a g h h < & 9 w h C C j w 9 9 h L K K j a 8 a a d d a a a a , a f f s , % % g C E m c < < < a g g g s a < a XXtXtXuXI 9 7 r s f s s 9 8 a g E E C k a a h k Q W E k a a h C &.o.Q x s a U  X>X6Xv.k s s % C h k f , , a D @.@.U d , < s h k s s a g g D @.=.W C a a g C W @.W C g w B H H G k s , , d b L L C g < s C | +.#.h < 8 U XXjXiXiXU g V S s.A.I.i.N g g k k k j j s , a j U U V g s a s x E W C g a a a d k k k a a g j L L L j g g V U #.#.W V g g N C U U C N g g V U @.W C g g h C C C C h g N ) _.%X&X/.| q N m.%X%X).a.N N A 2.a.z.i.U g a g @.#.&.@.D V j S uXrXuXU.C 8 q @./.oX/.,.Z g s s k j g a 8 % a s s f f a 8 8 k U +...L s + g &.!.!.S.@.a a s k ! U W 9 & h W K.!.!.a.E s & s h h a < , 8 a h C G E a a a K sXaXnX4Xa j g S  X`.OX&.N g q C #.I ..j a 8 S a.T.E.U.N g a h U #.| U % % % a g j j a % + + > < < s a a a g j R L j a 8 a a g k k g a 8 g 3.W.W.x.W % a a @.3.3.=.s a , j s.E.I.e.a + 2 f L U I j < @ < < < < < @ % + a V E L h & + @ ",
"% + + % , a a , 8 % % a a g a 8 8 8 8 N S S N g 8 & & a f k g a O O q A _ A a O > + % 8 q g , % 9 8 g j j g 8 9 9 a j j j a 8 8 a a a a , , , a % a s s a % % % a a f s < 2 < a a a g g a a < , K q.q.q.g 8 r r a a a a 9 9 g g V h g a a a a a k k g a a a g g S N k & & 8 q +.S ..C + & < a k w h s < , a N A A N a , < < g g s < 8 8 w N B B h g a a 8 g B C k g w w y A B h f < , , a d j g a a < s g S ) S h s 8 g O.y.O.} N 8 g q } S } S g g a s g g g g s , a a j V g a s a < s f k B g a a a a d d a a a a a g k k g a g g N V C V g g g g N V V N g g g N V V V g g g g h h h g g g g g  .} | U , , a ( <.;.X.V % 8 q S ) I V j a a g V V V N N g g g } }  .N 8 g q D | o.` Z q 8 8 % g g g a 8 % < a a s s a 8 8 g N S S j s & 8 S ,.;.o.N 8 < < s k h C & $ 9 N o.X.;.) h s & & a g % % < a g g g h k % s a % ..I  .R + g a q +.| ) S q g g g N g V % % 6 g S } } S g a 8 a j C V g % % % a g j g a % + + + < < a a a a a g j k a 8 a a a a g g a a a a D %.' D j % , % V A A D % , % 8 I } } S % % + < j j j a + @ % & & & @ @ O + 8 g h g a % + @ ",
"% + + % % % % % % % % % 8 8 8 8 % % 6 8 q g q 6 % + + % % 8 6 % , % w w y w 8 , + % 8 q q q a % 8 8 a d d a 8 8 6 8 a j a a 8 8 a a a a , % % , % a a a , % % , a a % < < < % % a a g g a a , , j g , a g a F O a a a a 8 q g g g g 8 8 a a 8 8 8 a 8 8 8 8 8 g t t g # $ s 6 N Z N g a & & 8 q q q 8 , , g N u u t 8 % , , q 8 & % 6 8 q q t q q q a 8 8 8 q w 8 8 8 w w w w 8 a , a a a g g N q 8 & 8 g N Z N 8 s a q Z ( N q N g N g S N S N g a a a a g g g a , a g j N g g g a a a 8 w N N g a a a a a a a a a a a g g a a g 8 8 8 g g g g g g g g g g g g g g g g g g g g 8 a a a a 8 a a d d 8 , > ; 4 n 8 S N g d > , d 8 q 8 a a a a g g g q q q 8 a g N q g 8 8 a 6 g N t N Z N g g k g g g g a a a a a a a a 8 a g g N N a a % 8 t Z Z Z g % < + % a 8 h # # % 8 Z u u t 8 # & < a s % & 8 a g g g g 8 8 k g g g g # % a g N S V q 6 q 8 g 8 8 g 8 g s s a g g g g 8 8 8 % % a a a 8 a % % a g g g a a , % % , , a 8 a a a a 8 8 8 8 a a a a a a 8 8 s % 8 0 6 6 a % , O q q t w O % a # N q q g # s O % a a 8 % O @ % % # # + # % % 8 8 g g 8 % % & ",
"% % % % % % % % % % % % % % % a a 8 8 8 q g q 8 8 < < & % 6 6 % , % 8 0 0 0 % + , % q t N N a % a a d d j a a 8 % 8 a a a a 8 8 % , a a , % % % % a a a , , , a a 8 % % < < 8 8 g g g g g a , % g g j a j # E a d d d a g g N N N N N N g g a a a g g g g g g N Z Z N # 9 x q N Z q 8 a 8 8 g g q q 8 , a g Z u ( Z g a a a g g a a a q t t N N N N g g g g t q % a s g w w w g a a g g g N Z Z N g a a N S ( Z 6 h j N ] ` ( S g 8 g q S g N g a a a a a g g g a a g j N N g g g g g g q q t N g g g g a a a g g g a a g g a 8 g g g g g g g g g g g g g g g g g g g g 8 8 a g 8 g g g g g g a , 1 a d > ; 4 > g ) t g d > , , g g g a a , a a g N N N g g g j N g V g a f 8 g g 0 q N N 6 % g g N N N g g g a h a 8 a g g g g ) Z g g g g N Z ( ) N a s < % a q N % 9 8 q Z u ( Z q 8 < s a 8 8 9 a g g g N g g g j # 8 8 | q 8 f # 8 V q N N N 8 h g g g 8 g a , a 8 g g g g a a < < , a a a a 8 8 g N N g g a a % % a a 8 8 a a a a 8 8 a a g a a 8 8 a 8 % , % g N t g , O , + g q y h O % + # Z S S N % & + % g g a 8 % 2 % 8 % + + + 8 8 g q q q 8 8 % + ",
"+ % % , a a a % % % % % a g a a % 8 a g V N g 8 8 % % % 8 a a 8 % % q t N g a % % 8 S ] ] ) a a a j P P P j a g # 8 j j g 8 6 8 % , , a a a , % , a a a , % % % 8 8 g a a a 8 g g S S S N 8 a + 9 h g d a a a K P P 9.n j g 8 I S } S N q g g q g g N g N g q X.X.` N 8 s 8 N } ] S V g a a N N N S 8 a a q ] ] ` ` g % a g N N 8 a h q 0 Z o.) ) N q g g 0 q N s , < a g g g g g g V q N X.` ` ` g g 8 S X.X.X.V a 8 N ` ;.` Z g a g N V V g g a a a a a g g g 8 K N I  .O.I g g g g g V D Z t q g N N V N g g g g g N V V g 8 g g g g V V g g 8 g h C C h g 8 j j g g g g g g a a g g a a a 8 j N N N a , 1 j Z -.-.X.N % h B g j j j , , a g V D D V g 8 a g g g j h a 8 8 g h V N N N g a C S } } g 8 V g h g g g g g g V O.;.>.S 8 a N Z ` ;.;.V # + , a a N N 6 a 6 q ;.;.;.] g 8 % % g g 8 8 g q q S } S } g 8 g g g Z V k , 8 8 g V V N g g 8 8 g g N j , , a g g g g g a a & < < a a a a g 8 V } S S q g 8 8 8 a a g g a a 8 a g g g a 8 8 8 a a a 8 % , % 8 q B h s > O + 8 y B h % O # 0 } X.) S 6 % & 8 N N N 8 + O 8 8 8 8 % % 8 g 0 S V S V 6 % % ",
"% % % a f f f s 8 8 a k C E C k a 8 g L #.$.U g % % & s s s a 8 % 8 g N V N a , a V a.L.L.K.I j d 9.pXmXMXuXj a 8 h L T L j w 9 a a a a a a , % a a s s a , % 8 a g g g g g g g u..XoX|.w.g j a r z h d a a d P dXbXbXeXq.N g  .I./.Y.,.S N V V U S U V N N V s.(.(.l.W k g S >.>.X.S g a g I o.&.*.V j j S Z.Q.).!.+.j j C S S j j V N Z 4.~./.Y.&.N N V N A C d 2 , a g j C C N N S Z >.(.%X%XC.S g N u..X(.^.@.C N } G.;X-XT.N a g N S S V V a a < a g j N j 8 V V F.6XiX6Xs.g g V D | %.) Z t N V D @.@.D N g N D @.#.@.C g g g V C U C h g g g C W W C g g g j N C V j g g g g g h g g a 8 N S ( Z h g a N <._.%X&Xa.N A A g j j k a , a g U @.@.D N a a a j C C h a 8 a h h C C N g 8 g #..X.X/.O.N N g g W U U V V S u.>XrX2XF.V 8 V p.^.!.!.&.g s k j I S S a g q S S.H.(.C.U g s k V I k h N N ) p./.E.I.| N V D | &.#.k s 8 a N I U U C g 8 a C W @.U s , % a N V V g a < & < s d d j a g q &.I.T.U.2.q q 8 8 g h g g 8 a a k E E k a a a a a h h a 8 , , g B D C , > + < B H [ G s % w D K.Y.A.i.B h & 8 S S S g & # 8 g g h g a a g S d.s.z.e.N g a ",
"% % , s k x k k % % a k W ! L k 8 % a W k.x.#.h + % < s x h g 8 a a N V S N a , # g Z._.&XT.I , j 9.mXGXFXdXa a a j T r.! C w 9 s d d k d a a % a a s s s a a a g N j j g g g N u.,XiX,Xu.q 8 6 r z z a j a d 9.bXZXGXdXK a a +..X:X.Xu.N q N S @.U @.N q g S E.;X>XU.C % 6 Z ,.p.u.| g 8 g ..u.&.*.N a 6 N L.:X>X~.| 8 a g N N j j g q t <.).:X5XA.S N N S S V d 1 , , a V U U V q t u 1.*X<X<XS.S 6 q p.,X;X:X@.g 8 S G.<X>XoXV a a N I U U L a < < s k C S V g N V OXlXxXaXq.g N S | *.i.o.( N N A @.k.k.@.N 0 N D *.i.*.D g g g C W W U j a g V W $.$.W V g g j C R L C g a g j k k k g a a Z ) ] _ V h g Z -.*X1X8XL.Z u 0 N j k k a , a g =.*.3.@.C g a a W E C k a 8 a h C W E j g q C i./..X/.o.q N V U U U V g q N s.jXzXjXXXN # N Z..X>X).&.8 + a j V } S 8 a q | .X>X>XF.S # # a N N k g q q Z C.oXOX Xo.8 8 N | &.| E f 8 a C ..$.$.C a % a W e.*.#.f , % a C U C h 8 & & < f k j j 6 6 6 &.`.oX/.4.t q q g h N N g 8 a j W r.$.E g 8 8 a h h h g a + , g H W G , + + < G =.=.H s + 6 A L.).~.a.g # & g D | _ N 9 # 8 g C C k g g g V s.R.R.i.g % # ",
"% % , s f k k k % % % k E W C g + % a E j.k.W g + + < s s h g 8 a a N V C j a , 8 N Z._.>X`.U , d 9.ZXLXLXnXa a a j U ! U C w 6 a d d k d a a % a a s s s a a a h h j h g g g N u.>X7X5Xd.g g 8 r z h a j a d P ZXGXLXnXV j g ...X>XoXp.V g N W E U E g q g S I.;X>XU.C % a U 2.p.2.U g 8 g } u.2.e.C g a S Q.>X>X_.| a a V S S R j g g Z 4.).:X>Xp.N 0 g V V h d 1 , a a V C U U N N Z <.*X<X1X!.} g N s.>X;XOX=.k 8 ) S.>X>X`.C g a g I U L L a < < s k C V V g g g @XxXnXxXy.g j V U *.u.o.Z N N S &.k.k.@.N 0 N D #.*.#.D g g g C W W U h a g V W $.$.W V g g j C L U C g a g j k k k g a a N S ] _ C g g N -.%X8X8XP.S A u V V k k s a a g @.*.3.@.C a a a E L C j g a a g k E G h g q S a.>X:X.X+.N N g L W W C N g N A.lXjXjX XV 6 D A.).>XoXu.g 8 a j I I S a a q _ /.;X>XF.S 8 % s V N E h g N S p.oXOX X#.q 8 N | &.@.E f 8 a V #.#.! k 8 # 8 E $.*.#.k , % a V U C h 8 & & < s k j j a a 8 &.`.oX`.4.q q q g h h g g 8 a g E $.$.E g 8 8 8 a h h g a + , h G H C , + + < C =.=.J s + 8 D U.'./.z.B % & g D | D N & # a g k k k g a q V g.R.`.x.g 8 % ",
"% % % , s f f s a % % a k C k s % % a C #.#.C g + + % % s a a 8 8 a g N N a , > a g 5.K.L.z.j , , Y uXdXdX@Xg a a h K L K k w 9 8 a a a s a a a , a s s a , , 8 a a a a a 8 g N u././.R.&.g g 9 r z s a g a a K aXdXdXuXa C a N A.Y.A.&.N a g k C k C a g N N u.F.^.i.k & s C I | U C s % a V I | @.j d g V Z.Q._.L.| g d j g g d a a g Z +.K.I.s...N q g N B h d a a a g j j k C g N Z ;.S.G._.:.N h h &.Y.F.Y.E f g D p.!.~.U.C a a g V V C k s < < s g j N N g a a U.@X,XuXq.g g g V U @.D N q N S U @.@.D N g N V U W U C g a g h C C V g a a g C U U C g a g g V C C j g a a g k k k s a a a g V C f , , a :.Q.~.T.$.a g q N h h g a a a g C [ =.H h 8 , a k j j j g a a a h k h g h g N o./.Y.F.} N g 8 g E E k C N N +.oX,X,Xz.a # C 2.L.F.A.@.g f f j V S V s s a V A.S.D.2.C a < s j j k a a g Z &.K.K.z.D a a g L T L k a % a V U U C k s & a k E U U f , , a g N h h 8 & % % a a a a % a 8 | z.z.K.&.0 8 8 a f g a a a a a k L E k a 8 8 8 a h h a % > > g C C h , + > < B H H C s % h C a.A.a.*.g & # 8 h V N g & + a a s s a , % 8 g w.e.i.$.g a , ",
"% % % % % < a , 8 % % % a a a 8 + % 8 g g g g 8 % + + O % , 8 8 % 8 8 g a , > + % 6 u / _ D O O % a j P P a % a 8 a g j j a 8 8 8 , a a a a a a % % a a , % % % % % < < & 8 g N N ) S S N 6 9 # 9 s a a a 8 6 j K P P K - h 8 g S S S g 8 8 % + s < s % a k 8 V ) } j O @ & 8 g N g s < < , a g g g O , a q ] ] ` ] q + , , 8 % , + % 8 q N ) S S N g a g h h f s a a a g g g a a % g q N ] ( ` N 8 s 8 N ) Z S a & & q Z ( Z N j a a a j g g s s < & < g g N g k a a L I I I % a a a a g V N g q g N V V N g g g g a g j j a a a a g g g g g a a g g h h g g a g g g g g g g a a a g g s a a , , a g s , ; > , N ` ) S a O a 8 g g g g a a 8 q q N A V g 8 , a a a g g g g a 8 a s 8 8 N N N S S Z S q 8 h 8 s & < % a a 8 g } X.O.V # # 9 N S ) ) g % & & 6 g g g & l & 8 } ` Z N 8 % + + % % & O % 8 q N S N B 6 % % % a d a s < % a g N g a a < & & a g N g , , s a q q g h 8 & $ % < a a a O % + g V N S g 8 8 % & a a a % a a 8 a a g a a 8 8 8 8 g a 8 + > > a g g a , > + % w w y h & % % 6 S Z N N O O + % a g g 8 + @ % , , % + O % % # j g g g O + O ",
"< % % % % % % % % % % % % % % % + + % 6 8 8 8 6 8 % + + % % 8 % % % 8 8 & + . . < 6 y i i B + > + g 8 a j a 8 8 6 6 8 a a a 6 % a a , , , , , , % % , a , % % % % % % & % & 8 g 6 t q q q 9 z 9 , a a a g 9 7 w a 8 a a 6 z 8 g g q q g g f s < + + 2 O & s O g N V 8 + 3 3 s C g a & 2 2 , a a a f > , s 8 Z u u Z 8 % , f s f f > s k g g N q q g a a & & 9 9 a a a a g g a 8 f , f a g N q t V w z s g N q q s 3 l w t t 0 6 a a a g g a a a < < % & a g g g & O s a a j a d a a , , % a g g g g g g g a a a a a % a a a , % a a a a g g g a a a a g g a a a g g g g g a a a a a a a a a a a , , a s > ; ; , q Z t N a > f f w w q a g a q q q t t g g a , , a a a a g g g a a s % 8 B N t Z S N V q 8 s # @ & < % % s g a g 0 N a 9 c l 0 t Z V 8 9 l < 8 g a 8 O & # % N t Z N a 2 3 2 < , f 2 s h q q q 6 h 8 s s % , d , < < 8 a a g a a % % % + 8 8 q 8 , , a a q q q g 9 & # % & a a , , f , a g 8 g 8 8 8 % % < , , % a a a a 8 8 8 8 8 8 8 8 a 8 6 O > > a 8 q 8 , > + + 6 q t q % + a % N N g g O + @ % a a a % @ @ + % + + @ @ + % % j % 8 a + 2 2 ",
"a & % % % a , % % 8 a a a % % a a % 6 8 g N g q 8 % % & % % 6 % % % % % % + + . % # w 0 0 g O > & s a % a k 8 8 8 8 a a a a a 8 a a , , % % % a % 8 a a a 8 8 8 , , < < & 8 8 g t S N N q 6 r & , d , a g 9 # w g 8 h 8 h w # g g g 8 a 8 & + + & < l # & s # g N V a % @ * # g h a % @ < s j g a g , , , % V u t A g % , , 8 a s + , s a g N g g g g a 8 q q N g w q q g g g g 8 O a 8 g V N N g # 8 6 N S N N % $ & w N N N g 8 8 g j g g g g a & & < a g g g s O k % a j # j a d s , % a g g g g a a a g g g g a g g j j g a a a a g g g g a a g g N N g g g g g g g g a a a a a a a a a a a , a a a > > > d N S t g a + s % a q q g g g g t Z u u t g a a a g g g g g g g h a g 8 q N N q Z N t Z q 8 f + & + < % + a j g g ) S g 8 9 # 0 ( u Z 0 8 s < % g g 8 * = & 8 S t Z N 8 + > , a a , + % s a N N g g 8 9 < % , j a a a a a a g g g a 8 8 a g N N g 8 % 8 g g N N g q 8 % 8 a a a a O , O a a 8 g g a 8 % % , , , % + 8 g g g 8 8 8 8 8 q g N N q % , > a 8 8 8 % > , , 8 q N g a % & + a 8 8 g O O + % g g g 8 % + + + > > @ @ + % % j % % , O + @ ",
"8 6 % 8 a a a a + + % , , , , , 8 % q S _ ' _ t q 8 a k C C g 8 8 % & a s a < % + % 8 g h s < % 8 a a a a a a a a a s a a a 8 a a a a a a a a a a h C C N w w g g j j j g g q t Z p.;.p.| 6 C 8 a d d d a 8 8 g C V N g g g g a g g g g 8 a a h 8 h k h 8 6 g C ) ) C s & & g N g h s & # 8 V | | S d , , a N Z A N a , , d S | o.S a % < f j j j j j g N ;.m.m.i.C 0 q S y.d.d.w.0 y B N y.J.y.+.6 0 t ) o.X.o.V a 6 6 g V V N g N q N +.u.+.| g a 8 8 k F B w a a a j V V N g N g a g C C g a g g g C W U S g S q } &.u.a.X.N a a N S ) S N g V g 4.:.,.4.t S g g C C C j g a a g k k g a g g g V L L j d , a N S | D N g a a g N S Z g g N Z 1.M.m.4.N j 8 V X.X.X.S N g N N D S D Z N t g y.V.y.F.S 0 S 6 g C h 8 g N t S C.V.V.} g q Z ;.D.m.V.` 8 6 a j j g g & $ & s N S S S % v j P }.{.+X9.O F 8  .F.f.F.g 8 g g ..t.y...q g a g I K V N q S q } H.J.F.| q 0 Z >.>.>.O.S N q 8 g N g g a 8 8 a C C C g 8 8 a a s s a % s & 8 g N N g q N 0 ` D.D.D.<.0 a , , a a a a , % a h C C C a % + + , a a a % 6 q D %.2.%.S 8 % a , , , , , % % g C D C h a , , ",
"6 % % a s f s s % % % , , a , , a 8 N &.l.P.5.A q q g C W L V g % % a f f f a % + % a k k k a % % a s s s s a % a s k k k f a % , a d k a a a a g h C G B N w q j K U U V N t t p..X!./.2.0 N 6 a d d d a a g g D D D B h g g g h h h g g a a g h h k h 8 8 h D o.o.H f 9 8 g N N N s & # a D +.2.o.C d , a N D D N a , , j | ,.<.X.g % 2 < d j j j g N ) D.<X<XY.| N Z y.;XrXrX>Xo.u t ) .XrXyXI.S N ) :.A.A.A.S N 8 a h C V V q N t } Y.>XoXR.N g 8 s x G F k a a a j V U V N g g g C L E k a a g V W *.&.U N N Z A.oX>XoX<.N a a S o.%.| N a g V _.:X:X).Z N g j L U L V g 8 g j C L C g g g V I T ! L j a a V U &.@.D N g a j V _ S N g N ( %X*X*X_.} j 6 N C.D.C.,.S N V U *.&.3.| Z N V A.2X3X2Xy.N S 8 V C C N N N t o.^.$X$Xp.S N ` D.%X<X;XC.N a a a j V g & $ & s D | +...a a j b.DXSXDX+Xg C N |.hXgXiX>.q 8 V F.;X3XI.S g g V r.#.#.V 8 S S D.jXgXkX&.N q X.S..X.X^.) N g g V C V g a 8 8 h L W L k 8 8 a g h h g a & & 8 N S S h g q t D.0XjX0X!.t a , a d k d a a 8 g C E W C g 6 % % < < < < 8 8 Z 5.P.~.P.&.N q a , , , , , , % g C W W C a % , ",
"+ + % , s f f f % % , , , s , , , # g =.x.U.3.N 6 a k R ! E C g % % a k k f a % + % f x x k a % % a f k k f a % a s k E E k a % % a f k f a a 8 a k E E C g 8 6 j U ! ~ L g g t +./././.2.0 N a d d d d a a a g E E E C h g a s k k k g a a a a k k h a 8 8 k E *.&.W c & & g V D C s & # a | &.a.&.L a , a B D D N a , , C @.5.p.o.h % @ < d j K j g q N p.%X;X-Xy.Z Z 1.;X2X2X;X` u u 4.2XrX3XI.g 0 q } A.s.z.D N g g k C C V N N q } E.>XoXE.N g a h F G H C a , a k L L C C q g g C W W k g 8 g C $.e.e.| S S Z a./.oXoXp.S 8 d | 3.3.&.V a j S ~.&X&X~.S N g C U ! W V g 8 g C E W C h g q V | w.r.T j g a D #.i.*.@.h a a v L | D h g g Z G.*X<X).U a 8 D a.S.K.2.N 8 g C =.*.*.S q 8 g z.uX2X,Xy.q g g W G G C g q t &.:X;X;XA.N 0 Z C.1X;X).2.q % a j L V h & @ < x W &.| @.C s a |.HXDXHX+Xq N S }.gXgXjX<.t N O.;X<X;XR.V 6 8 j T T #.! g N N F.lXlXlXx.C 0 S A././.I.S N q g k G C k a 8 a k W ~ W C 8 8 a g h h g s @ @ a V U D h a 8 q p.2XjXjX.XS 8 a s k k k a % 8 g C W W E g % % < < s s a a q q 5.T.].T.&.q # a a s s 1 , , % h C @.=.C a % O ",
"O O % , , f f f , , , , , , a , , % j $.x.v.*.N % , d b E R k a % % a f f f a % + % s k k k a % % a s k k s a % % s k E E k a % & & s s s a 8 8 a k k L k a 8 % j L ~ ~ k a 8 q a.`.`.`.*.q g a a d d d a a a g C L E C s a a s f f k a a , a a k k h a 8 a k G #.@.x l $ % g V V k s & # a I +.3.@.C a , a h B D B a , , k @.2.2.| h & @ < k V V g g g C a.-X;XF.O.N Z 1.).2X2X>X;.t 0 o.oX2X,Xx.h q N | s.s.z.D N g g h C C C g g g } E.,XOX XN g a h F G H C a , a d k C C C 8 a g C E E k g 8 g C #.*.$.U N N N z.OX5XOX2.q a g D %.3.@.j a g I ].>X>X~.S g g V L U L j a 8 g j C L C h g q V U $.r.R j a g V @.*.*.D g a a f k D C h a a N Q.*X1X~.U , % C a.K.z.*.C a g C $.*.7.D g g j x.iX6X6Xu.g g 8 G x G k g g N @./.-X-Xs.V q V a.:X>X'.i.g & < a j C j < + 2 f U #.&.D f % O |.FXDXFX,Xg g N }.kXjXjXa.N 8  .XX1X1XW.C 8 a j ! ! r.E 8 8 N I.aXlXlXr.g 6 S z.`.].W.V h 9 9 c x k h 8 8 8 j E W E k 8 8 8 g h h g s X @ a j V C s & O 8 p.,XjX7XU.g 8 a s k k k a % 8 a k E E C a 8 8 , < s s a a q q *.[.W.U.&.g 8 8 , , , 1 , , % h C @.@.C s % O ",
"+ + + > < < , , % % , , , , , , , % a C E @.U a % , , 1 d d a a % % % a a a a 8 % % % a s a 8 % % , a a a a , % % a s k f s , % & 9 9 9 9 & & & a s s d s a , , a d m k s % 8 g | u.u.3.D 8 8 < a a a a a a a a g k k s , % , s a d a a , , a a s d s a , , s k V C s & @ $ 8 g N g a % % a V } ' D g , , % w N B g < , , s D _ ) S 8 $ & 9 g N N 8 a s h @.s.d.q.K g N A 3.U.K.z.D N 0 A k.z.c.$.a h N S &.+.#.N g a a h h h h 8 g g V 2.s.p.u.g g 8 g h B B g , < < s f f h g a a g g V k j g 8 g h C U D V N g q o.i.i.s.S 8 a a V D _ S g a a N 2.K.K.2.N a g g j V j g a a a g h h h g g g g V U L k a a g g D @.D N a a a s f h h s < a g 4.M.S.2.V % < f @.@.@.C h a s s G G Q h g f a ~ c.I.z.U a a 8 s c x f a g q V 2.V.D.@.g 8 h | p.p.i.C 8 & & % g j a , > > , j S &.N 9 s % r.,X@X4Xc.% a a q.XX/.[.H g % j w.Z.L.7.8 a a a f f m s % 8 q #.R.|.|.L a % g #.i.7.*.w 9 & & 3 < < , 8 8 8 g k C k a 8 8 8 a a g a < @ @ , a g a < + O a | A.E.I.$.a 8 8 a a a a a % 8 a s k k k a % 8 8 a , , a 8 8 0 _ %.3.=.C 8 a % % , , , , % % g N C C h a % + ",
"> + + > > , + + % % % , a a , % % O + 8 % 8 8 # , , , , , , , % , % % % % a a 8 % % % % % % % % % % % % , , % % % , , , , , % % 8 8 9 8 8 % 8 & a , , , , , , , , , a < % % 8 a # 6 0 q 8 8 8 s a a a a a a a a a a a , , % , , , a a , , , a a a a a a a , a a g g % @ @ % a g g g a & % a N Z Z N a , % % q t t q a , , a N Z Z N 8 & & w q N N q 8 & O 8 N g n 1 & 9 6 6 0 # 8 % s w w h 6 8 a O g g q V N g g g 8 8 w g g g 8 h g q N N 0 8 g g 8 8 g g q 8 < < < < a a a a g a g g g g g g g q g g h h g g V 6 q 8 8 N g a a a q t N N a a k a q 0 0 0 8 a a g g g a a a g a a 8 a g g g g g g g g a a a g q N V N q 8 8 a , , w w & < % q i / / t a % s f q 0 8 % % % % + 8 6 8 # % a O s 8 q q 8 6 a s < s s a a g g q Z ( ] q # # % 8 N 8 q # O & & 8 g g a , > > , g N Z 6 9 x < , g 8 % %   < + a g 6 6 # s , d j 0 i y # 8 8 + , + % s 9 & # 8 g g % d , % 8 q 0 6 # 9 & $ & 2 < , , % 8 a a g a a 8 8 8 8 8 a a a % @ @ , a a a % + < % 8 0 q g a a 8 % % 8 8 8 % % a 8 8 , a , % % 8 8 8 , , % 8 8 6 q t q q 6 # 8 % % % , , + % % 8 8 q 8 8 % + > ",
"+ + + + + % % O % % % 8 a a 8 % a % a a 8 8 g % % , > > + % % 8 % % % % % a % % % % % % % % % + % % % % % % % % % % % % % % % 8 8 g g g a 8 8 8 8 , % , , , , , % % % % % % 8 8 N N Z N q 8 + % a a 8 a a a a 8 a a , , , , , , a a a a , a a a a a a a a a a a g a & @ @ < g N N g a a 8 a N Z Z t 8 % % 8 q t t q a a a a t u Z N q 8 9 w t Z u q 8 s < f V V > . @ r 7 w k a s s l O $ 9 8 L s % j N N S N g g g 8 8 g g N g # a a a V S N V g g a g g g g q , < < < , a a a g g g g g N N N g w q q g g g g g 6 C C g C a 8 a a q t t q a , , a N D D g a % a a g a a a a g a 8 8 8 a g a g g q q a a a a a q q q q q 8 8 , , a w w < < , q ` ] -.u j % s 8 g g 8 a s s s s 8 9 h 9 f x % f N S N g a 8 a + 8 s 8 8 g g q Z ( ` N 8 9 s a g V V s < l & 6 q g a , , , a g N Z q % O , a V  .j c o 2 . , V V h r 3 . + a q [ y 8 C g 8 k a % O & 8 8 a g j a O + a a g g B h 9 & & < , 1 1 1 % a a a 8 % 8 8 8 8 8 8 8 a 8 % + % a g g a % % O a N Z S N % # 8 6 6 8 8 8 % % % % % % % , % % 8 8 8 a , , 8 8 q N q q g g 8 f % % % + % % % 8 6 8 8 6 % + , > ",
"+ + + + , % % % 8 8 8 q g q q 8 % O % a 8 8 8 # % % , , % % 8 8 % % % a a a % + % % % % a % % + % % % , , % % % % % % % % % % 8 8 g N V N g 8 8 a 8 8 a a a , , a 8 % % a a a 8 q q N N q g % a g g q q g g 8 8 g a a 8 , a , , a a a a 8 8 a g a a 8 8 8 8 a g N g , < 2 s N S S V g a a g Z ( ( Z g a a g N Z u N g a a g Z Z ( Z g w w y ( ( ] t 8 & O % a a d , 9 h w g N a 8 % s 9 x L d v j % N g q S N N N g g g g N N N 8 s a 8 N N q q g g g g g N N g , < < a a a a g g g N N Z S S Z g g w g g g g h h 6 h a + a a k a a q u N N a , , , 8 q q 6 , , a g g g g a a g g g g g g g a 8 N q 8 a a a a 8 q q q q g a a , s a g g a < , q / / ] t C a k 8 g g a a , , % 8 6 8 h 6 8 f O a q N q q 8 8 h a 8 g a 8 g g N ) ( ] t # $ & a j g g + O & 9 0 N g g a , , a N Z t Z h a j j g Y d d   3 , d N g q 8 s + a j q u t 8 N 8 % g a % 6 9 8 8 8 8 g 8 a d a g q q w w 8 & , , 1 n n n , a g a % % 8 a a 8 8 8 8 a 8 % + % g N N g a a a g N t S Z q a 6 6 8 8 a a 8 % % % % % , , , % 8 q 8 a , , % 8 6 q 8 8 g 8 + % a , % % + % , a 8 8 8 6 % % , , ",
"% O % , k G C g 8 8 q C =.=._ N 8 % 8 g C D h 8 a , < s k C g 8 % % a f k k a % a a % a a a , % , a a a a a a , a a s s s a a g g d.@X|.6XS 6 g q h C k a 8 % a g N C k g a a g } a.d.s.U 8 8 8 @.%.%.| V q q q C C k g a a a g V U U V g 8 g C W U C N q g N S I U k O s j } OXXXOXc.# I q O.H.!.T.| a 8 g %.Z.4.l.g j j N L.S.S.C.0 q B A L.D.Q.:.q 8 s s j I j g g t Z y.F.F.F.N N N S eXtXtX@Xa g N } E.A.A.| N q V | | ) | s % % a V U S V g g 8 g C D S N a 8 a g C C N g g S S 2.A.A.C.Z g g g h h h h a a a a g k k s a % a N A D B s > , , g N N g < , , a g k k g a a a g k k h a 8 8 N C C C k s a a h B B B g a 8 , a j C V a , a N 4.G.Q.p.V a 8 g V N g g a a a j W W D B g 8 a k | | I V g g g j L C g N V V } A.G.G.3.8 # < C ..I I k a % 8 A | ) U 8 % 8 g p.S.C.2.g g % h.kXwXpXg.8 C g g.3X}.3XZ g 8 g y.V.J.i.N q N V V U C g 8 8 8 h C V V k a a g V D D C % k   P uXeXtX#Xa 8 a a a a 8 a a % % a k k h 8 8 g S F.S.p.x.6 8 q X.C.D.p.| 8 g 8 8 g k k a % % , a s s s , , q N j C k d a % 8 g B F k 8 % + 8 h k k f , % % 8 h C C a % + > ",
"% % % f E Q W C q 0 t _ 3.l.%.A 8 % a C W W C g % % < f G C B q % % f k x k s % % % a a s a % % % , a s s a , % % a f k k s a a Y +XnXlXnXd.N S g N H G h a 8 8 N V U L j a a g +.I.R.T...8 a q &.a.l.*.D q q N U W E C g 8 a j U #.#.D q 8 N D =.#.@.V q q N U | } C % a 8 } 7XlXlX4Xg U V D.2X8X,Xu.N g S K.'.~.T.V j j S /.%X).Y.N q N _ ).%X%X4.g 8 s f K T U V N Z X.J.3X=XF.N t Z d.DXJXJXsXN q S y..X^..X+.N 0 N o.&.+.&.a < , s D U U D g 8 8 h D W U S g a a j C U S V q S } A..X.X!.) g g g h C k h a a a g k f k s , % a B D H C s > > < h D D h < , % a k k k k a 8 a g k k k h a 8 N D $.$.E s a 8 h B B B h a < , g N D V a , a N S.%X1X!.U a 8 g V V C j a a g V #.&.&.D g 8 s C &.&...S g q g C U U S N V N +.^.%X%Xl.h + a K .... .C a 8 g _ %.%.@.g 8 g D Y.).>XY.S j j |.HXHXJXeXg N N XXbXbXkXy.S g } XX=X=XK.S 0 g V I ..W C g 8 w B D D V g a a g D | @.U 8 a , h.IXGXJXbXj 8 % a k h s a % % 8 h G E k g q N ` -X2X:XOXg q t X.G.(.!.2.q 8 a g k C k a % % , s s s s , , q N C W ^ b s % 8 g F G F s & + a k E E k s % % g C W E k , + + ",
"+ + % h E ~ ~ W q 0 t @.l.x.3.D 6 8 h G =.=.G k # + 8 k G H A w 6 a f x E x f % % % a f k f a % % a s k k s a % + a k m k f a a j }.nXnXxXy.8 8 g B E W F h 8 8 N S | U C g a g w.R.OX X&.q g g 3.l.U.i.D q g V W $.$.E g 8 g V #.*.*.U q 8 N D *.*.=.D q 0 N | &...W k a 8 O.lXxXlXOX6 g 6 t.,X7X6Xu.g a N a.].oX`.S g g I '.>X>X/.Z q N o.:X>X>Xp.N 8 f k I ..=.A q N O.}.3X3X@X} 0 q y.NXSXHXaXS 8 S p.:X.X>XO.N 8 N o.u.u.w.a 2 a k U #.@.W g a a k G W | U g g g V L U I S q Z } ^.>X>X(.` q a g k C k g a 8 a h k x k s , , a C [ @.C s > > s C H H F < , % a j C C k a 8 a h k k k h a g N @.j.j.^ s a 8 h B C h h a < , j N S V a a a N Q.1X1X~...a 8 g V S D C g a g V &.u.*.D q 8 g L e.i.w.I g 8 N U U ..I N N N +.oX1X>Xl.B % a U y.+. .D g 8 h | 2.2.%.g 8 g U ~.>X-XA.g % a |.HXJXJXwX8 8 g XXkXhXvXy.q # S XX=X;XT.D 0 g V ..&.| D N 8 q C W U V g 8 8 N D o.#...V a d h.LXGXJXpXj 8 % a k k k s % % a k E E x h 8 q ] ;X7X6XOXq q t ;.H.-X).a.q 8 a h G E x s % % , a f s s < a 8 N E ~ ~ m s + 8 g F G G s < + a k E ^ m f % + g C ~ ~ G s + . ",
"% + % s G E G C q 0 g H *.7.%.C % % a k H H F h + + < f C B B w 8 % s k k k s % % 8 a f k f s < % a s f f s a % % a k k k s a a K {.aXaXsXd.N N g N G G C g 8 8 N V U L j a a g ..c.E.I...8 g g @.3.i.&.N 8 q V E W W C g 8 g h W #.@.D g q N D @.@.@.C q 0 N D ..| W k a g O.,XjXiX Xj C g s.,X>XOX&.j a N i.P.P.z.N a a V L./.).L.V q N ' !.).!.2.g 8 s k I U G w 8 g I g.XX|.g.V 6 B s.mXSXHX@XS 0 N y.^.Y.R.} N 8 g U #.&.#.a < a g D U U U g a s f G E U C g g g h V C V V q N S s./.).S.) q a g h k k g a 8 a s k k k a , , a N D D C s > > s C H H B s % a a k k k k a a a g h h h a a g N D #.#.L s a a g h B h g a < , a j V N a , a g Z.%X%XS.I a 8 g V V V C g a g V o.&.@.D g 8 g C #.#...V g g g V V U S N g N | E.(._.3.h 8 a S +.O.} V g 8 h D o.%.@.8 8 g D A.^.-XA.D j K |.mXmXFXwXs & a |.pXkXiXw.8 # k c.H.(.z.V 8 g N U ..U C g 0 w B C C C a 8 8 g S U | U 8 % , h.MXAXGXdXj % % a k k f a % % a h x G k h V S X.).2X>XW.N q q ` D.!.Y.*.q 8 a f k x k a % % % a s s s , 8 8 N C ^ E f , + % a k x x s < % 8 h G E x s % + a h G W k , + . ",
"% % % % a f a a 8 8 g N C D V g % + % 8 h h s & % + % & s w w w 8 % % a a a a % % % % 8 a a a a % , a a a a , % % a a a , , , a 8 I h.r.d.j % % 8 g h h a 8 % 8 g g g g a , a a N ......V 6 a 8 N S D V g 8 a a j k g s a a a g j j V h g g g g C h h g g g g g N j k % + g S y.>.,.U O + # V +.2.i.C a a a D ' ' D g a a g | :.,.| g 8 h B o.>.O.S g a a a N N s @ & 9 a K ..T W f $ & 8 r.h.h.r.g q N S ,.O.+.V g a g j V V C a , % a N V V h g 8 8 s h C V g g a g g g g g g g g g } +.O.,.t g a a a s s a a a a a a g s a a , , g N V h , > , , g B B h < % a a s s s s a a 8 a f f s a 8 8 N V N j k s a a a g h g a , , , a g N g , , , g o.<.<.X.g a 8 8 g a a a a a g g V S N N g a a s C j j g g a g g g j g g g g N +.>.,.D 8 & 8 N ) ) S N a 8 a N V S C % & a g O.>.X.Z 6 + O v h.h.q.b o 3 < R q.Y e.k @ @ 2 E ..&.D 8 8 a g j C g g q w w g g g g a a 8 g g N N g j d % d r.h.q.K a % % a a % % a % % % % a f f a # 6 q ) X.) V # g 8 Z ` X.o.D 6 % % , a s a % % % % % a a , % 8 q q g s s < + + & 8 a a a < & % 8 8 h f s < % % 6 w h h s , + . ",
"% + + % % % + + % 8 8 8 8 8 8 8 % O O + % % + O > > + + % 8 9 8 8 % + + % % % % + + + + % % % % % % % % % % % % % % % % + + % a d j a 8 g a % % 8 8 8 % % % , a g q 8 8 % % , a a g 8 g a % s % a g g a a a a , , , % , a a a 8 8 % 8 a a s a 8 8 % 8 8 a a a 8 8 8 s O + k N t N N a & s < a N 6 N % % , % 8 6 0 q , , , a g N t q 9 & 9 a g N N g a < % % g g , + 3 l 6 8 g a + s & l # k a d % 8 g q N N N g g a a a a a a a , , % a g g g g a 8 & & a a g g 8 a a a a a a a g a 8 g t q S q g a a a a a a a a 8 8 8 a a g a , , q q N g , > , , q q w w 8 , a a a a a a a a 8 a a a a 8 8 8 N N 8 8 a a a g 8 g g g a , , , a a g g < > > a u ( ( t 8 a a 8 g 8 % a a a a g g g q g g a < , a a 8 , a a a a 8 a a 8 g g 0 N t Z q & & 8 q Z Z N g 8 % 8 8 g g g + < , 6 N N Z t 9 & O , d a d 1 o 3 o > v j 6 O X X + O 0 N 6 + % a a a a % 6 6 9 9 8 8 8 a < < 8 8 a a 8 % + s % a O j g g 8 % % a % + + % a % + + % % a & < s g N g g a s s % q t q q a + + + % % % % % % + % % 8 % % % 8 q q 6 + + + + + & % % % % % % + 8 6 8 % % % % % 6 8 8 8 % + + + ",
"+ + + + + + + O % % % % % % % % + + + % % % + O > : > > % % 8 8 8 % + + % % % % % % % % a a % + % % , a a , % % % , a a a a , , a a % + % & # & # # % % , , , , a 8 8 % + + + , % a # % 8 + & O a a a , , , , , > , , , , , , % , , , , , , , , % % & < < < < a g 8 l @ + k g g N g < 3 3 < % 8 8 C , , < < h w 8 8 , > > , 8 N q 8 & @ @ & 8 g a 8 % @ & s g g d , a h w q N q 8 C 6 z w C g g # a 8 g N g g g 8 % < < < < , , , , a a g g g g a 8 & & 8 a a a 8 8 & < & < < < s a 8 g q 0 A q g a a a a a a a a 8 a a g g g a , , a g N g a , , , q t t q a < a a a a a a a a 8 a a a a 8 8 a N N g g a a a a a g g g a , , > , a 8 9 & 2 > , t u Z t % , s s a , , s s a a g g g g w 8 & % < , , , , , , a s a f a 8 g a 8 g t N 8 $ & 9 q Z Z N q 8 # % a a 8 a + > < % N q Z 0 r = = 2 , a O s @ M , d g 6 q p & < d a t A % O < s % , a % 8 8 9 9 & & % % % % % 8 8 a 8 % O + & & O 8 g h a + + 8 s a 8 & % % % % % % % % @ @ % % 8 %   @ @ O 8 g 8 8 & @ O + % % % % % % % % % & 8 8 8 8 0 q 8 % + + + + < % % % % % % + 8 6 6 % % % % 6 6 8 8 8 % + + . ",
"+ + + + > , , , , + O % a s a % + + < < < < + + + > > < < & % 6 % % % % , , % % 8 a N N V N a 8 8 g j V V g 8 8 8 g K P K j a a O % s s < < # # # # % , , , , , a g a a < , % , , a % a a + & O a a a , , , , , , , d s , % % a a a a a % % , a a s s a % % a g V 6 s < O % a V g g % & + # 8 g q C O O > + s 8 h 8 , . + , g A V g s @ $ s a j g a % # < f N g j a 8 w y N S N g V 6 g N | } } N h 8 N ) N N S g 8 % & s f f a a a a g g g g h g a 8 8 a a g a % 8 a a s a a s s g g D S Z | N g a g g j g a 8 8 q g h N N g 8 a a g V V N g , , a g N N g a a a a a a a a a a a a a g a a w g N ( ) S j a a 8 g g g g a , , , < < a a < < , g Z ` ` S g a s s g g k k s a g N N S S N 8 % & s g j d a , , a C N C h 8 g g g S S ) g 8 s w N ] ] Z q 8 % < a g a a + , , a N g N 6 & $ = < , d a k   , + a j g w h O % d g u u 9 # < a % a k a h 8 # & 9 s a % % % 8 a a a a 8 < O l $ 9 9 h 6 g % % 8 h V g g 8 8 8 a a a a % @ + a 8 k d O @ @ O a j g h s + O % , , % % & & % 8 8 a a a 8 8 0 q a a < , % + % % % 8 a a % + a 8 8 8 8 8 6 6 g g N g a a + + ",
". . + , a s s a % + # s x G N g 8 + + % f k s < + % % < s s a & 9 9 , , , , > % g Z C.G.H.F.I g t ( }.}.{.F.t y q q.dXhXCX{.a 9 % k k C k a % 8 + a s a , % , a C H W L k a , , , a a g h 9 9 9 h k L k a % 8 a k k k g 8 8 a g S | ..I g a g C L L C j g g V | &.&.@.j a a g j V C B g q g N D _ _ g , , , g h h s , > , k _ %._ D g 8 8 g C C C h a 8 g C U @.U V g g S U | U L 8 V q >.rXgXjX|.g N Z <..XH.-Xo.Z q N U U | @.g a a g C W E C q 8 8 g h k h a a a g D @.| C g a N ] S.%X%XY.) g g V D U U V N N N D @.&.| S N V N A.R.OX XV g g j V U U C g a a g C C k g 8 a 8 C U W W B w t ] _._.!.I.S q N V U @.@.C g a , f f f h j N N Z S.%X;XG.X.g g h &.| &.@.N t Z 4.>X>X2X>.q V 8 J @.| T j a g S L.~.'.A.Z N Z ` %XH.(.a.Z t ) M.!.!.T.*.8 8 k N V j d a , a a j V V g a % , s k j a a , , a a d s f , , , g V _ [ z 9 % 8 j L L V C q 6 9 G Q W C j g q g V D U C a a a h G W @.D q g q &.I.E.I.&.g q 8 g C C j a 8 8 8 g C C h a % 8 h D W E C a 8 8 a a a a 9 9 6 g N K I V w 6 8 g C W W k a % 8 & a a s < & % g N C G k h q q N ,X,XeXXXg 6 % ",
". + + , a a a a % % % s F H D N 8 % % a k k f a + % % a s s a & & & a d d 1 , % 6 Z D.$X$XH.} q u ` }.3X=XH.u i t f.CXCXSXwXg 6 6 k C C L g % 8 8 a k k a % & 8 B H $.$.L j a a a d k g h 9 9 9 k L E C g 8 8 g C C G C 8 6 g N +.+.&.} N g g C U U U N g g S +.a.u.#.N a , a d C C V N q g V U ' _ j a , , g C k g , > , j ' %.%.D N q q h C G C B q q N D @.&.#.S g g V U U U #.a V q y.jXVXVX+XN t u V.;X$X;X<.( 0 Z  .+.&.#.g g a h L W W E g g 8 g k C k g a a N ) o.@.U j g N ] H.1X1X(.) N g N U #.#.D N g N | *.u.&._ Z Z Z Y.OX6XOXI N g N K U U L j a a h L W G h g q g U @.W @.B w A -.%X*X%XY.S q N N | *.*.D g 8 , , s f k N Z ( ` J.%X;XH.X.N g C u.+.i.%.u t ( C.2X2XjXt.N N 8 H %.o...j , a ) !.%X1X!.) N Z ` -X;X;XA.Z 0 ( C.%X:X'.*.8 % a V I j d a a a a j j V j a a a a d f f d a a a s d d 2 , > % g B _ [ F 9 6 8 g K U U V g 8 w B W W U N g g g D U W D a % % a L @.@.D 8 q q +./.).^.u.t q g j L L N g 8 8 g V C C V g 6 8 h E $.$.C 8 8 8 a g h h w 9 9 g V I I C y w 8 g D #.! C g % % 8 s f s s & % a V W ~ F h q q } eXiXpXXXN g j ",
". . + , , a a , % + & < x G C V % % 8 f k k s 8 % % % a s s a & O O a j j d > O % N C.(.-X^.I g N X.+X3X+XE.y e N g.mXCXDXwXj 6 6 C C C E g % % 8 s k k f a % 8 h H $.$.L g a a d d k h a 8 8 8 C L E C g a 8 g C E W C a 6 a V &.*.&.I g 8 g k E W W j 8 q S &.a.i.#.j , , a d k C h g q g j U @.D k , , , g C B g , > , j | %.&.U N q q g C G C h g q N D @.*.#.C g g N U ! W W % a 8 y.jXVXNX@XK q N C.>X;X>X5.A 0 g U r.=.=.g g g j U W W W g g g g h C h a a a N D @.@.L j g g ] !.7X7X.XS g g g U $.$.U g q N | e.i.*.D N N S R.6X6X5X| N g N I U W L k a a h G Q G k g q g U @.@.W B w y ` %X:X>XR.} g N N | *.*.D g 8 a a f k k g g Z ] G.-X>X!.o.q 8 h w.+.i.@.y t Z a.iXpXjXA.N g % G %.%.#.d , a ) ~.&X>X~.) N Z X.:X>X>XK.N 0 Z C.-X>XoX*.& + a N I k d a , a a g k C g a , , a d f f s , % 8 a s f < , + % g C _ [ z 9 % % a v R R h g 8 8 B U @.#.j a a g C D H G a % + a E =.@.D 8 a q 2.oXOX`.a.0 8 g k E E j g 8 8 a k G G k a 8 8 g E $.$.C 8 % , a d k f 9 & % a j C C k 9 6 6 g U W W L g % % a f f f s & % 8 C ~ ~ J 9 6 8 S ,XkXlX@Xj # # ",
". . + , a d a , + + + 2 f k j g % % 8 a f h a 8 % % % % a a a % o @ 8 g j a % + # a 2.C.A.d.V 8 q S F.|.E.i.y e 6 r.dXCXZX@Xh O 6 j k k k a % 8 8 a h h s a 8 8 h G H E k a % % a s s s a 8 8 a k k C k a a a a k k C k a 8 a h U | U V g 8 a s k x k h 8 8 N U *.&.U j , , d d f k g a a a d k C C s < > < g N h g , , , s D [ @.S N q 8 g h C C h 8 8 g V U W E h a a V U W W ~ g V N u.6XjXlXc.j q N ,.^.H.^.%.y 6 g K T E E g g g g C U L C g g q g h h h a , , g B D H k d a g Z Z.).).Y.S g a g C U U C g 8 g C ! #.@.V g N Z s.R. XU.S g g g C L L j a a a h F J F h w q 8 V U U W B w y ] Q.!.T.z.I g g N U @.@.C g a a g j k k g g g Z s.T./.a.D 8 8 a ..I $.D w w N &.@XoX@Xy.g a % z [ | E a , a S K.Q.T.l.V g N S I.L.Y.*.N 0 N <.H.^.I.! < % a g C f d s a a a g g k g a a a s s f , , % % a a f f s < , , h B D H f a % % a d f f , a 8 g V D | ..a a 8 a h C k f s % % a C W D C a s g #.I.I.K.&.0 6 8 f k k g a % & a f k k f a 8 a g G ~ W C 8 % , , s f s & + + , k k C h 7 # 6 g C L C k a 8 % 8 a s s < % % 8 g G J z 9 % 6 I OXuXuX XK , % ",
". . + > , , , , + + + > , , a % % % % % % a a a + + + % % a % + @ + 8 g N g & @ + O j V V D % % 6 8 K I I C 6 7 h a P n P d # 7 % g a 8 g a % 8 % % 8 8 % % & a g g g g a a a , % , a a , 8 a a a a s a a a 8 a a a a a a a a a g g h g a % & < < < a & % 8 8 g N V N a , , 1 , , a a a a , , a a a , > > , q q q q % , , , g N N g g 8 8 g g g g g 8 a g g N h s & % 8 g V V V a # 6 % 8 I X.I R % 8 g S } X.} A w 9 8 d d s h g g a g h j h g 8 8 8 g g g g a , , 8 g B h s , % 8 t ' ` ` } q a a a a j g a a a a g j j h g a g q S } | I g 8 g g g g g a a a a g h h h w 8 8 g N g N D C w y u ' ) o.U g g 8 N N N N g g a a g g g a 8 8 8 q N D | V g a < a j g C g 8 g 8 V I Y  .N a a < s y N h + > a 0 ' ' _ D 8 % a g U S ' B 6 8 g N } } } k + 2 < 8 g a < a s a a 8 a a a a a a s , , , , < < s h h a 8 & % < a g w g a a , , , 1 , , + % a g g N S V a < % % 8 8 8 8 & % % a g g N g % & 6 h S S D g 8 8 + % < < , % % O % % & < 8 8 8 a g g g g a a , > + % , < % + < , , , < < & 9 8 a g g g a 8 8 % % % % % % % % 8 8 8 9 & & $ % % V N j a O O @ ",
"+ + + % % % % O + + . + > > % % % + + + + % % a % + % % % % % % @ + 8 t t t 6 + 2 . , % % a O # 8 % % % 8 % 7 9 8 + , 1 d , & $ % a 8 6 a 8 % a % % % % + % 8 a a a 8 % % % < < % & < , % % a a % , a a a % % , % % % % , a a 8 8 8 8 a a , & % % % + % % 8 8 8 q q q 8 % , , > , , a a , , , , , , > > > , q t t q 8 % % % 8 0 g a 8 8 a a a a a a a a g g g 8 9 $ + 6 q g q q h g k h 8 8 g % d % a g q q N q q w 9 8 , , % % g g a a g g g 8 8 8 8 8 8 8 g a , < 8 w w g < + % a t u i 0 Z 6 a a a a a % a a a a 8 a a a 8 8 N q q q q q 8 g a a a a a a a a a 8 8 8 8 8 a g g g 8 6 g g 8 g t Z 0 g g 8 g 8 g q 8 8 8 a , % g q q 8 8 9 8 6 6 8 8 8 8 a a % a % a % 8 f 6 a a a g a a a < & w q a + , s 6 t t 0 8 % % a % 8 0 q 8 # a a 8 g g g % O 2 < 6 8 % % a a 8 8 8 8 a 8 8 8 a a % + > > > % 8 q 0 8 8 8 % % 8 8 8 6 a a a , , > > . + % % a g N N g a % % % 6 6 6 % % % % 8 8 q t q % & # 8 q 6 q 6 q 8 + O O % % + % + + O + + % % 8 8 8 8 6 6 8 8 , > + + % % % % < , + + O + % 9 % % % % % % 8 8 % % % % % % % 8 8 6 % # $ $ # % g a % % % , < @ ",
"+ % % a a g a , + + + + > , , , + + % % % % % 8 8 8 8 8 a a 8 % O + t Z ( u 0 O 2 . , > % s $ & a a % 8 9 & 9 9 s % % , % % s 9 8 g 8 8 a a % a % % % % % % & a a j K j a , % & & < < , % % , a a a a a , , , , % , , , , a a a g g g a a a , % % < & % % 8 g g N Z g a , , , > , , , , , , , , a , > > , a A ( ( Z g a , a g N g a 8 a a a a a a a a a a g g a 9 & % 8 g N N N g 8 8 g 8 6 g 8 d , 8 B N N S N q w 9 8 , a 8 8 g a a a a g a a 8 a 8 a 8 a a a , , 8 q w g < < , g t ( ( Z ) 8 a a a a a a a a a a a g g g g a g N g g g 8 g j a a a a a a a a a a 8 8 8 8 g g a V K j V g 8 g N N 8 g a , k 8 g g q 8 a a , a Z ( Z N g 9 9 8 s g g 8 8 a < % a 8 a % % f % a j j g g a , < % B N h + , s 6 N A 0 g , > f , a q h & + , d V I I K , + < < a g a a a 8 8 g g N N g q 8 8 a a , , > % % 0 t t t N q 8 8 8 a a g a a a , , > > + > % % q N S ) S a , % 8 8 8 8 8 % % 8 g N N Z N 8 s 6 g N N S g 8 8 % # % % % % + + % + + % % 8 8 8 g g N g g 8 , , , , , , & & # , d n n d , % % % % % % % % % % % % 8 8 8 8 8 8 8 a 8 & & & % a % a a % +     ",
"% % a g V V C C % % % , , , , a O + % % % % % % a 8 8 8 a a a a O a ) ;.N.-.A & @ o 1 , a f $ $ , a % s z & % # 8 a a C g a s % a j g a k a 8 8 8 8 a a a a & , P 9.h.h.P d , , < < < < % % , a a a a a a , , , , , s s , % , a D V N g g a a , , a s a 8 8 h D o.o.S g a a , , s a 8 % 8 , , , d a > > , j ] -.-.' N g a k D D V g a a a a a a s a a a a g g g s 9 8 g V } o.o.S g 8 g a g C k d % # g S } q.I N w 9 8 a j g 8 g g g g g g g g 8 a a a a a g a , , q q N g s s , g t ] :.o.| 8 g a a g k k h g 8 g h C C C h g 8 g g C V g h g a a a g s a a a a g g g h g g g a T h.d.r.K g N N N a k , % k % g h N N g a a g X.;.;._ B 8 9 s % a a a a a s s j g k a % f 8 g g j g g a % < s B A k + + , 8 A _ t C a + , a g g h # O , d Y f.f.q.v , , s g U V h g g g N D D D D N g g g V k d , , 8 N ) ' o.Z N g q g h C C g g a a , > > 2 2 % 6 q S X.>.>.a , , a g g g g g a g N S o.X.] 8 a 8 V | } o.S 8 6 8 8 a < a % % % < < a , 8 a 8 g N D | | S q 9 & , d d d 9 & # d 9.h.h.9.d + % % % a a % , % % 8 a a a a a 8 8 g C C f 8 + % 8 % g g + % @ @ ",
"8 8 8 D i.U.x.*.8 % + < f f d a % % % f x x f a % % % a k G h 8 % g <.1X1X1Xl.g % > 1 d j k w & % a k J J z a 8 8 g k G F k 8 6 8 h E W E k a a a a a s f a & , 9.cXcXnXuXd , , f f s f f s a % C U W E d % % , f s s s % O a C e.s.i.U g g g a k k k g a 8 V z.].'.P.D 8 a s a k h g a 8 a k b j j d , , I S.>X1X&X} g j V *.k.x.#.j 8 8 s k k k f a a a j L E x s 8 g ) Y.oX.XU.S 8 8 h C E C b a g N u.oXXX|.@.B 8 g V j g h g a a a g k g g a a a g k k j k a a g A _ W C k a g Z ~.&X_.OXN V a h E W $.W q q g H *.7.=.D g 8 g C L W C h a g g k k k k g a a a g g h g a a K #XnXnXMXg.j j g h G k f a , % h E $.$.E k , g V.%X)./.*.8 8 % s s g g a a a a C C C k a 8 8 g S D S g 8 % s G %.%.U d , % V ' 5.%.C s , , a h g h s f , a F.cXkXMXc.a d k w.i.w.i.g N N S W.W.`.i.S 0 g S | ! ^ d a g S Z.:X>X>X2.N N V U #.#.@.V q 8 , , s c s 8 g t 4.>X2X;X#., + h W @.@.U g 8 N I E.~._.C.q h q &.5XOX6Xa.q q a g h k g a + % a s j k g g g 8 ..U.I.I.u.6 7 r j K P v w 7 r a dXZXGXcXj a % % < a a < a , % s E ^ L s 8 6 0 &.U.U.j.C 8 a 8 h C C s % % @ ",
"% # 8 S a.U.U.*.q 6 % a k k j a % % , f m m k a 8 a a k G G h a O g <.1X0X1X3.# % , d v L C h 8 % a k G J F g 8 8 g C G H B g 8 a k W ~ E k a 8 a h k k f a 8 a P dXZXAXfXn , , d f c f s , , a C W ! E a % % , d , s s , % a C x.I.z.| g 8 g g C L C g g 8 D U.T.].P.D 8 8 k k C h g q 8 8 g k g j d , % I Y.1X1X%X} q a j *.z.v.e.C a 8 s k k k f a % a j L E E f a g } E.,X>X/.| 8 q h U W L j a 8 q u.OX@XOX@.N 6 g K I S D g a a a g k k k g a a g k k a a a a N S | @.L j a g Z ~.>X'.OXN 8 6 g @.*.*.D 8 q g C @.*.@.D g a g C E W C h a a g k E E C g a a a j j j j a a K @XMXMXMXd.a a g k E E k s a g h W e.*.U g , g G.;X>X'.*.8 8 % h k j j g a a a D D D C g 8 g g D D D N g 8 f C *.&.U d , a N _ 5.%.U k , , g j V C s < % j |.BXvXBXc.% % % +.u.i.i.N N S S `.OXOXz.S q N I &.$.! j a q Z Z.:X>X>X,.q q N I #.#.D N 0 q g s a s s # 8 q 4.>X2X>Xr.a % g U #.#.U g 6 g S I.~.(.Z.g h q &.5X,X6X+.q q q g k k j g 8 a a g j j g g g 6 | U.E.E.a.q e r j P P K r 7 z j dXZXGXbXP s O + a f f a % O % f E ^ E d a 8 N a.W.W.x.C % 8 a N C C h % % % ",
"s 8 N @.K.].U.k.0 6 6 8 h k g a % % , f x x k a % 8 g k G C g 8 g S C.2XqX7Xl.q + % j K I V 8 # 8 g C E G C g 8 8 g C G G B g 8 g C E W E j a 8 a s k k a % % , h.bXGXGXfXP , , , f x c s % 8 a C W #.L a % , , , , s s , % a C i.I.z.o.g 8 g j C L V g q q S K.5X5XW.@.q 8 g a h h N q q g h C L K v d a I !.1X1X:XO.N j V i.U.x.$.C a 8 s k k k f a a a j L L E s g g } F.>XOXT.| q g N W @.U R a g N u.,X,X@X%.N 8 g V V S S a 8 a a h k k k % % 8 a k L L k a a N S o.@.C d a g Z ~.>X'./.V V g C @.*.*.@.q N V D *.k.*.@.N g g k L E C g 8 8 g C E E C g 8 a a k k k j a a v @XIXIXMXc.j j a k G b d a a g C @.*.*.U a , g D.;X:X`.*.8 a a k j j j g a a a D D D C g a g h C D D V g a s C 2.%.U d , a N _ 4.%.U j , , g V V V s , % j |.vXBXBX|.j a g u.I.i.i.N N Z S T.`.`.s.S t N S ..$.! j g N ` Y.8X7X>Xu.N N S ..r.*._ V g g j k h s k 8 w N Z.8X7X7X#.a % g S @.&.U S g V } R.).-XY.0 8 q u.6X7X7XK.q q q g j j j j a a a g g j g g N q } I.R.R.d.t e r j K P V w 7 # K cXPXPXZXT + a s s f f s s a % s m E m f , 8 N a.W.W.x.C % 8 a h D C h a % % ",
"+ % 8 N | 3.%._ 0 8 6 8 s s a 8 % % % a f f a % # % 8 g h h g g a g ` S.D.Y.@.6 % 8 g N Z N 8 + 8 a g k k g g 8 8 g h h h g q 8 a h C C k g 8 8 8 a a a a % % , n #XwXwXn.d a d , s f s 8 6 8 a C D D C a % , , % , , s , 8 a j | &.&.S g a g k g j g g g q N &.5.4.%.N 8 8 a a g g N N q g h C N N a , % N >.D.S.S.S g a 8 _ &.#.L g a a s k k f s a a g j C C k a a g S +.A.d.*.N q g N C U V j 8 8 0 } d.y.d.D N 8 g N N N V a 8 8 a a g g g 8 8 8 a a a a , , a N Z _ D j a % g Z 4.P.Z.a.N N g N C V C V q 8 q V @.@.D N 0 g a g k k g g 8 8 g h C C N g a a a g k k g a a , h.eX4X4XY a a g h k d a , 8 8 V D @.W C g a g X.D.C.a.U 8 g a g j j g a a 8 8 B B N h a a a g N V B N g 8 a g _ _ C d , a N Z ' _ C g , , g j g g , < , a q.,XXX,Xq.a a g } +.....g g N N u.i.a.o.N q q V I U L j g N N :.Z.C.s.S 8 g g N D D N q 6 6 8 a g h 8 # q q | L.S.F.U a 8 g N S D S g 8 g N 4.4.C.,.q a q S I.A.I.) q q 8 g g k g g a % 8 a a g g g N g V &.e.e.o.0 7 7 g j j j w 7 9 j #XyXtX#Xj % a % % % % % % % % a f k f < % % q | w.r.! j % a 8 g h h g % % , ",
"O + % 6 0 t t 0 0 6 % & & , , % , + O + % % % + % % 6 6 8 8 g g 6 8 0 ) t V 8 O 8 8 t t N g 9 & 8 8 a a a a a 8 8 8 8 8 8 8 8 8 8 a g a a 8 8 8 a 8 % % a a a a , P d v v % a a , , % 8 a a 8 8 g N q 8 a a a , + , , , % 8 a g q N N g g a a a % a 8 8 g 8 8 N t Z t 8 a k s 8 8 q g g q q a g N g a , a g Z ( Z ) g a a % t N g a 8 a a a a 8 8 8 8 a g g g a s % a g g V S N g 8 8 g 8 g N g 8 % h 0 g S N N q w w g N g N V 8 8 8 8 a a a a a a a a a a a d , a q t N g a , + 6 q ( ( Z S q 8 8 j C g g V g 8 g g N N g g g g a 8 8 a a a 8 g g g g g g g g a a a a a a a a a j v a j % % g g g a a a a a 8 N N q q g a a a N ] Z N g % a a a a g g a 8 , a q q g a a , a a a g g g 8 8 , a N N j 1 , , g N u N g a , , a a 8 a % < s , g O.N } a + , a g N g h 8 8 g q V N V g q 8 8 g g a 8 % 8 q q N S N N 8 8 a a 8 g q 8 8 8 8 8 a a k 8 6 g 0 q N q g j , a g 8 q g g 8 6 g 8 Z t ( u 8 8 g q S t Z 0 q 8 8 8 a a a a % % % % % a 8 8 8 6 8 g g g g 6 9 8 8 a a a 9 9 k % d 1 1 d + a % a a a a a % + % % , , % + O % 8 N g g j , % , + 6 9 8 % + % , ",
"@ 2 < 8 8 q 0 8 8 % # + % % % + , + O O O O + + 8 % # # 6 6 6 6 8 q q V 6 a % + & 6 0 t t q # + & % % , , , , 8 & % % + + + % % 8 8 8 8 8 8 8 8 8 % % % % % % 8 j V + % g 8 8 + a % % 8 8 a 8 8 0 0 6 8 a a a , % , , % % 8 8 8 8 8 8 8 a a % O % < + + a a 6 0 N N g 8 a a % O a a g q 8 6 6 6 w q a , d j N N 0 N a d f a g q q 8 8 a a a 8 % 8 % 8 8 8 8 8 8 % % a g a a a % % + a s 8 8 q 8 a % z h g V 8 g 0 9 w g g q 0 0 g a 8 8 a a a % % % % a a a a a , , 8 0 q 8 & + % a q t t 0 q a j a a a + % g a g g a 8 8 8 g h a 8 8 8 8 a 8 8 8 8 8 8 q q q q g a 8 8 8 8 a a j g a + a a g N q 8 8 8 a a g q q q q 0 q a a 8 g N 6 8 a % f , a a a a a % & s 8 q 8 , , , , a 8 8 8 8 8 % , a 0 q a , > , q t 0 q 8 a , % 8 8 g a O O < , 8 N q g 8 & s s g N a 8 8 a a 8 8 % 6 6 8 8 a a 8 % + + a g q N N a a % a d a 8 h 8 9 s s a , , % + g 8 k h h h 8 a , % a a % % 8 % a 8 k 8 N 0 t q # + g 8 N 0 N N q 8 % % % % % % % % + % % % % % % % % + + + % a a % % % + % & % , , , , , , + + a a a % % % % , % % O O O O O + 8 g % O , > + + O + # % + O + > ",
"o . O % a j h 8 6 + + @ + > , , + + + % % % % + % + 6 a h h q # 6 # 8 j + , . o O 7 u ( ( N + o # % , a a , % # $ $ % , , % + + 8 a a a a a 8 8 % a k k a % + 6 # 0 6 w h g g 8 a a a a 8 8 8 q N Z A N g 8 % , , , a % % a a 8 g g a a % % % + % < % + & 8 a C q g 8 + O + < < s s 8 8 6 8 s k w w % O O , j S N V + > , % w 0 g g g a a g h k k g 8 8 8 8 g a , + a a a a s s s % % s 8 g S N , O & 6 8 N 8 g w 9 9 8 g g g w 8 8 8 a a a a a a % + a k k ,   > % 8 w w s 2 > 2 s w y A N 8 a a + , a d j d O % % a a j j a % 8 8 a g g g g 8 8 q N N V N q 8 8 8 9 9 9 9 8 8 % a g j j h 8 8 q g V C j g g g N A _ D N g a 8 g N 8 h f < f , a a a a a & & & h g a , , , , , a a 8 8 % , , , 8 q , > > > a g t w g < % + 8 a g d % @ 2 & 8 V N q & @ @ , 8 g a % & & a s % % 8 8 8 8 < < < % c s s 8 # 8 a , d > + + O + 9 & # + O O , d d a k + 8 % a g % d , + , , % % s + O O & # h 0 N 0 9 + h 8 N q q 8 8 & # + + % % + < + + < 2 2 < % % < & % & % % s , , % # $ & , , > 1 + @ @ @ < + % a a a a a + O % % + + + + O O 8 h a , > ; . > + & & & % % + + ",
". > , k #.i.*.U 6 % + + < 2 , , O O % < s a a % % 8 h E $.=.D g 8 8 8 C a f 2 @ & y ' 5.5.| f O # % a d d d , % % & < , , , + % a g j k k h a 8 8 C $.$.E a a g B { 7.=.G 8 6 6 g k C h 8 6 8 g | 2.2.@.N 8 % % a d s % 8 a g 8 C C k g & % % < < c s + % a k $.z.z.e.L a , d f f s 8 8 q h U #.*.=.W h a C w.I.I.z.j a s < k C C N g a g C @.&.@.U g a a g V C k , a g 8 a C x x & % 8 g | 2...E & 9 8 N U V U g 9 % g U w.3.*.g 8 8 a a s s a a , d r. X4X#Xc.+ % a h h h s 2 > & 8 w J H 8 a , , 0.|.4X@Xx.j j j Y d.c.s.U a 8 8 h C C C N q N S o.2.2.o.S N 8 a s s s 9 8 8 8 g k k a 8 8 g S O.u.u.| V N Z ] :.p.4._ N g g 8 g 8 f s + , O s g h g a & & < h h g a a , , , f a a a , , , d g g , > > , g N A B h a & & s h j v < @ 2 & g D U h c < 2 < a j s % & + & f a s h s a % % & < < & + % 8 g $.v. Xj.b , , % s J x f , % a 0.n.#X@Xr.g a % a k a s , + % % % s f & s + s s $.=.*.@.8 O B C k.i.i.@.8 % O + % < < , 2 2 2 < < s < < % < & & l 2 O + , , % & & & , > . , + = 3 = 3 + a Y g. X Xg.K + % % < < < < O O % k k d 2 > . > & s c z s < + . ",
"% % g ../.2X>XA.t q q h x c < + O % , a s s a a a 6 V x.W.W.u.g 8 q N _ U L k , 8 N Z.Q._.P.V % 8 a j L k k a % , , s d d , , , a j ! ! U N g q N i.W.W.x.U q q ` !.].].l.B g g C W @.@.C g 8 q s.^.oXI.| g g g k k k g a 8 w h W W E k a % a k E k G h 8 8 D OX2XiX:X+.8 a j L R W k w y S u.R.E.OX&.t u ` (.zXjXjXX.q V a W L ! C j a g &./.&X:Xp.N a j V ' %.C g q g V | | @.U C q g | s.!.E.e.k g q S w...#.V g q S d.XX-X/.C s 8 a k E L v , d n b.AXGXGX#Xd , a k E W G k a a g h C C g a a j f.DXDXLXuXg g N }.rXrXiX&.0 q h D #.*.%.S t ( ] '.:X:X/.( Z g k C C k g a a a g k G x f s g X.H.=X;X!.;.( ( m.;X;X-XZ.( u q h s s , , , s s C C H D g 8 a h C D C C g a a g k k k k , % , d g g g k a 8 h W #.@.W N 8 8 N L R R b & + g U ..#.#.C 9 s a d v k k a 8 8 8 g h k h a a a h k k l + s 8 N .XlXlXlX+.8 j k s ^ ^ j a j 8 f.mXDXHXeXg a g j I g C a % % a j L C k h % g D [.`.).A.t 0 N 2.5X>X5Xz.q 8 8 a s g g a & + s E ^ ^ m % & & s s s s , > , , < s s s % + % % & s 9 s s a g q.cXmXmXuXj 8 6 8 g s a a % % 6 h E m f < , , s F Q ~ G f % O ",
"% % q X.^.2X>XG.t t q g s l l l O O % s s g g a 8 6 S z.T.T.u.g 8 g S ' | U j a 8 N Z.Q._.L.S 8 8 a k L C k a % % , a d d a , , a j T ! U V N q S z.`.W.z.S q t ` !.).`.k.q 8 8 D @.&.@.V g 8 g A.^.oXI.| 0 6 8 k k k k a 8 w B W ! W C a % a k E C E V g q U @XrXrX.X} q g V L j C k w q N ,.XXF.E.,.( ( -.%XjXjXjXX.q N 8 j j U j a % q +._.:X:Xt.g % a j _ ' D h q g S | &.&.| V 0 q ) Z.!.Y.e.j g g I w...#.g 8 6 S C..X;X.XD s % a k C j j d d n b.GXPXGX{.d a a j L W L C a a g k C C h a a a q.NXHXPXsX8 N V H.rXrXjX2.y g N W *.3.%.) Z u ( ).>X>X).( t g j C L C k a a a s k x x s 8 g ` H.;X;XL.] / / ` H.;X>XL.( u N k f k f , , , 8 C H @.D N 8 a h C D D V g a g g k C G k a % , s k j h g a 8 g W $.*.@.V q q V U d n f & 6 g V ..w.#.N 6 6 % d K L C g 8 8 a g k k g 8 8 8 g g k c > a g Z ^.zXzXzXy.q g a s z k b a j a f.bXDXHX,XN a a a P g h a 8 8 g C L L C 8 # 8 V U./.%XS.Z 0 t ,.>X,X>Xs.q 8 8 a g g g g % O & k E ! E a % 8 s f f d , , < < < a s s s 8 + % a a f a a a N q.kXbXbXtXV g 8 9 h k k a , % 8 B W ^ x s , % g G @.W C a % + ",
"s a g | R.,X>XY.N g a s f x f s O O % a s s a 8 g g @.x.U.U.u.V 8 8 N D D C a , a N a.Q.].U.U a 8 a k k k k a % % , a d d a , % , j R ! U N g q S i.W.U.i.V 8 q ;.!./.`.k.g q g C U @.U N q 8 g d.^.oXI.@.g a a k k k k g 8 w h D U W C a 8 8 h C k L j g g D  XiXiXOXo.N g g j L W J w w N +.^.@X|.o.t 0 ( ).jXrX,XO.N C g L R W k a , g &._.&X&Xp.j a j C [ { G h a g V U @.@.@.C q q | A.!.T.$.g 8 q S &.| @.V g q U K..X-X/.V a 8 a k C k a a , d b.AXLXGX#Xa a a k L E C j 8 8 g g j j g a % a f.DXHXLX4X# 8 N }.rXgXiX*.6 8 h L #.&.@.S N Z ) /.oXoXT.) N g j j L k j a a a s k x k f 8 8 ) !..XOXx.A y N } |.oX`.7.0 6 g a g k d a , , a C D @.D g 6 8 g C C C N g 8 a g k C k k a % a s C j g g g g h C $.@.W N q q N L b b m s 8 h I ..I | C w h h j L C k g a 8 a a g k a 8 % 8 a g k 2 > a g } oXlXlXiXd.N j g x ^ x f O , a g.cXmXFX Xs < % , M l l < % 8 a j L C k h % g D T./.%XL.Z q N +.>XOXOXi.g 8 a a s a a a s & h E W ! L a % % 8 s f d , , % % % a s s a 8 % 8 a f f a % 8 8  .pXmXnXuXj # 6 9 s d a , % + 8 N C E k s % + a C ~ W h % + , ",
"+ O + g ..u.&.S g 6 # % f f , O + + + % , a 8 8 8 6 N | @.| D q % + 8 g h g , + + 6 _ %.5.@.a + % a a k g a a % , a a a s a a , a g j C N g g q q U #.#.U N 8 g Z ,.o.&.D 8 6 8 N V V V g q 8 g ) O.+.| N 8 8 8 s s k s a 8 w w C C C j a 8 8 a k a k a 8 8 a w.y.d.+.t 0 g g k k k 9 6 0 q S y.q.Y g C q t u.g.d.d.g 6 w 8 k k h a % % 8 S 4.4.4.S 8 , , s N B f s 8 a g C C C h 8 6 8 N o.,.2.E 8 8 8 N U V C g 8 8 N | 2.<.>.g a a a g h k g a d d P |.n.|.9.a a a g j k k a 8 8 a a g a a a < , K |.{.#Xv.a a q O.J.V.F.D w 8 a j C L C N q N g ..&.&.| q g a a k j g a a a a s k k k f a g q &.&.*.J 7 7 6 g q...#.G $ % s a g g g a a a g h C C B g 8 8 a g h h g 8 8 8 a g k k a 8 % a s j g g g g g g h C C j g 8 8 g j d d & # 6 8 N V N V g 6 9 8 % a a a a a a a a a g a 8 8 a a a s 2 , a 8 q O.F.A.g.S 8 8 8 s k & l . @ + P b.b.|.~ & = @ O l 3 r & % % 8 g j k s % O 8 8 &.+.<.X.q 6 0 N i.+.u.S a a , , < a a a 6 # g j j j g % 8 8 8 & < , > > % 8 a a g a 8 % % 8 a a a % % % 8 N g.g.g.h.% 8 # & < , , > + + q q g g a a % + 8 h C k a % + > ",
". . O + 8 g 8 % a % % % , a d a , + O O + + % % 8 # 6 8 8 q g 6 O O % 6 8 & + + < + t t t h O + % % % % , % % % 8 8 a a a a 8 % a a a a 8 8 8 q 6 g 8 8 g g 8 g 0 Z 0 q g # 6 6 q q 0 q q q 9 8 q N N 0 8 8 8 % % , , a 8 8 9 8 g a 8 a a a 8 % a % a % a a # N q N q 6 9 w 8 s % % # 8 h N g V j d a C 8 # a % j j # % 8 % a a 8 8 a a 8 N ( / u q % > , , 9 w & % % % a g a 8 % 9 h w q N Z N g % g g q g 8 g 6 6 6 0 q N Z N g a g a 8 8 8 g a g g % a + a % a a , a a a a 8 g g a a a g g a @ > % K % a k < & 6 q S t S 0 w % , , a a a a a g 8 g a a a % a a a a a a a a a 8 a a a a a g g 0 N 8 8 w $ = & a K a j x < 2 O g N g g a a a a g g q q g a , % 8 a 8 8 8 8 a a 8 a a a 8 % a a 8 8 8 a a g a 8 8 a a a a 8 a a , % + 8 s g j j V K g # 6 8 % a % % 8 a a a a 8 a a 8 a a a a a , , a 8 6 q N q g 8 8 8 8 8 8 & < @ = # a d , , 8 $ = = o @ = = & % + % a a , % % O & # N q Z t 8 8 g q V 8 V g 8 % % , < , , % 8 % a a 8 g j g g 8 % + % % + % a a a a a a 8 8 8 8 8 % % % % % 8 # g % , a O l $ & % , > > + % q t q 8 8 % 8 8 8 8 8 8 % + + . ",
"X @ > , % % % % % , , + O O , d , % O O O + + % a 8 8 8 6 8 g 8 % + + % % % > ; < % y 0 q g O > + % % % % % % % % % % % % 8 8 % a 8 8 6 6 8 8 8 8 8 # # 8 a 8 8 g S 8 8 h 8 a 8 8 8 8 0 q q 6 6 N N g q 8 g g a % % % % 8 8 9 9 a 8 8 8 a a , % a % % + a j % g g V V w z 9 O O , , & s C g 8 a v v % % + O , , d , a s s 8 8 8 8 8 f s 8 N ( i u q a , , s h h & + % % 8 a % % & s k h q t t q g + g 8 q q 6 g w w w w q t t N g a g a 8 % 6 8 6 8 a 8 g 8 h g a a , a a a 8 % g a 8 8 a g a % @ < a K j a s O $ 8 N } t S q 6 , , , , , , a a g a a s a a , a a a a a % % a a % 8 a a 8 8 a g N Z 8 8 h w z s j K , % , O > % q t q q a a a g g q 8 8 a a < % 8 8 8 8 8 8 a a 8 8 8 8 8 8 a g 8 8 a a a g a % % % a a a a , a , , s z h a a a % g g 6 w h a a % % % a a a a a % % % 8 a a a % O % a a N N N N 8 a a d g g 8 s * @ r w g N j g 6 7 r = # # $ $ & + % % % % % % , % s % g 8 N N 8 g h g N # g 8 8 % + < < , , % j 8 8 8 6 a g g g 8 6 + % % , % g q 8 % 6 6 8 8 8 8 % % % % % % # # g a d a O & * * + + + . O + 0 q q 8 % + % % % % % + % + . . ",
"o o   O % % % O   o O , K K V g % + + % & < & % + O % 8 6 8 8 + % + % 8 8 < > ; . O g t t h O . + % , , , , % % % 8 a g g g 8 8 8 8 8 8 8 8 8 8 8 a 8 % a , % a 8 N 6 8 s # + # 8 g N N g 8 8 8 g N N q 6 6 % + , , , , a 8 9 6 a g a a % % a , s s f % a k % g % 8 6 # r & % f , s & # # % j q.n 9., + f s 2 , , + & & # # 8 g q 6 % % # t ] ] ] N % + + , q w < 2 % , a a a a + % # 6 q Z ) Z C & a 8 g V g C 8 6 # 6 w N N t g a g g h h h h h 9 w h h g 8 6 a a , a a a a a a 8 8 g V C g % 3 3 + a g a x < s g q } Z ` A w , , a , a a a a % % % s s % % % % a a a a a a a 8 g g h g g a g t ` S S D 0 0 0 a  .Y Y j + a j N ] } S N g a g g g h g 8 , < < a a a a a a a a g g g a a a g g g h h a 8 a a 8 a a a a , , a a , , 8 % # % j 9.K Y N % 6 8 % % a a , , , a a s a a % % a a a a d d a 8 q 8 6 a a , % % a 6 6 8 a s 9 0 N S } N N F e w N q w w & + % % a a , , +   % O a 8 N q # # 6 8 S q V 8 8 % & < < s a a 8 6 8 N V I N # 8 8 9 8 a < , , 8 q g N N j g 8 8 8 a a a & % $ 9 9 a % a a # l * @ % , , + O O 0 Z S D g 8 % + 8 8 8 & + @ . . ",
"@ O . < f f f < 2 > d c.uXaX+Xf.% + & s s s a & + + f G k k k , + + 8 a a < > . + a =.3.3.*.d 2 + , s f f s a % 8 s k G C k g 8 8 8 a a g g a 8 % h h s s , % a a U j k x & 8 8 g C D D g 8 8 s V | #.E h a a a s s a s a 9 9 6 g j C g % % , f x m m % % a % j V K h 9 r & , f d b f + % K |.dXdXdXc., < + > > 4 > s s 9 h C #.@.D h a g %.P.Q.K.&.a > , f D C s 2 < a a g C C k h 8 g @.z.Y.K.W a a 8 g U C E C s & 9 F W D V g a 8 g D Q H G 9 6 w B G W G W a a a a s k k g g a g C #.#.C a   < a V I g z & & h | /.Y.Y.@.# % , d d a a a a s s a k f < s < % a s h s a a a g k C L C h g q ] D.F.F.a.S Z S f.tXcXlX XK a a p.S.Y.s.U g 8 a g C C C a % < < k h s a a a a a k k j g g g g g C C C g 8 a a a d s a , , , , a j f k a 8 K |.uXpXuXc.g # a C ! L f a , % a s k f d a , a s k f j k a 8 h C G ~ m f + % h g q C a g 6 t } y.J.V._ A 0 q S S D D & 2 < < a s d f f + 2 O G C U C a 8 q D z.i.z.U g 8 & s s f g g g q U I.OXOXc.V 8 6 8 h f f s a 6 N ..i.k.r.C g 6 8 a h f s & # # F ! #.r.W 8 $ & 9 k b f f & 8 t _ 3.e.$.k a % 8 a f s % . . : ",
"+ + , s s d f f , 1 , 4XnXnXBXF.% O + s x x s & + % a k ^ ^ k , O % a h j s > > + a *.l.U.x.d > , , f k k f a % 8 k W ~ ~ C 8 # 8 g k k k s 8 % a s f f s a , , g C W ^ f & & s C W @.@.C 8 & % W #.$.W k 8 8 a d d d d a + & f C j j k a , s k ^ ^ E f a % a s j j s 9 & & , d b d , a , d #XLXGXPXn.  < < , > 1 , % % w B | &.%.D N 8 0 2.&X5X5Xi.8 + a j D W E s + % j U W E G h 6 0 %.T.oX`.x.f , a K #.U ! k a % 8 k E W U N 8 6 h $.j.$.W g 8 q C @.$.W C % % % a k k j a g a h W $.j.$.h 2 & g V D C h 8 s N 4.).>X'.3.8 a a a k k j g 8 a g k x x x s < % a h h g a a g a C ~ $.W h 8 q ] H.-X-XE.) t t J.DXDXLXsXg K g C.).'.R.w.g g a C L E C a + + < k k h s a a a a C E E j 8 8 h E W $.~ C 8 8 a s s s s , % , s f b b g a a K #XmXcXIX Xa 8 a ! R ! E k % % s k E E k 8 % a k k k k a a 8 g G ^ ^ ^ f < % a g C D g g 0 q O.F.XXXX5.t t t S O.o.&.s 2 % s k j d d < + O s E ~ #.E 6 8 0 *.W.`.T.*.q 8 h z F k h g g N I 4XsX6X6XN 8 8 h F ^ E f a 6 N #.c. Xv.W 6 8 a h k k f & # 8 h r.d.i.r.h 6 $ z ^ ! ^ k $ 6 t 2.U.v.j.L 8 a 8 a s s < @ . o ",
"O + , s k C k f % O +  XnXmXvXf.8 + % s x m k < + % s x ^ ^ k , + % a g h a , > , g 3.P.P.x.j , , s k m m k s , 8 h E ~ W C a % 8 a k k k s a % < s f f s a a a a C ^ ^ x < & 8 C @.*.@.C 8 8 8 ! r.j.$.k 8 8 a L d a a , + + 6 W U L C a % a k ^ ^ E k a % a a d d s & & & a d d d d a % d @XPXGXLXn.O a < d n 1 , % 6 w B | +.&.| V g g a.>X8X5Xa.j , d C | @.L s 8 8 g I U U C h 8 q o.T.:XoXj.d , a I r...r.k a , s k L U U N a q C $.j.$.W g 8 g j U ! U L % % , s k k k a a 8 h ! e.k.*.h < < h S D D h a 6 N a.oX>X).2.q a a a j k h g 8 8 g k G x x s & 6 g C E G k g 8 h E $.$.W C g g ` !.XXoXI.S N N f.mXHXLX6X# j N Z.'.oX`.w.a a a C L E C a % % < k k k k a a g g C E E j 8 8 g C W ~ W h 8 8 a a d d s , % , a d d j k a + j #XFXZXIX Xa 8 8 L U ! ^ k 8 8 g E E E k a 8 a k E E L k a 8 g G Q Q ^ f + % f k C C k s 6 q  .F.}.E.3.0 6 0 N ..| #.s + O % s k k f , + + < m ~ W E g w q *.`.`.U.%.0 8 w h F B B g 8 g U 4XsX6X4Xg q 8 h G ~ Q f a 8 V *.U. Xv.#.a 6 8 f k k f & % 8 N d.s.d.r.w # 8 C L C k a 7 r t 3.U.W.v.E 8 % a g f s % O @ : ",
"% % % a j j g a k a j  XaXnXkXg.8 O # a x x f % % % s x ^ m f % % , a g g a , > , a %.5.a.w.a % , a f k k f a % % s x E G h 8 % 8 a s f f a < < < a s a a 8 8 a g k G m c < % % h D @.U h 6 # & C W $.W g % % a k a a a a 8 s k C V V g 8 % a k x m x f a % 8 a d d a < & % a d j j k k a d n.mXZXAXc.a f + , d d a 8 8 w V S | | S g 8 q o.~.].~.&.a , a j S _ C s a 8 g V U U N g q q | s.^.E.e.a a a I ..I T j a a s d j C C g a 8 h E ~ ! W a 8 a j K K K K , , a s d k g g j g C #.r.i.#.a % a N Z S A h s a N p.).).!.w.g g a g h h N g g 8 g k F F f s & a g g g g g g g g C E W E k a 8 S K.E.E.j.C h N g.cXAXBXuXL d a p.~./.U.#.a j d C C C k s a , , s j k j a 8 a g C C k g 8 8 a g W E C a 8 8 a a k s a % % , a d j v k a % d n.cXdXnXc.j h g U T L C g 8 6 a C C C k g a 8 g C C b d 8 6 q B G E E f % % f k B h < + O 8 #.g.|. X7.w 9 8 j T U E c & % a j j j k , % % < x E E C 8 8 0 %.U.T.U.&.0 8 8 w h h N g q g U  X4XOX Xg q 8 8 k E E k 8 8 g W j.x.j.L 8 % 8 a h s s 8 % 8 g q.r.r.#.8 # # h U T U h $ 7 w @.k.k.j.E % % 8 g h a + O + > ",
"% % % 8 g g 8 8 # - % V I q.O.V 6 # % % s a 8 + % % & s f f < % % % 8 q 8 8 > + , 8 S ] ] D % + % % a a a % % + % a s f a a 8 % % % a a < < , , , , a a 8 8 8 8 a g f f s & % 6 g N V N 8 % O + a h h h 8 6 8 a % a a , + O % a g g g g 8 8 a f 8 a s < & % 8 a 1 1 , & & 8 a a g a 6 8 a , v g.h.g.j + s # % d a a 8 8 w g N V V g a 8 6 N o.:.o.N % + , a N Z g a 8 a g N N V g g 8 8 N } O.+.U a g g N I g V a a , , a a j j 8 8 8 g h C C j a a a a j j j j % , a s s a a a a 8 g g g V N # , a N Z N N g s % 6 Z ` ` } V a a a a g g h g g 8 g g h h h a 8 g g q q q g h h a g g g g a a 8 6 D K L x # & a j 9.9.Y k + O % N ' } | j + , % k g g g a a , , a g g g a 8 a a h g a a 8 8 8 8 k k g 8 8 8 a a a 8 8 8 8 8 8 a d a + + % , v h.q.h.j % h a g j g g g 6 8 a g a g g g g a 8 a a s , % 6 q g N h k a % , s a 8 8 < o   # j K K K F $ & & % d a a & + + 6 8 8 8 a % % % < s f g g 8 g 6 N ) Z S q 0 8 6 9 w g q q 6 6 6 L U U @.# q 8 8 8 h g a a % 8 g C C k a % % % 8 8 8 & % % a 8 V V V V 6 8 8 g a , a % $ 7 0 V C j f a % a 8 8 g g 8 % O . ",
"O O % 6 8 8 g g h 8 k a % a 8 g 8 8 8 8 6 % % % % + + + % , % O + % 6 6 6 % + + , % t 0 q g O + , a 8 % 8 8 8 8 % % % % + + % % + % % , % % % % + % % % 6 6 8 8 8 6 % % % % 8 8 g q q q 8 8 & & 8 8 8 8 8 g g g j j j a a 8 % # g g q q g g 8 % % % & & % % 8 a , , , % 8 6 8 a g 8 6 9 k a % , + , O % h & a a , 8 8 9 9 8 q g g a a a 8 g N 0 N q % > , a N N 6 % 8 g g q 8 8 % % , a a g N q a % g g g N g N a , , , , , a a 8 8 8 8 8 a a a a a a a a a a a % , < a a a a a a 8 a 8 8 g V g a a g t q 0 a , a % q t 0 q j a a a 8 a a g g 8 8 8 8 8 8 8 a a q g N N N N g g a 8 8 8 a a a a # g + % < + & , , d d a a 9 < k 0 t 0 g a + a , , % 6 8 a a a 8 a a 8 a a g g a 8 8 8 8 8 & 8 % 8 8 8 a a 8 8 a % % % 8 8 8 8 % a a + % g a % , + , O 6 C a 8 a 8 8 q 8 q a 8 6 8 8 g h g 8 8 6 a , 8 8 g N q 8 8 8 % a 8 % 6 & @ o @ s a a 8 6 # - r s % , % a % + 8 g g q g g 8 % % % % 8 8 8 8 g 6 q 0 6 q q q 6 6 8 8 8 8 6 % % + + # % g 6 g w 9 6 6 8 a a a 8 8 % 6 % % % 8 8 % + + + % % 8 # 8 % + a % s 8 a , , d a # 7 6 8 + O O O O % 8 6 8 q g 8 % + ",
"+ + + 6 8 8 q q g % + O + % # 6 6 6 8 8 8 6 % % % + + O O % + + O O % 6 8 % + . , % t 0 0 q O , % 8 8 % % % % % % % % % + + % % + % , , % % % % + % 8 8 8 8 8 q 8 6 6 % % % 8 g 8 q q 8 8 a < & a 8 6 6 8 8 a a 8 a % 8 g j g 6 q q q q q g 8 % 9 9 8 & 8 % 6 % , , , % 6 9 g g q B w w z a a j v d d z r 8 8 % a a 8 8 9 9 8 a a % , 1 , a q 6 q 8 , > , , q q 6 % 8 8 q 8 8 % % % & % a a q 6 8 % g g q N q g g a % % , , a a a a a 8 8 a a a a a a a 8 8 8 % % % , , , a a a g g g g q g V a a , g q q q a , d , g V t g d , , , % a a a a 8 a a 8 8 8 % a a q g N q 0 0 q g 6 8 8 % % % < a g C a , s & s s a v g g h 9 # # N A q g s , f , % % 6 8 8 a a a 8 8 8 8 8 8 8 8 8 8 8 8 & & & & % % 8 a a 8 8 a 8 8 8 8 8 8 8 a a j a 8 h a a j a a 8 w k g 8 g 8 q q 8 8 8 q 8 6 8 8 8 q q 8 8 < % % 8 q t q 0 q 8 8 a 8 & 8 9 . O & s g g g g w 6 z h 8 a 8 8 k s 8 g N g q 8 8 % % % % 8 8 8 + a 6 g g q V g a 8 % % 8 a 8 8 % s a , 8 a g g 8 9 9 8 8 8 8 a s a + + + % % % a 8 % + + + + % # O % % % s $ & O , , 1 d , O & % a % O > + O + 6 6 6 6 6 6 8 8 ",
"2 + % a N D N q 8 & O & x l & 8 6 6 8 h C C h 8 % + % % % % % + O @ & 8 8 % > : > % B B B B + < % 8 g h s 8 % % % a f f s < % % % a s s , , % % % % a g g q q q q q g a 8 6 8 q N S U I h % O + a a a 8 8 8 g g K T ..K a % 8 g S S D N q q g 8 f s s 9 8 8 8 8 , , a 8 7 w N B q A p 7 6 # 8 j , O & $ - 7 h g j a 8 & & & s f f > > > + , h w w a > ; > , g B h 9 8 8 8 a a & & + + < , a g g f 8 w q Z o.S U V a % % a s a a a a a a a a a a a a 8 a s s s & < % % , s s s a 8 6 g S | | V # , , g B J F s > + O 8 B N g , . , , , , s s a a a a a a a a a a g S o.| S g g g 6 a k k s & % % 8 V a g h # 6 8 K q.I S V 0 B C q V q g a O > . < a g q q 8 a a I U U V g % 6 8 a a s s & & & & a a a s 8 % a k k C h g 8 q g j 8 g 8 # $ # % k k a 8 # # 6 g U W D N 8 8 g D W W C q 6 8 q N C f 2 + 6 g S ) | I N 8 8 8 9 9 9 a a 6 8 N } } ) _ 0 0 0 V q.O.} C 6 # 8 S | S V a 8 % % s h h h < , + j T U I 8 8 % , < s s a a O O % % a g 6 6 6 6 w G W E g % % % % a s s 8 + % % 8 a 8 8 % % $ O s & & s O $ > n 9.P n , O < + a < < , > O % 8 B D C g 8 6 8 ",
"@ O + C j.z.k.*.w h # c ^ c x k g g N @.k.x.=.C 6 8 8 a f a < % O @ & s s < > > O % H H H G % < 8 g F G G k a % % s x E x f < + , s f f s , % % % a g g g g q q q h k k g 8 8 q &.s.I.d.U a O % g j C j a a j P sXnXnX@XY + a W K.U.K.#.g 6 8 8 h s 8 8 8 8 8 a d d a 8 9 w B D *.7.J w w w a a v , c l $ z G h L j a & & s c m ^ f , > + s G G h s > > , f G H J z 8 6 8 a f f s & O % a g j C k 6 0 N &.T.U.T.D N 8 a h k k g a a 8 a g j j j a 8 8 a f k f s s , % a h k h g a g @.U.OX5XT.} a , h H =.Q k , , , C W E L v , , , , s d s a a a a s d d s , a N 2.oX5XOXi.V 8 g C #.#.E h < a g ..I ..U g N V  .rXkXlX`.t g N A @.W ~ b , , , f k C h g g a g z.I.U.i.V 8 8 g s h k s 8 & & s k k k g 8 % a C W E C h 8 q N U ! ! F 9 w s a g k a w 7 w H *.c.v.k.U g g @.k.U.U.i.C 8 8 N @.$.^ c 8 8 S &.z.T.i.I 8 % a s 9 8 a g q N y.;X2X7XK.u u ] F.rXjX7X*.h 8 S I.OX@XOXg a 8 a k C U L % % % r.4XuX6Xc.a , , s f f j k < s s a L W g q 0 w H 7.v.x.@.8 % % s x ^ m s + + % a f h s 8 % 9 # s & & < * % + c.fXnXaXn.d   O a , + , , % a C *.z.x.@.g 6 6 ",
"< O % D z.`.P.3.q 6 6 h W W C g N 0 N *.v.U.j.g 8 8 8 h f f 9 & O % a s s s < & + 8 k G Q G s % # a G ~ Q C a % 6 s G ^ E k 8 + 8 a h k h a 8 % 8 a k h a % % 8 g j C k a 8 g N +.I.R.E.#.6 8 % j j j d , > n 9.bXZXFXcXj a V I Y.).R.&.g 8 a g g h k h 6 % % a a d s a % 8 V #.e.=.H g 6 8 g k f f f a % 8 h H G C g 6 8 a k E R b a , , a k G G h % % a k W W $.h 6 8 h k k k a a g g N B D D D 0 t Z <.(.(./.:.S N q g N V C 8 a g j N V K L a 8 % a h k V g 8 8 g h B C B h w 0 V 5X7X7X2X` N g V W j.$.L a 8 a V @.*.#.j % a a s f k f s , % , s f f d , a Z V.7X2XjX,.V 8 8 I +.y.O.N % 8 Z >.2.+.| S N S y.zXvXvXXX6 I V S o.$.! f , , a g C W D g 8 g V I././.i.V % , d f k k s 8 % a g C C C h 8 # a E $.$.W h 6 8 C $.$.W C g 8 8 f k h k h q 0 Z a.].].T.N g g S '.:X>XK.V 6 a D @.=.$.k 6 6 N a.`.`.`.I 8 g a % < k g N S N y.3XgXjX.Xu ( u H.vXgXzXP.q q S +XiXrX,XV g 8 g W $...I # a V d.aXuXaXg.a 8 a s m L V g % 8 a h C C B N q q @.P.W.[.3.q % % s L ! E s % + % a f f s , % % a a f s < % % d g.AXmXAX|., , , , s s < % % 8 g i.R.U.&.g # s ",
"s % 8 U z.T.P.l.q 0 0 h E W L N q 0 S k.W.W.k.N 6 6 8 h h s 9 & + % a f f s a % % a k E W G h 8 % g E Q W C a 8 8 g G E E k 8 % 8 g h k h a 8 8 % a h h s , % % g j C C g a a g u.E.R.E.*.g g 8 h N j n 1 > 4 9.bXAXFXcXV 8 g I /.)./.&.N a g h h h h w 6 % , s a s a , 8 a V #.e.$.E h a a h k f d a , % a C H H C g q 8 j L ! T K j a g j C E C h 8 8 a C L W W h 6 8 a d k d a a 8 8 N D H H B 8 t Z <..X.XoXo.S q g N C B C s < a g V K L C % + + s k L C j g g g h C C B w h w B 4XjXjX2X] N g V U $.$.U g g N D #.$.#.V g a a s k k k s , , < s f f f , a S V.7X7XjXp.V 8 a U y.y.,.S , < N %.3.*.o.S N V y.kXvXBX,XN j 8 I ..$.! k a , s g C H C g q g V /.:XoXz.K , , 1 f f k g 8 8 a a V j h g 8 8 h W e.$.W V a g C $.$.#.L g a a k x k C C g t _ K.'.'.].S g g S '.>X5XY.S 8 a C *.*.7.C q q S i.`.`.R.U q g s s f f g q N N f.rXjXjXF.t Z Z (.vXzXvXl.y N } ;XpXpXiXV g 8 g H @.| I g a g h.lXlXcX|.a 8 8 s x L j g 6 8 a f F F B q 0 q %.U.].W.3.t % , d L E L s % % a s f k f a a a a a s s < % , , g.FXAXIX X+ O , , s < < % % 8 N i.R.E.i.V + % ",
"+ + % j #.i.3.@.0 6 6 s k k j j 6 6 N #.e.j.@.a 6 6 8 s s 9 8 & O % , a a < % + % 8 h C G k g 6 % a k E G k a 8 8 g k C k g 8 % 8 a g h g a a 8 % 8 a s s a , 8 g h k k h a a g | a.u.i.U 8 g 6 w w k f , > , n uXaXsX6XV g 8 D a.A.i.I g 8 a a h h w 8 8 % < s s a a , 8 a V U ! U V a 8 8 s f d d , , % a h C C B g 8 8 g j L K j a a a g k k h g 8 8 a g k L k s % , , , , d , , % , s k k k f % a g | g.s.s.S g % % f f s < @ @ + , f k k s 2 @ @ & l f s , < , , a g k f 8 s & a v. XXXH.N g a g C E U C h g g V U U L j a a a a k k k a , % a a s s a , a N o././.OXW s O % k |  .| k @ @ 8 H Q E G a % a  . X6X4Xc.d , % V I U C d , , , a h B N g g a N p.A.s.&.j , , d d f a a a a a a h g g a 8 8 j U ! W C g 8 a j C U D V a 8 % a f k h g q q S &.K.L.l.g a g N K.L.L.4.N % % h D @.W h g q N @.z.s.i.V q a a a s < < O % 8 Y |. X X=.8 6 g i.OX,X,X=.7 y N s.|. X Xg 8 8 w F G D C h 8 8 I @X+X@Xq.g 8 & r z k j a % # 8 s x k g 6 6 8 D j.k.i.| q % , s k k k a % % , s s s a % % a a a & & & % % a h.aXsXfXj., , % , , < % + % 8 g ..i.e.#.g O O ",
"@ O O % g N N q 6 % + % , , , a 8 # 6 a a g g + % % 8 & % % % & % % % % % % + + % % 8 a a a 8 % % 8 a a a 8 8 8 8 8 a g a 8 8 8 8 8 a a a 8 8 8 % % % 8 a a a 8 8 a a s a a 8 8 q S N V g # 8 6 w w 9 9 & + % , j T j N # 8 O # Z S V q % % % 8 a 8 6 6 8 a , , s a a 8 8 a g g a a 8 % % % a s a , , % 8 a g w q q 8 8 8 a a a a a a 8 a a a a 8 8 a 8 8 a g d , , > > , , , 1 , > , , , , , < 2 % a a g I V N g % O % < < % + . o O + < s < % < @ @ @ & & % + > > , , a a a s % , % b K V  .g a a g g j j h g a g g g g g g a a a a a a a a a 8 a a s a a a % 8 g U V #.8 @ @ @ s g N j a X 3 & h s s s & + a g K U j s , O f g N g a , , % % 8 8 w q q a a g Z Z Z g a , , , , a a 8 a a a a g g a 8 8 8 a g h g g 8 8 8 8 g g g g 8 % % % % a a 8 6 8 q N S ) D 8 a a 8 ) ] ( N 8 % , a q q h 8 8 8 8 N S V S q 8 8 % % < + =   O O a K j C f 9 # % h V } S F - 9 6 V N N N 8 & & & w h h w # 8 8 g  .N Y 8 8 % & & 9 s a a % O % < s s % % a % a j h g g 6 % % a s a a % % % % % % % % + % 8 8 % $ @ @ @ % O % Y d v +   % % , , + + + % a 8 g g a a % O O ",
": @ + % % 8 6 % + + O O O O + + s % % % O % , + % % % O O O O % % % + O O + + % % + + + % % 6 6 % % % % + + % % + % % % % % % 8 8 8 8 6 % % 8 8 8 % % % % % % 8 8 6 % % # % 8 a 6 q 8 q 8 # a 8 w w 7 $ & & & % 8 g # 8 h J 7 w 6 q 8 8 % , , % % % 6 8 8 % % % % 8 8 8 a a 8 8 % % 8 , , < < < , , % a 8 8 6 6 8 8 q g g a a a a a a a a a 8 % % % a a 8 8 8 , > > > , , , , , , , , , > . . + . O d a 8 g 8 8 a 8 , < < % % < @ @ @ < a a 8 % % % & % % 8 q g , > , a a a a a , , % , O O g a a a a a a 8 8 a g g a a a g g g a 8 8 8 a a a a g a a 8 a a a a < % 8 # a O @ 3 @ s q q g 8 @ 3 & 9 # O 9 s & a 8 % 8 # 8 s   @ g g a a , , , , 8 8 8 8 8 8 % 8 N t 8 8 , , > + , % 6 8 8 a 8 8 8 8 8 8 8 8 8 6 8 8 8 a g a 8 8 8 q q a a 8 % % a a 8 8 8 q 0 q q g 8 a a 8 t t 0 0 8 , , , 8 6 8 8 a 8 6 8 g 6 8 8 g g % % a # = - & % % a + % + l $ 9 6 # q 6 8 - 9 # w 6 # 6 & # + # & 8 6 6 O & a 8 g 6 g 8 8 & $ $ & & 8 % % + O O % % % + s % % , + % a % % % % % + + % % a , % % % % % % % % + * * * * O a % a % d < & l + % , + + + % % % 8 # # + + @ @ ",
": . + % % 8 a % % + @ @ + + + O , O , , % , , % % % % % % % % O % % % % % % % % a % % % % 8 8 8 % % 8 % % % % 8 + % % % % % % a 8 8 8 8 8 % 8 8 8 a a 8 % % % % 8 8 8 & # # & 8 8 g 8 q 8 % a % q q 0 6 $ & 9 & # a 8 8 6 # O 9 6 8 a a , , < , % 8 8 8 8 % % % % 8 8 8 8 a 8 8 8 a a < < % + % , , a a 8 8 8 8 8 8 8 8 8 a a a a a a a a a 8 % % % 8 a a a 8 % , , , % a g N g g a 8 a , + + , O + h a q N 0 q g 8 8 8 8 8 8 a % % & a g N g g 8 8 6 8 g N N q % % a g g N g g g 8 + % a s a a a a a a a a 8 8 a a 8 a g g g g a a a a g g a g g g g q q q g a , s a 8 g % + & O g N N N q O & 6 w 6 % s s 6 8 8 g g 8 g s * % 8 g a a , , , , 8 8 8 8 8 8 % 8 N q 8 8 a 1 > + , a 8 8 8 8 8 a 8 a g 8 8 a a 8 8 8 a g g g g g 8 8 8 8 8 % 8 a % % % 8 a a 8 8 q q , , , , q q t g , > > , 8 8 8 % a 8 6 q g 8 q 8 8 g % 6 a & @ * s % 8 g 6 8 8 9 & 8 8 q N g , o < O w 8 # & # O + + , a 8 8 & $ 8 8 g g g 8 % & $ $ $ & & % % O O O + < % + O O % , % , , % % % % % % % % % % % % % % % % % + % # @ * * * O % O + + % # @ O + , , > @ + + % % a % % < + o X ",
"o o + % , a a a + @ @ @ 2 < , % O O < f , s s % % % a k E L s % + % < s s a , % % % % a a a % 8 % a s h s a 8 8 % a s k h a 8 % 8 g h h g a 8 8 a h k k f a % % 8 h z c & $ # 8 g N q g g + & % N U U C 8 % % % C C W C g % a k a a a , > + > < a g h g 8 , s d h h h g 8 8 a a s s a , + + + , a a a a 8 8 h C k h a 8 8 a g j k s , % % , s s f a % % a s s a g g q q Z o.4.4.o.Z q g g a a f h 8 N t ) 2.o.o.Z q 6 q B C S D g 8 q V +.u.,.X.Z N N ) t.C.1.` q 6 q ) 4.p.:.( t q 0 8 k C 8 8 8 % % a s s a 8 8 8 a h C C g 8 a g g C V V g q 8 g U #.&.U N 8 % k N N V g % % 8 ) <.1.1.) 8 8 t } o.o.| N 0 t Z O.>.o.) q 8 g g g g s , , % % a h h h 8 8 < a g g a a , , > < < s h w 8 8 s h k C k a 8 a g g g g g a 8 8 g k C h g 6 % % a h f a a 8 8 8 a g h a , . + , a N B g , . . + 8 8 a % 8 8 a C @.U @.g 6 8 8 8 h h s 8 g 8 N +.} | D g 0 q S +.>.O.v . , O s 9 & & % , > , d j V h l @ % 8 g N a 6 % # $ & & & 8 & % O O % < < , + O O , d , d , % % & 8 f k s a % O + a f f a % + % % & & = = @ @ s f s k s < 3 @ + , < > > + O + O a a , 2 . o o ",
"o . + , a s s f O O . @ < < , , % O < s a s f , % a k ! j.e.E a + % f k x f a % % % a f f s % + + a k C k h 8 % 8 s G E E k 8 % 8 g C E G h a 8 a k ^ Q E s % % g F ^ m l & # & h C g V h % s % ..s.c.r.j % 8 a $.U U V g , , % f s < < + + < f k C C h 8 a f b W W C g 8 6 8 s k f s , % < < f a g a 8 6 a C Q ~ G h a 8 h L ! ! L a , , s k E k f % + a f k k C N q t _ Z.~.'.L.` t q N j k k B 0 t Z 4.'.'.'.o.Z q N @.*.2.%.N q t } F..X.XF.( u Z t.-X2X<XH.Z q A a.oX>X!.<.u Z A w h w 6 k & % a s k k s a a a k E $.! C 8 8 g C U ! U N q 8 U z.OXOXz.D 8 % j N V V N 8 g V p.(.;XH.<.N q ] C.^.Y.a.) t Z ;.(.-X.XZ.N q q B C L k f , < a s k B k g 8 a s k C E k , + + < s f k h 8 8 h k Q ! E g 8 a h k E C C g 8 a C E $.W C a 6 8 k E E G h a % a s k h a , > > 2 s h C f > ; > < s h k a 8 a h $.x.x.v.D 8 g h C G C C g N N o./././.u.Z t N t..X(.XX9.> 1 O x F z x , , , d v T U E % + s h g C g h % & & 3 l 9 8 a + + % s f s , % s , s f f f f , % & s x ^ G f + O a k ^ ^ k a % 8 % < < 3 = @ @ O a k ^ s & &   + , , 2 > @ O O % d s < & . o 5 ",
". . + s k C k a # + @ @ < s a a % + & f x k h a % 6 h W j.e.U a 8 % a f k k f a + % , s f s % O % a k x x k a % % f m ^ E k a % a C W W C a 8 a 8 k ~ ~ E a % % 8 ~ ^ 8.M * O O 8 g C C h a & a  .y.d.r.j % % g U @.#.U g % , , < s s < > O > f E E C g 8 a k E W @.E g 6 8 h k x k f < O % s k g g g a 8 g G W Q G g 8 8 g L ! r.E a a a a C E C k s 8 8 f x G C V q q ] L.'._.~.:.t q N j k k C N q Z ,.!.'./.o.Z q N | 2.2.o.N q q X.F.-X.XF.( t Z <.2X2X2XD.t q t a.oX:X!.;.u t w B F F h 9 & < a f k k s a a g C $.$.@.V 8 8 g V U #.W V q N U v.W.W.z.S 8 % a j V V g 8 8 q a.%XH.-X;.q q ( V.)./.p.) t Z ` G.-X:XC.Z t q g k k k s , % % g C H G a % < f G E E k , O + s k h h h 8 % s G Q ! W k % + a C L E C a % % k E W Q G a 6 g C G G k s 8 % a s h h a > ; : < s k G f + . ; , g g a a 8 % g ! x.v.x.U 6 6 h C G E V g N t X.^.^./.p.Z t N <.).(.^.P 1 + a h z k x % , , d K T @.E % O % a C C j a a % % 2 s s a % + % a h k k f a + + < k ^ E f O + O x E E E f % % a k E E k a + a , , < 2 @ + + % s x x c < @ + , , < 2 2 @ O O , , a s < 2 X X ",
"@ @ + a h k g a # # @ & < s a 8 % % 8 s k k g a 8 a V W e.$.U g % % a f k f a % % % , s s s , O % a f k k f a % % s k E E k a % 8 h G E k g a 8 a k ^ Q k s , a h W Q ^ M & & s a g k k h a & , ..d.d.r.C 8 8 g W @.| I g a , , s < 2 2 + + , f k C C g 8 8 s G W @.D g 6 8 g k x k s & % % s k g g g a a g G W ~ E k a a k W $.~ E 8 a a a C L k g 8 % 8 h k C g g q q | K.].`.K.| q g j k d f g g q V y.E.XXR.} N g g U &.+...N g g } A././.F.Z t Z ,.>X>X2XS.q g N i././.Y.,.t q 8 s h h 9 8 % , < s f s a a 8 g C @.=.@.C g 8 g j U W U j 8 8 C U.4XOXv.V # % , j N N g 8 8 B a.%XH.(.:.N N ` C.E.E.u.S t Z >.!.).).4.t q 8 h k k f s , % 8 g C C h a % & s F C k f , + + s g g g h 8 6 s x E W E k a 8 g C C C k a 8 8 g G ^ ^ G 8 6 a h C G k g 8 8 a s h g a + . : < s k F f + . > , a q h a 8 % g W j.x.j.C 8 8 h C C E C g N t X.I.T.E.+.N N N ,.^.Y.Y.Y d a g F J F F a a a j L W @.W % + % a j V g a % % % < s f a 8 % 8 a h f f s 8 % % a f E x s % s % m E E ^ k s % a k E E k s % % , , < > > + + + a k k f < + + , , < > 2 @ O O % a s s 2 @ X X ",
"+ + % 8 8 a a 8 & # $ & & 8 8 8 % 6 8 8 g g 8 8 8 8 g N D D N g % % a s f s , + % % % , < , , % + % a f f a % % % a k k k s , % 8 a h C h g 8 8 a s k k s a , a 8 g j a & O   % a a g g a 8 & % D U U C h 8 8 w H D D V g 8 & % s s < > + + , s g N N g 8 8 a k C D C g 8 8 a a f s a % % % a a g g g g a g h k G k a 8 8 a C L L C 8 a a % C j j a 8 % 8 g h k , a , % j ! r.$.U g 8 a d 1 1 1 , , , d I q.r.r.j a , , j K I V a & a C #.e.r.$.g 8 8 C x.u.s.} 8 a a U w.w.w.I a % % < < < < < % , , , a , a a 6 a V D U D N g 8 a g C C C g 8 8 g =.e.e.#.g % @ : , s s 9 $ $ $ B a.,.,.N 8 + N ..&.#.W h q g Z &.2.u.U 6 a % g g s s , , % 8 h N g g 8 8 & & h h s s , % % a g q g g 8 8 8 s k k k a 8 8 a g k h g a 8 a g k x k h 8 6 8 g g N h g 8 8 a a s g a + . . > s h h a > > > , g q g a 8 6 8 C E E E g # 8 g a a g s 8 g 6 N *.=.$.C 8 a 8 V *.&.*.a % # 6 w w w 9 8 8 8 a k F J F % > % , a g g 8 % % , , , a a a 8 8 8 8 h a 8 6 6 % 8 s f f a % % O a d s k , O , a s k k k a % % , , , > > + + % 8 a h f < + + % % % + @ + O O + a a a % O o X ",
"+ # % 6 8 6 8 8 # # + $ & & 8 6 % % 8 8 8 6 8 8 6 6 6 6 8 8 8 6 8 % % % , , % O % % + + % , % + + % % % % % % % + % , a a % % % % 8 8 a a 8 8 % % % % % % % % a g g g % a s   % % 8 8 8 8 & # % 8 q 8 6 8 & 8 9 w t q q w 8 & # s < % % + + % a 8 q q q q 8 8 a q g g 8 8 8 8 6 8 % % % 8 8 8 8 q g g g 8 8 8 8 a 8 % % % 8 a a a g 6 a a 8 g a g a 8 a g a 8 a , , , + % , a , a , + , , > > > , , , , a j d , , > + > , d d a % @ % a a g a a % + O # h % g # % < O a j a j % , > > > > , , , % , , a , 8 a a 8 8 q g g g g g 8 a a g g g a a g 8 g 6 6 g 8 s . X + , & $ @ = $ 6 _ Z S 8 l @ % g a a f a % 8 6 g q h a + < & 8 8 8 , , , a a g q q q 8 a < & 8 8 % , , % % a q g g g 8 8 % % 8 8 8 8 8 8 8 8 a a a a a a a a < , , 8 8 q q q q q q 8 8 8 8 8 q 8 % + + + 8 q 8 8 % > , a g q 8 8 8 6 6 6 8 a g % # % 8 % 8 % < O & # # h 8 8 a O , O % g 8 h & & 8 w g N w 8 # # $ $ 7 7 w 8 + > % % 8 8 8 8 % % , , , % 8 a 8 8 6 8 8 8 % + % % 8 8 8 8 8 8 a + d a , d , % , % % % , , % % % % % + > > + % % 8 6 8 , , % + % % O O @ @ + + % 8 a 8 + O @ @ ",
"+ O % % % % % % + + @ + & , 8 % % % % % % % 8 8 8 % 6 6 % % 6 6 % + + + % % % % % + O O + + + + % % + + O O % % O + % % O O % % % 6 6 6 % % % % % % + + + % % a g g a % , s % s % 8 8 8 8 % & & 6 8 6 % 8 8 8 w 0 0 0 0 0 8 $ $ 8 % % , , % % a q 0 0 0 q q 6 % 6 q q 8 8 a 8 % # % 6 8 8 8 8 8 0 8 q 8 8 8 6 % % % , a a a a a % g 8 a g 8 g % 8 8 8 g g 8 8 8 % > > > > , , , , + > , , > + + + > , , a d a , , , > > , a a a < @ 2 < 8 % % % % % + O s O g % < < % , , O , + , > > > , , a 8 % , a a a a a a 8 8 8 8 0 q q q a 8 8 8 8 a a a a % s a a g % < . . % % % $ $ = r 6 Z t N 8 3 @ O , + O 2 & % s 8 g % a < O 2 @ % 6 8 % % , a a q q 0 q 8 a < < 6 # % % 8 % 8 g q q g q 8 % % , % 8 8 8 a a a 8 a 8 % 8 a a 8 % % % % a a q q q 0 0 q q 8 8 8 8 q q , > + % 6 8 8 6 % , , a q q 0 8 g g 6 # 6 8 8 % 8 8 a , 8 , + O < # & 9 O O < + 2 + O & # & $ & a 8 8 g 8 % 8 # $ $ $ 7 9 8 + > % % 6 8 8 6 8 % , , % % 8 8 % + + % % % + # # + % % + + % % a O a % O , % , , % + + + + % % 6 6 % + + + + % 8 6 # % % , , , O O O O + + + % 6 8 8 6 6 + O + ",
"@ O O % % , % % O O . @ < , % % % % % % % % % % % % % , a a 8 % % % % % % , , , + + + + + + + O % % % , , % % % + % % % % % % % 8 8 g g 8 8 % % 8 8 8 8 , , a a g I V j a O % , % a g g 8 % & 8 g g g a % 6 8 q N Z Z N 0 6 # & 8 8 8 a , % a g N Z N t q q 8 8 g N N g 8 8 8 8 % 8 8 8 q q N V N g q 8 8 a a a % % , a a a g g g V a g g g U K K g 8 a g q q g a , , , , , , , , , , , a a a a % % % 8 a h g a a & % % a g N g % + % , a a a a % < % % f % C 8 & s % a a % s , , + + , a g g 8 % % , a g g a 8 g q g N S S N q a a a a a a a a % + s , , s % % + , a g q 8 & & 8 0 ] Z ) q & o % a , % 2 & O & a k 8 a , O 2 + % a g a a , a g N S D V g 8 % & 9 6 6 8 8 8 a N N S S g 6 % , , a 8 8 % % % % 8 a a 8 8 8 8 8 % , , , a a q g S S Z N q q 8 8 g N g , > > % 8 q q q % % , g Z Z V g q 8 8 6 8 g % % % % , a a s > . < # 9 l $ % % + , > + s # 9 O + % , j Y P d a < @ @ $ & 8 % + + + & 9 w w 8 8 8 , , a 8 8 6 + O + % % % % + O + % % + + + % , O d d d v , O a , % % % a & 8 6 6 8 , , , % % 8 9 8 8 8 % , , % + + + # # % 6 8 g N N q 6 # O ",
"+ O O + , , , > . . . > > < , , % % % % , < , , O + , f f f s % % % a f f f s , + + , , , , + O % , f k f f , % % , f k f s % % 8 h E W C a % % % a s h s a , a I XX|.@Xx.+ d a a k L C g 6 & 8 h C C k a % 8 g w.u.u.+.N 6 6 a g g g a a a g U u.3.&.D q 8 h W e.e.#.j 8 8 g h h h h q 0 N @.*.k.#.C g 8 a s f s < % % a g C C L U g g j ..U. X X#.8 6 g N N B B g 8 8 8 a a a a a a g q B A B w 9 7 0 y A B w w 9 6 w B _ _ S 8 % 8 a N S V N a a a a C g S g 8 w 6 g N g h 8 8 % 8 h D _ ( t a , a k R L j a q N U e.z.i.) q a a h k k s a , , + < % + , O , a j I X.} S q 0 N 4.!.G.H.} a < a j k d s % O 8 8 j g j d + , > g C L L g a a g #.i.k.*.C 8 + % h w g g 8 8 g D *.i.*.D 8 % , f s s a % % % 8 a h h s a a a a a f , a a 8 g | i.l.2._ N q q h D D S a , % , g V D N 8 % a I u.K.k.D 8 6 8 g h h 8 % + + % a d d , + % % w F h k a + , , a k 8 h s a d P b.eXeX#Xd > + @ % , , , > + + 9 z F F w 9 % % a h k h 9 + + + > < < < < O + % < < & & % , d r. X4X4Xr., , a s k k f a % 6 9 s f f s , + 6 w F F h a , % % % % & & & % 6 g U *.&.D q % % ",
"+ . O + , d , , + . . @ > < , , , + + , s d , + + + < M M m f s + % f x m x f , % , , f f < , O % a k E E k s % % s E ^ E k a % a C $.e.! k 8 + % a k k s % % %  .pXlXMX4X, k O j U #.U h 6 6 8 C R ! R a , g V c.R.R.s.S 8 8 g k k g a a a S &.W.W.U.%.q q E k.`.R.i.V 8 8 g C U U C q 0 N 3.U.OXK.@.g 8 8 g k C k a % a j U #.| @.g 8 V s.6XlXaXE.g % g C D C C g 6 8 a g k k g g 8 8 q B A J z w 7 0 B [ [ H B w w y [ %.2.%.g a 8 g I | U K g g g g #.D &.D q h 8 g C N C 8 8 6 8 C %.2.` Z g a j T r.&.D g 0 V u.R.OXR.%.q 8 s k E E k s % , , k f f k % % g S O.t.,.} N q u Y.2X1X2X<.q g 8 V L L C a 8 g g U U U V , , % L #.$.! j a g N z.W.W.z.W 8 % a k h h h a 8 N | `.`.T.&.g % , f G G k g 8 8 a k C C h g 8 8 a f f , , a 8 N e.`.`.K.&.N q g D @.%._ g % % a C _ @.D a 8 j w./.5X5Xk.g 6 g C C k h s 8 % a k C L b , a 8 g H C E f , d , a C g g , > , 9.wXZXAXcXn 1 > + , d d , , + % s F J F h 8 % % s k G F h % + , , f f s < + % & s s s < % O j  XnXIXnXc.O % a k E E k a # 6 9 x E E f , + % h H Q G g , % % & < s < & % 6 V e.W.U.*.h 8 8 ",
"% O O + a f f s O O + < s s , % + @ + , a a a % < % < x ^ ~ x , % & s m ^ ^ s + % & s f f s & % + a x ^ ^ x a + + s E Q E h 8 % a K r.e.! j % + , s k f s % + a Y kXcXMX6X6 9 # V q.K q.N g g g C E ! L d , g V z.W.W.k.V 6 % a 1 , a a a 8 S i.U.W.T.| 8 8 j c.Y.).z.C 8 g V } } S N 8 6 t 4.).F.oXS g C # V V S N a % 8 g } O.O._ S N t p.jXjXxXI.q % a g V S k < % , a a d f k a % a g k C G z w % a k E E L h 8 % 8 H =.#.U j a 8 a C L L C a 8 8 h W $.W C 8 % % s k k s 8 8 8 a E $.$.D g a % V O.y.,._ 0 A 6 u.>XF.6X' 0 8 a f E ^ k s % 8 a f f f f a 8 q S &.u.&.D N t Z !.2X2X>X<.0 N N V V W N 0 V 0 A D | U V g a a C #.r.#.K g g N i.`.OXU.U 8 8 a f k k k 8 6 N +.F.XXE.+.q % < f h C C h 6 % 8 B B B A B 8 6 a k k d a 8 8 N i. X XU.*.N 8 N W @.5.o.N 8 8 g D %.' N 8 6 g u.:X8X5Xl.N 6 q B H G G g 8 q g D D L f , + 8 h C E L f , + , a a g h , 1 + n tXGXGXcXP d > > 1 f d , , > , d k b f s , , % f C j E a + % a f k f f a + % 8 s f s 9 6 g g {.mXbXFXg.8 g # L g j T + a % a k E b k a % % h W ~ E g % O % < < < a % 8 8 g e.W.W.e.g # # ",
"% + + % < s a < O + + % < < % O @ @ O % a g a % % % < l m E k % % % s f m x s + % % a s s a 8 % + < f x x k a % % s G E G h 8 8 a V T #.R j a % % s f f s < + , q.rXpXaX4Xh r 8 K q.q.q.h 6 # + C C L f a % a g v.U.U.k.D 8 a s 1 > , a 8 8 V %.[.W.W.| g g d r././.x.C a a g S } I C s 6 N 4.!.(..XD 8 8 % D | V N s & a C +.p.2.| q 8 q p.jXzXjXA.j s s s V V d , , , , , , d d , % a s s k k s & % , d b b f f a a h E #.#.T a a % a h k k h a 8 8 g G W E k % % , , s f s , 8 8 a k E E k a < , I >.>.,.[ w 9 q p.>X^.OX_ 6 a a k k b f a % 8 8 h h h s 8 8 8 N W W E V g g N F.>X,X,Xp.N S g j U E C g N 0 B B D C j g a a V U ! U j a g g s.T.W.l.D 8 % % < < s s a 8 N } /.oX/.w.g % < < h C k s % % 8 h C B B w 8 % < s f s a 8 8 g ..z.U.z.&.N q V @.| o.) g a % a B D =.D h g j w.~.'.W.*.N q g C G G h g 8 8 g N V C s < % % g k C k d , + , < a 8 s O , , P eXZXZXnXd , + + < s a , , > , , f f 2 , , O % k C L L g % % a s h h a a % % 8 s s 9 & 8 6 g +XmXbXmXh.% 6 % W ! ! 0., + % a f k k k a , a k L E L k , % + > < < , % % 8 h $.x.x.W g 8 8 ",
"% % % % % % % % + + + % % % % O @ O O 8 g g a 8 % % % 2 s f a % + % % a f s % + + % % < a % % + + % a s s a % + % a h k g 8 8 a a g j C j a a % % % < s s < % % g q.h.h.R O @ O O + d < & @ + , s h k s % % 8 8 B D D N q % % , , > , a 8 6 q S S | | q 6 a 8 V S S a O + % 8 j 8 a & * O % A o.` | k s < < % # a 8 @ o o O g V g f & 9 a N O.,.d.V + @ o + a a a , , , , , , a a % % a s a a a & & + % , d d d % % % 6 g N N j a % % a a s s a a 8 8 a h k h g % % % , , , a a 8 8 8 a h h a , . . a V Z N h + < a h D S U h s a a a a s s a 8 8 8 a a 8 8 8 8 % a d f d , , a 8 I  . .+.N # a % + s s 8 9 # # 9 9 s s < < , % g h V j g a a g S @.&.D N 8 % % < 2 2 2 & + 8 g V U U g % % 2 2 s a , , + > , a h h g 8 + + > > < , % 8 8 a N U | | S q 8 g N N N g , > > > a g 8 % % + + j | ) U g % + % % % % < , , , , a a a , % % % 8 a a a a , % , a 8 8 8 & < , d q.h.h.r.a & $ $ & & a a + + % < < < & % s O & 8 8 g 6 # % % % , a a % % + % & 8 8 8 % % s + P h.9.g.j < & $ % + + , + & % , a s a a , % % , s s s a a % O + + % % % 8 8 a j L C g % % % ",
"O + % + O O O O + + O + % % + O O O + 8 a 8 8 % % % % + + % % % + + % % % % % + + % % % % % % + % % % % % % % % + % 8 8 6 % % 8 % 8 8 a 8 8 % % + + + % & & # + 6 # a , + > @ 2 , O f O = = > > % 8 a 8 % % % 8 6 6 0 0 8 8 a , , + % , a 6 8 q 6 q N 6 8 j 8 g N N % @ @ @ O % % < = 5 @ & g t N 8 s @ o < a 8 a a @ 5 X . + % + &   * & % N Z N 6 & 3 @ @ g g , % % , a % % % a % % a a a % % + # % % , , , a a a 8 q q g N g % % % , a 8 8 8 8 8 8 8 8 a a a % % , % % % % , 8 8 % % 8 8 8 % : . s h w w s < + < 8 8 N 8 , , a , % % % a 8 8 8 8 8 % 8 % 8 , % , , > > > > , a d a % a % + s , + < O < c & l & $ $ + @ @ @ % 8 q a a a a a g 8 0 q 0 8 8 a , , % % % % O O + a g g 8 + + @ . < , + + > > > + % % % % + > ; . % % % 8 8 8 q g q g g 8 6 8 8 % 8 , > ; ; ; + + % + > > + a N q a , , , , > > > + > > > > > > , + % % % 6 6 6 + % % % , 8 6 6 8 @ @ + % , % % 8 % & = = $ # 6 8 # $ & & $ @ $ # # O s 8 # h h g % + O % % % % + + + % % % % % % &   + > o 1 O @ - @ O , , O @ O + % % % O + % % % % + + % % % % O O + + O + % 8 % % % % % + + O ",
"O O + + + O O O % + + + % % % O O + 8 8 q q 8 % 8 % % O + O + % + + % % % % % + + % % % % % % + % + + + + + + % + + % % % % % 8 % % % % % % % % % + + + + % + % B 8 g , + , > > , + ,   & @ > . % 8 8 8 % % 8 8 q q q 0 8 % % % % % % a 8 8 6 8 a g g 8 g N 6 N N N 8 O @ @ O % % @ 5 5 = s q 0 q % & O   & g g 8 % O X X @ % % + < o @ s % t N q 8 s 3 @ + g 8 8 + + 8 a a % 8 a % % a a , % % & & % % % a a a g g q q q N N g 8 % % , 8 8 8 % 8 8 8 8 8 8 8 8 % % , % % % % , 8 8 % % % 8 8 % 2 X s B w w a , > , % 8 g 8 , , a a % % % a , % , % % % % % % , , > > > > > > > , a a j j d % , , , +   , a + s % $ & & + + @ % 8 8 8 % , , a a g q q q 8 8 % a % 8 8 8 & & 8 8 8 a a 8 8 < & & % % + > > > > % + % % % , > > . % 8 8 8 8 8 8 8 8 8 a 8 8 8 8 % % , ; ; ; ; + + + O > > > a V q 8 % % , < > + > + > > > + + + + + % % % 6 8 8 % % % % , 8 6 8 9 @ o + s a a g h # $ $ $ $ 6 6 6 # $ & & $ # # # # + f 8 # 6 8 % % + O O % % % + O + % % % % % + & @ + , + < * * * $ O , , O $ $ O + + + O O O % % O + + % % 8 % O O + + % + + % % + + + % & + O ",
"O O + % & & & % + + + % & & % % + % a N I I N 8 8 % % + % % % % % % 8 a f s % + + % % < , % % % + % % % % % % % % % a a a a 8 % 8 a s s a a 8 8 % 8 8 % 8 % % 6 N Z I V a , O + a P P b s O < + 8 g g g 8 % 8 g q g q q 6 + + % 8 8 a a 8 8 % % a 8 g 6 8 q 8 | ` X.V % O + < f s % X X + 8 Z X.S I j , + 8 S } O.V %   . @ % + % s @ 2 8 8 S S ) q % # + g ) S V 8 % 8 g h g g k a % a a a , a 9 8 % 8 a g g g g 8 8 q N S S V a % % , a a a 8 8 8 8 a a a a a % % % , , , , , 8 8 8 a a a a % @ O g D _ D h + , , j Y  .q.v , a a a a s s a % , a s s s a < , , , , > > > > , a a a a a % O O % T K L L % + 8 a s f f s & % % a a a , , , a a N g g g g 8 < a S } } V 8 8 a a 6 8 q q 8 8 a f g h g a % % a k j C V a , , 1 > a a a 8 8 8 a 8 a a a a a a a a g a > ; ; > & 8 # # O + O g ) S N a + + + % % < < < + + + , , , + & % % 8 N C g a % + % a g w h < . + a , 8 8 # 8 $ $ w z C V N 6 & & # & & & % % s a L I K I O % + + + % % % % O + % s s s a + & + O O O & $ = w 6 a j j g 7 r + + , , , % % , % , a a a a 8 % O + % < % % + + a % % & & & # O ",
"+ + + < s k f f + + % < a s < % % % g ..z.c.#.g 8 % % < < s < % % 8 g k E k s % % % a s s , % % % % , s s < % + % a s k k f 8 % 8 f x E k f 8 8 8 s k k h 8 % 8 ( C.A.d.*.N 8 N {.dXpXsXz.# f # B D G k a % 8 g C H H C g , s f h h h a 8 % % , k a g g g N D `.2X0X.XI 8 % g V ! E x s a N C.<X,X6X+.8 8 N (.gXrXXX..a , s N N V g + + # } >X>X(.>.q q S 4.H.G.i.C 8 6 g C C L C g % % a a a f 9 8 % 8 k L L C C g N S i.K.F.d.g a % a s k h a 8 8 8 a h k h a % % % , s s s , % 8 a h k k g a s a } D.H.F.*.g % j {.kXkXcXy.% a a k L L k s % , a f k k f s , a g g f s s 8 8 C g N N g 8 h g N @X@XuXOXV N N N V U U j a a a g g s a , % % a g g g h a % < C D.H.F.>.N 8 q g *.w.&.} N 0 q N %.=.[ V 0 0 C #.k.l.&.Z q g j g h k h 8 % 8 a a g a % % % a k C D V a , > < h B A y 8 8 g | P.L.l.=.g q g h G G k a 6 % 8 a g f % < 6 6 N @.*.$.C a + % h C H C 2 . > d a j C 8 8 6 8 C r.d.d.w.a % % , a d a a O d a n.sXsXpXq., + + > < < , % % % a k E L g % O , a g G h 7 6 0 N F.+X@XE.u 6 + > 2 < < , < & & s x x k s 8 % + % < s < % + O % % < < & O O O ",
"% + % s x E m x + % % a f f a % % % g i.OXOXz.V 8 % % 2 s s s % 8 8 g E Q ^ f % % , s f s s , % % , s f f s % + % a f k k h % # % f ^ ^ x s 8 % 8 f E Q G a 6 6 ] (.).R.l.t 6 N }.DXDXFXR.6 B 8 H W ~ G a % 8 g W =.=.G a O + < C G C g 8 % , < k , a g 8 0 H 5XjXVX,X} 6 8 V | #.U C h 8 N H.zXjXlXd.V V } 2XVXNX2Xu.a % g V S S V j V q ,.>X;XqXD.t 0 Z t.$X%XR.=.q 8 h E ~ $.E h 8 % a a d k 9 8 % 8 k ! ! ! h 0 0 S z.`..XE.V a % a k k k h 8 8 8 g C C C h , % % s f k s , % 8 s k E E k a % 8 O.H.;X-Xa.N 8 j +XHXDXHX|.g a g L ! ~ E k % , s f m m f s a q N B k k h 8 6 0 0 A @.B w 9 6 N pXlXMXiXS V q S } w.&.I g g g h h k s , + % % h h C C g % & C H.;X-XC.S g N S ..+.+.} N q N ' 4.M.5.S q q | l.].].K.] t N V C C G k 8 # 8 a s k s % % % a x W @.U h , % a F [ { A q 8 q 2._._.[.*.t 6 q N D H G h 8 6 8 h B k % & % 6 C k.x.x.E a + 8 C H [ W d ; > 1 a j C 8 8 % % L d.E.F.g.g , % a d j d d , v , @XAXAXnXq., + > < < < < , % , s L ~ ! k a % g a a h 0 w y N S +XrXrX,X( 0 # + < f f < % % % f E ^ x s 6 + + < s f s % + O % & s s & + + + ",
"+ + + s x ^ m k % % % a f k s % + # C c.OXOXz.N 8 % < < s < a a % a k E ^ E h 8 % a f k k f a , , < s f f s a % % a h k k f % + & x Q ~ ~ x 8 6 8 k Q Q F h 8 q ` A..X/.3.y 0 N {.HXSXLXI.q w 8 W =.~ E g % 8 g W =.=.G g , , s C H G h % O + < f s a g q 6 =.5XzXVX2XI N 6 V +.} *.C % 8 N J.VXjXzXs.V N S 3XNXNXjX+.6 8 8 N S S U a 8 g >.;X2X2XS.t 6 ) A.$X%X`.*.q 8 h W $.$.E k 8 8 a k k h s 8 % a C ! $.#.C q 6 Z z.oX.XI.j a % a k G k k a 8 a g C C C h % , , s f f f s 8 8 s k E E k a # 8 X.H.;X-Xa.q g N eXDXDXHX|.a a g C W ! E g 8 a a L L b b % 8 g B C J F f 8 8 q V S V B w 7 w I iXmXvXiXS V g S ..w.w.I N g g h k k f , , % % f k B k s 8 < g H.;X-XC.S 8 8 C e.w.u.S q 0 q [ K.M.5.( t t Z l.].].K.( 0 q N V W G k a 8 8 s f f s < % % , k W &.@.k , % a J { [ i 0 8 t 2._._.'.*.t q q B H D D g 8 w w 8 w k s % % 6 D j.x.x.E k , 8 k W =.W d > > , d j h g g % % K s.|.F.d.a , % a d v d d , d % @XFXAXnX9., + < s f f < % O % a b ! E k , a a g j g g w 0 t S +XrXrX,X( t 8 < < s s < & + < f E ^ G h % O % k h s s % O % + s s c < + + + ",
"+ + + & s x f s % % % < s s < % a % j e.I.U.i.N 8 % < 2 < < , , % a f k x k a % + % a a a a % % % , < s s < % % % , s f f a % % % h k k G a # % 8 h F F h 8 6 8 [ i.I.x.=.B g N {.bXkXcXi.g 8 6 C C G k a % 8 8 C D H C a % , < h B B g % + % < s s < a 8 6 H W.rXjXOXI j % g V I W k a h S C.2X2X6Xw.g a S XXjXrX,X..a f a V S N V 8 8 N &./.-X(.p.N 0 D 4.G.G.a.H q 8 g C C E C g 8 8 a s s a 9 8 % 8 j L L L j g q D i.U.E.c.g a % , s k h s a 8 a a h h h g , , , a s s s a % 8 a h k k g 8 s g X.J.H.G.3.N a j @XmXvXnXg.% a a k L E k a 8 8 8 k k j k % 8 q g h f f s 8 8 8 g N g B w # 8 } @XaXaX,XI g 6 N K W U C g a a g g a s < , % % s h h h a & & g S.(.!.i.V 8 % s ~ W ! C g g g H 5.5.5.Z N N V k.z.K.3.S t g V C C k s 8 % % a s s s a , % a k C D V a % + % h A [ B g a g %.L.L.U.@.g g q V D C h g 8 8 8 8 8 s % % % 6 B @.*.$.C a % % g C H G , > + % a g g 8 h 8 a L i.A.A.u.a % % , a d a a % a , |.aXaXaXh.% O % , s < , % O % a k L k a % , , , a a a 9 8 q j {.+X,XXXZ q % % < s s < % + % a k x k s % + # a a 8 a + O O + & < s & + + O ",
"+ + + % & < % % + + % % % % % % + O % g V S N # 8 % % % % % % % % % a a s a 8 + 8 8 a a a 8 8 8 % % % , , % % % % % % , a % % % 6 a 8 8 g a % 8 6 8 8 8 8 6 6 8 9 w a a < + # # % Y I T 6 $ % , 8 g g a % % 8 8 w g g q 8 % + , 8 q g a 8 % % , % a , a 8 6 w @.S } C O O O h g h 8 + @ + % N } S I k , , a I I I U %   @ O 8 g 6 8   * # g S S S N % O & g ( ) D g 8 8 a g g g g a 8 8 8 a a 8 8 8 6 8 a a a a % 6 8 q N N S V a % % % 8 a a 8 a 8 8 a a a a a a , % , , a a a % 8 a a a a 8 % % + q ( ( ) V % ,   j Y j 0.1 > , 8 a g h g a 8 a 8 j g g g 6 a a , < 2 2 > > , % a a a s a # a g K  .K K 8 j k a a f f s < % % a a 8 % , , , % 8 8 8 8 8 8 % 8 N Z N h & % 2 < < % s + O $   & N t N 6 % a + j j j g 8 8 + % % a 8 8 % % % & & < , % % 8 8 a a g g , > > > 8 8 8 % O + O g S Z C 8 % % % 8 a 8 , , , + + + + + O % % 8 g N N g a , % % 8 g h g & + # & 9 9 9 7 # # # 8 N Z ( Z 6 + & & & & & , % a 8 L T T Y % , % % % , , a a + + % a a a , + + + + + + + $ $ f O v d j V # h % % % a a % % % + % a a a % % % # 8 8 6 a % O + # % % % % % + O ",
"% % + + + + O O O + + + + + + % & O % 8 8 g g % % % + O + % + % % % % , , % % + a a 8 6 8 8 8 8 + + + % % % % + + + + + % % % 8 6 a 6 % 8 8 6 a % % % % % % 6 9 = * O O + + # + + % % # O & % , % 6 % % % % % 8 8 8 8 6 6 % % % 6 8 8 8 8 , , , + a a % 8 8 6 q 8 % % @ o @ f 6 g 6 @ = @ O 6 6 g # % . o > , a O %   @ = O w q w s * = & + q 6 q 6 $ = $ & q t q 6 8 8 8 6 6 8 8 8 8 8 8 8 8 8 6 6 6 % % % % % 8 8 a 8 8 6 8 8 a % % % % % % % 8 8 8 8 8 8 8 8 a % % % , , a , 8 8 8 8 8 % 8 % 2 + 0 t 0 q g , f . , , O d > 1 , 8 8 8 8 a 8 8 g 6 g 8 8 g 6 a % + > > > > > > , a a a a , + < g # g + % + % O % + @ @ & & @ + 8 8 6 % % , % % 8 6 8 8 6 8 % 8 q q 8 a % O O + < O < O + 3 * $ 8 0 g % , , O a , % 8 a a , , , % 8 % % % % + + + + + % % 6 % 6 8 8 , > > > & % 8 + > > + , g 8 a % , a 8 a a , + , > + . > . . O % % % 8 8 8 % a % % % 8 8 0 6 # @ $ $ 7 7 7 7 9 9 8 8 0 0 0 0 6 $ $ $ $ $ # # # O 8 % # 6 8 % a 8 8 8 8 % a a % % % % % % % % @ . . . . + @ * @   > > > ,   + % % % % 6 % % % + % % % + + + 8 6 q 8 6 q 8 + & # + + O % % + O ",
"% % % + + + O O O O + + + + % % % O % a 8 8 g 8 % % + O O + + % % % % , , , % + a 8 6 6 8 8 q 6 % + % % % + % % O O O + % % % 8 % a 8 6 a 8 % 8 8 6 % % % % 8 & = * + > > @ @ & k a C 6 7 & O + % 8 % % % % % 6 8 8 0 8 6 % % , % 8 8 8 8 a a , % f a + 8 a 6 % k a 2 3 * & g q q 8 & & * % g g N 8 s @ o 2 , , , s @ 3 3 $ B q w s * = & # N q q 8 @ 5 X & q q 8 8 8 a 8 % 8 a 8 8 8 8 8 8 8 8 6 6 % % , , , , + % & 8 a a g a a , , , 8 8 % % 8 8 8 8 8 8 8 8 a % % % , , a , 8 a 8 8 8 % 8 , < % w A t y h % + o < % < < . o , 8 8 8 8 a a 8 g 8 g q 0 N 6 q 8 % > + > > > , % j g a a % + , N 8 C 8 g % < O & + @ @ @ & & # q q 8 , , , % % 8 8 8 8 8 8 % 8 g g g a , + % , % % a + + l = l g N N % , , O , a , 8 a < % > , % 8 % % % % % % % + % 6 8 8 q g N g % > > > % % 8 % > > > a N q a % a a a a j a , , + + + > > . + < , % 6 8 8 % , % % % 8 8 w 8 $ $ $ 7 7 7 7 9 9 8 8 q q t u i # O $ $ $ @ # $ & O s 6 # h g h 8 6 6 8 8 a 8 + 8 % % % % % % % @ @ . + > > @ X = * > > > >   + # 6 6 8 8 6 6 % 8 8 8 % + + % 8 8 q 0 8 q 6 # % # + + + % % + O ",
"% + % % < < % % O O + % % & & &     + a a g g % % % % + % % % % % % , , a a % % 8 a h C H D N 8 % > , , , , , % % % % % % % % % 8 N U L U g 6 8 8 a a a 8 & & & O O > > . o - $ 8 g U B w 7 O + a a a , % % % 8 g g N g 8 8 % , a a a a 8 8 a a a k s % 8 a % a % % o @ o s V o.) | C & O % V | S I k 2 X . O O , % * @ $ 8 o.] @.H # & # # V Z V 8 o o @ 9 N N j a % , a a a k a 8 8 8 a g g g 8 8 % % , a a , O O O O & < , % a , , a a a a 8 8 8 8 a h k g a a , % , a a a a 8 8 8 8 a a a a % + N o.5.%.D + x < a % k f l < , a a a g g g q g g | | | | N N 8 a a s < , , a g U ....| N 8 g N S | N C 6 k x & < s s < & & 8 g N j a , , % % a h h g q 8 a g S S S S g 8 j Y q.w.d.V % 6 # f _ o.| g a a O a k g g 8 % # % , s a a , % % < < 8 a a 8 q g S o.%._ g , , , g B g 8 % + + j | ) U g g g q V U K L a + % , < < < < < % % 8 g h a a , + , f k B h 8 & 8 9 w h h h % % 6 g D [ 6.[ 6 % % % & & % % s + a 8 8 h 8 # 8 q g C E U h 8 8 8 % a a a , % $ $ % , 1 , + @ = * o   . O + % 8 g C H D C a 6 8 a a a a % % % q S S D D g % % % & & & % % % + ",
"% + + & f f f < + + + & s f s % @ @ < E W ! E s + % % % < , , % + > , d d d a % 8 h W k.x.*.D 8 % + < , < < % + % % a s s a % % g ..i.k.e.U 8 8 8 g k x s & % % a d d d & $ 7 w w.F.F.Y.=.y 8 8 a f s < % O + 8 F H H B g 8 & a b b b j a 8 a g j C k 8 % % , f j W < s % N ( D.G.).a.N q V +.F.^./.V O + O f L j a % s q _ !.H./.l.A N N N o.o.&.D s & c E o.+.U d % , a s k k g a 8 8 g C C C h a % % a d f 2 s < & & < s < , a % % a h k s a 8 8 8 g G W G h , , , a s s s a % % 8 a g h a a g N >.H.;X-Xl.y # 8 N N ..j s O & a g k C h g q N D l.U.P.l.( t N N B h h g g q Z u.Y.!.L.o.Z Z ) Y././.T.N q # g h C C h 8 q g V D L b d , % % f C G C g 8 a N E.^.^.C.} t S y.rXrXrXD.S N N &.L.!.L.o.V V g W @.=.@.B w h F F C k a , % % < s s h g 8 q V *.K.Q.M.) g 8 N [ { %.D g a g +.L.L.I.&.S Z ) a.U.K.a.S 8 8 g a a f < < % + a C C k s , + , f E W G a a 6 8 C C L K j a d I d.U.P.l.a , > , , 1 , , + O , k C W W g q g S *.x.x.@.h 6 % % s k k s & 7 w g j v j a 6 O $ l x m f , O q D *.x.x.=.N 6 8 a k k d a % 8 N o.i.k.e.C 6 % % & s s < % % % ",
"O O O , k G k a + + + < f k f < @   < m ! ! L % O O % 2 < < < & O + a k j j a 8 # h *.U.W.x.D 6 % % < , , < % + % , s f f a % % a ..I.T.z.U 8 + a j E E k < % % a d d a 9 7 e 0 O.F.J.H.} 0 6 8 a s f < % O % a H @.@.D g 6 & s E R R j a % a h C E C a % O % f 8 U % & 6 N ] %XG.-Xp.q q V +./.F.oXV a x O a a K g 8 h 6 Z !.H.).a.N q N N >.>.X.S a % s C X.O.T j % % s k j k k s % 6 h L U W k s % % s f f f + @ @ @ & < s s a % % a k k h a a 8 8 k W $.E k % , , s f k f a % + % a k k g 8 8 q X.H.2X>XK.0 8 g V N +.N h 8 % a h C G C g 8 8 S P.].].P.Z 0 g N C D C B q 0 t u.).:X~.o.t q Z /.!.Y.T.t V N g C W E g 8 8 g S | #.W k % % % k H @.H g 8 g S F.H.H.D.` t ) J.gXjXjXJ.Z t N i._.'.~.o.t g q W D =.@.y 6 w F C E k a , % % a f s g g 8 8 V k.W.&XL._ q 8 N [ %.%.A q % 8 o.Y.~.T.%.t 0 t 4.T.I.T.| 6 q N 8 8 f < > O + g C L k d , O % k Q ~ ~ a a a g V U T K d , , K d.R.E.i.d , > , d d d , + , , b b L ! g 8 q D k.W.W.e.C % % 8 h x x s % 9 w N K K K g 8 8 9 # % , , s 8 6 C j.[.v.*.g O % a k k f s % % g *.U.U.x.E 6 # % s s s < % % % ",
"+ O O % k C k 8 s O & # & k k s & # , b 0.0.m & $ + O + < < & * @ O C S | N C # # h *.[.].P.[ 8 % % , s , , % % , < s s a < % % , w.L.Y.T...+ , a V C j j 1 + % s 8 k k w B w 0 <.F.XXF.+.g 6 8 d < c + s O a 8 @.| | C g % & < L ! R a , % % g G C G g % & + d N N h & s g Z (.H..Xu.q q N o. XE.I.$.a % % a j a a 8 6 w _ A..X^.A.N 8 j N  .O.q.j + . % D 2.>.q.j h % h a L d x & - 9 g V T K k s 8 8 f k c c < @ X @ < s a a a , % a g k k g 8 8 a k W ! W C a , % , f k s 8 a 8 8 a k k f a 8 g ..R.6X5Xi.q 6 8 g j C V g 8 , , h C G C s 8 8 V ].'.'.W.8 8 + s C C k a # # % x.`.oX`.#.# % D l.OXOXk.V 8 8 8 j E L g , , a U @.=.[ z & $ & H [ [ D g 8 w N ^.(..XC.S t S p.lXzXlXF.t N g e.`.`.U.o.q 8 N E $.E C g 6 8 g k m b d , % , a j g g 8 6 8 C x.W.].l.U a % a H =.=.D a + a ..L.].W.*.g 6 N *.U.W.c.| q 8 g a s f < % + 8 g C C L k a % < x ^ ~ W d , , a C T T L j , 8 I g.XX^.d.1 > . + x # x % + + > d R ! C g 8 8 V j.W.W.j.h 6 8 g h k h a 8 % a a f b k s % , % f a s k % % 8 C j.v.v.j.h # % a f x k s % % 8 *.v.v.j.C % % % s f f < % % % ",
". . O % a h h 8 & O # & % , 8 # # # , d v v s # * O O + , < @ X = O g N Z t j % O & D &.4.%.N # % % , , , , % % % % < < & % + + + I ,.<.4.V . > % g g a 1 > + , % % s 8 O # 8 N ) O.u.+.S a % % , % s O s O a 8 S S S N a & & 2 d b d , , % + a C g C 8 % % . , N N 9 O & 8 g d.y.t.} 8 8 a C i.q.q.C 6 % % % a d s 9 6 w B o.y.y.w.a % a a V V K a > > < C _ ) V % w $ h % d , & & $ 7 g j j a a & + % 8 f s s @ . X @ 2 a a a a , % a a s g a 8 8 8 g C L j a , , % , s s a 8 8 8 8 a h k a % a a g #.i.i.U g 8 % a s g h g 8 % % 8 w h h & + % g 4.4.B.3.# O O < g j g & @ @ O W u.u.w.V O + g @.k.k.W g 8 8 8 g k k a % % , g V A A w $ @ + y u Z g 8 % w u p.<.a.| g 8 0 | E.I.R.} 8 g a W w.u.&.S q 8 g k C k s a % a a a d d , % % % % a g a 8 % % a G $.3.@.k + + , g C C h a + a D 5.a.*.C 8 6 g U $.w.w.N 8 8 a , , s < % + 8 g g g g g % + % s k C k , + + , j V C j a % % j ..r.q.Y , > < s l $ & O % + > 1 f k k 8 % % g E j.r.C a 8 8 8 a g a 8 % % , , s s s & % % + , % % % + + % g E ~ ~ G 8 O + & s s < & % % 8 E $.$.~ h % % + % s < % + O O ",
". . . + % % % + @   @ < + , a % 8 8 a , , , % % $ $ O % % O O * X . d g N a a . . + a g g g a % % % % % % % % + + + % % % + + O + , Z ( N a ; ; + s 8 % 2 . . > > , , 2 + O + % 8 g g a 8 % @ O a a , O , O % 6 q g q q 8 % % % a g a % a , % a g 0 N q 8 s O , g 6 < @ @ 2 8 V N g a % O O O 8 g V g # 6 % % , , , & 9 9 q g N g g O @ & & h g j , @ X @ 9 B N N 6 9 $ 8 a v d % 9 7 $ 8 8 8 g 8 % 6 8 q g 8 8 + O O + < % 8 a % % % % % , a a % % 8 a a a a % , , , , a a a a 6 6 % 8 a a % % % 8 8 8 q g g a 8 % , , a a 8 8 , % 8 0 w 8 & % % g Z u ( N # % O % a g a 8 # O + g S S N g % < 8 g N g g q 8 8 6 8 a a % % % , a a q q & + @ + g t q a , > % 8 V q N g 8 a % g j g N a % % + a g N N q q q 8 8 a 8 8 % , a a , a , % % % , % % a a a 8 8 8 a g N N % + + > 8 8 q a , % % g Z Z g 8 6 8 g g g g N 8 % 8 a , % % O + % 8 q g g g a % # + 8 a 8 % @ . + % % 8 & & O O % < a g N j + o O O & l & # < + + + < & 9 8 % % 8 a g a 8 + 8 % % % 8 8 8 % % % % % & # & # # , % a s + & $ % 6 8 a a 8 + # + + % + O O O & % g g 8 g 8 % % + + % % + O O O ",
"o o . . O + O O @ . o + O + j 8 9 9 8 , , % % % # # % % % + # O X o , a a a > o : : , , % % > > % % % % % % % + + + + + + + + O + O 0 i 6 % : . O 9 8 # @ X . > > > o . > > +   % % # # + @ * * % 8 a + + + % % 6 6 6 6 6 % + % 8 a % % a a % a q 6 q 0 8 g + a % O < 3 X 2 + % g 8 % < 2 @ < % % g 8 # 8 8 % , % + # $ 9 8 8 8 % % + & * # g 6 g + @ @ * $ q q N 9 r 7 # , d , % % 7 $ 9 9 6 w 8 8 8 q q g q 8 8 + + & & % % a % % % % % % % a % % 8 8 8 8 % % % , , , % % 8 a 6 6 8 8 8 8 % % % % 8 8 6 8 6 8 a % % % a 8 8 8 , , 8 0 w w 8 , % N 0 i u 0 8 < + + 8 q q 8 & # 8 8 t u t g g a 8 8 6 6 8 a a 8 8 8 8 8 % % % , , a q 8 , > > > 8 q q a > > % 6 q # # # & s + a + % # a a O @ + 8 q q q 8 g 8 # % % % % , , 8 % , , % , a a 8 % 8 8 8 8 8 8 8 8 0 8 % > > > 8 6 6 8 , > , a q 0 6 % 8 8 a 8 8 % 8 % % a a % O O O % 8 8 8 g g a a % + + % % % + @ X @ + + O # O O O $ # # # 8 8 < @ % O O s % a % + + + + $ # 8 8 % % % % + + + % % + + % % % % 8 % % + # # # $ & a + , % O & & % % + + + + + % O + + O O O O % % 8 # # 6 % # 8 + + O O O O O O ",
"X o . O O + + + + +   , a q S 6 0 6 % a a a 8 # & 8 a a % % % # @ . + g 8 a , . . : > , , + . . + % % , , % % + + % % % % % % % + % t u 0 6 + o - 6 w 9 & @ @ , > n > > > . . + + % & & $ * 5 * 6 N j a + % % a 8 8 8 8 8 8 % % 8 a % % a % % g N t Z q 8 8 % g g 6 s @ o > a j V g , + . > f a a j g % 9 a , , > + # & 9 8 a a a a & & O # A t N 6 # 3 & 9 t t q 9 7 r % d n 1 d + 8 9 k k # 7 8 8 8 q N S Z N g 8 % % , % % a % % & & % % % a % % 8 8 8 a a , % , , , , % 8 a 6 8 8 a a a , , + % a g g a 8 % , , % , a a 8 8 , % 8 q w w & % % N t ( ) t % + & 8 q g g g 8 & q q ( ` ( N g % 8 a a a g a 8 8 a a a a 8 8 8 a a a q q % + > > 8 t N g , , a g N q g 8 + & O s 8 a 8 g s + < s a N N g 8 8 8 % a % % % % % a a 8 % % % 8 8 8 8 8 8 8 8 8 8 8 q q q , > > , a 8 6 a , > , a q 0 6 % 8 a a a 8 a a % % % , % % % & s a 8 q g g g h 8 + % a a 8 a O o O + 8 8 8 8 9 & & & 9 q q 8 O 2 f a a a , , + + @ @ @ $ # % a , % % % , % % % + % % & % + # # % 8 a a 8 # $ 8 8 , d d % % & % % % 8 % % % % O + & < & # + + # 8 8 6 8 % # 8 % + + + + + O O ",
"@ @ O % % , , , O % + $.x.a.S.] 0 6 8 j K K g % 8 8 a a a a 8 & O , I A.A.g.E + . @ , d d , + . + % s f f s % + % % < a < < % % , C 5.5.6.D % + 8 H 7.=.J s # a v #X#X#Xc.> . + + s c l & $ = 9 +.F.g.r.a % + & k C C j g a a a C C k s a % a U *.&.3.Z q q 8 I u.+.W < . , T E.|.E.r.,   + a j K K g # & & % , 1 , & $ & 8 j j j g 8 w 6 H ~.L.L._ 8 8 9 D 4.a.&.G # 8 j b.wXwX|.j a 8 a G h G h 8 8 N X.u.t.u.S g 8 % a a a a & & & < < < a a a % 8 a s g s s % , , < s s a a 8 8 a g h h s , + + % a h h a % % , , , d s a 8 , a N A H B s % % V o.4.a.@., + & a g N N N 8 8 g D <.V.1.} g % 8 a k k g a 8 % a g k k g a 8 a j V S Z g , , a o.,.u...j , 8 N u.&.e.U 8 % % C $.$.&.U a % % k h C C g 8 8 a s s s < % % % a k k k f a 8 8 s k k h a 8 6 8 h C C j , > ; > a a a a < > > a N N g a % % 8 a a s s a % % , , < < & < a 8 V ..&.$.C a + % h k V C & O % g W =.*.=.w 8 8 h =.3.2.@.# O , P @X@X#X0.> > @ < & & % % , % % , s s , % + + % a s < % + % 8 j Y T L h 6 6 j g.#X+Xc.h # + % a a a a % + O & s f s < + O # g k h h 8 # % % % & & & % O O ",
"$ $ # 9 h C h g # 8 8 U.5X8X2XC.e 7 g K T T C 9 8 & a a k k s 8 # N p.7X7X7Xe.+ # & g C V C a O % , k m m f , + % , s f s < % + a w.Q._.Q.o.a a S l.~.T.3.V 6 g q.hXmXmXuXn + % a g C B w 7 7 q ^.,X6X XC a O & x E W C g 8 a g E W E k s % g *.U.U.U.o.t g V i.(.H.d.N 8 g y.iXzXxX@XL a j V ..T T h # # & % 1 d d < & $ 8 d K I N g g t 4.8X2XqXD.t 6 N 2.!.-XE.#.# 8 Y uXCXAXcXP a a a U U e.C g 8 Z u.F.^.E.} g % % s s s s < % % & s s s a 8 % % a k k k s % % , s k k g a 8 8 a h k k f < + + + < h h a , % , 1 f b f g a , s H =.=.J s , a V K.T.W.x.a > % f C D V g 8 9 w i.Y.(.H.O.8 a a d k k k a 8 % g C W W k a 8 q S | 5.o.S g g N L._.).A.I 8 0 Z Y.Y./.u.N 8 q +.R.E./.O.N N 8 V C L C a % % a s s s s , % 8 k E Q ^ G h 8 8 x ^ Q E k a 6 8 C W W C , . . > a g h s > . + s C G k s % % % a s f k s % + , s s < % % 8 g | c.W.U.! g # % k C L W k q q S a.U.U.K.N q q _ K.].!.A.g , , g.GXGXGX#X1 > > 2 < < , , % % , a s s < % O % % < a < & + 6 g 9.f.b.h.D 6 8 K tXbXCXpXK % + % a f f a % O + s x x x s % + + h C k k a # % % < s s < % O % ",
"7 # # w C D C h 6 q 6 K.8X8X0XM.6 $ a b R R k 9 & & % s f f s 8 # t <.2X7X7Xl.6 & & q V D C s + + a k ^ E k < + % , s s f < + + + u._.%X_.o.6 g t p._.~.a.S q N y.hXNXmXuXj % a g C C C N 0 0 t F.2X6XOXC a + c x ^ W C a % a k L ~ E k % O a e.U.U.[.o.q q S I.H.H.A.V g q y.lXjXvXOXg # 8 V ....! k # & & , d d d s & $ < j Y  .S g q 0 4.0X1X0XV.Z N S p.H.H.{.9.O a 9.pXbXCXnXv a j j q.I U L a 6 N y.E.XX/.| g + + s s s < & # + % s s s < a % + a k x k s % % , s k k h a 8 8 8 k E E k , + + < s f f s & + , 1 f m k g a % a H =.=.J s % a N T.~.`.U.% + % f C U C g 9 & 8 k./.)./.+.# & a d f k d a a a g L ~ ~ C g 8 q S o.5.:.A q g N Z._.&XL.S 8 q _ Y.H..Xp.S 0 q +.^.F..XX.t S q U W W C s % < & & < s f a % 8 k W ~ ~ G a # # f Q ^ E k 8 # 6 C ! $.E < . . > s h h s + . . , F G x f < % < a s s f a % + & s s < s < % 6 U z.E.c.$.g # % k E E #.C q 0 S C./.!.A.( t t _ K./.G.p.% a d f.ZXbXGX#X1 > > 2 2 , , , O % , s d s , , % % % % a < < % # g q.b.{.g.U # g j tXbXbXpXK 8 % % a a s a % + & s x m x s & + % k k k G s + % % a s s < + O % ",
"$ $ # 8 h C C j 8 6 N z.6XqX*XM.7 * O ^ 0.! ^ & $ O s k d f s & 6 Z Z.2XzX7Xi.# & 8 h D D C a O % a k m m k a % O % a s s a & % a y.!.%XL.O.g a N 4.~.T.i.V 0 N y.kXBXFX6Xa % + k g D N q N 6 t .X3X,X X#.8 O & ^ ^ W C a 8 % a C =.~ k + O k $.v.W.U.&.t 0 S p.H.;XK.V 8 8 p.zXzXlXOXS 6 g ) o...! G 9 $ & s d d d + & & % j j Y I 8 q Z 4.;X0X2XS.Z 6 V d.H.}.{.P # g Y uXAXFXnXK 8 8 a q.Y T k a % g u.R.oXE.| g # & s c < & & & & & s s s s % % 8 s k x k f % + % s k k g a g 8 8 g k E k < < + < s h k f % O > 1 f b f a 8 , s H =.=.J s % % I K.~.`.x.d , % < C W C F l O z *.T..XI.@.s O , d f f a % % % k E ~ W C g 8 q D | 6.6.A g a g K.).~.`.q g 6 D Y.XX/.d.S g V } E.^.F.t.S q N D W W E k % O + < s & a s % % k E =.W E g # 8 G ^ ^ E k a 6 a C W @.W , > > O g g g a < > 2 < x G x s % + < s s s < & % % % a s s s % # a ..z.U.W.$.g # + k E W U g 8 8 S p././.A.Z q q S s.R.!.s.a s   #XZXDXAX#X, > + @ < < , , % , , , s s , , O O % < s < < % # g q.g.{.g.C 6 8 j pXCXZXpXj 8 % % s f f s % O + s x ^ G s & O + s x E x s % + & s f s < # + % ",
"@ @ # % a a a % , O % V 2.Z.<.( 9 * O , d , < & $ O % < , , s & # 8 Z 1.D.p.C O # # a g g g % O % , s f f s , % + % < < < % & % , K :.<.:.V % , 6 D %.%.U a % g S J.g.g.#.# & 8 8 # g 0 q N 6 N X.>.u...h % O # s h g g 8 + % , h B k a % O a C @.#.@.S q 0 N | ;.<.| w 6 # S F.F.E.&.8 # 8 N V j j a # # % a a a d # & % # j j j j + 6 q Z 4.V.V.X.8 % a K O.O.q.j 6 g a h.b.g.c.6 8 g g Y v d < % + 8 S &.&.| C a % & s a & & & % + % & a s a + % % 8 a a a % % + % , s f a 8 8 8 8 a k k s , + O & f g g 8 O % , , 1 d d a 8 % , g B F k a % % g o.:.2.| % , < & a g q 8 r $ & C o.2.| N +   + , a d , , % % a g C k g 8 6 8 a h A A g % % 8 ) :.o.*.% a 6 N | +.+.S g 6 g N ..+.X.S N 8 q g g k h a % + % s < % % % # 6 h C N g g 8 # % f f s s 8 8 6 8 g C g k + > + O g q N g % . . + s f f < % % & < < % & % + + % & 8 < < % % 8 N U #.#.C a + % a g h j , % 6 q S o.| S N q q g D | I N # s O 9.b.f.b.9., + @ @ & & & % % + , , < , , % O O + % < < % + 6 8 V Y q.T B 7 h + h.f.f.h.# w + + % % % % + O O % s s s & # O + % f f s & % + + & s s & + + + ",
"o o . + > , > > > + . O % a q 6 $ * , , , , O s & O + % O % s & + + 8 q g g % + . . O + % + . . + % % % % % % % % % % % + % & < . , t t N a . ; O 6 6 # & +   % 8 g # # & @ @ $ & $ 8 6 6 s # 8 N Z N g 8 % + + % 8 8 8 % % , a 6 6 % % % , % % 8 q 0 0 0 q q g t t 8 $ = $ 6 q 8 g % O @ $ 8 8 % 8 8 # 8 8 a , a g % 9 9 6 g a , , O @ & # N t 0 8 % @ @ , a g a a 6 r # g a a q 6 p r 6 8 g % O + < % 8 g q 8 8 % % 8 8 8 a g % % + % % % 8 8 8 8 8 8 8 8 8 % % + O % a a a 8 8 6 8 8 a a , % % O 8 g 8 q q # % % + % , a 8 8 , % 6 8 9 8 % % a g Z t u N + , % % 8 q q 6 $ * & 6 q N g 8 @ o O % , , , , % % % % 8 8 8 6 6 % + % 8 8 % + > , N N g j > > 2 % 8 8 % % + % & a 8 8 8 8 8 % + + % % 8 % + + % < % % 8 8 6 q g g q q q q 8 8 8 % % % % 8 8 8 8 q 6 8 O > , % N q t q < > @ + 8 s % % % % % + O O % + O + % % 8 % + # % 8 8 8 8 8 8 % + % % + % % O . + + 8 g g a 6 8 & & % % % % - r 8 a % O a a % + * * = = $ $ % + O % % % % + + + + + % % + # 7 6 6 8 8 8 r 7 r O % % % a O 7 & % % O + + + % % % % % # # # % + + + + + + + O + + # # + O O O ",
"o o . . > > > + > > > > > + + + O O , > , ,   8 & # % 8 + % s & @ > a q 8 8 + . X o . O O + . . + % % % % % % % + % % % + + + % . , 0 0 0 % o : O # O - @ X o + % 8 a # & = - & $ # 8 8 % # O % N N q 8 8 8 % % % 8 8 8 % , , < 8 6 # % , , % O % % 6 8 q 8 6 6 t 6 O = 5 = $ # # % O @ 3 = O % 8 a 8 9 8 8 a a 6 g 8 w w 8 g 6 % ,   @ = # g 8 6 % @ X X . % a % g 7 r 6 q % a 6 w p r 6 # 8 8 O + < a 8 8 8 6 % % % 8 8 q N g 8 + % % % % 6 8 a a g a a 8 8 8 % + O % , a 8 8 6 6 8 8 8 8 % % a 6 8 q 0 q N 8 a , % % % % 8 8 , , % 6 6 6 % % a g Z i u N + a + 6 q 0 N 6 O O & 6 8 0 q 8 @ X + % % , , , % % % % 8 8 8 8 8 , + + 8 8 + > > , g q g a ; ; 2 O % % O @ @ @ @ + % % % % & & @ @ % % % % + + % % + a g 8 g g 0 8 q q 8 q h a 8 8 % % 8 a a 8 8 8 8 a O , , % N t 0 0 a , < % & 6 + % % % % O O O % + + + % 8 8 % O # % 8 6 6 6 % % + + % + O # + o X @ + % 8 a a # # @ @ @ + % & * $ r 8 8 8 8 a & $ = = = = $ # % + O O % % % O % + O O + + + O $ $ # % # # $ $ $ 9 % % 8 6 7 $ & % % % % % % % % % % + # # % 8 + O O O O + + + + + + O + + O O ",
"o o . > , a , + O + @ > 2 > > + & % % 1 P P a 6 # # 8 j j g g # o . , g j g + o X X + , a , + . % % , a a , % % O % < < < % + O . s A ] B % o : + s 9 9 3 @ o @ % a s % & $ O l 6 h B C s # # & q g q 8 % + 6 8 a g g a % O O + a 8 8 % > + + + a 8 8 8 8 8 % 8 N q & 5 o X < a h g # @ 3 @ # a a a 8 6 6 8 g V N V 0 q q q S N N k O @ = & k a a < X o o @ a g % h 7 r w U K I S q # r F 9 8 8 % + % % a a a a h a 6 q S X.` ) g % % 8 8 8 8 g 8 8 8 a g g g a , + % % a a a 8 6 8 8 a a a , 8 g 8 q A A Z A q 8 a , , a a 8 % , > 8 8 9 8 % % 8 N ` ` ` ) 6 a g N } Z | 8 % 9 % 8 N N g % @ X , , , , a a % % a a a 8 8 8 a , > , a a , > > , N S } V > ; < O < < 2 @ @ X X @ & s 8 & # + @ @ a a , % % % , a % k g 6 q g q S S S g 6 a a % a % % % 8 6 8 q g V V + + % 6 Z ( ( N 8 % + + 6 6 % % % % O O % < & % % % 8 8 8 8 & + O % a g g 8 8 + O % & & % & X X @ + 8 h h g 8 # + @ @ & % # O - & & w B 6 # & & $ $ = r 7 7 % % + + % % % % & % + + # & + # O $ 9 9 7 $ $ $ $ w % 8 a & r - O + + % % % O O O # % % # # # % + O O + % % + O # + + # & # O O ",
"o . O d ! *.#.U 6 + O + 2 < 2 % % 8 v |.uXuX XN 8 8 V ..w.&.W 9 @ @ a S ..U s o X @ s C C N 8 O % , s f f s , % O % s f s < + + % W l.B.3.C + > % C H F x 2   % a U E E E g 8 q @.z.U.z.W 6 % % h C C h % % 8 g V U U j , O + + h h s , + . + > < s s 8 % % s k N D x = o X s C U L a O & & g U V j g 9 8 q U d.d.u.Z t t Z 2.d.d.*.w & & 8 C N L d . o X < g N g h $ 7 V  XwXeX@XI 6 w B h k x f , % , s k k k k 8 8 S C.-X=XH.S 8 % a g g g h 8 8 q g C C C j , , % , s s a a 8 8 8 a h s a 8 q q D 3.l.a.%.q 8 a a d d s a % > > a g h s % % a S p.D.S.u.g a g  .^.F.OX| a 8 8 N } } S a @ X < a a a a a % % a a s s a 8 8 , d j D S g , a j F..XOXE.d , a a a d f < @ @ @ % s k h a 8 # & l a a a , % a s k C W g 6 q N o.`.XX Xw.g a a % a a < 8 8 8 g D @.&.@.a , a N 3.Z.K.%.g O O % h h a a % % % % < < < & % % 8 g g g < @ O + a j j g s + O + < s s s + + % g W e.i.*.N 8 # & f x x f + O & 9 h F h h & & < s s h w w % % % % < < & % & % % & & & & + + & 8 & 9 & & & # < 8 s s s 7 O O % < , s , + O # % s s s 8 6 % + % < < < & + + % & < s & & # O ",
"O O 6 D K.~.T.K.u w 7 9 7 9 9 8 # g Y aXFXFXnXI g t } s.I.I.3.N $ & B %.u.&.F & * 7 A _ ' _ y 6 % , f k k f , % % < f f f a % % g u._.%XQ.o.a a g ) ' _ C a % a V d.d.c.d.V N t D.>X,X>Xu.0 0 8 E W ~ E h 8 8 g U #.#.L a + X < k C k s + . . > < s s 8 + # s G S ,.E & @ % g ..O.O.V 8 a g S +.T L C h 8 N w.R.XXI.] t u ] L.^.(.S.Z q q N | } } j , + < h Z Z V j 6 8 K tXSXSXbXq.g 8 8 C C ^ k s , a k C G E s 8 8 } (.gXgX0X} a % g C k h C g 8 g V W #.W C , % % < f k g a 8 8 8 g k k s 8 q t o.P.].].3.N 8 a s k k k g 8 > > , h f s , % a } L._.).A.N g q t.7XiXlXp.g 6 g S O.,.} j @ X , a d d a a % , a s k k s , % a V | 2.:.S N N S 1XzXzX7XI g 0 N N V C k , % a g C U D V g 8 a f a a a a % 8 g C W $.C q N N i.sXaXlX|.N g j a s f f s 8 8 h @.k.k.e.j a g S L._.'.a.V + % s z C g a % % , < < < s & % % 8 g N k 3 @ O + a k k h s # @ + & < s f 8 8 g S p.^./.Y.Z t 0 q D #.@.U , , , f G J Q E % , 1 d j V V h % % % , s s a % + + % 8 9 9 & % % , , s s s , , % , j b E k % O % , s f f s & + % s x x z s 8 % + % s s < % O O % s c c s # # O ",
"& + 8 _ K.T.P.5.i 0 w 9 9 7 9 6 8 8 j sXMXMXMXN 0 8 S d.E.U.*.q O $ B @.3.%.h # $ 9 A [ %._ B 8 % , s f f s , % % s s f s s & 8 g 2.Q.%XQ.o.8 % g S _ D C a 8 g g g.d.g...6 S Z <.:X,X>Xp.6 q q h k E x h 8 8 g C W ! L , . . < x C k s > + @ 2 2 s s & + + < x } u.C O < a g ..} +.I 8 8 g S } U L k 9 # 8 w. XE.z.A q t Z A.!.(.D.N 0 8 g +. ...V % O + g Z ) g g 8 g K tXCXbXpXP j a 8 #.G k k , % a j k k m f 8 6 S H.0XgX2X| 8 # a C C k C 8 % 8 h W $.W j % + % , f k f a 8 6 8 h x x f % 6 8 _ P.].].3.g 8 a s k k k h a > > s f k s < , 8 I K.~.~.s.g a N d.iX,XsX+.g g g V | O.U k @   + , f k s , , , % f m m f a a a V | 5.%.Z g g S ).jXzX7XV g 6 N N V j d , % a g D D S N g 8 6 % s d s a + % a C E $.C g N q &.sXsXlXR.% % g g k h f s + O 8 W k.x.e.g % a V K.~.T.3.g O % s h q h , % % < s < < s & % % 8 g k k < @ % % s k k k < # + + % % 8 f 8 8 q S ,.S.Y.A.) t q N D @.| S + >   s ^ G E a + , 1 d v K V h + O % < s s < & O O # & s & & + + + , k k f , + 1 + d f f f O , + + < < < & + O + s f x z s & # + < s s % O O + % s x x s # O O ",
".   O k j.x.k.=.6 8 $ # % % a s a % a 4XUXUX6Xg 8 8 C e.v.v.=.h + # f E $.~ f % O & f G G C s % + % s f f < % O + % < s s s & % a W x.v.k.D a , % f x x f < + + b ! j.r.R g 8 a x.W.4XW.7.g 8 h h x ^ x 8 + 8 f C E L s % + > % k h x & o @ . 2 < < s < % & < < E L k s % , k L U L k a % a j L L W s @ o % r.x.c.v.x # s C z.T.K.3.8 + % a U I L x 3 = 3 s N S C 8 h a U 4XnXMXfX! O % k k k x s % % 8 g k k f f a 8 U U.6X7X,Xk < % , d k k f s # + < m Q G h % + < < < < s s O % < s x x s < < % H x.[.[.7.a O + < s f h & % > , , a a , , , , L j.v.v.j.k % a d.4XsX4Xj.k + a C E E E f @ @ + , a s s a < + < , 2 2 , , , 8 G H H J k a a a 4XuXsX X0., % a f d 1 , > > , s G C B g 8 % % < s f s % + + s F $.W C a # 8 j.4XaX6Xv.x & & w C a s 2 @ @ < E $.k.~ s O + x j.v.v.~ < X @ $ w B f 2 + + + & s l x & O O & s s < < O O + O , f , < % O % a f a & & O # h *.z.z.k.g 8 6 w G W @.G & . @ < M M f f , + < < c x 9 & &   & s + s s O @ * @ @ & & & + @ + + 8 g h < > . @ < c z s + . O + 2 3 3 @ @ O O 8 f 6 z s & O # % < < < + + + + > < < 2 + O   ",
"@ . O , k C g % O + + @ O % % a O + O x ~ ^ ^ % % % 8 s x x s % + O + < f f % O + % a s s a % + O + < < < < O O O + & & & & % % # g G E F a + O + < < 2 2 @ @ + + , d f a % + % # s G F 8 # # % s s f s % + + % % s s % O + , % g a f O * @ o @ + % % % % + @ 2 < a , % + % , s f s , % % , a g g g O X X @ C C j j O   O % N ) | H & @ @ O k g 8 &   o @ % 8 N a # 8 # 8 ~ $.E $.s % a % % a s s & % 8 a a s < % O O % N | X.S % + + % a a a < + @ @ & c x h a % + % % & < < a % % % < s s & + .   w [ { [ h O + @ < s 8 8 & % , , , , , , , , % a f b k k a % % j L R d , % % 8 h h h f s O < % , , a a % & < > > 2 , , , 8 8 g g h 9 9 + + % , b 0.b , O O % d , , > + O + % h w w 9 6 + % < % < < & % & 8 s % 6 g k a % a U ....a - - O # 8 g a 2 @ X @ h C V a + o * & k C E f o o X $ 0 q % + + O + # & & & # # + & & < < , O % , + < f > , + + % , a a & < @ + 8 h C h a 8 + # & s h g 8 = @ = 2 , , > , O O # $ & & & & *   & s 8 a & O * X X X @ @ # O . @ 8 w N g % . o X & 9 9 & + . + + @ @ @ X @ @ + 8 h % f & @ O # % % % + O + + O @ @ @ + @ O O ",
"@ @ O O % % + + O O O O O O % % + < O O O   % % < % + O O O # + % + O O O + + + % % % % + O O O O + % % + O O O O O + % % % + + 6 6 # 6 6 6 % O + + O O O O + + O O O O % , , % + % 8 8 8 8 8 8 8 6 % % 8 a % O + % + + O % , % q 6 8 # + s + O O + + + % % + + O + % % % % % % O O % % % % % 8 6 8 O @ & O 8 6 8 8 a % s h q N q N % & % O a q q 8 & = < s g g g a k 8 % a # # O % h a O + s % & % % 8 8 , % % % < a 8 q t t q % % % a 8 8 8 8 + # & & & 8 8 8 % % % % % % % , % % + + + % + O , , N u i i g 8 > > % % 6 8 8 % , , % % % % % a a % % # # % % a a a a , , , a g q q 6 6 6 % + a % a 8 8 % % & < + + > , % % 6 8 6 8 8 6 6 % % % O , , , , , s a 8 8 8 % % % 8 8 6 6 8 6 + O + > % % % & 8 & % % # + % 8 a % % % 8 g % * & r w q q 8 % @ @ + 8 8 8 8 + @ @ + 6 6 a % . X @ & 0 q + O % % + + + + O % 8 8 % # % % % O % < % , , + + + + % % % % % + + % % 6 6 % + % + O O % % 6 # O @ % + + O , , % % % % # # 6 8 + + % % 8 6 % O O O o o @ O + O O O 8 q t 0 % . . . O & % + + + % % O @ @ @ @ O % 8 a O a # + + O # % + O O O O   O O O O O + & ",
". O O % % 8 8 8 # O O O O O % O O O O % s s < O % % % % % + + % % + + O O + + + % % + O O O O O + + + O O O O O O O + % % + + + 6 6 # # 6 6 6 % % + O O O + + + , % + % % a a , s a 8 8 8 8 6 6 8 8 6 8 a a , + , > % + % % % 8 0 0 g 6 % s + % 8 % 8 8 % % % + + % % % % % % % O % % % % % % % a a O 2 < % g q q q g # 8 g 0 N q q # % < % g q 8 6 & + + , g % 8 % g 6 % 8 % C 8 8 a % + a s O O % & , % % % % O + & 8 q t Z N 8 % 8 g g g q 8 % % & & 6 6 8 8 a % % % % a , 8 , % % + % % % % , % t u i i q 8 , , % 8 0 q 8 % 8 % % % % 8 8 8 8 8 8 8 8 8 8 8 8 8 8 a a a 8 6 0 t q 0 0 6 # 8 8 a a a 6 6 % 8 + % % % % % 8 8 q g g q 8 8 8 % a a a , , 8 8 8 0 t t q 8 a g g # 6 6 6 + O + > % % % % 8 % % # s 8 % # % a s a 8 g % O @ & 8 q q 8 O O + & 8 q g a % + # % q g 8 % > 2 @ 8 t t 8 % 8 % % % % % + 8 a 8 8 8 8 8 8 O + , % + , + + + % + % + % & O O % % 8 a a a % % % + % % 6 6 + & , , d , d , a g 8 q q 8 q 8 a g 6 8 g q g 6 % O O O O + + + O + 8 q 0 0 6 + + O + 6 6 6 % + % % + O O O O O % 8 8 O q # % 8 # # + + O O O O O O + + + + % & ",
"@ O O % g h a % + O O + + % % % + O + + O + + % O O O < s s % + O O % a a & + O + % % % % % + O % % % % % % % % + % % < 8 % + % 6 8 g g 8 6 6 % 8 8 % 8 & % + O % % & % % % + + % a a a 8 % 8 8 V S D N a % % + > > + + + + % q ) } +.N 6 8 # a j g g g a a % % a a , % % % % , s s a % % % % a g g O > % 8  .t.y.>.N # # g ) >.O.} % + % % V N g 8 % O + P f.q.T 8 8 8 a s % h G % # + % a s O O + < , , % , , O + + % g S ) Z g % 8 g I | S g a 8 % 8 a g g q a a a , a a a a % % 8 a a a a % % 6 Z -.-.' S 8 , , a g N N 8 % 8 8 a s s a 8 8 6 8 h C C h g 8 q g g g a 8 q q t _ ' ' @.N 8 8 8 g N N g 8 8 8 & & 8 & 8 % 8 8 N S S N g 8 6 8 a a a a 8 6 8 y ` -.-.( t q 8 8 6 8 8 & % + @ > , , % % % & & % % & 8 % 6 a s a g N %   * & q N V g + O % < g g g a + O # 6 N V g a < @ O 8 Z ) S g q 8 % , a s a a 8 8 N ) | _ C % + % + + , < + , , , % % % < + + % % a a a , % + + < < s g g O O O , r.P 9.% a g 8 N | S S q # # # S } S V # 8 % % + % % 8 % O % N ) ] S g , + % 8 w g g , % % % % % % + + + % g I V | a % % + % & & + + + % + % < a 8 8 6 # ",
"@   O a E ! E f # O + + 2 < , , < + < + < < < < O O O % s s < + O + s x m x a + O % % a a < % % % < < < , < % % % & s f f a % % 6 g G E k 8 6 % 8 a h f s 8 % O + % s a % + # + f k E G h a a j *.i.x.*.C % + > > > < < % % g C Y.F.R.&.g 8 6 V U U V N a 8 a a k k f a % % s k E k f a % % a k k j + + + g F.2X2X,X+.g g U T.>XoXI.g % , s U S @.V s , d |.dXcXxXe.8 a k W G k k % % s a a s s + + + , , a s s s s & s H *.3.&.g 8 8 V u.I.i.&.g 8 % 8 h V N g a a a a d j a a % % a s k h s a a g ) Z.Q.T.*.a , , g V D C a % % 8 h k k h 8 6 8 g C D U C g q q V E W L V N N N 5.P.K.l.| q 8 q N D D h a 8 % 8 9 s 9 9 & 8 a I +.&.@.C q 8 8 g k j j g 8 h _ Q.*X%XM.Z q 8 % a f s < % + + > d a , , % % a s s s s 8 % % a V I T f & < s N | | V a + + , g N g a % O & 8 N S V j < O # C &.4.&.D g 6 8 s f f f a 8 0 S a.L.K.$.h % % % < f f , , % , , < a s < + + % a a a % + O @ 2 s k C C k k L d.aXfXaX|.g N 0 o.z.i.a.S N V +.@XiX6XOXI a % % , a a a 8 O a %.Z.L.a.K , + , h B B g a % % 8 a a < < % % 8 T E.R. XT a + % & s s & % % % % a f f f 8 6 # ",
"@   O s ~ j.$.E + O + @ < s s , . o + + < M + O < % % < s f s & % < f ^ ^ ^ s % + % < s s < % % % , , s f , % + % < h k k f % + 8 k E Q G h 8 % 8 a k k s & + # % & s s s % + O f x E k a + % 8 i.P.W.x.U , , , , , < s 8 8 k @.>X>XOXi.N a 8 L W U U N 8 % a f x E k s % % f E ^ E k a % % s k k f > > , K oXzXkXiXO.g g V OX6X7X XC % < k #.@.@.h % O d @XZXFXLXj.# % % E $.E k a a h a a f s 2 @ + % a s s s & O O 8 W k.l.3.V 8 8 I z. XE.x.g 8 % 8 g C N g a , , a j f d a % % , s f f s a 8 8 ) K.].W.$.% % a g D [ D s % % 9 s f f h 8 6 8 h C E W C V g # g E ! W k 8 6 N 3.W.].P.@.g q g C E E k a % % 9 s h h s & & % #.i.z.k.H w 8 8 g s g g a % 6 A 1XqX8XL.) q 8 , s s s & % + + , d d a a % % < s x s 9 8 # # h W I T f @ @ & g S +.U d > + , g N j g & # & s V S I C < O & W i.K.l.@.q 6 8 f f f d a 8 8 _ L.'.'.x.k + % % , f f , % + % < s s s + + + , a d s , + @ . 2 c m E L O O , r.nXnXMX#Xg V q u.R.I.I.} 8 6 } sXlXsX6Xg 8 % , a s a a a O g &.P.].K.U % + , f F C h , % % 8 a s < < % % g e.4X6X4Xr.j % % & s s < % + O % < f f h 8 % % ",
"2 O O s ! j.~ E + O @ @ < f s , . o < < < f O < O + < s s s < % % & s x ^ E s O % % < < < & % + O + s f f , % O % a k x x h a + % s x E k s % + + a f k s % + + & & 9 s a & O O k m E k a % , a 2.K.U.x.L , + , > , , < % # w @.>XOXOX&.g 6 6 C W W U j % + s x f k k s + + s m E x f a % % s k f f > > > j XXlXzXlXI q 8 g 5X6X6XR.k O O s @.@.*.C s > n @XZXFXUX$.8 h % C $.G G a % + + s k < < 2 O + a s s a s & & s ~ k.k.*.g % 6 S i.R.E.x.g 8 % 8 a g h g % % , a f f f < < % < < s s a a a a | P.].W.e., % % g D H H f % & 9 s s s s 8 % % a C W W C g 8 h k L E k k a 8 N 3.W.].U.| a 8 N D W E k , % & 8 s f f s & + % ! i.x.j.J 8 # % s s s k a % 8 A &X1X5XK.N 6 % , s , < % O O % , a d d a % % < s s & 8 f s % 8 E U R <   X & C #...U f > + + a j C s % * O 8 V ) S j %   & E 3.a.l.=.q # a f f 2 , < % 6 D K.&XOXx.h # + % a s < , + O % , f f s + + , , a , , < 2 @ X < x E E C , , d x.MXMXMX X8 N 0 *.U.s.K.S j % I sXxXxXsXa % % , , f s a , % a @.K.T.z.L + + + s z k h , + % % & 2 2 + % , % r.4X4X4XT a % % < s s < > O O < < f f s a % % ",
". . + s C E G k + O O + % < , , O O O + < < < , . O % < < < % O O + < s k s < % O + % a a < % O O % , < a % + O + % s f h a % + O , f k f , O O O % < < < < + O & & s & & + O O f f f s , , % 8 &.3.i.#.C , > > + > , , % 6 w N z.A.i.@.a + % f k k k s 8 % & & s h h a + % a k E k h a % 8 a s < < 2 @ > j s.,X2XXXU 8 # h z.`.U.e.s O & s W D D h O   4 n.uXuXuXj.8 8 a g k G h 8 % % % % s s 3 2 O O a a g a 8 % % s G =.@.W f a a C &.i.i.e.6 % % & & & a a % + + , , < < > O + + O < f % % % a D 3.x.j.E , % % B B B C % 2 < # s s s f % a % a s k k d a , s f f f f d a 8 N | i.z.&.I j a g h k k f , , % % 8 k s + + . 2 C $.j.~ z & & $ s s s , , , , g L.!.I.e.j + > , 2 , < < < & % + a a a , % % < < & s s & # 6 h C j b < X * * 8 U I C < . X @ + s a , * o * & g N V C O @ & f *.2.*.D 6 # % 2 2 2 > > % 8 D 3.P.P.@.k % + % a < , + + % % , a a s + + < < a a < & * * @ 3 c ^ C j , + 1 0.4XfX4Xc.8 8 g D *.e...S # % U U.6X4Xc.j + % < < % % % + , , D 3.3.&.L + . @ & s s < + . O O @ @ @ @ + O + R c.W.c.! d + O > > > < > . . + > 2 f , % O O ",
". . O % a a 8 % + O @ @ + % % % O . . + + > > + + O O % % % + O + % % < a < % O O + % % % % % + + % % % % % + + + + % 8 a 8 % % % , , , , , + O O + > < + + + + + % & % % + + % % < a , , % % % N Z N g 8 % O O > , , % % # 6 0 N V g a + O % & & a % % + O @ @ & a a 8 % + 8 a a a a 8 % % 8 a < > X X . O N O.N N 8 g s 8 N q V j O     O 8 0 N 8 + o o 1 P v L % O % % % a a a % % 8 a % & < 2 > > , a a 8 a 6 % % % 8 g g g # O # 6 g N N g 6 % # # # # % % % + + + < 2 @ + O 2 < % a s 8 a % % 8 N C k , + > + h 0 0 h O > % % s s a f + , % , , a a , , , , , < , > , % % 6 q N V N a , % g g s , > > + , , 8 8 8 % < > > % g a a 9 r c & & < % , , , , a t Z N a + . . > > > % % % % % % a a a % + O % & % % % % % 6 6 8 a d + X = @ 6 N N g + . X o O % , % @ * * & q q q g O o * % V t B w 6 + + + : 2 2 2 + + 6 t N t h a % + % , , % % + % % % 8 8 & + + % % % & + + @ @ & # % 8 8 6 , , > , 1 d , O % % % 8 k C g 8 % + # a V C a O O O @ @ O O % % O O 8 N t N % o . . @ & & + . . O O @ X X X X O O % j j a % O   O + O . + + . ; . . > > > + O O ",
". O O O % % % + + + @ O O O O O O O O O + + O O % + O O + + + + % % + + % + O O + + + O + + % % % % O + + + % % + + + % % % 8 % , + O + + , , % + + > + O O + + O + % % + % % % O O % % + + + % 6 8 # % % % % O , , % + + % # 6 8 6 # # O + @ O O + + + O O @ @ + % 8 % % % % % + % % % % % % % + O o X @ O % 8 N N % + + # N N 6 a + < 2 + g q 6 # & 3 > > d , % # a k a 8 a a % % % 8 a % % % O + , a 8 8 8 8 6 8 8 8 % % % 8 & & 8 q q q 0 8 8 % # + + + O O % % + + + @ @ @   + % + % 6 8 8 , % # # % % + > < + 0 0 6 8   + % % a % % a + % % % % % % + + % % % + + + + + % 6 % # % 8 , , % 8 8 , + . . > , a 8 8 6 % , > > 1 j + % + # & * + O + + + + + , 8 8 % + > > 2 > + + % % % % 8 8 8 % % + O O O + % O O # 6 6 6 # 8 , O o = & 6 0 8 a O o X X   + % + @ @ @ # 6 0 q h % < & 8 N 0 8 % % & + . . . . @ O O # 6 6 # % + + O % % % % % + O + % 6 6 % & + O + + + O O O O # # 8 q Z N + + > + . + > , , % + # % % % O < % + + % % + O O O   o   O O % , + 0 t 0 q a + . o * * O @ . . O O o o o o X @ < % + O O O + + O + O o . . . > . . . . . . O + ",
". @ + % % 6 8 8 + + @ @ + + + O + O O O O O O O % + O + + % + + % % + % % % O O + + + % % % % % % % % % % % % % % % % % % % 8 % + % % , , , % % % , > > + O + + + + % % % % % % O O % + + + + % a 8 % % 8 a % % , , % % % % 6 8 g a 8 % + @ @   % % % + + O @ & % % % % % % % % + % 8 % % % % a % + O @ @ & a g g N % & 8 6 Z Z q g O % % + g t A 8 & 3 + + a a a a g a # % a 8 8 % % 8 a % + % O O % 8 g N N q q 8 8 a a a a a # & 6 q N N N q 8 8 + # # # + + % % & % O O @ + % & + 8 8 q N 8 a < 8 8 8 , > ; , + y t N B O O 8 6 g 8 8 g % a % % % % % + + + % % + + + + , , g a 8 8 8 , , % 8 8 % + . . > , 8 N t g a % > > + v , j % O & + + + + > % + + , a a % + . ; . . + % % 6 % % % a 8 8 % + O O O + % O O % 8 8 8 g g j % O & 9 q N g g , . X @ + < % % @ @ * 8 t N t g O O # 6 Z q g 8 % % % O + @ . O + % & 8 w 8 # O O O % % % % % % + % 8 8 q 8 & + O + % a % + + + # # N t ( 0 a + + > , , , + % % + O O % % %   O % a a 8 % % O O . @ O % % % + O 0 t t q a . . o * * $ + . . . O @ X X X X @ O O + + % % O O O , , % > O . + . . . . . . O @ ",
"o   O O % 6 8 a + O + + % < % % % + O + % % % + O O % 8 s s 8 % + + & a s a % O + + & a s < % + + % , s s a % + 8 a a s g a 8 % % g L W C a 8 % % , s s < % + + % a a , % % % % % % , , + + + % , , , % % % % % h a a a 8 % % a g g a % + @ @ < s a a 8 % % # & a a 8 8 8 8 a a h h g 8 % 8 g C S V s @ * + g N 8 g + 8 s N o.;.,.U % O % g ..O.a.A # $ O + j V C a 8 # + g G g s 8 % 8 a % 8 a & + % 8 I u.i.&.N 8 % 8 h k a s % # 6 N | &.+.| q 8 % & < s a a % % % & & % < < a a g @.u.p.p.N 8 % a g s , > + % 8 ' 5.3.*.d , q t | | @.@.g 8 8 8 a a s , % % % & < < , < , % a g h h s , + O 8 8 s , > > , a N %.%.2.D 8 , , h.+X#X@Xr., , < s < s , , % % % % , , > + + + < < a 8 8 % % % , a a 8 % + O O + < % & % 8 8 C #.+.y.L 8 % g ) ,.O.+.k + @ @ & h a a + * # w _ 2.o.| 6 + 6 N ,.>.#.j % + , < s s < < % % % % 8 a % % % + + % , < , % % 8 g B C B & % + % a k k s a 8 8 V I.F.(.<.8 O O + , , + O O O O + + % , , @ + O + % % % % O + @ < s f a 8 O # Z o.o.) j O . @ $ & 9 # + . O O + @ @ @ @ O O 8 h C k a O O % C W W E a O O + > < 2 + @ @ @ ",
". @ O % 8 8 8 % O O + & < < a , + + % % < < % % O O & f f s s % O + < f x f a % O % s f f s % + O % s f k s % + 8 a k G C g 8 # q D j.k.=.C 8 6 8 a h k f < % O a s s s , % % % , < , , , + + + > , , < % + 6 8 C C C h a % % , j C j a O O + s f h g a 6 % % % h g a 8 8 8 g k E G k a % 8 k W &.&.C #   # C U #.W % % 8 S S.)./.s.g % j ..Y.^.!.o.9 9 r G #.#.#.g 6 8 g W ~ C k a % 8 % % a s s % 6 N u.`.OX`.D q # a k k j k h 8 q | K./.T.K.N q 6 8 s h g g 6 8 8 a s s s g 8 q N T.>X-X(.Z 8 % 8 a s s , > a N 4.Q.].T.L a t ( a.U.T.z.S q 8 a g k k s , % % 8 s s s < % % # g C G k a % % 9 w f f 2 , , a ) L.L.~.3.g j d tXHXDXGX#Xd , , f k k f s & % % a f f f < < < s h h h 8 % + > , a g a & + + + % < < s a 8 8 W c.F.F.i.g 8 N ,.G.F.F.! & + & 8 g j g % O 6 A 4.S.!.A.V a g o.Y.F.c.T 8 % a k k m x s % + % % % < , , + + % , < s < % % 8 B H [ H a , % a k L L C % % 8 +.iXjXvX2X6 O % < < , f x O O $ & 2 < , + < @ % a s g a % O + < c G C g 8 % a &.L.Y.K.#., + + & w h 8 + + O + % < < & + O a C #.=.E h 8 8 q @.k.x.j.C + O % < s s < $ O O ",
"@ @ + , a g a % O O + & < s a a O O % < s a % + + % a h k f a 8 + % a f x f s % O % s k k s & + O % s f k s 8 + % a C E G k 8 # N @.k.l.3.D q 6 q g k k h a % + a a s s a % % O < < < < % + O + : 2 1 < & % 8 g B G G k % O + , L L C s % O % s h h N g q 8 6 8 g g g 8 % 8 h G W E k 8 % 8 G *.p.,.D 6 # s E #.D U 8 8 g S D.H.^.a.q 6 g  .F.H.).4.y 7 7 F _ S W a # 6 a k G h k s 8 8 a a a s s a q S a.oX>XOX&.N % a k b f k 8 6 0 ) A./.^.A.N g 8 g g k j g 8 8 8 g h h g q 8 q Z /.2X3X<X( g 8 8 a g d 1 , a N Z._.:X'...g u ` L./.'.U.) t q g h k k g a % 8 8 s f f a % 6 6 h H H G f < % w y k k d , a q ` ~._.&XZ.t C d yXSXSXJX+Xd a a k k G x h 8 6 8 h h f s + # # 6 h B B 8 % O > , f h h 8 % % % > < < < a 6 8 #.U.^.XXd.N 0 Z C.(.H.^.#.% O + 8 g N g 8 % q _ C.!.H.C.N 6 q } S.H.E.q.a 6 g C U W E a + + a s s f , % O O , , , < < % 6 q B H @.W a , % a j L L K a 8 8 O.iXgXVX=XN s 8 a % O O & % $ & & < < , +     + a k h 8 # + + s x E C N g % q o.L.!.A...% % % 8 w w a , + + % % < < % % + % g | @.D g % 6 N &.K.U.x.C 6 % % 8 s s & $ O O ",
".   O % a g a % # O + & < < < % O O % < s s % + % % a h f f a % + % a f f f < % O % s f f s & + + % s f k s 8 % % a k E G k 8 6 A ' 3.k.5.D t 6 q g B k h a % % % a s k a , % O < < < < + O O . : ; 2 2 < & 6 8 h G H h % O + s j N j a % % & s h N N g q q 8 a a g g a % % g C E G h 8 % 8 G *.<.<.D 8 # s C D D D 8 6 q S G.$X!.p.N 8 N } J.G.H.,.u 6 7 J 3.%.@.g 8 a a k E W k a 8 a a a a f 8 g g S 2./.oX`.o.g # 8 k f f k g q t o.S.).^.S.Z N q g h j h g q q q g V N g 8 N N Z H.;X;X<X( g % 8 g k d , + a N M._.&X/.I g Z ] C.L.~.L.] t q q N h h a 8 8 w w h f s a 8 6 w B F G B s % # w y B f s , 8 q ` Q.Q.%XM.q N a yXSXSXJX+Xv a a j k G x h 8 7 9 h h h s 9 8 9 9 w B h 8 + + > , f h h 8 % + % 2 s < % % 6 8 #.U.H.(.t.t 0 ( m.H.H.F...% O % g N g g 8 6 q _ C.H.G.t.N 8 N X.G.H.I.q.g 8 g V U U W g # + a a , , , O O O , 2 , , < % # 8 B H { H a , , a j K K K g a g O.jXgXVX=XN # # a k k , % # O O $ 2 , > + @ @ # & g h g a + + 8 k C D N g 8 g X.S.!.S...% , % 8 w q 8 % % % % % % & & % % 6 N | &.#.C 8 6 t o.K.K.k.D 6 # 6 8 8 9 & $ $ $ "
};
