/* XPM */
static char *_a2c7a3a3dd645b6ab9212d9e4b41306ivyWfrIY4hp6g22r[] = {
/* columns rows colors chars-per-pixel */
"512 512 251 2 ",
"   c #24687F",
".  c #2C687E",
"X  c #316B7F",
"o  c #266B82",
"O  c #2C6D83",
"+  c #346E84",
"@  c #346D88",
"#  c #2C758B",
"$  c #2D798E",
"%  c #297387",
"&  c #367086",
"*  c #34758B",
"=  c #3A748A",
"-  c #357A8D",
";  c #3B7B8E",
":  c #377487",
">  c #2D7990",
",  c #3A7792",
"<  c #367B93",
"1  c #3A7B92",
"2  c #377A95",
"3  c #417B8F",
"4  c #457F94",
"5  c #457993",
"6  c #38808F",
"7  c #3E8292",
"8  c #3C8497",
"9  c #448194",
"0  c #498296",
"q  c #458599",
"w  c #498499",
"e  c #448B9A",
"r  c #498B9C",
"t  c #498F9F",
"y  c #4C95A5",
"u  c #5599AA",
"i  c #4D91A6",
"p  c #4EA4B5",
"a  c #4FA4B9",
"s  c #51A2B6",
"d  c #52A3B8",
"f  c #5BA6B8",
"g  c #58A0AF",
"h  c #64ABBC",
"j  c #64A7B8",
"k  c #67B0BF",
"l  c #5EABC1",
"z  c #5EB6CA",
"x  c #5EBDD3",
"c  c #5DBED9",
"v  c #65ADC4",
"b  c #66A9C0",
"n  c #6BB4C4",
"m  c #67B8CA",
"M  c #74BDCB",
"N  c #7BBDCC",
"B  c #75B8C6",
"V  c #64BED3",
"C  c #6ABED4",
"Z  c #62BFD9",
"A  c #69BFD9",
"S  c #75BED2",
"D  c #5DC2D4",
"F  c #5FC3DA",
"G  c #57C0D5",
"H  c #6DC3CE",
"J  c #67C8CD",
"K  c #74C3CE",
"L  c #7BC3CD",
"P  c #7CC9CE",
"I  c #75C6CC",
"U  c #64C1D5",
"Y  c #6CC4D4",
"T  c #6CC9D5",
"R  c #63C2DA",
"E  c #6CC5DA",
"W  c #6DCBDB",
"Q  c #65CBDA",
"!  c #74C5D4",
"~  c #7BC5D3",
"^  c #73CAD5",
"/  c #7CCAD6",
"(  c #73C6DA",
")  c #7AC6DA",
"_  c #73CBDB",
"`  c #7DCBD9",
"'  c #6CD1DC",
"]  c #7DD1D6",
"[  c #75D2DC",
"{  c #7DD2DD",
"}  c #78D8DD",
"|  c #6DCCE1",
" . c #67C6E1",
".. c #74CDE2",
"X. c #7CCEE2",
"o. c #78CAE6",
"O. c #75D3E3",
"+. c #7ED3E4",
"@. c #7DD9E2",
"#. c #7ED4E8",
"$. c #78D8E7",
"%. c #6ED2E3",
"&. c #83BDCB",
"*. c #81BFD0",
"=. c #83C3CE",
"-. c #87C9CD",
";. c #94C8CE",
":. c #83C5D3",
">. c #8BC6D3",
",. c #83CBD5",
"<. c #8BCCD5",
"1. c #83CDDB",
"2. c #8BCDDB",
"3. c #84C7DA",
"4. c #93CCD5",
"5. c #9BCDD4",
"6. c #93CEDB",
"7. c #9BCEDB",
"8. c #94C6D4",
"9. c #83D1D6",
"0. c #8BD1D6",
"q. c #83D2DE",
"w. c #8BD2DD",
"e. c #8DD9DD",
"r. c #83D9DD",
"t. c #94D3D6",
"y. c #9BD2D6",
"u. c #94D3DD",
"i. c #9AD3DD",
"p. c #93D9DD",
"a. c #9CD9DE",
"s. c #93D8D6",
"d. c #9AD1CE",
"f. c #A3CEDA",
"g. c #A3D4DC",
"h. c #A4DADD",
"j. c #A8D6DB",
"k. c #B2D7DE",
"l. c #83CEE2",
"z. c #8ACEE3",
"x. c #88CDE8",
"c. c #94CFE2",
"v. c #9BCFE3",
"b. c #81D2E4",
"n. c #8CD5E3",
"m. c #84D9E4",
"M. c #8DD9E5",
"N. c #82D3E9",
"B. c #8BD6E9",
"V. c #85DAEB",
"C. c #8DDAEA",
"Z. c #93D6E6",
"A. c #9AD5E3",
"S. c #92D9E5",
"D. c #9BDAE5",
"F. c #93D6E9",
"G. c #9AD6E9",
"H. c #93DAE9",
"J. c #9BDCEA",
"K. c #8BDCF2",
"L. c #85DBF2",
"P. c #97DDF2",
"I. c #A2D5E3",
"U. c #A2DBE5",
"Y. c #ABDCE4",
"T. c #A3DDEA",
"R. c #ACDEEB",
"E. c #A9D5E5",
"W. c #B4DDE5",
"Q. c #B4DEEB",
"!. c #BADFEC",
"~. c #B7DAE4",
"^. c #A3DEF1",
"/. c #ABDEF2",
"(. c #BBDFF1",
"). c #B4DFF2",
"_. c #A3CEE1",
"`. c #8BE1EA",
"'. c #94E2EC",
"]. c #9CE2EC",
"[. c #9AE2E6",
"{. c #8DE1F5",
"}. c #88E3F5",
"|. c #93E2F3",
" X c #9DE3F2",
".X c #9BE8F7",
"XX c #A4E2E6",
"oX c #ADE2E6",
"OX c #A4E2ED",
"+X c #ACE4ED",
"@X c #A5E9ED",
"#X c #ADE9EE",
"$X c #ADEBE6",
"%X c #B4E2E6",
"&X c #BAE3E6",
"*X c #B4E4EC",
"=X c #B9E3EC",
"-X c #B3E9EE",
";X c #BAE9ED",
":X c #B8E8E6",
">X c #A5E5F2",
",X c #ACE5F2",
"<X c #A5E9F4",
"1X c #ADE9F4",
"2X c #ACE6F9",
"3X c #A5EBF9",
"4X c #ACEBFA",
"5X c #A3E6F9",
"6X c #B4E5F2",
"7X c #BAE4F1",
"8X c #B2EAF4",
"9X c #BAEAF3",
"0X c #B4E6F9",
"qX c #B3ECFA",
"wX c #BBECFA",
"eX c #BAE6F9",
"rX c #ACF2FD",
"tX c #AAF1F8",
"yX c #B4F3FC",
"uX c #BBF3FD",
"iX c #BCFBFF",
"pX c #B7F5F8",
"aX c #AEF0EF",
"sX c #A3E1DF",
"dX c #C1DFED",
"fX c #C3E7ED",
"gX c #C3EBF4",
"hX c #CBEDF4",
"jX c #C4EDFA",
"kX c #CCEEFB",
"lX c #C3E5F4",
"zX c #D8EEF6",
"xX c #C4F2F6",
"cX c #CCF3F5",
"vX c #C4F4FD",
"bX c #CCF4FC",
"nX c #C4FCFF",
"mX c #CCFBFF",
"MX c #CEF8F6",
"NX c #D4F4F5",
"BX c #DBF3F5",
"VX c #D4F5FC",
"CX c #DBF5FC",
"ZX c #D3FBFE",
"AX c #DBFBFE",
"SX c #D7F9F5",
"DX c #D5F1EE",
"FX c #E2F4FC",
"GX c #E1FAFE",
"HX c #E1F4F5",
"JX c #E3EEF8",
/* pixels */
"Z.Z.Z.Z.Z.Z.Z.Z.Z.Z.Z.Z.Z.Z.Z.Z.Z.Z.Z.Z.Z.Z.Z.Z.Z.Z.Z.Z.Z.Z.Z.Z.Z.Z.Z.Z.Z.Z.Z.Z.Z.Z.Z.Z.Z.Z.Z.Z.Z.Z.Z.Z.Z.Z.Z.Z.Z.Z.Z.Z.Z.Z.Z.Z.F.H.Z.A.D.+X*X*X*X9X,XD.u.Z.Z.n.A.,X6X*X7X=X=X6X*X,XqXH.1.b.{ q.,.U.mXmXT.,.9.n.A.A.Z.S.B.B.A.A.Z.Z.Z.Z.Z.Z.Z.Z.Z.Z.Z.Z.Z.Z.Z.S.M.n.q.q.b.b.b.b.b.b.b.b.b.b.b.b.b.b.b.b.#.#.@.@.+.+.` b.M.H.H.Z.Z.Z.Z.Z.Z.Z.Z.Z.Z.Z.Z.Z.Z.Z.Z.Z.Z.Z.M.M.n.n.w.q.b.b.b.b.@.@.#.#.b.b.b.b.b.b.b.b.b.b.b.b.b.b.b.b.b.b.N.N.N.N.#.#.#.#.@.@.@.@.@.{ { q.b.b.q.1.q.1.n.2.Z.Z.u.T.8X9X=X=X*X+X1X@XA.u.w.2.6.T.,X*XQ.6XQ.6X6X,X2XH.1.q.{ { r.~ 1XnXmXg.,.q.q.q.q.q.q.w.1.w.n.M.S.S.M.M.Z.Z.Z.Z.Z.Z.Z.Z.Z.Z.Z.Z.Z.Z.Z.Z.Z.Z.Z.Z.Z.Z.Z.Z.Z.Z.Z.Z.Z.Z.Z.Z.n.b.w.q.1.b.b.b.b.b.b.b.N.b.b.#.b.b.b.b.b.b.b.b.+.+.b.b.@.@.@.b.1.1.w.n.M.S.S.H.Z.Z.Z.Z.A.A.A.Z.Z.Z.Z.Z.Z.Z.Z.Z.Z.Z.Z.Z.Z.Z.Z.Z.Z.Z.Z.Z.Z.Z.S.Z.n.n.n.w.2.2.2.1.b.@.@.@.{ q.q.w./ 1.Z.OX1X8XT.6.2.w.n.n.w.w.D.,X*XQ.7X7X6X6XQ.A.H.M.A.5.&XZXNXVXgXg.A.Z.Z.H.M.H.Z.Z.Z.Z.Z.Z.Z.Z.n.n.n.n.2.2.2.2.2.2.2.2.z.n.n.n.Z.Z.Z.Z.Z.Z.Z.Z.Z.Z.Z.Z.Z.Z.Z.Z.Z.Z.Z.Z.Z.Z.Z.Z.Z.Z.Z.Z.Z.Z.Z.Z.Z.Z.Z.Z.Z.Z.Z.Z.",
"Z.Z.Z.Z.Z.Z.Z.Z.Z.Z.Z.Z.Z.Z.Z.Z.Z.Z.Z.Z.Z.Z.Z.Z.Z.Z.Z.Z.Z.Z.Z.Z.Z.Z.Z.Z.Z.Z.Z.Z.Z.Z.Z.Z.Z.Z.Z.Z.Z.Z.Z.Z.Z.Z.Z.Z.Z.Z.Z.Z.Z.Z.Z.Z.F.H.Z.A.D.+X*X*X*X9X,XD.u.Z.Z.n.D.,X6X*X7X=X=X6X*X,X1XS.1.m.{ q.,.U.mXmXOX,.w.M.A.A.Z.M.B.B.A.A.Z.Z.Z.Z.Z.Z.Z.Z.Z.Z.Z.Z.Z.Z.Z.Z.M.n.b.q.b.b.b.b.b.b.b.b.b.b.b.b.b.b.b.b.#.#.@.@.+.+.1.b.M.H.H.Z.Z.Z.Z.Z.Z.Z.Z.Z.Z.Z.Z.Z.Z.Z.Z.Z.Z.Z.S.M.M.n.b.q.b.b.b.b.b.@.#.#.b.b.b.b.b.b.b.b.b.b.b.b.b.b.b.b.b.b.N.N.N.N.#.#.#.#.@.@.@.@.@.q.q.q.q.q.q.q.b.n.n.n.Z.A.6.U.6X*X=X=X*X+X1X@XA.u.u.2.u.T.6X6X*X6X*X6X6X,X2XJ.1.q.{ { q.~ 1XmXmXY.,.{ q.q.q.q.q.w.w.b.n.M.S.S.M.Z.Z.Z.Z.Z.Z.Z.Z.Z.Z.Z.Z.Z.Z.Z.Z.Z.Z.Z.Z.Z.Z.Z.Z.Z.Z.Z.Z.Z.Z.Z.Z.Z.n.n.b.w.b.b.b.b.b.b.b.b.N.b.b.b.b.b.b.b.b.b.b.b.+.+.b.b.b.@.b.q.q.w.n.n.M.S.S.S.Z.Z.Z.Z.A.A.A.A.Z.Z.Z.Z.Z.Z.Z.Z.Z.Z.Z.Z.Z.Z.Z.Z.Z.Z.Z.Z.Z.Z.Z.Z.n.n.n.n.n.w.2.w.{ +.{ { { { q.q.1.n.D.>X1X8X+XA.6.n.n.M.w.u.D.+X*XQ.7X7X6X6XQ.A.H.M.A.5.&XZXNXVXxXg.A.Z.Z.H.M.H.Z.Z.Z.Z.Z.Z.Z.Z.Z.Z.Z.Z.Z.Z.n.n.n.n.Z.Z.Z.Z.Z.Z.Z.Z.Z.Z.Z.Z.Z.Z.Z.Z.Z.Z.Z.Z.Z.Z.Z.Z.Z.Z.Z.Z.Z.Z.Z.Z.Z.Z.Z.Z.Z.Z.Z.Z.Z.Z.Z.Z.Z.Z.",
"Z.Z.Z.Z.Z.Z.Z.Z.Z.Z.Z.Z.Z.Z.Z.Z.Z.Z.Z.Z.Z.Z.Z.Z.Z.Z.Z.Z.Z.Z.Z.Z.Z.Z.Z.Z.Z.Z.Z.Z.Z.Z.Z.Z.Z.Z.Z.Z.Z.Z.Z.Z.Z.Z.Z.Z.Z.Z.Z.Z.Z.Z.Z.Z.F.H.Z.A.D.+X6X*X*X8X,XD.A.Z.H.n.D.,X6X*X6X=X=X6X*X+X1XZ.1.b.+.b.-.U.bXmXOX2.q.M.A.A.Z.S.n.B.A.A.Z.Z.Z.Z.Z.Z.Z.Z.Z.Z.Z.Z.Z.Z.Z.Z.M.B.n.b.b.b.b.b.b.b.b.b.b.b.b.b.b.b.b.b.@.@.@.@.b.{ q.b.S.H.H.Z.Z.Z.Z.Z.Z.Z.Z.Z.Z.Z.Z.Z.Z.Z.Z.Z.S.S.S.S.M.M.n.b.b.q.b.b.b.b.@.@.b.b.b.b.b.b.b.b.b.b.b.b.b.b.b.b.b.b.b.b.N.N.b.#.b.b.b.b.@.@.@.q.b.q.` ` q.b.B.M.M.Z.Z.A.6.U.6X+X=X=X*X+X1X@XA.u.H.u.A.+X8X6X=X7X*X6X6X,X,XJ.1.b.q.{ q.,.1XmXZXY.<.9.w.w.q.w.b.n.n.n.M.S.S.Z.Z.M.Z.Z.Z.Z.Z.Z.Z.Z.Z.Z.Z.Z.Z.Z.Z.Z.Z.Z.Z.Z.Z.Z.Z.Z.Z.Z.Z.Z.Z.Z.Z.Z.M.M.n.b.b.b.q.1.b.b.b.b.b.b.b.b.b.b.b.b.b.b.b.b.b.b.b.b.b.+.b.q.b.n.n.M.S.M.S.S.Z.Z.Z.Z.A.A.A.Z.Z.Z.Z.Z.Z.Z.Z.Z.Z.Z.Z.Z.Z.Z.Z.Z.Z.Z.Z.Z.Z.Z.Z.Z.Z.Z.Z.Z.n.n.n.n.b.+.b.b.q.q.q.q.w.H.].,X8X8X,XT.Z.M.Z.S.M.p.U.1X*XQ.7X7X6X6X+XA.H.M.A.5.;XAXNXVXcXg.A.Z.Z.H.M.H.Z.Z.Z.Z.Z.Z.Z.Z.H.H.H.Z.Z.Z.Z.Z.Z.Z.Z.Z.Z.H.H.H.Z.Z.Z.Z.Z.Z.Z.Z.Z.Z.Z.Z.Z.Z.Z.Z.Z.Z.Z.Z.Z.Z.Z.Z.Z.Z.Z.Z.Z.Z.Z.Z.Z.Z.Z.Z.Z.Z.Z.Z.",
"Z.Z.Z.Z.Z.Z.Z.Z.Z.Z.Z.Z.Z.Z.Z.Z.Z.Z.Z.Z.Z.Z.Z.Z.Z.Z.Z.Z.Z.Z.Z.Z.Z.Z.Z.Z.Z.Z.Z.Z.Z.Z.Z.Z.Z.Z.Z.Z.Z.Z.Z.Z.Z.Z.Z.Z.Z.Z.Z.Z.Z.Z.Z.Z.F.H.Z.A.D.+X6X*X*X8X,XD.A.Z.S.n.D.,X6X*X6X=X=X6X*X,X1Xu.3.b.{ b.,.U.mXZX+X0.n.S.A.A.Z.S.M.B.Z.A.Z.Z.Z.Z.Z.Z.Z.Z.Z.Z.Z.Z.Z.Z.Z.Z.S.M.M.n.n.n.b.q.b.b.b.b.b.b.b.b.b.b.b.b.@.@.@.b.b.q.b.n.Z.H.F.Z.Z.Z.Z.Z.Z.Z.Z.Z.Z.Z.Z.Z.Z.Z.Z.Z.H.H.H.S.Z.M.M.n.b.b.b.b.b.b.b.b.b.b.b.b.b.b.b.b.b.b.b.b.b.b.b.b.b.b.b.b.N.N.b.#.b.b.b.b.b.@.b.q.b.9.` ` b.B.C.C.H.Z.H.A.6.U.,X+X=X=X*X+X1X@XA.u.D.A.A.+X8X6X=X6X*X6X6X6X,XJ.n.n.m.q.q.,.qXmXZX=X<.w.b.n.b.n.n.M.M.S.S.S.S.Z.Z.Z.Z.Z.Z.Z.Z.Z.Z.Z.Z.Z.Z.Z.Z.Z.Z.Z.Z.Z.Z.Z.Z.Z.Z.Z.Z.Z.Z.Z.Z.Z.Z.Z.H.M.M.B.b.b.1.` b.b.b.b.b.b.b.b.b.b.b.b.b.b.b.b.b.b.b.b.b.b.b.b.n.n.M.M.S.S.Z.Z.Z.Z.Z.Z.A.A.A.Z.Z.Z.Z.Z.Z.Z.Z.Z.Z.Z.Z.Z.Z.Z.Z.Z.Z.Z.Z.Z.Z.Z.Z.Z.S.S.Z.Z.Z.Z.Z.M.n.n.n.n.n.n.n.n.w.J.>X1X,X6X6X,XA.Z.Z.S.M.p.OX1X*X=X7X7X6X6X+XA.S.M.A.y.;XAXNXNXcXg.A.Z.Z.H.M.H.Z.Z.Z.Z.Z.Z.Z.Z.Z.Z.Z.Z.Z.Z.Z.Z.Z.Z.Z.Z.Z.Z.Z.Z.Z.Z.Z.Z.Z.Z.Z.Z.Z.Z.Z.Z.Z.Z.Z.Z.Z.Z.Z.Z.Z.Z.Z.Z.Z.Z.Z.Z.Z.Z.Z.Z.Z.Z.Z.Z.Z.Z.Z.Z.",
"Z.Z.Z.Z.Z.Z.Z.Z.Z.Z.Z.Z.Z.Z.Z.Z.Z.Z.Z.Z.Z.Z.Z.Z.Z.Z.Z.Z.Z.Z.Z.Z.Z.Z.Z.Z.Z.Z.Z.Z.Z.Z.Z.Z.Z.Z.Z.Z.Z.Z.Z.Z.Z.Z.Z.Z.Z.Z.Z.Z.Z.Z.Z.Z.F.H.Z.A.D.+X6X*X*X8X+XD.A.Z.H.n.D.,X6X*X6X=X=X6X6X,X1Xu.,.q.` q.<.U.bXZX#X0.n.S.A.A.Z.S.M.n.Z.A.Z.Z.Z.Z.Z.Z.Z.Z.Z.Z.Z.Z.Z.Z.Z.Z.Z.M.M.Z.S.M.n.b.b.b.b.b.b.@.#.#.#.#.@.@.+.+.b.b.b.b.n.M.F.F.F.Z.Z.Z.Z.Z.Z.Z.Z.Z.Z.Z.Z.Z.Z.Z.Z.Z.S.H.H.H.S.M.M.n.w.w.b.b.b.b.b.b.b.b.b.b.b.b.b.b.b.b.b.b.b.b.b.b.b.#.#.b.b.b.#.#.b.b.b.b.b.b.b.q.q.1.1.w.B.C.C.M.Z.Z.Z.A.u.U.6X*X=X;X*X+X1XOXu.u.D.A.A.+X8X6X=X7X=X6X6X6X6XJ.n.M.M.m.n.<.qXmXZX=X2.n.n.M.M.M.M.H.S.S.S.Z.Z.Z.Z.Z.Z.Z.Z.Z.Z.Z.Z.Z.Z.Z.Z.Z.Z.Z.Z.Z.Z.Z.Z.Z.Z.Z.Z.Z.Z.Z.Z.Z.Z.Z.Z.Z.H.C.C.M.n.b.b.1.b.b.b.b.b.b.b.b.b.@.b.b.b.b.b.b.b.b.b.l.l.b.b.n.C.M.H.S.S.S.Z.Z.Z.Z.Z.Z.A.A.Z.Z.Z.Z.Z.Z.Z.Z.Z.Z.Z.Z.Z.Z.Z.Z.Z.Z.Z.Z.Z.Z.Z.Z.Z.Z.H.H.S.S.S.Z.Z.S.C.C.M.M.B.M.M.M.w.J.1X1X,X6X6X6XJ.Z.S.S.S.S.OX1X*X=X7X7X6X6X+XA.S.M.A.y.=XAXNXVXbXg.A.Z.Z.H.n.H.Z.Z.Z.Z.Z.Z.Z.Z.Z.Z.Z.Z.Z.Z.Z.Z.Z.Z.Z.Z.Z.Z.Z.Z.Z.Z.Z.Z.Z.Z.Z.Z.Z.Z.Z.Z.Z.Z.Z.Z.Z.Z.Z.Z.Z.Z.Z.Z.Z.Z.Z.Z.Z.Z.Z.Z.Z.Z.Z.Z.Z.Z.Z.Z.",
"Z.Z.Z.Z.Z.Z.Z.Z.Z.Z.Z.Z.Z.Z.Z.Z.Z.Z.Z.Z.Z.Z.Z.Z.Z.Z.Z.Z.Z.Z.Z.Z.Z.Z.Z.Z.Z.Z.Z.Z.Z.Z.Z.Z.Z.Z.Z.Z.Z.Z.Z.Z.Z.Z.Z.Z.Z.Z.Z.Z.Z.Z.Z.Z.F.F.Z.A.D.+X6X*X*X-X+XD.A.Z.H.Z.D.,X6X*X6X=X=X6X6X6X8XZ.1.b.{ b.0.Y.bXZX,Xu.n.S.A.A.Z.S.M.M.Z.A.Z.Z.Z.Z.Z.Z.Z.Z.Z.Z.Z.Z.Z.Z.Z.Z.Z.Z.Z.Z.H.S.M.n.b.b.b.b.b.@.#.#.#.#.@.@.+.b.b.b.b.b.n.Z.F.F.Z.Z.Z.Z.Z.Z.Z.Z.Z.Z.Z.Z.Z.Z.Z.Z.Z.Z.S.S.S.H.S.S.M.M.n.b.b.b.b.b.b.b.b.b.b.b.b.b.b.b.b.b.b.b.b.b.b.b.b.#.#.b.b.b.b.b.b.b.b.b.b.b.b.q.q.9.b.B.C.C.M.M.M.Z.Z.A.Z.T.8X*X=X;X*X+X1XOXu.u.D.A.A.OX6X6XQ.7X=X=X6X6X0XT.Z.H.M.n.S.0.wXmXZX=Xu.M.S.S.S.S.H.H.Z.Z.Z.Z.Z.Z.Z.Z.Z.Z.Z.Z.Z.Z.Z.Z.Z.Z.Z.Z.Z.Z.Z.Z.Z.Z.Z.Z.Z.Z.Z.Z.Z.Z.Z.Z.Z.Z.Z.Z.S.M.M.M.M.n.b.b.b.b.b.b.b.b.b.N.@.@.+.+.b.b.b.b.b.b.l.b.n.n.M.M.C.H.H.H.S.S.Z.Z.Z.Z.Z.Z.A.A.A.Z.Z.Z.Z.Z.Z.Z.Z.Z.Z.Z.Z.Z.Z.Z.Z.Z.Z.Z.Z.Z.Z.Z.Z.Z.S.S.S.S.Z.S.S.S.M.C.M.M.M.M.M.S.w.J.,X,X6X6X6X6XT.H.Z.Z.S.S.OX,X*X=X7X7X6X6X+XA.M.M.A.y.=XAXNXNXVXI.A.Z.Z.H.n.H.Z.Z.Z.Z.Z.Z.Z.Z.Z.Z.Z.Z.Z.Z.Z.Z.Z.Z.Z.Z.Z.Z.Z.Z.Z.Z.Z.Z.Z.Z.Z.Z.Z.Z.Z.Z.Z.Z.Z.Z.Z.Z.Z.Z.Z.Z.Z.Z.Z.Z.Z.Z.Z.Z.Z.Z.Z.Z.Z.Z.Z.Z.Z.Z.",
"Z.Z.Z.Z.Z.Z.Z.Z.Z.Z.Z.Z.Z.Z.Z.Z.Z.Z.Z.Z.Z.Z.Z.Z.Z.Z.Z.Z.Z.Z.Z.Z.Z.Z.Z.Z.Z.Z.Z.Z.Z.Z.Z.Z.Z.Z.Z.Z.Z.Z.Z.Z.Z.Z.Z.Z.Z.Z.Z.Z.Z.Z.Z.Z.F.H.Z.A.D.+X6X*X*X*X+XD.A.Z.H.Z.D.,X6X*X6X=X=X7X=X6XqXD.w.M.b.M.t.Y.VXZX6Xu.n.S.A.A.Z.S.M.M.Z.Z.Z.Z.Z.Z.Z.Z.Z.Z.Z.Z.Z.Z.Z.Z.Z.Z.Z.Z.Z.Z.F.H.M.n.b.b.b.b.b.@.@.@.@.@.@.@.b.b.b.b.1.n.Z.Z.Z.Z.Z.Z.Z.Z.Z.Z.Z.Z.Z.Z.Z.Z.Z.Z.Z.Z.Z.Z.Z.S.S.S.S.S.S.M.M.n.n.b.b.b.b.q.b.b.b.b.b.b.b.b.b.b.b.b.b.b.b.b.b.#.b.b.b.b.b.b.b.b.b.b.q.q.q.q.w.q.n.M.M.M.M.M.S.Z.H.A.Z.T.8X*X=X;X*X+X1X@Xu.u.H.A.A.+X6X6X=X7XQ.7X).6X6XT.Z.H.M.n.S.u.uXZXAX=Xu.Z.H.H.Z.Z.Z.H.Z.Z.Z.Z.Z.Z.Z.Z.Z.Z.Z.Z.Z.Z.Z.Z.Z.Z.Z.Z.Z.Z.Z.Z.Z.Z.Z.Z.Z.Z.Z.Z.Z.Z.Z.Z.Z.Z.Z.Z.M.M.M.M.M.M.n.n.b.b.b.1.l.b.b.N.@.@.@.@.b.b.b.b.b.b.l.l.n.n.F.H.M.S.S.S.S.S.Z.Z.Z.Z.Z.Z.Z.Z.Z.Z.Z.Z.Z.Z.Z.Z.Z.Z.Z.Z.Z.Z.Z.Z.Z.Z.Z.Z.Z.Z.Z.Z.Z.Z.Z.Z.Z.Z.Z.Z.Z.Z.M.M.M.M.M.M.Z.Z.u.J.,X6X6X6X=X6XT.H.Z.u.Z.p.U.+X*X=X7X7X6X6X+XA.M.M.A.i.=XAXNXNXVXE.A.Z.Z.H.n.H.Z.Z.Z.Z.Z.Z.Z.Z.Z.Z.Z.Z.Z.Z.Z.Z.Z.Z.Z.Z.Z.Z.Z.Z.Z.Z.Z.Z.Z.Z.Z.Z.Z.Z.Z.Z.Z.Z.Z.Z.Z.Z.Z.Z.Z.Z.Z.Z.Z.Z.Z.Z.Z.Z.Z.Z.Z.Z.Z.Z.Z.Z.Z.Z.",
"Z.Z.Z.Z.Z.Z.Z.Z.Z.Z.Z.Z.Z.Z.Z.Z.Z.Z.Z.Z.Z.Z.Z.Z.Z.Z.Z.Z.Z.Z.Z.Z.Z.Z.Z.Z.Z.Z.Z.Z.Z.Z.Z.Z.Z.Z.Z.Z.Z.Z.Z.Z.Z.Z.Z.Z.Z.Z.Z.Z.Z.Z.Z.Z.F.H.Z.A.D.+X6X*X*X*X+XD.A.H.H.Z.D.,X6X*X6X=X=X7X*X6XqXJ.Z.H.B.H.t.oXZXZX6Xu.w.S.G.G.Z.M.M.M.Z.Z.Z.Z.Z.Z.Z.Z.Z.Z.Z.Z.Z.Z.Z.Z.Z.Z.Z.Z.Z.Z.F.H.H.M.b.b.b.b.b.+.@.@.@.@.@.b.b.b.b.b.1.n.Z.F.A.Z.Z.Z.Z.Z.Z.Z.Z.Z.Z.Z.Z.Z.Z.Z.Z.Z.Z.Z.Z.Z.S.S.S.S.Z.Z.S.M.M.n.b.b.b.1.b.b.b.b.b.b.b.b.b.b.b.b.b.b.b.b.b.b.b.b.b.b.b.b.b.b.b.b.q.q.q.w.w.n.S.M.n.n.M.S.H.Z.H.A.Z.U.6X*X=X;X*X+X1XOXu.u.H.A.A.+X8X6X6X7XQ.7XQ.6X6XT.Z.H.n.w.S.i.vXZXAXlXA.Z.H.H.Z.Z.Z.Z.Z.Z.Z.Z.Z.Z.Z.Z.Z.Z.Z.Z.Z.Z.Z.Z.Z.Z.Z.Z.Z.Z.Z.Z.Z.Z.Z.Z.Z.Z.Z.Z.Z.Z.Z.Z.Z.Z.Z.Z.Z.M.M.M.M.S.M.C.b.b.w.1.l.b.b.b.b.@.@.b.b.b.b.b.b.l.z.z.n.Z.H.J.Z.M.S.S.S.S.Z.Z.Z.Z.Z.Z.Z.Z.Z.Z.Z.Z.Z.Z.Z.Z.Z.Z.Z.Z.Z.Z.Z.Z.Z.Z.Z.Z.Z.Z.Z.Z.Z.Z.Z.Z.Z.Z.Z.Z.Z.Z.Z.S.S.S.M.S.Z.A.u.T.6X6X6X7X7X6XT.J.Z.u.Z.p.D.#X*XQ.7X7X6X6X+XA.M.M.A.i.;XAXNXNXVXE.A.A.Z.F.n.H.Z.Z.Z.Z.Z.Z.Z.Z.Z.Z.Z.Z.Z.Z.Z.Z.Z.Z.Z.Z.Z.Z.Z.Z.Z.Z.Z.Z.Z.Z.Z.Z.Z.Z.Z.Z.Z.Z.Z.Z.Z.Z.Z.Z.Z.Z.Z.Z.Z.Z.Z.Z.Z.Z.Z.Z.Z.Z.Z.Z.Z.Z.Z.Z.",
"Z.Z.Z.Z.Z.Z.Z.Z.Z.Z.Z.Z.Z.Z.Z.Z.Z.Z.Z.Z.Z.Z.Z.Z.Z.Z.Z.Z.Z.Z.Z.Z.Z.Z.Z.Z.Z.Z.Z.Z.Z.Z.Z.Z.Z.Z.Z.Z.Z.Z.Z.Z.Z.Z.Z.Z.Z.Z.Z.Z.Z.Z.Z.Z.F.Z.Z.u.D.+X6X*X*X-X+XA.Z.Z.H.n.D.6X6X*X6X7XQ.7X=X6X+XD.Z.M.C.M.4.9XZXbXuX2.S.S.G.G.G.F.B.B.Z.Z.Z.Z.Z.Z.Z.Z.Z.Z.Z.Z.Z.Z.Z.Z.Z.Z.Z.Z.Z.Z.Z.Z.Z.M.M.B.B.b.b.@.{ { @.@.b.b.b.b.b.n.S.Z.Z.Z.Z.Z.Z.Z.Z.Z.Z.Z.Z.Z.Z.Z.Z.Z.Z.Z.Z.Z.Z.Z.Z.Z.S.S.S.S.Z.S.M.M.M.M.M.M.M.n.1.1.1.1.q.b.b.b.b.b.b.b.b.b.b.b.b.b.b.b.b.b.b.b.b.b.q.q.w.b.b.n.M.S.M.M.M.M.M.M.Z.Z.Z.A.u.U.6X*X=X=X*X+X1X@XA.u.H.Z.A.+X6X6X=X7X=X=X=X7X6XT.Z.Z.S.Z.A.t.xXbXCXkX7.Z.Z.Z.Z.Z.Z.Z.Z.Z.Z.Z.Z.Z.Z.Z.Z.Z.Z.Z.Z.Z.Z.Z.Z.Z.Z.Z.Z.Z.Z.Z.Z.Z.Z.Z.Z.Z.Z.Z.Z.Z.Z.Z.Z.Z.Z.Z.S.S.Z.S.S.S.S.M.M.n.n.n.b.b.b.b.b.q.{ { q.q.q.w.b.n.n.Z.Z.H.F.H.Z.Z.Z.Z.Z.Z.Z.Z.Z.Z.Z.Z.Z.Z.Z.Z.Z.Z.Z.Z.Z.Z.Z.Z.Z.Z.Z.Z.Z.Z.Z.Z.Z.Z.Z.Z.Z.Z.Z.Z.Z.Z.Z.Z.Z.Z.Z.Z.Z.Z.Z.Z.Z.Z.Z.A.A.+X6X6X7X7XQ.6X,XZ.Z.H.Z.u.OX+X*X=X=X=X6X6XT.A.Z.Z.A.5.cXNXAXNXbXQ.7.Z.F.F.M.Z.Z.Z.Z.Z.Z.Z.Z.Z.Z.Z.Z.Z.Z.Z.Z.Z.Z.Z.Z.Z.Z.Z.Z.Z.Z.Z.Z.Z.Z.Z.Z.Z.Z.Z.Z.Z.Z.Z.Z.Z.Z.Z.Z.Z.Z.Z.Z.Z.Z.Z.Z.Z.Z.Z.Z.Z.Z.Z.Z.Z.Z.Z.Z.Z.",
"Z.Z.Z.Z.Z.Z.Z.Z.Z.Z.Z.Z.Z.Z.Z.Z.Z.Z.Z.Z.Z.Z.Z.Z.Z.Z.Z.Z.Z.Z.Z.Z.Z.Z.Z.Z.Z.Z.Z.Z.Z.Z.Z.Z.Z.Z.Z.Z.Z.Z.Z.Z.Z.Z.Z.Z.Z.Z.Z.Z.Z.Z.Z.Z.F.Z.Z.u.D.+X6X*X*X9X+XA.Z.Z.H.n.D.,X6X*X6X=XQ.=X=X6X+XD.Z.S.C.S.4.9XAXbXvX6.S.S.G.G.G.F.B.B.Z.Z.Z.Z.Z.Z.Z.Z.Z.Z.Z.Z.Z.Z.Z.Z.Z.Z.Z.Z.Z.Z.Z.Z.Z.M.C.C.B.B.b.N.b.b.+.{ b.b.b.b.1.2.Z.Z.Z.Z.Z.Z.Z.Z.Z.Z.Z.Z.Z.Z.Z.Z.Z.Z.Z.Z.Z.Z.Z.Z.Z.Z.S.S.S.S.Z.Z.Z.S.Z.M.Z.M.M.M.w.w.w.b.b.b.b.b.b.b.b.b.b.b.b.b.b.b.b.b.b.b.b.{ b.b.q.w.w.b.n.n.S.S.S.S.C.C.M.M.Z.Z.Z.A.u.U.8X*X=X=X*X+X1X@XA.u.H.Z.A.#X6X6XQ.=X=X=X=X7X,XT.Z.Z.S.Z.A.t.vXVXCXkXi.Z.Z.Z.Z.Z.Z.Z.Z.Z.Z.Z.Z.Z.Z.Z.Z.Z.Z.Z.Z.Z.Z.Z.Z.Z.Z.Z.Z.Z.Z.Z.Z.Z.Z.Z.Z.Z.Z.Z.Z.Z.Z.Z.Z.Z.Z.Z.S.S.Z.Z.Z.S.S.S.S.M.B.n.n.n.n.b.q.q.q.q.q.w.w.w.n.n.Z.Z.Z.F.F.F.Z.Z.Z.Z.Z.Z.Z.Z.Z.Z.Z.Z.Z.Z.Z.Z.Z.Z.Z.Z.Z.Z.Z.Z.Z.Z.Z.Z.Z.Z.Z.Z.Z.Z.Z.Z.Z.Z.Z.Z.Z.Z.Z.Z.Z.Z.Z.Z.Z.Z.Z.Z.Z.Z.Z.A.A.+X6X=X7X7XQ.6X,XZ.Z.H.Z.u.OX+X*X*X=X=X6X8XOXA.Z.Z.A.y.cXNXAXNXbXQ.7.Z.F.F.Z.Z.Z.Z.Z.Z.Z.Z.Z.Z.Z.Z.Z.Z.Z.Z.Z.Z.Z.Z.Z.Z.Z.Z.Z.Z.Z.Z.Z.Z.Z.Z.Z.Z.Z.Z.Z.Z.Z.Z.Z.Z.Z.Z.Z.Z.Z.Z.Z.Z.Z.Z.Z.Z.Z.Z.Z.Z.Z.Z.Z.Z.Z.Z.Z.Z.",
"Z.Z.Z.Z.Z.Z.Z.Z.Z.Z.Z.Z.Z.Z.Z.Z.Z.Z.Z.Z.Z.Z.Z.Z.Z.Z.Z.Z.Z.Z.Z.Z.Z.Z.Z.Z.Z.Z.Z.Z.Z.Z.Z.Z.Z.Z.Z.Z.Z.Z.Z.Z.Z.Z.Z.Z.Z.Z.Z.Z.Z.Z.Z.Z.F.Z.Z.Z.D.+X6X*X*X9X+XA.Z.F.H.n.D.,X6X*X6X7XQ.=X6X6X+XD.Z.Z.H.S.t.9XAXbXvXt.H.H.G.G.G.F.B.B.F.Z.Z.Z.Z.Z.Z.Z.Z.Z.Z.Z.Z.Z.Z.Z.Z.Z.Z.A.Z.Z.A.Z.Z.Z.H.H.C.M.B.B.B.m.b.b.b.b.w.w.2.2.Z.Z.Z.Z.Z.Z.Z.Z.Z.Z.Z.Z.Z.Z.Z.Z.Z.Z.Z.Z.Z.Z.Z.Z.Z.Z.Z.Z.Z.Z.Z.Z.Z.S.Z.Z.Z.Z.Z.Z.n.n.b.b.b.b.b.b.w.w.w.b.b.b.b.b.N.#.N.b.b.q.b.q.q.q.w.b.b.n.M.M.S.S.Z.M.H.H.S.S.Z.Z.Z.A.u.U.1X+X=X=X*X+X1X@XA.u.H.u.D.#X8X6XQ.=X=X=X=X6X,XT.Z.Z.S.u.u.i.bXVXCXkXi.Z.Z.Z.Z.Z.Z.Z.Z.Z.Z.Z.Z.Z.Z.Z.Z.Z.Z.Z.Z.Z.Z.Z.Z.Z.Z.Z.Z.Z.Z.Z.Z.Z.Z.Z.Z.Z.Z.Z.Z.Z.Z.Z.Z.Z.Z.Z.Z.Z.Z.S.S.S.Z.S.H.H.M.M.B.B.M.B.B.B.B.B.B.n.n.M.n.n.Z.Z.Z.Z.Z.Z.Z.Z.Z.Z.Z.Z.Z.Z.Z.Z.Z.Z.Z.Z.Z.Z.Z.Z.Z.Z.Z.Z.Z.Z.Z.Z.Z.Z.Z.Z.Z.Z.Z.Z.Z.Z.Z.Z.Z.Z.Z.Z.Z.Z.Z.Z.Z.Z.Z.Z.Z.Z.Z.Z.Z.A.A.#X6X=X7X7XQ.6X,XZ.Z.H.Z.u.OX#X*X*X=X=X6X8XOXA.Z.Z.A.g.cXNXAXNXVX=Xv.Z.F.F.Z.Z.Z.Z.Z.Z.Z.Z.Z.Z.Z.Z.Z.Z.Z.Z.Z.Z.Z.Z.Z.Z.Z.Z.Z.Z.Z.Z.Z.Z.Z.Z.Z.Z.Z.Z.Z.Z.Z.Z.Z.Z.Z.Z.Z.Z.Z.Z.Z.Z.Z.Z.Z.Z.Z.Z.Z.Z.Z.Z.Z.Z.Z.Z.Z.Z.",
"Z.Z.Z.Z.Z.Z.Z.Z.Z.Z.Z.Z.Z.Z.Z.Z.Z.Z.Z.Z.Z.Z.Z.Z.Z.Z.Z.Z.Z.Z.Z.Z.Z.Z.Z.Z.Z.Z.Z.Z.Z.Z.Z.Z.Z.Z.Z.Z.Z.Z.Z.Z.Z.Z.Z.Z.Z.Z.Z.Z.Z.Z.Z.Z.F.Z.Z.Z.U.+X6X*X*X9X+XA.u.Z.H.n.D.,X6X*X6X=XQ.=X=X6X+XD.Z.Z.H.Z.t.;XAXVXvXt.H.H.A.G.G.F.C.B.F.F.Z.Z.Z.Z.Z.Z.Z.Z.Z.Z.Z.Z.Z.Z.Z.Z.Z.Z.Z.Z.A.Z.Z.Z.Z.S.M.M.C.C.C.C.n.n.n.M.M.Z.Z.Z.Z.Z.A.Z.Z.S.S.S.Z.Z.Z.Z.Z.Z.Z.Z.Z.Z.Z.Z.Z.Z.Z.Z.Z.Z.Z.Z.Z.Z.Z.Z.Z.Z.Z.Z.F.F.F.H.B.B.n.n.b.b.b.b.1.1.1.w.w.b.b.b.N.N.N.b.b.q.q.q.q.w.b.b.n.M.M.S.Z.Z.Z.Z.F.S.S.Z.Z.Z.F.A.u.U.8X+X=X=X*X+X1X@XA.u.H.u.D.#X8X6X*X=X=X=X=X6X*XU.Z.Z.S.u.u.i.bXVXCXkXA.Z.Z.Z.Z.Z.Z.Z.Z.Z.Z.Z.Z.Z.Z.Z.Z.Z.Z.Z.Z.Z.Z.Z.Z.Z.Z.Z.Z.Z.Z.Z.Z.Z.Z.Z.Z.Z.Z.Z.Z.Z.Z.Z.Z.Z.Z.Z.Z.Z.Z.Z.Z.S.Z.Z.Z.H.S.M.F.H.H.C.C.C.C.C.C.H.H.H.M.S.Z.H.Z.Z.Z.Z.Z.Z.Z.Z.Z.Z.Z.Z.Z.Z.Z.Z.Z.Z.Z.Z.Z.Z.Z.Z.Z.Z.Z.Z.Z.Z.Z.Z.Z.Z.Z.Z.Z.Z.Z.Z.Z.Z.Z.Z.Z.Z.Z.Z.Z.Z.Z.Z.Z.Z.Z.S.Z.Z.Z.A.A.,X6X*X7X7XQ.7X,XA.Z.H.Z.u.OX+X*X*X=X=X6X8XOXA.H.Z.A.g.cXNXAXNXVX=Xv.Z.G.F.Z.F.Z.Z.Z.Z.Z.Z.Z.Z.Z.Z.Z.Z.Z.Z.Z.Z.Z.Z.Z.Z.Z.Z.Z.Z.Z.Z.Z.Z.Z.Z.Z.Z.Z.Z.Z.Z.Z.Z.Z.Z.Z.Z.Z.Z.Z.Z.Z.Z.Z.Z.Z.Z.Z.Z.Z.Z.Z.Z.Z.Z.Z.Z.Z.Z.",
"Z.Z.Z.Z.Z.Z.Z.Z.Z.Z.Z.Z.Z.Z.Z.Z.Z.Z.Z.Z.Z.Z.Z.Z.Z.Z.Z.Z.Z.Z.Z.Z.Z.Z.Z.Z.Z.Z.Z.Z.Z.Z.Z.Z.Z.Z.Z.Z.Z.Z.Z.Z.Z.Z.Z.Z.Z.Z.Z.Z.Z.Z.Z.Z.F.Z.Z.Z.U.+X6X*X*X8X+XA.A.H.H.n.D.,X6X*X6X=XQ.=X6X6XR.D.Z.Z.H.Z.y.gXAXVXvXu.D.H.A.G.F.F.B.B.F.F.Z.Z.Z.Z.Z.Z.Z.Z.Z.Z.Z.Z.Z.Z.Z.Z.Z.A.A.A.Z.Z.Z.Z.Z.M.M.M.M.H.H.C.C.S.S.S.F.F.Z.Z.Z.Z.A.Z.S.S.S.S.Z.Z.Z.Z.Z.Z.Z.Z.Z.Z.Z.Z.Z.Z.Z.Z.Z.u.p.p.S.S.Z.Z.Z.Z.Z.Z.Z.H.H.H.H.C.B.n.n.b.b.b.1.1.1.1.w.w.w.b.b.@.@.b.b.b.q.q.w.w.b.n.M.M.S.S.Z.Z.Z.Z.Z.Z.Z.Z.Z.n.Z.A.u.U.1X+X=X=X*X+X8X@XA.u.H.A.D.,X8X6X*X=X=X=X=X6X+XU.Z.Z.S.u.u.i.bXVXCXkXI.A.Z.Z.Z.Z.Z.Z.Z.Z.Z.S.S.S.S.S.Z.Z.Z.Z.Z.Z.Z.Z.Z.Z.Z.Z.Z.Z.Z.Z.Z.Z.Z.Z.Z.Z.Z.Z.Z.Z.Z.Z.Z.Z.Z.Z.Z.A.Z.Z.Z.Z.Z.Z.Z.Z.Z.S.S.S.H.H.M.M.M.M.M.M.M.M.S.S.S.S.S.Z.Z.Z.Z.Z.Z.Z.Z.Z.Z.Z.Z.Z.Z.Z.Z.Z.Z.Z.Z.Z.Z.Z.Z.Z.Z.Z.Z.Z.Z.Z.Z.Z.Z.Z.Z.Z.Z.Z.Z.Z.Z.Z.Z.Z.Z.Z.Z.Z.Z.Z.Z.S.S.S.S.Z.A.A.D.,X6X*X7X=XQ.7X6XA.Z.D.Z.A.OX+X*X*X=X=X6X8XOXZ.H.Z.A.g.MXNXCXNXVX=XA.Z.F.F.Z.H.Z.Z.Z.Z.Z.Z.Z.Z.Z.Z.Z.Z.Z.Z.Z.Z.Z.Z.Z.Z.Z.Z.Z.Z.Z.Z.Z.Z.Z.Z.Z.Z.Z.Z.Z.Z.Z.Z.Z.Z.Z.Z.Z.Z.Z.Z.Z.Z.Z.Z.Z.Z.Z.Z.Z.Z.Z.Z.Z.Z.Z.Z.Z.Z.",
"Z.Z.Z.Z.Z.Z.Z.Z.Z.Z.Z.Z.Z.Z.Z.Z.Z.Z.Z.Z.Z.Z.Z.Z.Z.Z.Z.Z.Z.Z.Z.Z.Z.Z.Z.Z.Z.Z.Z.Z.Z.Z.Z.Z.Z.Z.Z.Z.Z.Z.Z.Z.Z.Z.Z.Z.Z.Z.Z.Z.Z.Z.Z.Z.F.Z.Z.Z.U.+X6X*X*X8X+XA.Z.H.H.n.D.,X6X*X6X=X=X=X=X6XR.U.Z.Z.H.Z.y.gXAXVXvXi.D.H.A.G.G.F.B.B.F.F.Z.Z.Z.Z.Z.Z.Z.Z.Z.Z.Z.Z.Z.Z.Z.Z.Z.A.Z.A.Z.Z.Z.Z.Z.Z.Z.M.Z.S.H.H.S.S.H.F.F.F.Z.Z.Z.Z.A.S.S.S.M.M.Z.Z.Z.Z.Z.Z.Z.Z.Z.Z.Z.Z.Z.Z.Z.Z.Z.u.p.p.Z.S.Z.Z.Z.Z.Z.Z.Z.H.H.H.H.C.M.B.n.n.n.n.w.w.w.w.w.w.w.w.b.@.@.@.b.b.q.q.w.b.n.M.M.S.S.Z.Z.Z.Z.Z.Z.Z.Z.Z.Z.n.Z.A.u.U.1X+X=X=X*X+X8X@XA.u.H.Z.D.,X8X6X=X7X*X*X*X6X+XU.A.Z.S.w.u.i.bXVXFXVXI.G.Z.Z.Z.Z.Z.Z.Z.S.S.S.M.M.M.S.Z.Z.Z.Z.Z.Z.Z.Z.Z.Z.Z.Z.Z.Z.Z.Z.Z.Z.Z.Z.Z.Z.Z.Z.Z.Z.Z.Z.Z.Z.Z.Z.Z.A.Z.Z.Z.Z.Z.Z.Z.Z.Z.Z.S.S.M.M.S.M.S.S.Z.M.S.S.S.S.S.S.S.S.Z.Z.Z.Z.Z.Z.Z.Z.Z.Z.Z.Z.Z.Z.Z.Z.Z.Z.Z.Z.Z.Z.Z.Z.Z.Z.Z.Z.Z.Z.Z.Z.Z.Z.Z.Z.Z.Z.Z.Z.Z.Z.Z.Z.Z.Z.Z.Z.Z.Z.Z.S.S.S.S.S.Z.Z.D.,X8X*X*X=X=X7X6XG.Z.D.Z.A.OX+X*X*X=X=X6X8XOXZ.H.Z.A.g.VXNXCXNXVX=XA.Z.F.F.Z.H.Z.Z.Z.Z.Z.Z.Z.Z.Z.Z.Z.Z.Z.Z.Z.Z.Z.Z.Z.Z.Z.Z.Z.Z.Z.Z.Z.Z.Z.Z.Z.Z.Z.Z.Z.Z.Z.Z.Z.Z.Z.Z.Z.Z.Z.Z.Z.Z.Z.Z.Z.Z.Z.Z.Z.Z.Z.Z.Z.Z.Z.Z.Z.Z.",
"Z.Z.Z.Z.Z.Z.Z.Z.Z.Z.Z.Z.Z.Z.Z.Z.Z.Z.Z.Z.Z.Z.Z.Z.Z.Z.Z.Z.Z.Z.Z.Z.Z.Z.Z.Z.Z.Z.Z.Z.Z.Z.Z.Z.Z.Z.Z.Z.Z.Z.Z.Z.Z.Z.Z.Z.Z.Z.Z.Z.Z.Z.Z.Z.F.Z.Z.A.U.+X6X*X*X8X+XA.A.H.H.n.D.,X6X*X6X=XQ.=X6X6XR.U.Z.Z.F.Z.y.gXAXVXbXA.D.Z.A.G.G.F.B.B.F.F.Z.Z.Z.Z.Z.Z.Z.Z.Z.Z.Z.Z.Z.Z.Z.Z.Z.A.A.Z.Z.Z.Z.Z.Z.Z.Z.Z.Z.Z.H.H.F.Z.Z.Z.Z.Z.Z.Z.A.A.A.S.S.M.M.M.Z.Z.Z.Z.Z.Z.Z.Z.Z.Z.Z.Z.Z.Z.Z.Z.Z.u.u.p.Z.Z.A.A.Z.Z.Z.Z.Z.A.A.H.M.M.M.M.M.C.C.C.n.n.n.n.b.b.n.b.{ { { @.b.b.b.b.b.n.n.M.S.S.S.Z.Z.Z.Z.Z.Z.Z.Z.Z.Z.Z.Z.A.u.U.1X+X*X;X*X+X8X@XA.u.H.A.A.,X6X6X=X=X*X*X*X6X+XD.A.S.S.e.u.i.bXVXFXVXU.J.F.Z.Z.Z.Z.Z.Z.S.S.M.M.M.M.M.Z.Z.Z.Z.Z.Z.Z.Z.Z.Z.Z.Z.Z.Z.Z.Z.Z.Z.Z.Z.Z.Z.Z.Z.Z.Z.Z.Z.Z.Z.Z.Z.Z.A.A.A.Z.Z.Z.Z.F.Z.Z.Z.Z.Z.M.M.H.H.H.H.H.H.H.H.S.S.S.H.H.S.S.S.Z.Z.Z.Z.Z.Z.Z.Z.Z.Z.Z.Z.Z.Z.Z.Z.Z.Z.Z.Z.Z.Z.Z.Z.Z.Z.Z.Z.Z.Z.Z.Z.Z.Z.Z.Z.Z.Z.Z.Z.Z.Z.Z.Z.Z.Z.Z.Z.S.S.S.S.S.S.Z.Z.D.1X1X+X6X=X=X6X6XG.A.A.Z.u.OX,X*X*X6X6X6X8XOXZ.H.n.A.j.ZXNXCXNXAX=XA.Z.F.F.Z.H.Z.Z.Z.Z.Z.Z.Z.Z.Z.Z.Z.Z.Z.Z.Z.Z.Z.Z.Z.Z.Z.Z.Z.Z.Z.Z.Z.Z.Z.Z.Z.Z.Z.Z.Z.Z.Z.Z.Z.Z.Z.Z.Z.Z.Z.Z.Z.Z.Z.Z.Z.Z.Z.Z.Z.Z.Z.Z.Z.Z.Z.Z.Z.Z.",
"Z.Z.Z.Z.Z.Z.Z.Z.Z.Z.Z.Z.Z.Z.Z.Z.Z.Z.Z.Z.Z.Z.Z.Z.Z.Z.Z.Z.Z.Z.Z.Z.Z.Z.Z.Z.Z.Z.Z.Z.Z.Z.Z.Z.Z.Z.Z.Z.Z.Z.Z.Z.Z.Z.Z.Z.Z.Z.Z.Z.Z.Z.Z.Z.Z.Z.Z.A.U.+X*X*X*X8X+XA.Z.H.H.n.D.,X6X*X6X=XQ.=X6X6XR.U.Z.Z.F.A.g.fXAXVXbXi.D.A.A.G.F.H.B.B.F.F.Z.Z.Z.Z.Z.Z.Z.Z.Z.Z.Z.Z.Z.Z.Z.Z.Z.A.Z.Z.Z.Z.Z.Z.H.Z.Z.Z.F.Z.F.F.F.F.F.F.F.F.Z.Z.A.Z.Z.S.S.M.M.M.Z.Z.Z.Z.Z.Z.Z.Z.Z.Z.Z.Z.Z.Z.Z.Z.Z.Z.S.S.Z.Z.A.Z.Z.Z.Z.Z.Z.Z.A.Z.M.M.M.C.H.H.H.H.C.H.M.M.n.n.n.n.1.{ { q.b.b.b.b.n.n.M.S.S.S.S.Z.Z.Z.Z.Z.Z.Z.Z.Z.Z.Z.Z.A.u.U.1X+X*X;X*X+X1X@XA.u.H.Z.A.,X6X6XQ.=X=X=X*X6X#XD.A.S.S.u.u.i.bXZXGXVXU.J.Z.Z.Z.Z.Z.Z.S.S.S.S.M.M.S.S.Z.Z.Z.Z.Z.Z.Z.Z.Z.Z.Z.Z.Z.Z.Z.Z.Z.Z.Z.Z.Z.Z.Z.Z.Z.Z.Z.Z.Z.Z.Z.Z.Z.A.A.A.Z.Z.Z.Z.H.H.H.H.H.Z.Z.Z.Z.Z.Z.Z.Z.Z.Z.Z.Z.S.S.H.H.H.H.S.Z.Z.Z.Z.Z.Z.Z.Z.Z.Z.Z.Z.Z.Z.Z.Z.Z.Z.Z.Z.Z.Z.Z.Z.Z.Z.Z.Z.Z.Z.Z.Z.Z.Z.Z.Z.Z.Z.Z.Z.Z.Z.Z.Z.Z.Z.Z.Z.Z.S.S.M.S.S.Z.A.D.1X8X*X6X*X*X6X6XG.A.A.u.u.OX,X*X*X6X6X6X8XOXA.H.n.A.Y.ZXNXCXBXAX=XI.Z.F.Z.S.H.Z.Z.Z.Z.Z.Z.Z.Z.Z.Z.Z.S.Z.S.Z.Z.Z.Z.Z.Z.Z.Z.Z.Z.Z.Z.Z.Z.Z.Z.Z.Z.Z.Z.Z.Z.Z.Z.Z.Z.Z.Z.Z.Z.Z.Z.Z.Z.Z.Z.Z.Z.Z.Z.Z.Z.Z.Z.Z.Z.Z.Z.Z.Z.",
"Z.Z.Z.Z.Z.Z.Z.Z.Z.Z.Z.Z.Z.Z.Z.Z.Z.Z.Z.Z.Z.Z.Z.Z.Z.Z.Z.Z.Z.Z.Z.Z.Z.Z.Z.Z.Z.Z.Z.Z.Z.Z.Z.Z.Z.Z.Z.Z.Z.Z.Z.Z.Z.Z.Z.Z.Z.Z.Z.Z.Z.Z.Z.Z.Z.H.u.u.OX-X*X*X-X*XY.i.A.H.Z.2.A.+X9X*X6X=X=X9X=X6X+XU.A.Z.S.Z.y.cXNXAXMXg.7.A.Z.Z.Z.M.C.S.Z.Z.Z.S.S.S.S.S.Z.Z.S.S.S.S.S.S.S.S.Z.Z.Z.Z.Z.Z.Z.Z.Z.Z.Z.Z.Z.Z.Z.Z.Z.Z.Z.Z.Z.Z.Z.Z.Z.Z.Z.Z.Z.S.Z.Z.Z.Z.Z.Z.Z.Z.Z.Z.Z.Z.Z.Z.Z.Z.Z.Z.Z.Z.Z.Z.Z.Z.Z.Z.Z.Z.Z.Z.Z.Z.Z.Z.Z.Z.Z.Z.Z.Z.Z.Z.Z.Z.Z.Z.Z.Z.Z.Z.S.S.S.S.S.S.S.Z.Z.Z.Z.Z.Z.Z.Z.Z.Z.Z.Z.Z.F.Z.Z.Z.F.Z.Z.A.u.U.,X+X*X=X*X+X8X@XS.p.S.u.D.,X8X*X*X7X=X=X=X+X,X2.H.M.Z.Z.u.i.mXVXNXZX+Xu.u.H.Z.Z.S.Z.Z.Z.S.Z.Z.Z.A.A.Z.Z.Z.Z.Z.Z.Z.S.Z.Z.S.S.S.S.M.S.Z.Z.Z.Z.Z.Z.Z.Z.Z.Z.Z.Z.Z.Z.Z.Z.Z.Z.Z.Z.Z.Z.Z.Z.Z.Z.Z.Z.Z.Z.Z.Z.Z.Z.Z.Z.Z.Z.Z.Z.Z.Z.Z.Z.Z.Z.Z.Z.Z.Z.Z.Z.Z.Z.Z.Z.Z.Z.Z.Z.Z.Z.Z.Z.Z.Z.Z.Z.Z.Z.Z.Z.Z.Z.Z.Z.Z.Z.Z.Z.Z.Z.Z.Z.Z.Z.Z.Z.Z.Z.Z.Z.Z.Z.Z.Z.Z.Z.Z.H.S.Z.A.u.U.6X6XQ.*X*X+X6X,XG.A.D.Z.u.OX1X*X6X6X=X6X6XT.A.Z.H.6.*XNXNXBXCXAXjX7.c.J.M.C.M.Z.Z.Z.Z.Z.Z.S.S.S.S.S.S.M.M.M.S.Z.Z.Z.Z.Z.Z.Z.Z.Z.Z.Z.Z.Z.Z.Z.Z.Z.Z.Z.Z.Z.Z.Z.Z.Z.Z.Z.Z.Z.Z.Z.Z.Z.Z.Z.Z.Z.Z.Z.Z.Z.Z.Z.Z.Z.Z.Z.Z.",
"Z.Z.Z.Z.Z.Z.Z.Z.Z.Z.Z.Z.Z.Z.Z.Z.Z.Z.Z.Z.Z.Z.Z.Z.Z.Z.Z.Z.Z.Z.Z.Z.Z.Z.Z.Z.Z.Z.Z.Z.Z.Z.Z.Z.Z.Z.Z.Z.Z.Z.Z.Z.Z.Z.Z.Z.Z.Z.Z.Z.Z.Z.Z.Z.Z.H.u.u.OX*X*X*X-X*XU.i.A.H.Z.<.A.+X9X*X*X=X=X9X=X6X+XD.A.S.M.Z.f.cXNXZXbXj.7.A.Z.S.M.M.F.Z.Z.Z.Z.Z.Z.Z.Z.Z.Z.Z.Z.Z.Z.Z.Z.Z.Z.Z.Z.Z.Z.Z.Z.Z.Z.Z.Z.Z.Z.Z.Z.Z.Z.Z.Z.Z.Z.Z.Z.Z.Z.Z.Z.Z.Z.Z.Z.Z.Z.Z.Z.Z.Z.Z.Z.Z.Z.Z.Z.Z.Z.Z.Z.Z.Z.Z.Z.Z.Z.Z.Z.Z.Z.Z.Z.Z.Z.Z.Z.Z.Z.Z.Z.Z.Z.Z.Z.Z.Z.Z.Z.Z.Z.Z.Z.Z.Z.Z.Z.Z.Z.Z.Z.Z.Z.Z.Z.Z.Z.Z.Z.Z.Z.Z.Z.Z.Z.Z.F.F.Z.Z.F.Z.Z.A.u.U.1X+X*X-X*X+XqX@XS.p.S.u.D.,X8X6X*X7X=X=X=X+X,X2.H.M.Z.A.i.y.mXNXNXSX+Xu.u.D.A.Z.S.Z.Z.Z.Z.Z.Z.A.A.A.Z.Z.Z.Z.Z.Z.Z.Z.Z.Z.S.S.S.S.M.M.Z.Z.Z.Z.Z.Z.Z.Z.Z.Z.Z.Z.Z.Z.Z.Z.Z.Z.Z.Z.Z.Z.Z.Z.Z.Z.Z.Z.Z.Z.Z.Z.Z.Z.Z.Z.Z.Z.Z.Z.Z.Z.Z.Z.Z.Z.Z.Z.Z.Z.Z.Z.Z.Z.Z.Z.Z.Z.Z.Z.Z.Z.Z.Z.Z.Z.Z.Z.Z.Z.Z.Z.Z.Z.Z.Z.Z.Z.Z.Z.Z.Z.Z.Z.Z.Z.Z.Z.Z.Z.Z.Z.Z.Z.Z.Z.Z.Z.Z.H.H.Z.A.u.U.6X6XQ.*X*X+X,X2XG.A.D.Z.u.OX1X*X6X7X=X6X6XT.A.Z.H.6.*XNXBXBXBXCXkX7.c.J.M.M.M.Z.Z.Z.Z.Z.Z.S.S.S.S.S.S.M.M.M.S.Z.Z.Z.Z.Z.Z.Z.Z.Z.Z.Z.Z.Z.Z.Z.Z.Z.Z.Z.Z.Z.Z.Z.Z.Z.Z.Z.Z.Z.Z.Z.Z.Z.Z.Z.Z.Z.Z.Z.Z.Z.Z.Z.Z.Z.Z.Z.Z.",
"Z.Z.Z.Z.Z.Z.Z.Z.Z.Z.Z.Z.Z.Z.Z.Z.Z.Z.Z.Z.Z.Z.Z.Z.Z.Z.Z.Z.Z.Z.Z.Z.Z.Z.Z.Z.Z.Z.Z.Z.Z.Z.Z.Z.Z.Z.Z.Z.Z.Z.Z.Z.Z.Z.Z.Z.Z.Z.Z.Z.Z.Z.Z.Z.Z.H.u.t.OX*X*X*X*X*XU.i.A.H.M.1.A.+X9X*X*X=X=X9X=X6X+XD.A.S.C.Z.g.cXVXZXbXY.I.A.Z.C.C.C.B.F.F.F.Z.A.A.A.A.A.A.A.A.A.A.A.A.A.A.Z.Z.Z.Z.Z.Z.Z.Z.Z.Z.Z.Z.Z.Z.Z.Z.Z.Z.Z.Z.Z.Z.Z.Z.Z.Z.Z.Z.Z.Z.Z.Z.Z.Z.Z.Z.Z.Z.Z.Z.Z.Z.Z.Z.Z.Z.Z.Z.Z.Z.Z.Z.Z.Z.Z.Z.Z.Z.Z.Z.Z.Z.Z.Z.Z.Z.Z.Z.Z.Z.Z.Z.Z.Z.Z.Z.Z.Z.Z.Z.Z.Z.Z.Z.Z.Z.Z.Z.Z.Z.Z.Z.Z.Z.Z.Z.Z.Z.Z.Z.Z.F.F.Z.Z.F.Z.A.A.u.U.1X+X*X=X*X+XqX@XS.Z.S.u.D.+X6X6X*X7X=X=X*X+X,X<.S.M.Z.Z.i.i.mXNXSXSX*Xi.u.D.H.Z.S.Z.Z.Z.Z.Z.Z.Z.Z.Z.Z.F.Z.Z.Z.Z.F.F.Z.Z.Z.Z.Z.Z.Z.Z.Z.Z.Z.Z.Z.Z.Z.Z.Z.Z.Z.Z.Z.Z.Z.Z.Z.Z.Z.Z.Z.Z.Z.Z.Z.Z.Z.Z.Z.Z.Z.Z.Z.Z.Z.Z.Z.Z.Z.Z.Z.Z.Z.Z.Z.Z.Z.Z.Z.Z.Z.Z.Z.Z.Z.Z.Z.Z.Z.Z.Z.Z.Z.Z.Z.Z.Z.Z.Z.Z.Z.Z.Z.Z.Z.Z.Z.Z.Z.Z.Z.Z.Z.Z.Z.Z.Z.Z.Z.Z.Z.Z.Z.Z.Z.Z.Z.Z.Z.S.S.S.A.u.U.6X6X*X6X*X+X,X,XG.A.D.u.u.OX1X*X*X7X=X6X6XT.A.Z.H.4.=XSXBXBXBXCXcX_.c.H.M.M.M.Z.Z.Z.Z.Z.Z.Z.Z.Z.Z.S.S.Z.Z.Z.Z.Z.Z.Z.Z.Z.Z.Z.Z.Z.Z.Z.Z.Z.Z.Z.Z.Z.Z.Z.Z.Z.Z.Z.Z.Z.Z.Z.Z.Z.Z.Z.Z.Z.Z.Z.Z.Z.Z.Z.Z.Z.Z.Z.Z.Z.Z.Z.Z.",
"Z.Z.Z.Z.Z.Z.Z.Z.Z.Z.Z.Z.Z.Z.Z.Z.Z.Z.Z.Z.Z.Z.Z.Z.Z.Z.Z.Z.Z.Z.Z.Z.Z.Z.Z.Z.Z.Z.Z.Z.Z.Z.Z.Z.Z.Z.Z.Z.Z.Z.Z.Z.Z.Z.Z.Z.Z.Z.Z.Z.Z.Z.Z.Z.Z.H.u.u.OX*X*X*X*X*XU.i.A.H.n.:.D.#X*X*X*X=X=X=X=X6X+XD.A.S.C.Z.g.MXZXZXVXQ.I.Z.Z.C.C.C.C.F.F.F.A.A.A.A.A.A.A.A.A.A.A.A.A.A.A.A.Z.Z.Z.Z.Z.Z.Z.Z.Z.Z.Z.Z.Z.Z.Z.Z.Z.Z.Z.Z.Z.Z.Z.Z.Z.Z.Z.Z.Z.Z.Z.Z.Z.Z.Z.Z.Z.Z.Z.Z.Z.Z.Z.Z.Z.Z.Z.Z.Z.Z.Z.Z.Z.Z.Z.Z.Z.Z.Z.Z.Z.Z.Z.Z.Z.Z.Z.Z.Z.Z.Z.Z.Z.Z.Z.Z.Z.Z.Z.Z.Z.Z.Z.Z.Z.Z.Z.Z.Z.Z.Z.Z.Z.Z.Z.Z.S.Z.Z.Z.Z.H.Z.Z.F.Z.A.A.u.U.1X*X*X=X*X+X8X@XS.Z.S.u.A.+X6X6X=X=X=X=X*X,X,X>.Z.Z.Z.Z.A.g.ZXNXSXCX-Xi.t.D.D.Z.H.Z.Z.Z.Z.Z.Z.Z.Z.Z.Z.F.Z.Z.Z.F.F.F.Z.Z.Z.Z.Z.Z.Z.Z.Z.Z.Z.Z.Z.Z.Z.Z.Z.Z.Z.Z.Z.Z.Z.Z.Z.Z.Z.Z.Z.Z.Z.Z.Z.Z.Z.Z.Z.Z.Z.Z.Z.Z.Z.Z.Z.Z.Z.Z.Z.Z.Z.Z.Z.Z.Z.Z.Z.Z.Z.Z.Z.Z.Z.Z.Z.Z.Z.Z.Z.Z.Z.Z.Z.Z.Z.Z.Z.Z.Z.Z.Z.Z.Z.Z.Z.Z.Z.Z.Z.Z.Z.Z.Z.Z.Z.Z.Z.Z.Z.Z.Z.Z.Z.Z.Z.Z.Z.S.S.S.A.u.U.6X6X*X6X*X+X1X,XG.A.H.u.u.OX,X*X*X6X=X6X6XT.A.Z.Z.4.=XSXBXBXBXCXbXI.c.H.M.C.M.Z.Z.Z.Z.Z.Z.Z.Z.Z.Z.Z.Z.Z.Z.Z.Z.Z.Z.Z.Z.Z.Z.Z.Z.Z.Z.Z.Z.Z.Z.Z.Z.Z.Z.Z.Z.Z.Z.Z.Z.Z.Z.Z.Z.Z.Z.Z.Z.Z.Z.Z.Z.Z.Z.Z.Z.Z.Z.Z.Z.Z.Z.Z.Z.",
"Z.Z.Z.Z.Z.Z.Z.Z.Z.Z.Z.Z.Z.Z.Z.Z.Z.Z.Z.Z.Z.Z.Z.Z.Z.Z.Z.Z.Z.Z.Z.Z.Z.Z.Z.Z.Z.Z.Z.Z.Z.Z.Z.Z.Z.Z.Z.Z.Z.Z.Z.Z.Z.Z.Z.Z.Z.Z.Z.Z.Z.Z.Z.Z.Z.H.u.u.OX*X*X*X*X+XU.i.Z.H.n.~ U.#X-X*X*X=X=X=X=X6XR.D.A.S.M.Z.g.ZXZXVXZX7XE.6.Z.F.C.C.C.F.F.F.Z.Z.Z.Z.Z.Z.Z.Z.Z.Z.Z.Z.A.Z.Z.Z.Z.Z.Z.Z.Z.Z.Z.Z.Z.Z.Z.Z.Z.Z.Z.Z.Z.F.F.F.F.F.F.F.F.F.F.F.F.F.F.Z.Z.Z.Z.Z.Z.Z.Z.Z.Z.Z.Z.Z.Z.Z.Z.Z.Z.Z.Z.Z.Z.Z.Z.Z.Z.Z.Z.Z.Z.Z.Z.Z.Z.Z.Z.Z.Z.Z.Z.Z.Z.Z.Z.Z.Z.Z.Z.Z.Z.Z.Z.Z.Z.Z.Z.Z.Z.Z.Z.Z.Z.Z.Z.Z.S.Z.Z.Z.Z.Z.Z.Z.F.Z.Z.A.u.U.1X*X*X=X=X+X8X#XS.A.D.u.A.R.6X6X=X=X=X=X*X,X,X:.Z.Z.Z.A.A.g.ZXVXCXCX=Xi.6.A.A.A.H.Z.Z.F.F.F.F.Z.F.Z.F.F.F.F.F.F.F.F.G.F.F.Z.F.Z.F.Z.Z.Z.Z.Z.Z.Z.Z.Z.Z.Z.Z.Z.Z.Z.Z.Z.Z.Z.Z.Z.Z.Z.Z.Z.Z.Z.Z.Z.Z.Z.Z.Z.Z.Z.Z.Z.Z.Z.Z.Z.Z.Z.Z.Z.Z.Z.Z.Z.Z.Z.Z.Z.Z.Z.Z.Z.Z.Z.Z.Z.Z.Z.Z.Z.Z.Z.Z.Z.Z.Z.Z.Z.Z.Z.Z.Z.Z.Z.Z.Z.Z.Z.Z.Z.Z.Z.Z.Z.Z.Z.Z.Z.Z.Z.Z.Z.Z.Z.Z.S.S.S.Z.u.U.6X6X*X*X*X+X#X,XG.Z.H.u.u.OX1X*X*X6X=X6X6XT.A.Z.D.5.=XAXSXBXBXCXbXE.c.H.M.H.M.Z.Z.Z.Z.Z.Z.Z.Z.Z.Z.Z.Z.Z.Z.G.Z.Z.Z.Z.Z.Z.Z.Z.Z.Z.Z.Z.Z.Z.Z.Z.Z.Z.Z.Z.Z.Z.Z.Z.Z.Z.Z.Z.Z.Z.Z.Z.Z.Z.Z.Z.Z.Z.Z.Z.Z.Z.Z.Z.Z.Z.Z.Z.Z.",
"Z.Z.Z.Z.Z.Z.Z.Z.Z.Z.Z.Z.Z.Z.Z.Z.Z.Z.Z.Z.Z.Z.Z.Z.Z.Z.Z.Z.Z.Z.Z.Z.Z.Z.Z.Z.Z.Z.Z.Z.Z.Z.Z.Z.Z.Z.Z.Z.Z.Z.Z.Z.Z.Z.Z.Z.Z.Z.Z.Z.Z.Z.Z.Z.Z.H.u.u.OX-X*X*X*X+XU.u.Z.H.b.L [.1X-X+X*X=X=X=X=X6XR.D.A.Z.C.Z.g.ZXZXVXZXjXQ.A.A.Z.S.C.F.F.F.Z.Z.Z.Z.Z.Z.Z.Z.Z.Z.Z.Z.Z.Z.Z.Z.Z.Z.Z.Z.Z.Z.Z.Z.Z.Z.Z.Z.Z.Z.Z.Z.Z.F.F.F.F.F.F.F.F.F.F.F.F.F.F.F.Z.Z.Z.Z.Z.Z.Z.Z.Z.Z.Z.Z.Z.Z.Z.Z.Z.Z.Z.Z.Z.Z.Z.Z.Z.Z.Z.Z.Z.Z.Z.Z.Z.Z.Z.Z.Z.Z.Z.Z.Z.Z.Z.Z.Z.Z.Z.Z.Z.Z.Z.Z.Z.Z.Z.Z.Z.Z.Z.Z.Z.Z.Z.Z.Z.Z.Z.Z.Z.Z.Z.Z.Z.F.Z.Z.A.u.U.1X*X*X=X*X*X8X@XA.A.A.6.Z.T.6X6X6X=X=X=X6X6X,X~ n.Z.Z.A.A.g.ZXCXCXCXjXh.y.i.i.A.D.Z.Z.F.F.F.F.F.F.F.F.F.F.F.F.F.F.F.F.G.F.F.F.F.F.F.Z.Z.Z.Z.Z.Z.Z.Z.Z.Z.Z.Z.Z.Z.Z.Z.Z.Z.Z.Z.Z.Z.Z.Z.Z.Z.Z.Z.Z.Z.Z.Z.Z.Z.Z.Z.Z.Z.Z.Z.Z.Z.Z.Z.Z.Z.Z.Z.Z.Z.Z.Z.Z.Z.Z.Z.Z.Z.Z.Z.Z.Z.Z.Z.Z.Z.Z.Z.Z.Z.Z.Z.Z.Z.Z.Z.Z.Z.Z.Z.Z.Z.Z.Z.Z.Z.Z.Z.Z.Z.Z.Z.Z.Z.Z.Z.Z.Z.A.S.S.S.Z.u.U.6X6X*X*X*X+X#X2XZ.Z.A.w.u.OX#X*X*X6X=X6X6XOXA.Z.A.5.&XAXBXBXBXCXbXY.c.Z.Z.H.M.Z.Z.Z.Z.Z.Z.Z.Z.Z.Z.Z.Z.A.A.A.A.Z.Z.Z.Z.Z.Z.Z.Z.Z.Z.Z.Z.Z.Z.Z.Z.Z.Z.Z.Z.Z.Z.Z.Z.Z.Z.Z.Z.Z.Z.Z.Z.Z.Z.Z.Z.Z.Z.Z.Z.Z.Z.Z.Z.Z.Z.Z.Z.",
"Z.Z.Z.Z.Z.Z.Z.Z.Z.Z.Z.Z.Z.Z.Z.Z.Z.Z.Z.Z.Z.Z.Z.Z.Z.Z.Z.Z.Z.Z.Z.Z.Z.Z.Z.Z.Z.Z.Z.Z.Z.Z.Z.Z.Z.Z.Z.Z.Z.Z.Z.Z.Z.Z.Z.Z.Z.Z.Z.Z.Z.Z.Z.Z.M.H.u.u.OX-X*X*X8X+XU.Z.Z.H.b.M OX8X*X+X*X=X=X=X=X6XR.D.A.S.H.A.g.ZXVXkXCXVXjX6XA.A.A.Z.Z.Z.A.A.S.M.M.M.M.M.M.M.M.M.M.M.M.M.M.M.Z.Z.Z.Z.Z.Z.Z.Z.Z.Z.Z.Z.Z.Z.Z.Z.F.F.F.F.F.F.F.F.F.F.F.F.F.F.F.F.Z.Z.Z.Z.Z.Z.Z.Z.Z.Z.Z.Z.Z.Z.Z.Z.Z.Z.Z.Z.Z.Z.Z.Z.Z.Z.Z.Z.Z.Z.Z.Z.Z.Z.Z.Z.Z.Z.Z.Z.Z.Z.Z.Z.Z.Z.Z.Z.Z.Z.Z.Z.Z.Z.Z.Z.Z.Z.Z.Z.Z.Z.Z.Z.Z.Z.Z.Z.Z.Z.Z.Z.F.Z.Z.A.u.U.,X*X=X=X=X*X8X+XA.A.Z.6.6.R.6X6X6X=X7X=X6X6X2XN n.Z.Z.A.I.g.ZXCXCXCXZXoXg.i.i.i.A.Z.Z.F.F.F.F.F.F.F.F.Z.Z.Z.Z.Z.Z.Z.F.F.F.F.F.F.G.G.Z.Z.Z.Z.Z.Z.Z.Z.Z.Z.Z.Z.Z.Z.Z.Z.Z.Z.Z.Z.Z.Z.Z.Z.Z.Z.Z.Z.Z.Z.Z.Z.Z.Z.Z.Z.Z.Z.Z.Z.Z.Z.Z.Z.Z.Z.Z.Z.Z.Z.Z.Z.Z.Z.Z.Z.Z.Z.Z.Z.Z.Z.Z.Z.Z.Z.Z.Z.Z.Z.Z.Z.Z.Z.Z.Z.Z.Z.Z.Z.Z.Z.Z.Z.Z.Z.Z.Z.Z.Z.Z.Z.Z.Z.Z.Z.Z.Z.Z.S.S.S.Z.u.U.6X6X*X*X*X+X1X2XA.Z.A.w.u.OX+X*X6X6X6X6X6XOXA.Z.D.5.;XAXBXBXBXCXVXR.A.A.Z.H.Z.Z.Z.Z.Z.Z.Z.Z.Z.Z.Z.Z.Z.Z.Z.G.Z.Z.Z.Z.Z.Z.Z.Z.Z.Z.Z.Z.Z.Z.Z.Z.Z.Z.Z.Z.Z.Z.Z.Z.Z.Z.Z.Z.Z.Z.Z.Z.Z.Z.Z.Z.Z.Z.Z.Z.Z.Z.Z.Z.Z.Z.Z.Z.Z.",
"Z.Z.Z.Z.Z.Z.Z.Z.Z.Z.Z.Z.Z.Z.Z.Z.Z.Z.Z.Z.Z.Z.Z.Z.Z.Z.Z.Z.Z.Z.Z.Z.Z.Z.Z.Z.Z.Z.Z.Z.Z.Z.Z.Z.Z.Z.Z.Z.Z.Z.Z.Z.Z.Z.Z.Z.Z.Z.Z.Z.Z.Z.Z.Z.M.H.Z.u.OX6X*X*X8X+XU.A.Z.H.l.M OX8X*X+X*X=X=X=X=X6XR.D.A.S.H.A.j.AXNXhXCXCXVXgXg.i.i.i.i.i.i.i.S.M.M.M.M.M.M.M.M.M.M.M.M.M.M.M.Z.Z.Z.Z.Z.Z.Z.Z.Z.Z.Z.Z.Z.Z.Z.Z.Z.Z.F.Z.F.Z.F.Z.F.Z.F.Z.F.Z.F.Z.Z.Z.Z.Z.Z.Z.Z.Z.Z.Z.Z.Z.Z.Z.Z.Z.Z.Z.Z.Z.Z.Z.Z.Z.Z.Z.Z.Z.Z.Z.Z.Z.Z.Z.Z.Z.Z.Z.Z.Z.Z.Z.Z.Z.Z.Z.Z.Z.Z.Z.Z.Z.Z.Z.Z.Z.Z.Z.Z.Z.Z.Z.Z.Z.Z.Z.Z.Z.Z.Z.Z.Z.F.Z.Z.A.u.U.,X*X=X=X=X*X8X+XA.A.Z.6.u.R.0X6X6X=X7X=X6X8X2XN z.F.Z.A.I.E.ZXCXCXCXAX;Xj.g.i.i.A.Z.Z.F.F.F.F.F.F.F.S.M.S.S.S.S.Z.Z.F.F.F.F.F.F.F.F.Z.Z.Z.Z.Z.Z.Z.Z.Z.Z.Z.Z.Z.Z.Z.Z.Z.Z.Z.Z.Z.Z.Z.Z.Z.Z.Z.Z.Z.Z.Z.Z.Z.Z.Z.Z.Z.Z.Z.Z.Z.Z.Z.Z.Z.Z.Z.Z.Z.Z.Z.Z.Z.Z.Z.Z.Z.Z.Z.Z.Z.Z.Z.Z.Z.Z.Z.Z.Z.Z.Z.Z.Z.Z.Z.Z.Z.Z.Z.Z.Z.Z.Z.Z.Z.Z.Z.Z.Z.Z.Z.Z.Z.Z.Z.Z.Z.Z.Z.S.S.S.Z.u.U.6X6X*X*X*X+X#X2XZ.Z.S.w.u.OX+X*X6X6X6X6X1XOXA.Z.D.5.;XAXSXBXBXNXVXR.7.A.Z.J.Z.S.S.S.S.S.Z.Z.Z.Z.Z.Z.Z.Z.Z.F.Z.Z.Z.Z.Z.Z.Z.Z.Z.Z.Z.Z.Z.Z.Z.Z.Z.Z.Z.Z.Z.Z.Z.Z.Z.Z.Z.Z.Z.Z.Z.Z.Z.Z.Z.Z.Z.Z.Z.Z.Z.Z.Z.Z.Z.Z.Z.Z.Z.",
"Z.Z.Z.Z.Z.Z.Z.Z.Z.Z.Z.Z.Z.Z.Z.Z.Z.Z.Z.Z.Z.Z.Z.Z.Z.Z.Z.Z.Z.Z.Z.Z.Z.Z.Z.Z.Z.Z.Z.Z.Z.Z.Z.Z.Z.Z.Z.Z.Z.Z.Z.Z.Z.Z.Z.Z.Z.Z.Z.Z.Z.Z.Z.Z.Z.Z.Z.u.+X6X*X*X*X+XD.Z.H.C.` ) @X+X*X*X*X=X=X=X=XQ.6XA.u.H.n.A.Y.NXAXCXCXCXCXNXfXk.y.;.5.g.f.5.u.n.n.S.n.S.S.S.S.S.S.S.M.M.n.Z.Z.Z.Z.Z.Z.A.Z.A.A.H.Z.Z.Z.Z.Z.Z.Z.Z.Z.Z.Z.Z.Z.Z.Z.Z.Z.Z.Z.Z.Z.Z.Z.Z.Z.Z.Z.Z.Z.Z.Z.Z.Z.Z.Z.Z.Z.Z.Z.Z.Z.Z.Z.Z.Z.Z.Z.Z.Z.Z.Z.Z.Z.Z.Z.Z.Z.Z.Z.Z.Z.Z.Z.Z.Z.Z.Z.Z.Z.Z.Z.Z.Z.Z.Z.Z.Z.Z.Z.Z.Z.Z.Z.Z.Z.Z.Z.S.Z.Z.Z.Z.S.S.Z.Z.Z.Z.A.A.OX*X*X7X6X6X8XT.u.A.J.>.2.,X6X6X6X6X7XQ.6X+X2X1.) n.H.Z.i.R.bXAXBXCXVXZXxXh.4.4.A.T.G.J.J.H.F.Z.Z.n.n.w.w.n.M.S.S.M.M.M.n.n.n.Z.F.F.Z.Z.Z.Z.Z.Z.Z.Z.Z.Z.Z.Z.Z.Z.Z.Z.Z.Z.Z.Z.Z.Z.Z.Z.Z.Z.Z.Z.Z.Z.Z.Z.Z.Z.Z.Z.Z.Z.Z.Z.Z.Z.Z.Z.Z.Z.Z.Z.Z.Z.Z.Z.Z.Z.Z.Z.Z.Z.Z.Z.Z.Z.Z.Z.Z.Z.Z.Z.Z.Z.Z.Z.Z.Z.Z.Z.Z.Z.Z.Z.Z.Z.Z.Z.Z.Z.Z.Z.Z.Z.Z.Z.Z.Z.Z.Z.Z.Z.S.S.M.M.S.A.T.+X9X6X*X+X#X#XT.Z.Z.Z.H.S.D.#X*X*X*X*X6X,XT.A.J.2.7.;XAXBXSXGXNXVX7XI.6.A.J.D.S.M.n.M.S.S.S.Z.Z.Z.Z.Z.Z.Z.Z.F.Z.Z.Z.Z.Z.Z.Z.Z.Z.Z.Z.Z.Z.Z.Z.Z.Z.Z.Z.Z.Z.Z.Z.Z.Z.Z.Z.Z.Z.Z.Z.Z.Z.Z.Z.Z.Z.Z.Z.Z.Z.Z.Z.Z.Z.Z.Z.Z.",
"Z.Z.Z.Z.Z.Z.Z.Z.Z.Z.Z.Z.Z.Z.Z.Z.Z.Z.Z.Z.Z.Z.Z.Z.Z.Z.Z.Z.Z.Z.Z.Z.Z.Z.Z.Z.Z.Z.Z.Z.Z.Z.Z.Z.Z.Z.Z.Z.Z.Z.Z.Z.Z.Z.Z.Z.Z.Z.Z.Z.Z.Z.Z.Z.Z.F.Z.u.R.6X6X*X+X+XD.u.H.n.) ) >X+X*X*X*X=X=X=X=XQ.6XA.6.H.n.Z.j.hXCXzXzXzXzXNXSXcX:X%X%X&XW.j.I.A.A.i.u.u.6.6.i.u.i.A.A.A.A.A.A.A.A.A.A.A.A.A.A.A.Z.A.Z.A.H.H.Z.Z.Z.Z.Z.H.H.H.Z.Z.Z.Z.Z.S.H.H.Z.Z.Z.Z.Z.Z.Z.Z.Z.Z.Z.Z.Z.Z.Z.Z.Z.Z.Z.Z.Z.Z.Z.Z.Z.Z.Z.Z.Z.Z.Z.Z.Z.Z.Z.Z.Z.Z.Z.Z.Z.Z.Z.Z.Z.Z.Z.Z.Z.Z.Z.Z.Z.Z.Z.Z.Z.Z.Z.Z.Z.Z.Z.Z.S.S.Z.Z.Z.Z.Z.Z.Z.Z.Z.A.A.U.#X8X*X=X*X6X8XT.Z.Z.J.>.6.,X6X0X6X6X7XQ.6X+X2X:.) n.H.Z.u.+XZXAXNXNXNXZXmX;Xg.i.7.4.c.Z.Z.Z.G.J.T.T.[.[.D.S.D.S.S.M.n.M.S.H.H.H.H.H.Z.Z.Z.Z.Z.Z.Z.Z.Z.Z.Z.Z.Z.Z.Z.Z.Z.Z.Z.Z.Z.Z.Z.Z.Z.Z.Z.Z.Z.Z.Z.Z.Z.Z.Z.Z.Z.Z.Z.Z.Z.Z.Z.Z.Z.Z.Z.Z.Z.Z.Z.Z.Z.Z.Z.Z.Z.Z.Z.Z.Z.Z.Z.Z.Z.Z.Z.Z.Z.Z.Z.Z.Z.Z.Z.Z.Z.Z.Z.Z.Z.Z.Z.Z.Z.Z.Z.Z.Z.Z.Z.Z.Z.Z.Z.Z.Z.Z.S.M.M.M.S.S.A.+X9X6X+X+X#X#XT.Z.Z.Z.H.S.D.1X+X*X*X*X6X1XOXA.F.6.i.9XSXSXBXBXNXkX=X7.8.i.U.A.D.S.S.S.S.S.S.Z.S.S.S.S.H.F.F.F.Z.Z.Z.Z.Z.Z.Z.Z.Z.Z.Z.Z.Z.Z.Z.Z.Z.Z.Z.Z.Z.Z.Z.Z.Z.Z.Z.Z.Z.Z.Z.Z.Z.Z.Z.Z.Z.Z.Z.Z.Z.Z.Z.Z.Z.Z.Z.Z.",
"Z.Z.Z.Z.Z.Z.Z.Z.Z.Z.Z.Z.Z.Z.Z.Z.Z.Z.Z.Z.Z.Z.Z.Z.Z.Z.Z.Z.Z.Z.Z.Z.Z.Z.Z.Z.Z.Z.Z.Z.Z.Z.Z.Z.Z.Z.Z.Z.Z.Z.Z.Z.Z.Z.Z.Z.Z.Z.Z.Z.Z.Z.Z.Z.Z.H.Z.u.+X8X6X6X+X+XD.w.M.b.) ) >X+X*X*X*X=X=X=X=XQ.,Xu.2.H.M.Z.Y.cXAXCXCXBXSXAXAXZXZXZXZXVXVXbXbXjXjXjXjX7X7X7XE.E.E.E.E.f.f.f.7.7.7.7.6.6.6.6.A.A.A.A.A.A.A.A.A.Z.A.Z.Z.A.Z.S.Z.Z.Z.Z.A.Z.A.Z.Z.Z.Z.Z.Z.Z.Z.Z.Z.Z.Z.Z.Z.Z.Z.Z.Z.Z.Z.Z.Z.Z.Z.Z.Z.Z.Z.Z.Z.Z.Z.Z.Z.Z.Z.Z.Z.Z.Z.Z.Z.Z.Z.Z.Z.Z.Z.Z.Z.Z.Z.Z.Z.Z.Z.Z.Z.Z.Z.Z.Z.Z.Z.Z.Z.Z.Z.Z.Z.Z.Z.Z.Z.Z.Z.Z.A.D.+X8X*X*X*X8XqX>XZ.H.H.>.2.,X0X0X6X6X7XQ.8X,X5X~ ~ M.H.Z.u.+XmXAXNXNXNXZXZXbXjX9X6XR.U.A.A.6.6.6.7.u.u.w.w.u.S.S.S.Z.H.H.H.H.H.M.n.n.Z.Z.Z.Z.Z.Z.Z.Z.Z.Z.Z.Z.Z.Z.Z.Z.Z.Z.Z.Z.Z.Z.Z.Z.Z.Z.Z.Z.Z.Z.Z.Z.Z.Z.Z.Z.Z.Z.Z.Z.Z.Z.Z.Z.Z.Z.Z.Z.Z.Z.Z.Z.Z.Z.Z.Z.Z.Z.Z.Z.Z.Z.Z.Z.Z.Z.Z.Z.Z.Z.Z.Z.Z.Z.Z.Z.Z.Z.Z.Z.Z.Z.Z.Z.Z.Z.Z.Z.Z.Z.Z.Z.Z.Z.Z.Z.Z.Z.S.S.M.M.S.u.i.R.6X6X+X#X#X1XJ.Z.Z.S.S.p.D.1X+X*X*X*X8X1XOXZ.F.n.A.9XNXNXDXBXAXVXgXY.g.g.g.5.t.u.t.u.S.D.D.D.Z.Z.Z.Z.Z.Z.Z.Z.Z.Z.Z.Z.Z.Z.Z.Z.Z.Z.Z.Z.Z.Z.Z.Z.Z.Z.Z.Z.Z.Z.Z.Z.Z.Z.Z.Z.Z.Z.Z.Z.Z.Z.Z.Z.Z.Z.Z.Z.Z.Z.Z.Z.Z.Z.Z.Z.",
"Z.Z.Z.Z.Z.Z.Z.Z.Z.Z.Z.Z.Z.Z.Z.Z.Z.Z.Z.Z.Z.Z.Z.Z.Z.Z.Z.Z.Z.Z.Z.Z.Z.Z.Z.Z.Z.Z.Z.Z.Z.Z.Z.Z.Z.Z.Z.Z.Z.Z.Z.Z.Z.Z.Z.Z.Z.Z.Z.Z.Z.Z.Z.Z.Z.J.Z.A.+X8X6X6X+XOXS.n.M.b.) ) >X+X*X*X*X=X=X=X7X*X+X6.<.H.M.Z.h.gXVXNXCXNXNXSXcXcXMXVXVXVXVXVXVXVXVXVXVXVXVXVXAXAXAXVXVXkXkXkX6X6X6X*XR.R.T.T.U.U.D.A.A.u.u.u.A.A.A.u.A.u.Z.u.A.A.A.A.A.u.A.A.Z.Z.Z.Z.Z.Z.Z.Z.Z.Z.Z.Z.Z.Z.Z.Z.Z.Z.Z.Z.Z.Z.Z.Z.Z.Z.Z.Z.Z.Z.Z.Z.Z.Z.Z.Z.Z.Z.Z.Z.Z.Z.Z.Z.Z.Z.Z.Z.Z.Z.Z.Z.Z.Z.Z.Z.Z.Z.Z.Z.Z.Z.Z.Z.Z.Z.Z.Z.Z.Z.Z.Z.H.H.Z.u.u.A.T.6X*X*X*X1XqXOXZ.H.Z.:.2.2XqX,X6X6X7X=X9X,X5X~ ) B.C.H.Z.T.vXZXVXAXNXSXSXVXmXZXmXmXvXvXwX6XR.I.E.g.i.u.t.u.a.D.D.D.A.Z.H.S.Z.Z.M.n.Z.Z.Z.Z.Z.Z.Z.Z.Z.Z.Z.Z.Z.Z.Z.Z.Z.Z.Z.Z.Z.Z.Z.Z.Z.Z.Z.Z.Z.Z.Z.Z.Z.Z.Z.Z.Z.Z.Z.Z.Z.Z.Z.Z.Z.Z.Z.Z.Z.Z.Z.Z.Z.Z.Z.Z.Z.Z.Z.Z.Z.Z.Z.Z.Z.Z.Z.Z.Z.Z.Z.Z.Z.Z.Z.Z.Z.Z.Z.Z.Z.Z.Z.Z.Z.Z.Z.Z.Z.Z.Z.Z.Z.Z.Z.Z.Z.Z.S.S.M.M.S.u.u.T.6X6X+X+X#X1XJ.Z.Z.S.Z.u.D.1X+X*X6X6X8X1XOXZ.F.n.A.6XVXAXSXBXCXAXZXbXlX=XW.g.i.i.y.y.i.i.t.t.u.A.A.Z.H.H.G.J.Z.Z.Z.Z.Z.Z.Z.Z.Z.Z.Z.Z.Z.Z.Z.Z.Z.Z.Z.Z.Z.Z.Z.Z.Z.Z.Z.Z.Z.Z.Z.Z.Z.Z.Z.Z.Z.Z.Z.Z.Z.Z.Z.Z.Z.Z.Z.Z.",
"Z.Z.Z.Z.Z.Z.Z.Z.Z.Z.Z.Z.Z.Z.Z.Z.Z.Z.Z.Z.Z.Z.Z.Z.Z.Z.Z.Z.Z.Z.Z.Z.Z.Z.Z.Z.Z.Z.Z.Z.Z.Z.Z.Z.Z.Z.Z.Z.Z.Z.Z.Z.Z.Z.Z.Z.Z.Z.Z.Z.Z.Z.Z.Z.Z.J.Z.Z.R.8X*X,X+XOXD.Z.M.+._ ` >X+X*X*X*X=X=X=X7X=X+X4.>.H.M.n.t.-XvXmXZXZXVXAXZXZXZXZXZXmXZXZXVXVXVXVXAXAXAXAXVXVXVXVXVXVXVXZXZXZXZXZXmXmXmXmXnXnXiXuXuXuXpXpX#XOXOXOXT.U.U.D.u.u.u.t.6.4.<.<.Z.Z.Z.Z.Z.Z.Z.Z.Z.Z.Z.Z.Z.Z.Z.Z.Z.Z.Z.Z.Z.Z.Z.Z.Z.Z.Z.Z.Z.Z.Z.Z.Z.Z.Z.Z.Z.Z.Z.Z.Z.Z.Z.Z.Z.Z.Z.Z.Z.Z.Z.Z.Z.Z.Z.Z.Z.Z.Z.Z.Z.Z.Z.Z.Z.Z.Z.Z.Z.F.F.Z.Z.Z.Z.Z.Z.A.+X8X6X6X,X,X1XJ.n.M.n.~ 2.2XqX,X6X6X7X=XwX,X5X~ ) B.C.H.Z.u.#X9XcXAXSXSXNXMXVXZXZXmXmXmXmXbXxXjXgX9X*X+XY.j.g.i.4.4.6.t.u.Z.A.H.J.J.Z.Z.Z.Z.Z.Z.Z.Z.Z.Z.Z.Z.Z.Z.Z.Z.Z.Z.Z.Z.Z.Z.Z.Z.Z.Z.Z.Z.Z.Z.Z.Z.Z.Z.Z.Z.Z.Z.Z.Z.Z.Z.Z.Z.Z.Z.Z.Z.Z.Z.Z.Z.Z.Z.Z.Z.Z.Z.Z.Z.Z.Z.Z.Z.Z.Z.Z.Z.Z.Z.Z.Z.Z.Z.Z.Z.Z.Z.Z.Z.Z.Z.Z.Z.Z.Z.Z.Z.Z.Z.Z.Z.Z.Z.Z.Z.Z.Z.S.M.M.M.S.u.u.T.*X6X*X#X#X#XD.Z.Z.S.w.w.D.1X+X*X6X6X6X,XJ.w.H.B.Z.R.bXAXAXBXDXNXZXZXZXZXbXhX;X=X%XY.Y.g.7.5.7.7.6.6.6.6.6.6.Z.Z.Z.Z.Z.Z.Z.Z.Z.Z.Z.Z.Z.Z.Z.Z.Z.Z.Z.Z.Z.Z.Z.Z.Z.Z.Z.Z.Z.Z.Z.Z.Z.Z.Z.Z.Z.Z.Z.Z.Z.Z.Z.Z.Z.Z.Z.Z.",
"Z.Z.Z.Z.Z.Z.Z.Z.Z.Z.Z.Z.Z.Z.Z.Z.Z.Z.Z.Z.Z.Z.Z.Z.Z.Z.Z.Z.Z.Z.Z.Z.Z.Z.Z.Z.Z.Z.Z.Z.Z.Z.Z.Z.Z.Z.Z.Z.Z.Z.Z.Z.Z.Z.Z.Z.Z.Z.Z.Z.Z.Z.Z.Z.F.J.Z.Z.T.6X+X+X,XOXA.n.M.` _ ` 1X+X*X*X*X*X=X=X=X6X6X<.:.Z.M.S.w.D.1X9XbXbXcXMXMXMXmXMXmXbXbXZXbXMXbXbXbXMXbXMXbXbXbXbXbXZXZXZXbXvXbXbXvXvXmXnXmXmXnXnXnXnXnXnXmXmXmXnXnXnXnXnXuXuXuXpXqXqXqXqX>X XJ.J.J.H.Z.Z.Z.Z.Z.Z.Z.Z.Z.Z.Z.Z.Z.Z.Z.Z.Z.Z.Z.Z.Z.Z.Z.Z.Z.Z.Z.Z.Z.Z.Z.Z.Z.Z.Z.Z.Z.Z.Z.Z.Z.Z.Z.Z.Z.Z.Z.Z.Z.Z.Z.Z.Z.Z.Z.Z.Z.Z.Z.Z.Z.Z.Z.Z.S.S.Z.Z.Z.A.A.U.#X8X9X9X6X,X2X].S.H.2.~ 2.2XqX,X0X6X7X=X7X,X5X~ ^ b.m.'.M.0.a.oX;XVXNXNXNXZXZXZXZXbXmXmXmXZXZXZXZXZXbXbXgX9X=X=XY.Y.I.A.i.u.6.6.c.Z.Z.Z.Z.Z.Z.Z.Z.Z.Z.Z.Z.Z.Z.Z.Z.Z.Z.Z.Z.Z.Z.Z.Z.Z.Z.Z.Z.Z.Z.Z.Z.Z.Z.Z.Z.Z.Z.Z.Z.Z.Z.Z.Z.Z.Z.Z.Z.Z.Z.Z.Z.Z.Z.Z.Z.Z.Z.Z.Z.Z.Z.Z.Z.Z.Z.Z.Z.Z.Z.Z.Z.Z.Z.Z.Z.Z.Z.Z.Z.Z.Z.Z.Z.Z.Z.Z.Z.Z.Z.Z.Z.Z.Z.Z.Z.Z.Z.Z.S.M.M.M.S.u.u.U.+X*X8X8X#XOXA.Z.S.S.w.0.D.1X+X*X6X6X6X+XD.2.K.B.Z.U.lXNXAXBXNXNXVXVXVXAXAXAXAXZXVXbXcXgXgX9X*X*XR.R.U.A.A.A.A.Z.Z.Z.Z.Z.Z.Z.Z.Z.Z.Z.Z.Z.Z.Z.Z.Z.Z.Z.Z.Z.Z.Z.Z.Z.Z.Z.Z.Z.Z.Z.Z.Z.Z.Z.Z.Z.Z.Z.Z.Z.Z.Z.Z.Z.Z.Z.",
"Z.Z.Z.Z.Z.Z.Z.Z.Z.Z.Z.Z.Z.Z.Z.Z.Z.Z.Z.Z.Z.Z.Z.Z.Z.Z.Z.Z.Z.Z.Z.Z.Z.Z.Z.Z.Z.Z.Z.Z.Z.Z.Z.Z.Z.Z.Z.Z.Z.Z.Z.Z.Z.Z.Z.Z.Z.Z.Z.Z.Z.Z.Z.Z.Z.H.Z.Z.T.,X+X+X+XOXA.n.B.` Y { 1X#X*X*X*X=X=X=XQ.6X6X<.N w.M.H.1.w.w.u.U.Y.g.h.g.g.g.j.Y.Y.Y.Y.Y.h.U.h.h.h.h.h.oXh.U.h.h.h.h.h.j.j.j.j.Y.Y.Y.Y.g.h.j.h.E.U.U.U.a.a.i.i.i.i.i.i.U.U.U.U.U.U.U.D.]. XJ.J.J.H.H.H.Z.Z.Z.Z.Z.Z.Z.Z.Z.Z.Z.Z.Z.Z.Z.Z.Z.Z.Z.Z.Z.Z.Z.Z.Z.Z.Z.Z.Z.Z.Z.Z.Z.Z.Z.Z.Z.Z.Z.Z.Z.Z.Z.Z.Z.Z.Z.Z.Z.Z.Z.Z.Z.Z.Z.Z.Z.Z.Z.Z.Z.Z.F.Z.Z.Z.G.A.A.A.T.+X6X6XOXT.>XD.n.C.1.~ 2.3XqX,X0X6X7XQ.6X,X2X~ ^ +.b.`.M.0.u.h.h.%X&X&XfXhXhXhXhXcXMXMXbXMXVXVXNXVXAXAXCXZXAXZXZXZXeX6X6XR.U.A.6.6.Z.Z.Z.Z.Z.Z.Z.Z.Z.Z.Z.Z.Z.Z.Z.Z.Z.Z.Z.Z.Z.Z.Z.Z.Z.Z.Z.Z.Z.Z.Z.Z.Z.Z.Z.Z.Z.Z.Z.Z.Z.Z.Z.Z.Z.Z.Z.Z.Z.Z.Z.Z.Z.Z.Z.Z.Z.Z.Z.Z.Z.Z.Z.Z.Z.Z.Z.Z.Z.Z.Z.Z.Z.Z.Z.Z.Z.Z.Z.Z.Z.Z.Z.Z.Z.Z.Z.Z.Z.Z.Z.Z.Z.Z.Z.Z.Z.Z.S.M.M.M.S.u.u.A.U.+X*X8X@XD.A.Z.H.S.w.0.D.1X*X*X6X*X6X+XA.1.K.K.F.i.W.hXNXBXAXCXNXNXNXDXNXNXCXCXCXCXCXAXZXVXZXbXbXvXvXwXwX0XOX XJ.J.H.Z.Z.Z.Z.Z.Z.Z.Z.Z.Z.Z.Z.Z.Z.Z.Z.Z.Z.Z.Z.Z.Z.Z.Z.Z.Z.Z.Z.Z.Z.Z.Z.Z.Z.Z.Z.Z.Z.Z.Z.Z.Z.Z.",
"Z.Z.Z.Z.Z.Z.Z.Z.Z.Z.Z.Z.Z.Z.Z.Z.Z.Z.Z.Z.Z.Z.Z.Z.Z.Z.Z.Z.Z.Z.Z.Z.Z.Z.Z.Z.Z.Z.Z.Z.Z.Z.Z.Z.Z.Z.Z.Z.Z.Z.Z.Z.Z.Z.Z.Z.Z.Z.Z.Z.Z.Z.Z.Z.Z.F.Z.u.T.,X+X+X#XT.Z.n.n.^ Y ` 2X-X*X*X*X=X=X=X*X6X8X<.N w.B.`.|.|.n.n.A.A.6.t.i.i.u.u.A.A.6.6.t.0.0.s.s.s.s.s.0.0.s.s.s.s.s.s.i.i.i.i.7.7.6.6.t.t.t.t.t.t.t.t.u.u.i.u.A.A.A.D.t.t.t.t.t.u.u.u.n.n.n.n.M.M.M.M.S.S.S.S.S.S.S.S.S.S.S.S.S.S.S.S.S.S.S.S.S.S.S.S.S.S.S.S.S.S.S.S.S.S.S.S.S.S.S.S.S.S.F.S.F.S.F.S.F.S.F.S.B.S.F.S.S.S.M.M.C.C.C.C.C.H.H.Z.n.u.Z.S.D.D.w.w.n.9./ q.1.L 2.2XqX,X0X6X7XQ.6X,X4X,.! ` N.`.C.w.S.a.t.t.5.5.f.g.g.i.g.U.I.g.g.I.Y.Y.*X=X=X=X=X7XeXwXwXwXvXuXuXuXyX4X2X5XZ.Z.Z.Z.Z.Z.Z.Z.Z.Z.Z.Z.Z.Z.Z.Z.M.S.F.S.F.S.F.S.F.S.F.S.F.S.F.S.Z.Z.Z.Z.Z.Z.Z.Z.Z.Z.Z.Z.Z.Z.Z.Z.S.S.S.S.S.S.S.S.S.S.S.S.S.S.S.S.S.S.Z.S.Z.S.Z.S.Z.S.Z.S.Z.S.S.S.Z.Z.Z.Z.Z.Z.Z.Z.Z.Z.Z.Z.Z.Z.Z.Z.Z.S.M.M.M.M.M.p.u.A.A.T.1X1XOXu.n.n.M.M.w.,.S.1X+X*X*X*X,XOXu.:.B.K.H.u.g.%XcXVXNXbXMXbXMXcXcXcXhXhXgXlXlXlXlX9X9X7X6X6X6X*X+X,X2X<X>X].J.H.Z.n.Z.Z.Z.Z.Z.Z.Z.Z.Z.Z.Z.Z.Z.Z.Z.Z.Z.Z.Z.Z.Z.Z.Z.Z.Z.Z.Z.Z.Z.Z.Z.Z.Z.Z.Z.Z.Z.Z.Z.Z.",
"Z.A.Z.A.Z.Z.Z.Z.A.Z.A.Z.Z.Z.Z.Z.H.S.H.S.S.S.Z.H.Z.Z.Z.Z.Z.Z.Z.Z.Z.A.Z.A.A.A.A.A.A.A.A.A.A.A.A.A.Z.A.Z.A.Z.A.Z.A.A.A.A.A.Z.A.A.A.Z.H.H.Z.Z.Z.Z.Z.H.Z.H.n.w.) M w.1X6X*X*X*X6X*X*XY.1X>Xw.! ` @.O.N.N.N.B.B.B.B.B.B.B.B.B.B.B.B.B.B.n.n.n.n.n.M.M.n.n.n.e.n.n.n.n.M.S.S.S.S.M.M.M.M.M.M.M.M.M.M.M.H.H.H.H.H.H.H.H.H.H.H.H.H.H.H.H.C.C.C.C.C.C.C.C.C.C.C.C.C.C.C.C.B.V.V.V.V.V.V.C.V.V.V.V.V.V.V.V.C.C.C.C.C.C.C.C.C.C.C.C.C.C.C.C.B.B.B.B.B.B.B.B.V.B.B.N.N.b.b.b.l.l.l.l.X.X.+.+.) ) ) ) ) ) _ _ ^ ^ ^ ^ ^ ^ ^ ! ! I w.,X0X6XQ.(.lXQ.).0X>X3.! ` b.@.#.b.b.b.n.n.q.q.q.w.n.B.M.M.n.n.n.M.M.M.B.M.n.n.n.n.M.n.n.n.B.B.V.V.C.C.C.C.B.F.F.F.F.B.F.B.F.B.F.B.F.B.F.B.C.V.V.V.V.V.V.V.B.N.B.N.B.N.N.N.n.n.n.n.n.M.M.C.C.C.C.C.C.C.C.C.M.B.B.B.B.B.B.M.M.M.B.B.B.B.B.M.M.M.M.n.n.n.n.n.n.n.n.n.n.n.n.B.M.M.M.M.M.M.M.M.M.M.M.M.M.M.M.M.C.M.M.M.M.M.M.M.M.S.S.D.S.S.S.M.V.}.V.m./ I ].#X$X+X+X+X#XOXu.L n.D.D.u.t.i.U.g.g.i.i.i.a.a.a.a.i.i.i.i.i.i.i.i.t.t.t.u.6.6.u.u.u.w.u.w.u.w.u.w.A.A.A.A.A.A.A.Z.A.A.A.Z.A.A.A.A.A.S.D.H.D.H.D.A.A.Z.A.Z.A.A.A.A.A.A.A.Z.A.A.A.A.",
"Z.Z.Z.Z.Z.Z.Z.Z.Z.Z.Z.Z.Z.Z.Z.Z.S.S.S.S.S.Z.Z.S.Z.Z.Z.Z.Z.Z.Z.Z.Z.Z.Z.Z.Z.Z.Z.Z.Z.Z.Z.Z.Z.Z.Z.Z.H.H.H.H.H.H.D.H.H.H.H.H.H.H.D.H.S.S.Z.S.S.M.M.M.n.b.B.w.q.` K n.1X6X*X*X*X*X*X*X+X8X>Xw.K H Y W E ( ( ( .._ .._ X.X.X.X.X.X.X.X.O.{ { { { { +.{ { { { { { { { { +.{ +.{ +.{ +.{ @.{ @.{ @.{ @.@.b.b.b.b.b.b.b.b.b.b.b.b.b.b.b.b.b.N.N.N.N.N.N.N.N.N.b.b.b.b.N.N.N.N.b.N.N.N.N.N.N.N.N.V.N.N.N.N.N.N.N.N.b.N.b.N.N.N.N.N.b.N.b.N.X.X.X.X.X.X.X.X._ _ ) ) ( ( ( ( ( ! ! ! ( ( E E _ _ _ _ _ W W W W W W W W T ^ ^ ` ,.u.OX6XQ.(.7X7XQ.6X0XOX2.K ! ! Y Y Y ! ( ( ) ^ ^ ^ ^ ^ _ _ _ _ _ _ _ _ _ .._ _ _ _ _ _ ) _ _ _ _ _ _ _ _ _ _ ) ) ) ) ) ) ) ) X.X.X.X.X.X.X.X.X.X.X.X.X.X.X.X.X.X...X.X.....` ) ` ` ` ` ` 1.1.` ` ` ` ` ` ` ` ` { ` { ` { ` { ` ` _ [ _ [ ` { ` ` ` / / / / / { { ` { ` ` ` { ` ` ` ` ` ` ` ` ` ` ` ` ` ` ` ` / / / / ) / ) / ^ ^ / / / / ) ^ ' %.W { P ~ OX#X+X+X+X+X1X@Xu.B ,.w.M.w.0.u.u.u.u.u.u.u.e.e.e.e.M.M.M.M.u.u.u.Z.Z.Z.Z.Z.Z.Z.Z.Z.D.D.D.D.D.D.D.D.S.S.Z.A.Z.Z.Z.Z.S.Z.Z.Z.Z.Z.Z.S.Z.Z.Z.S.S.Z.Z.Z.u.u.Z.Z.Z.Z.Z.Z.Z.Z.Z.Z.Z.Z.Z.Z.",
"H.H.H.H.H.H.F.F.H.H.H.H.F.F.H.F.H.H.H.H.H.H.H.H.H.H.C.H.H.H.H.H.H.C.H.C.C.C.B.C.H.C.H.C.H.C.H.C.C.B.C.B.C.B.C.B.n.b.b.b.b.b.n.b.b.+.l.X.X.X.X.+.) ) { ) _ _ Y n.1X6X*X*X6X6X*X*X6X1X>XH./ H ! _ ( ( ( _ _ _ .._ ( E E E E E ( ( Y Y Y ! Y Y ! ! ! ! Y Y Y Y ! ! ! ! ! ! ! ! ! ! ^ ! ! ^ ! ! ^ ! ) ) ) ) ) ) ) ) ) ) ( ( ) ) ) ( _ _ _ _ _ _ _ _ _ _ _ _ _ _ _ _ ) ^ ) ^ ) ^ ) ^ ) ^ ) ^ ) ^ ) ^ ) ^ ) ^ ) ^ ) ^ ) ^ ( ^ ) ^ ) ) ( ( ( ( ( ! ( ! _ _ _ ) ) ) ) ) _ _ _ _ _ _ _ _ E E E E E W W W W W W W W T T ^ ) ,.Z.,X6X).(.eX6X6X6X6XOXZ.~ K ) ^ ) ) ) ) ) ) ^ ^ ^ ^ ^ ^ ^ _ ^ _ _ _ _ _ _ _ ) ^ ) ) ) ) ) ) ( ^ ) ) ) ) _ ) _ ^ _ _ _ ^ _ ^ Y Y Y Y Y Y Y Y Y Y E Y E Y E Y E Y E Y E Y Y Y Y Y ! ! ! ! ! ! ^ ^ _ ^ ^ ^ ^ ^ ^ T T T T T T T ^ ^ T T ^ ^ ^ ^ T Y ^ ^ ^ ^ ^ ^ ^ ^ ^ ^ ^ ^ ^ ^ Y Y ! ! ! ! ! Y ! Y ! ! ! ! ! ! _ _ ^ _ _ _ _ _ ^ ^ ^ ^ ^ ^ ^ W Q Q J T K ,.@X#XoX+X+X#X8X#Xt.B / q.B.M.M.S.S.S.S.H.S.S.M.M.M.M.'.H.H.H.H.'.H.J.M.M.M.M.M.M.M.M.n.n.n.n.n.n.n.n.C.C.M.M.M.M.M.M.C.C.M.M.C.C.C.C.M.M.C.M.C.C.M.M.M.M.M.M.C.C.C.C.M.M.M.M.C.C.C.C.",
"B.B.B.B.B.B.B.B.C.C.C.C.B.B.C.C.B.B.V.C.V.V.V.V.C.C.V.V.V.V.B.V.V.V.V.V.V.N.N.N.N.N.N.N.N.N.N.N.` X.X.X.O.O.X.O._ _ _ _ _ _ _ _ _ _ _ _ _ _ _ _ E T E T W W U m.1X6X*X*X*X6X*X*X6X,X,X>Xn.! ! ` _ ) _ _ _ _ ` ` ` ` ` ` ` ` ` ` ) ) ) ) ) ) ) ) ` ` _ _ _ ) ) ) ) ) ) ) ) ) ) ) ) ) ) ` ) ) ) ) _ ) ) ) ) ) ) ) ) ) ) ) ) ` ` ) ) _ ) _ ) _ ) _ _ _ ) _ ) _ ) ) ) ) ) ) ) ) ) ) ^ ^ ^ ^ ^ ^ ^ ^ ) ^ ^ ^ ^ ^ ) ) ) ) ^ ^ ^ ^ ) ) ) ` ) ` ` ) ) ) ) ) ) ) ) ) ) ) ) ) ) ) ) _ ) ..) ......) ) _ _ _ _ _ _ _ _ _ ) M ,.J.4XwX6X).7XQ.=X6X,X,X[.n.~ K ! ! ! ! ! ! K ) ^ ^ ^ ^ ^ ^ ^ ^ ^ ^ ^ _ _ _ ) ^ ^ ) ) ) ) ) ) ) ) ) ) ) ) ) ) _ _ W W W _ _ _ [ [ [ [ [ [ [ _ _ ` ` ` ` ` ` ` ` ` ` ` ` ` ` ) _ _ _ _ ` ` ` ` ) ) ) _ _ _ _ _ ^ T T T T T T T _ _ _ _ _ _ _ _ ^ ^ ^ ^ ^ ^ _ _ ^ ^ ^ ^ ^ ^ ^ ^ _ ^ _ _ _ _ _ _ _ _ _ _ _ _ _ _ T T T T T T W T W T W T W T W W W _ Y ^ K :.@X+X*X+X+X*XqX1XA.:.H ^ ^ { q.q.b.w.q.q.q.{ { { { { +.+.b.+.b.b.b.b.B.B.n.n.n.n.n.B.C.C.C.C.C.C.C.C.m.m.m.m.m.m.m.m.B.V.B.m.B.m.B.V.B.C.B.C.C.B.B.V.b.V.V.V.B.V.B.V.V.V.V.V.V.V.V.V.",
"X.X.X.X.X.X.X.X.l.X.#.#.b.b.b.#.l.l.l.l.l.l.l.l.l.X.X.X.l.l.l.X.X........._ _ _ _ _ _ _ _ _ _ E W W E E E E E E E E E E E E E E W W E W E W E W W W ..W W W E C.2X6X*X*X*X*X=X=X6X6X8X2XH.~ M ) ! ! ! ! ! ! ! ! ! ! ! ! ! ! ! ! ) ^ ^ ^ ) ) ) ) ) ) ) ) ) ) ) ) ) ) ) ) ) ) ) ) ) ) ) ) ) ) ) ) ! ! ! ! ! ! ! ! ^ ^ ^ ^ ^ ^ ^ ^ ! Y ! Y ! Y ! Y ! Y ! Y ! Y ! ! ! ! ! ! ! ! ! ! ! ! ! ! ! ! ! ! ! ! ! ! ! ! ! ! ! ! ! ! ! ! ! ! ^ ! ^ ^ ! ! ! ! ! ! ! ! ! ! ! ! ! ! ! ! ! ! ! ! ) ) ) ) ) ) ) ) ) ) ) ) ( ^ ^ ^ / n.>XqXwX0X).6X*X*X*X+X1X<X@XD.~ ~ / / / / ~ ~ ~ / P P I I ~ ~ I K ! ! ! ! ! ~ ~ ~ ~ ~ ~ ~ ~ ~ ~ ~ ~ ~ ~ ~ ~ ! ! T T T T T T T T T T T T T T T ! ! ! ! ! ! ! ! ^ ^ ^ ^ ^ ! ! ! ! ! Y ( ( ( ( ( ! ! E Y E ! ! Y W W W W T W E W _ _ _ _ _ W W T T T T T T T T T W W _ _ _ _ W _ _ _ _ _ _ _ _ _ _ _ _ _ _ _ _ _ W W W W W W W W W W W W E W E W _ _ ! ) K =.#X-X*X*X*X*X8X8XOXZ.! T Y ^ ^ ^ ) ` ^ ^ ^ ^ ^ ^ ^ ^ _ ) _ ) ) _ ) ) ! ! ! ! ! ! ^ ! _ _ _ _ _ _ _ _ _ _ _ _ _ _ _ _ { [ { [ { [ { [ { { { { { [ { [ X.O...O.O.O.+.+.O.O.O.O.O.O.O.O.",
") ) ) ) ( ( ( ( ( ( ( ( ) ) ) ) ) ) ) ) ) ( ) ) ( ( ( ( ( ( ( ( _ E E E E E E E E E E E E E E E E E E E W W W W _ _ W .._ _ _ _ W W W W W W W W W W _ E E _ E C.2X6X*X*X*X*X=X=X=X6X6XqX>XZ.2.n.1.w.w.w.w.w.w.w.` 1.` ` 3.3.1.1.1.1.1.1.1.1.1.1.1.1.1.1.1.1.1.1.l.l.l.l.l.l.l.l.1.1.1.1.1.1.1.1.1.` ` ` ` ` 1.` ` ` ` ` ` ` ` ` ` ` 1.` 1.` 1.` 1.` 1.` 1.` ` ` 1.,.1.1.1.1.1.1.1.1.1.1.1.1.,.,.1.1.1.1.1.1.1.1.1.1.1.1.1.1.1.1.1.1.1.1.1.1.1.1.1.1.w.w.w.w.w.1.l.l.l.l.l.l.z.z.l.3.l.2.z.2.z.l.3.3.3.3.3.1.1.1. X5X2X0X6X0X6X7X*X-X*X+X#X4X1X<X@X].].@X].].OX].D.[.D.D.D.D.D.D.p.p.S.S.M.M.M.Z.Z.Z.Z.Z.Z.Z.Z.Z.Z.n.Z.n.Z.Z.Z.n.w.q.q.q.w.w.q.q./ / / / / / / / / / / / / / ~ ~ ~ ~ ~ ~ ~ ~ ~ ! ^ ^ ^ ^ ^ ^ ^ ^ ) ) ) ) ) ) ) ) ) _ ) _ ) _ ) ^ ! ! ! ! ! ^ ! ! ! Y Y Y Y Y Y Y T Y Y T Y Y T T Y Y Y Y Y Y Y Y Y Y Y Y Y Y Y Y _ W W W W W W W W W W W W W W _ Y ! K ~ B =.+X*X*X-X*X*X6X8X,XOXb.{ _ ^ ! ! ^ ^ ) ^ ) ^ _ ^ _ _ ! ! ! ! ^ ^ ^ ^ ` ` ` ` ` ` ` ` ) _ ) _ ) _ _ _ ! T ! Y ! Y ! Y T T Y Y T Y T T Y Y Y Y Y Y Y T Y Y E E E E ( W E E E E E E E E ",
") ) ) ) ) ) ) ) ) ) ) ) ) ) ) ) ) ) ) ) ) ) ) ) ( ( ( ( ( ( ( ( _ _ _ _ _ _ _ _ ........_ _ _ _ _ _ _ _ _ _ _ _ _ _ _ _ _ _ _ _ W W W W W ^ ^ _ _ Y _ Y ! ^ ! H.1X*X*X*X6X6X6X=X6XQ.6X6XqX2X2X5X<X>X>X>X>X>X>X>X3X3X3X3X3X3X3X3X3X2X2X5X5X5X5X5X5X5X5X5X5X5X5X5X3X3X3X3X3X3X3X3X5X5X5X5X5X5X3X3X3X<X3X<X<X<X<X<X5X5X5X5X5X5X5X5X<X<X<X<X<X3X<X3X<X3X<X<X<X<X<X<X<X<X<X<X5X<X5X5X>X>X>X>X>X>X>X>X<X<X<X<X<X<X<X<X<X<X<X<X<X<X<X<X2X2X<X<X<X<X2X2X>X>X>X>X>X>X>X>X5X>X5X5X5X5X5X5X2X,X2X,X2X,X2X2X2X2X2X2X2X2X2X2XqX8X6X6X6X6X6X7X=X-X-X*X*X+X#X1X1X1X1X1X1X,X6X,X8XqXqXqXqX4X4XqX4X4X4X4X4X4X1X1X4X4X4X4X1X1X1X2X,X2X,X2X,X2X,X,X,X,X,X,X,X,X,X,X1X1X1X1X1X1X1X2X5X<X<X<X<X<X<X>X@X@X@X].].].].]. X X X X X X X XH.H.H.H.H.H.H.H.M.M.M.M.M.M.M.M.M.n.M.n.n.n.n.n.n.n.n.n.n.b.b.b.q.w.q.w.w.w.w.q.q.q.q.q.q.9.q.q.q.q.q.q.9.q.q.{ ` ` ` ` ` ` ` ` ` ` ` ) ) ) ) ` ` 1.,.w.<.4.+X*X*X*X7X=X*X6X6X2XH.q.` / ) ~ ! ) ~ ) ) ) ) ) ) ) ^ ^ ) ) ) ) ^ ) ! ! ! ! S S S ! ) ^ ^ ^ ^ ^ ^ ^ ` ` ` ` ` ` ` ` ) ) ^ ^ ) ) ) ) ! ^ ^ ^ ^ ^ ^ ^ ^ ) ) ) ) ) ) ) ) ) ) ) ) ) ) ) ",
"l.1.l.1.1.1.1.1.1.1.1.1.1.1.1.1.l.3.l.3.3.3.3.3.3.3.3.3.3.3.3.3.` ` ` ` ` ` ` ` ) ) ) ) ) ) ) ) ) ) ) ) ) ) ) ) ) ) ) ) ) ) ) ) ^ ^ ^ ^ ^ ^ ) ) ) ! / ~ ~ ,.~ ].1X*X*X*X6X6X7X=X7X7X6XR.6X0X6X,X,X1X,X1X,X1X,X,X2X,X2X,X2X,X2X,X8X8X,X,X,X,X,X,X,X,X,X,X,X,X,X,X1X1X1X1X1X1X1X1X1X1X1X1X1X1X1X1X1X1X1X1X1X1X1X1X1X1X1X1X1X1X1X1X1X1X1X1X1X1X1X1X1X1X1X1X1X1X1X1X,X,X,X,X,X,X,X,X1X1X8X8X1X1X1X1X1X1X1X1X1X1X1X1X1X1X1X1X,X,X,X,X,X,X,X,X,X,X,X,X8X8X8X8X1X1X1X1X1X1X,X,X,X1X6X6X6X6X6X6X6X6X6X6X6X6X6X,X,X,X,X+X+X*X*X*X*X7X=XQ.*X=X-X-X*XY.oX*X-X-X*X*X6X6X6X6X+X+X+X+X+X+X+X+X+X+X+X+X+X+X*X,X1X1X,X,X,X,X,X+X,X,X,X,X,X,X,X,X6X6X6X6X6X6X6X6X6X6X6X6X6X6X6X6X,X1X1X1X1X1X1X1X1X1X1X1X1X1X1X1X2X2X2X2X2X2X2X2X4X4X4X4X4X4X4X4X4X4X4X4X4X4X4X4X4X4X4X4X4X4X4X4X4X<X4X<X<X<X2X<X<X<X<X<X<X<X<X<X<X<X<X<X<X<X<X<X<X<X<X<X<X<X<X<X<X5X3X5X3X5X3X5X3X3X3X5X<X5X3X3X5X5X>X2X#X+X9X=XQ.=X9X*X*X*X6X,XrX5X].]. XJ.J.].J.'.J.'.J.'.J.'.J.J.J.J.J.J.H.H.J.J.J.J.J.J.J.J.H.S.H.S.H.S.H.S.M.n.M.n.M.n.M.n.n.w.n.w.n.w.b.q.b.q.n.n.n.n.n.n.1.1.l.1.l.w.b.w.l.1.l.1.l.1.l.1.",
"3X3X3X3X3X3X3X3X3X<X3X<X3X<X3X<X2X2X2X,X2X,X2X2X2X2X2X,X2X,X2X2X2X2X2X2X2X2X2X2X5X5X5X5X5X5X5X5X5X5X<X<X5X5X5X5X5X5X5X5X5X5X5X<X<X<X<X>X>X@X>X@X>XOX>X#X>X@X,X+X+X*X*X*X6X6X7X7X6X6X6X6X6X6X6X6X6X6X6X6X6X6X6X6X6X6X6X6X6X6X6X6X*X*X*X*X*X*X*X*X=X=X=X*X*X*X6X*X6X*X6X*X6X6X6X6X*X*X*X*X*X*X*X*X*X*X*X*X*X-X*X*X*X*X*X*X*X*X*X*X*X=X=X=X*X*X*X*X6X*X7X=X7X*X6X6X6X6X6X6X6X6X*X*X6X6X6X6X6X6X6X6X6X*X6X6X6X6X6X6X6X6X6X6X6X6X6X6X6X6X6X6X6X6X6X6X6X6X6X6X6X6X6X6X+X*X*X*X*X*X6X=X=X=X=X=X7X=X=X=X=X*X=X-X=X*X-X*X*X*X=X=X%X%X&X=X=X=X=X*X*X*X*X*X*X*X6X6X7X7X7X7X9X9X9X*X=X*X*X*X*X*X=X=X=X=X=X*X*X6X6X6X6X6X6X6X6X6X6X6X6X6X6X6X7X7X(.7X(.7X(.7X(.7X(.7X(.7X(.7X6X6X6X6X6X6X6X6X*X*X6X6X6X6X6X*X6X*X6X6X6X6X6X*X6X*X6X6X6X6X6X6X6X*X6X+X,X+X+X+X6X+X6X*X,X+X,X+X6X-X6X*X*X+X+X+X6X-X6X*X+X+X+X+X#X#X+X+X#X+X+X+X+X+X+X#X+X+X,X,X,X,X,X#X+X+X+X+X,X,X,X,X,X,X,X,X2X<X2X1X,X6X*X=X=X=X=X=X*X*X6X6X,X,X,X,X,X1X,X1X1X1X1X1X1X8X8X8XqX1X8X8X1X1X,X1X8X8X6X8X6X8X6X8X1X1X1X1X1X1X1X1X1X1X1X1X1X1X1X1X1X1X2X1X1X4X4XyX4X4X4X4X1X1X1X2X1X1X4X4X4XqXqXqX1X1X1X1X4X1X4X1X",
"1X2X1X1X1X1X1X1X1X1X1X1X1X1X1X,X,X,X6X6X6X6X6X6X6X,X6X,X6X6X6X6X6X6X6X6X6X6X6X6X6X6X6X6X6X6X6X6X6X1X8X8X,X,X,X,X,X,X,X,X,X,X,X,X1X1X1X1X1X1X1X*X6X6X6X6X6X6X6X6X*X*X*X*X6X6X6X6X6X6X7X7X6X=X=X6X*XQ.).).).6X6X6X6X6X6X6X6X6X6X=X7X=X=X;X=X;X=X;X=X=X=X=X=X=X=X-X%X=X=X=X=X=X=X=X*X*X*X*X*X-X-X;X%XW.W.W.W.W.!.!.=X=X=X=X=X=X=X=X=X=X=X=X=X=X=X=X=X=X=X=X=X=X=X=X=X=X=X7X7X7X=X=X7X7X7X7X7X7X7X7X=X=X7X7X7X7X7X7X7X7X7X7X7X7X7X7X7X7X6X7X7X7X7X7X7X7X7X7X7X7X7X=X*X-X-X-X=X=X=X=XW.W.W.W.W.W.W.W.=X=X=X;X;X;X-X-X%X%X%X%X%X%X%X%X=X7X6X6X*X*X*X*XQ.Q.Q.Q.Q.Q.Q.Q.Q.+XQ.*X*X=X=X=X=X=X=X=X=X=X=X=X*X6X6X6X6X6X6X6X6X6X6X6X6X6X6X6X7X7X7X7X7X7X7X7X7X7X7X7X7X7X(.(.7X6X6X6X7X6X6X6X6X=X=X6X7X7X6X=X=X=X=X*X=X=X=X=X=X=X7X=X7X=X7X=X=X=X=X=X7X7X9X9XQ.Q.Q.Q.Q.Q.Q.Q.=X;X=X-X=X=X=X%X=X-X=X-X=X=X=X=X*X*X*X*X=X*X=X*X*X-X=X;X;X;X;X9X9X9X9X6X7X*X*X*X*X*X*X*X*X*X*X*X,X1X,X,X6X6X*X=XQ.Q.=X=X6X6X6X6X*X*X6X*X6X*X+X+X+X+X*X*X*X*X6X*X+X+X*X*X+X+XR.R.*X*XQ.*X*X*X*X*X*X*X*X*X*X*X*X*X*X*X*X*X*X*X*X*X+X+X+X+X+X+X*X*X8X8X8X*X*X*X*X6X*X6X6X6X6X6X6X6X6X6X6X6X6X6X6X6X",
"+X+X+X+X+X+X+X+X*X*X*X*X*X*X*X*X*X*X*X*X*X*X*X*X*X*X*X*X*X*X*X*X*X=X=X=X=X=X=X=X=X=X=X=X=X=X=X*X6X6X7X7X6X6X6X6X6X6X6X*X*X*X*X*X*X*X*X*X*X*X*X=X=X=X=X=X=X=X=X=X*X*X*X*X6X6X6X6X6X6X6X6X=X*X*X*X6X6X6X7X7X7X7X7X7X7X7X7X7X7X7X=XW.%X%X%X%X%X%X%X=X=X;X;X;X;X;X;X&X=X-X-X-X-X-X;X;X;X;X;X;X;X;X;X=X=X=X=X=X=X=X=X!.!.&X&X&X&X!.!.=X=X=X=X&X&X&X&X=X=X=X=X=X&X=X=X=X=X=X=X=X=X=X=X=X=X=X=X=X=X=X=X=X=X=X=X=X=X=X=X=X=X=X=X=X=X=X=X=X=X=X=X=X=X=X=X=X=X=X=X=X=X=X=X=X=X-X=X-X=X%X%X;X;X;X=X=X=X=X=X=X=X%X%X%X%X%X%X-X*X-X-X%X-X%X=X*X*X*XR.R.R.R.R.6X6X6X6X6X6X6X6X6X6X6X*X*X=X=X=X=X=X=X=X=X=X=X=X=X*X*X*X*X*X*X*X*X*X=X=X*X*X*X*X*X*X*X*X=X=X*X*X*X*X*X*X*X=X=X=X=X=X=X=X=X=X=X=X7X=X=X=X=X=X=X=X=X=X=X=X=X=X=X=X=X%X=X%X=X=X=X=XQ.W.=X=X=X;X=X;X=X=X=X=X=X=X=X=X=X=X=X=X=X&X=X=X=X;X=X=X=X=X=X=X=X;X;X;X;X;X=X;XW.W.W.%X%X%X%X%X=X=X=X=XW.%XW.%X=X;X=X;X=X=X=X*X+X1X6X6X6X6X*X=XQ.Q.=X6X6X6X*X*XQ.*X=X=X*X*X+X+X+X+X*X*X*X=X=X=X=X*X=X*X*X*X=X=X=X7X=X9X9X=X9X9X=X*X=X-X=X*X=X*X=X*X=X*X=X*X=X*X*X*X*X*X*X*X*X*X*X*X*X*X*X*X*X=X=X=X=X=X=X=X=X=X=X=X=X=X=X=X=X=X",
"*X*X*X*X*X*X*X*X*X*X*X*X*X*X*X*X=X=X=X=X=X=X=X=X=X=X=X=X=X=X=X=X=X=X=X=X=X=X=X=X=X=X=X=X=X=X=X=X=X=X=X=X=X=X=X=X=X=X=X=X=X=X=X=X=X=X=X=X=X=X=X=X=X=X=X=X=X=X=X=X*X*X*X*X6X6X6X6X6X6X6X6X*X*X*X=X=X6X6X7X7X7X7X7X7X7X7X7X7X7X7X=X=X=X=X=X=X=X=X=X=X=X=X=X%X%X=X=X-X-X-X-X-X-X-X-X-X-X-X-X-X-X-X-X=X=X=X%X=X=X=X=X=X=X=X;X=X;X=X=X=X-X=X-X=X=X=X=X=X=X=X=X=X=X=X=X=X=X=X=X!.=X=X=X=X=X=X=X=X=X=X=X=X=X=X=X=X=X=X=X=X=X=X=X=X=X=X=X=X=X=X=X=X=X=X=X=X=X=X=X=X=X=X=XQ.%X%X*X-X*X-X-X=X=X=X=X=X=X=X=X-X*X*X*X*X%X*X*X-X-X-X-X-X-X-X8XqX0X0X8X8X6X6X6X6X6X6X6X6X6X6X6X8X1X,X,X+X,X6X6X=X=X7X=X=X=X=X=X=X*X*X*X*X*X*X*X=X=X=X=X*X*X*X*X*X*X*X*X*X*X*X*X*X*X*X*X*X*X*X*X=X=X=X=X=X=X=X=X7X=X=X=X=X7X7X7X=X=X=X=X=X*X=X=X=X=X=X=X=X=X=X=X*X=X=X=X=X=X=X=X=X=X=X=X=X=X=X=X=X=X=X=X=X=X=X=X=X=X=X=X%X%X=X=X;X=X=X=X=X%X&X%X;X=X=X=X=X=X=X&X=X=X=X=X=X=X=X=X=X;X=X;X=X;X=X;X*X,X*X6X6X6X=X=X7X=X6X6X6X6X*X*X=X=X=X=X*X*X8X9X*X*X*X*X6X6X7X=X*X*X*X*X*X*X=X=X*X*X=X=X=X=X=X=X=X=X=X-X=X-X=X;X=X=X=X=X=X-X=X-X=X=X=X-X=X;X=X;X=X-X=X-X=X=X=X=X=X=X&X=X&X=X=X=X=X=X=X=X=X=X=X=X",
"*X*X*X*X*X*X*X*X*X*X*X*X*X*X*X*X=X=X=X=X=X=X=X=X=X=X=X=X=X=X=X=X=X=X=X=X=X=X=X=X=X=X=X=X=X=X=X=X=X=X=X=X=X=X=X=X=X=X=X=X=X=X=X=X=X=X=X=X=X=X=X=X=X=X=X=X=X=X=X*X*X*X*X*X6X6X6X6X6X6X6X6X*X*X-X-X=X=X=X=X=X=XQ.Q.=X=X=X=X=X=X=X=X*X*X*X*X*X*X*X*X*X*X*X*X*X*X*X*X*X-X*X-X*X-X*X-X*X-X*X-X*X*X*X*X6X6X6X6X6X6X6X6X6X9X6X9X6X9X6X9X8X8X6X6X6X6X6X6X6X6X6X6X6X6X6X*X*X7X7X7X=X6X7X=X7X7X7X7X7X7X7X7X6X6X7X7X7X7X7X7X6X=X6X=X7X7X7X=X=X*X*X=X=X=X=X=X*X*X*X*X=X=X=X=X*X+X+X6X6X8X6X6X8X8X6X8X6X8X8X8X1X1X1X1X1X1X1X1X,X,X,X,X,X>X,X>X>X>X>X>X>X>XOXOXJ.J.J.J.J.J.J.J.A.Z.u.Z.H.D.+X6X+X*X6X6X7X=X7X7X6X6X6X6X6X6X6X6X6X6X6X6X6X6X=X*X6X6X6X6X6X6X6X6X*X*X6X6X6X6X6X*X*X=X=X=X*X*X*X*X=X=X=X=X=X7X7X6X6X*X+X+X+X+X6X6X6X6X6X6X6X6X6X6X8X8X8X8X8X8X8X8X8X8X8X8X8X8X8X6X*X*X*X6X6X6X6X6X*X*X*X*X*X*X*X=X*X*X*X*X*X*X=X*X-X-X-X*X*X-X=X=X*X-X*X-X*X-X*X-X=X=X=X=X=X*X*X*X*X*X*X*X*X*X6X6XeX7X=X*X6X6X*X*X8X6X+X+X+X#X1X1X1X1X1X1X6X6X6X6X-X-X8X-X8X-X8X-X*X*X*X*X*X*X*X*X*X*X*X*X*X*X*X*X*X*X*X*X*X*X*X*X*X*X*X*X*X*X*X*X*X*X*X*X=X=X=X=X=X=X=X=X=X=X=X=X=X=X=X=X=X=X=X=X",
"*X*X*X*X*X*X*X*X*X*X*X*X*X*X*X*X=X=X=X=X=X=X=X=X=X=X=X=X=X=X=X=X=X=X=X=X=X=X=X=X=X=X=X=X=X=X=X=X6X6X6X6X6X6X*X*X*X*X*X*X*X*X*X*X7X7X7X7X7X6X6X6X*X*X*X*X*X*X*X*X*X*X*X*X6X6X6X6X6X6X6X=X*X-X-X-X6X6X6X6X6X6X6X6X6X6X6X6X6X6X6X9X6X6X6X6X6X6X6X6X8X8X8X8X8X8X8X8X1X1X1X1X1X1X1X1X1X1X1X1X+X+X+X,X,X,X2X,X2X,X2X,XOXOXOXOXOXOXOXOXD.D.J.H.H.H.H.H.Z.A.Z.A.Z.A.Z.A.R.7X9X6X*X6X6X*X6X6X6X6X6X6X6X6X6X6X6X6X6X6X6X6X=X6X6X6X6X6X6X6X*X*X*X*X=X=X=X=X*X*X*X*X*X*X*X*X8X,X,XOX,X,X>XOX>X@X>X@X>X@X>X>XD.D.J.D.H.H.H.H.Z.Z.Z.Z.M.M.M.M.w.w.w.1.1.1.1.1.w.w.n.w.w.w.w.w.q.9.` ,.1.w.A.D.#X#X6X6X6X6X6X6X6X6X6X6X6X6X6X6X=X=X6X6X6X6X6X*X6X6X6X6X6X6X6X6X*X*X6X6X6X6X6X6X*X*X*X*X*X*X*X*X*X*X*X*X-X-X*X*XA.D.D.D.D.D.D.D.D.D.D.D.D.D.D.D.D.J.J.[.OXOXOXOX>X>X>X>X>X>X>X,X,X#X#X+X,X,X,X,X1X1X8X8X8X8X8X8X8X8X8X8X8X9X9X9X+X+X+X6X6X*X*X*X+X+X+X+X+X+X*X*X*X*X*X*X*X*X*X*X*X*X*X*X*X*X6X6X7X*XQ.*X6X9X9X6X+XOXD.A.u.u.S.H.S.S.S.D.D.D.D.A.@X@X@X@X@X@X#X#X1X1X1X1X1X1X1X1X+X+X+X,X1X1X8X8X,X,X1X1X8X8X8X8X6X6X6X6X6X6X6X6X6X6X9X9X9X8X8X9X*X*X=X*X=X=X=X9X=X*X=X=X=X=X=X=X",
"6X6X6X6X6X6X6X6X6X6X6X6X6X6X6X6X6X6X6X6X6X6X6X6X6X6X6X6X6X6X6X6X6X6X6X6X6X6X6X6X*X*X*X*X6X6X*X6X6X6X6X6X6X6X6X6X*X6X6X6X6X6X6X6X6X6X6X6X6X6X,X,X8X8X8X8X8X8X8X8X*X*X*X*X6X6X6X8X6X6X6X*X*X*X*X*X8X8X8X6X6X6X6X6X+X+X+X+X+X+X+X,X1X1X1X1X1X1X1X1XOXOXOXOXOXOXOXOXOX].OX].OX].OX].D.D.D.D.D.D.D.J.n.n.n.n.n.n.n.n.n.n.n.n.n.n.n.n.1.1.1.1.` ` ` ` ` ` ` ` ` ` ` 1.A.+X8X*X+X6X6X+X6X6X6X6X6X6X6X6X6X6X6X6X6X6X6X6X6X6X6X6X6X6X6X6X*X*X*X*X*X*X*X*X*X*X*X*X*X*X*X6X,XJ.G.Z.F.H.Z.Z.2.2.w.w.w.w.1.1.q.q.1.1.` ` 1.1.1.1.1.1.` ` ` ` b.b.b.b.b.b.b.w.q.q.q.q.q.{ { { m.@.@.{ { 9.9.1.>XOX,X,X6X6X6X6X6X6X6X6X6X6X6X6X6X=X6X6X6X6X=X=X6X6X6X6X6X6X6X6X=X=X6X6X6X6X6X6X*X*X*X*X+X*X+X+X+X+X*X8X8X-X+XOX<.1.q.w.q.q.1.1.1.1.1.1.1.1.1.1.1.w.w.w.n.n.n.n.w.w.w.w.w.w.w.w.H.H.H.H.H.J.J.J.].J.J.]. X X X].OXOXOXOX@X>X>X>X<X2X2X2X2X2X4X1X1X1X1X1X1XqXqXqX1X1X1X1X1X1X1X1X*X-X*X*X*X*X6X6X6X*XQ.*X6X6X+XU.Z.Z.w.2.1.,.1.1.1.1.1.1.2.2.2.2.,.9.9.9.w.w.w.w.u.u.u.u.u.u.u.u.D.D.D.J.J.OXOXOXJ.J.[.OXOXOXOXOX+X+X+X#X,X,X,X,X,X,X,X,X,X,X,X1X*X+X*X*X6X9X9X9X*X+X*X+X*X*X*X*X",
"*X*X=X=X6X6X6X6X6X6X6X6X6X,X6X6X6X6X6X,X6X,X6X,X6X6X6X6X6X6X6X6X,X,X,X,X,X,X,X,XqX1XqX8XqX8XqX8X,X,X,X,X,X,X,X,X,X>X,X>X,X>X,X,X,X,X,X>XT.T.J.J.J.H.H.H.H.H.H.D.+X+X+X*X6X6X6X9X6X6X6X6X*X*X#X#XOX@XOXOXOXOXOXOXD.D.D.D.D.D.D.D.Z.n.n.n.n.n.n.w.2.w.2.w.2.w.w.w.1.1.1.1.1.1.1.1.1.1.1.1.1.1.1.1.b.b.b.b.b.b.b.b.b.b.b.b.b.b.b.b.N.b.b.N.#.#.@.@.#.@.@.@.b.b.b.w.u.T.,X,X+X8X8X+X6X6X6X6X6X6X6X6X6X6X6X*X6X6X6X6X6X6X6X6X6X*X6X6X,X,X,X*X*X*X*X*X*X*X*X*X*X6X,X1XZ.n.3.3.1.l.1.1.b.b.b.b.b.b.b.b.b.b.b.b.b.b.b.b.b.b.b.b.N.N.N.#.#.+.+.+.b.b.b.b.b.b.b.@.@.@.@.@.+.+.@.m.@.b.q.9.OX>X,X,X8X6X6X*X6X6X=X=X6X6X6X*X6X6X6X6X6X6X6X6X6X=X=X=X6X6X6X6X6X6X6X7X7X7X7X6X6X+X+X+X+X+X+X*X6X6X8X8X8X+XR.T.1.q.b.b.b.b.b.q.b.b.+.+.b.b.+.b.N.N.b.b.b.b.b.q.q.q.q.q.q.b.b.b.1.1.1.1.1.1.1.1.1.3.1.1.1.1.1.1.1.1.1.9.w.w.n.n.w.w.n.w.n.n.n.Z.H.S.H.H.H.D.D.D.].].].].].].].[.1X#X*X*X*X*X*X*X6X*X6X6X8X#XD.u.1.1.w.b.b.w.w.q.q.q.w.w.w.w.w.w.q.9.w.9.w.w.b.q.1.9.1.1.1.1.1.1.,.,.,.1.1.1.1.w.1.1.1.9.w.w.w.w.w.2.w.u.Z.Z.Z.Z.J.H.J.J.J.J.J.J.D.D.J.OXOXOX@X#X,X,X,X+X*X*X*X*X",
"-X*X=X9X=X7XwX6X4X2X3X3X3X3X3X3X>X>X>X>X>X>X5X<X>X].OX].].].].].J.J.J.J.J.J.J.J.H.S.S.S.H.S.H.S.M.n.M.n.n.n.n.n.w.w.w.w.w.w.w.w.w.w.w.w.b.b.b.b.b.q.q.q.q.q.q.q.1.Z.T.1X6X*XQ.7X9XQ.Q.6X,X2X<XH.w.w.w.w.w.9.w.w.1.1.1.9.1.9.1.1.q.q.q.q.q.q.q.q.w.w.w.w.w.w.q.q.q.q.q.q.b.b.b.b.b.b.b.b.b.b.b.b.b.b.b.b.b.b.b.b.b.b.b.b.b.b.b.b.b.q.q.b.b.#.#.#.N.#.+.b.b.b.q.,.2.D.,X8X,X+X,X8X6X6X6X6X6X6X6X6X7X7X7X=X=X*X*X=X*X*X*X*X6X-X*X+X+X,X+X*X6X6X*X=X*X*X*X*X+X,X+XA.3.b.b.l.b.b.b.l.b.b.b.b.b.b.b.b.b.b.b.b.b.b.b.b.b.b.b.b.b.b.b.b.b.b.b.b.b.b.b.b.b.b.b.b.b.b.b.b.+.+.@.@.@.{ q.w.].,X6X6X6X6X9X6X6X6X6X=X6X*X=X=X=X=X7X6X6X+X6X6X*X*X*X*X*X=X*X=XQ.*X=X7X7X7X7X7X6X6X6X,X6X6X6X6X6X6X6X6X8X6X6X,Xz.l.b.n.n.b.b.1.b.X.X.N.V.V.O...L.L.L.#.N.N.b.` q.q.b.b.+.+.@.b.b.b.b.b.b.b.b.b.b.b.b.b.b.b.b.b.w.w.w.w.w.w.q.q.q.q.q.q.q.q.q.q.1.1.1.9.9.9.1.1.q.q.q.q.q.q.q.w.S.J.<XqXqX6X*X=X=X*X*X,X[.H.M./ q.{ q.b.b.b.b.b.b.b.b.b.w.w.w.w.b.b.b.b.b.b.b.b.b.b.b.b.b.b.b.b.q.q.q.q.q.q.q.q.q.q.q.q.q.q.q.q.q.9.w.w.w.w.w.b.1.1.l.w.w.1.1./ / { q.b.b.b.n.M. X2XqX8X-X-X&X%X",
"-X%X=X7XQ.6X6XT.F.H.B.B.n.n.B.n.n.n.n.n.n.n.n.n.n.n.n.n.n.n.n.n.b.b.b.b.b.b.b.b.b.b.b.b.b.b.b.b.q.{ { { { { { { q.q.q.q.q.q.q.q.b.b.b.b.b.b.b.#.+.+.@.@.+.+.{ { b.n.F.OX6X6X!.!.=XQ.6X0X,X XH.1.q.q.q.q.q.q.q.q.{ { { { q.q.q.q.q.q.q.q.q.q.q.q.q.q.q.q.q.q.q.q.b.b.b.b.b.b.b.b.b.#.b.b.b.b.b.b.b.b.b.b.b.b.b.b.b.b.b.b.b.b.b.b.w.q.w.b.b.b.#.#.#.N.b.b.w.w.w.w.T.,XqXqX,X+X,X6X6X6X6X6X6X6X6X6X7X7X7X7X7X7X7X6X9X9X*X*X*X*X*X*X6X6X,X6X=X6X=X=X=X*X*X8X,X,X+XZ.1.b.b.+.+.N.b.b.b.b.b.b.N.N.N.b.b.b.b.b.b.b.b.b.b.b.b.b.b.b.b.b.b.b.b.b.b.b.b.b.b.b.b.b.b.b.b.b.b.b.b.@.@.{ w.w.T.,X6X6X=X6X6X6X6X6X6X=X6X*X=X=X=X=X=X6X8X6X6X6X6X*X+X+X*X*X6X9X6X6X7X7X7X7X7X7X6X6X6X6X6X6X6X6X6X6X6X6X6X6X6X,XF.B.l.l.n.n.b.b.N.N.b.#.#.#.#.N.o.#.o.o.X.b.b.b.b.b.b.b.+.@.#.#.b.b.b.b.N.#.N.N.#.b.#.N.N.N.b.b.b.q.q.q.q.q.q.q.q.q.q.q.q.b.q.q.b.b.q.q.b.q.+.+.b.q.q.q.q.q.q.q.q.n.H.@X1X8X*X;X;X*X*X,XD.M.B.{ { { @.b.b.b.b.b.z.b.b.b.b.q.q.q.b.b.b.b.b.b.b.b.b.b.b.b.b.b.b.b.+.b.+.b.b.b.b.+.b.b.b.b.+.b.b.q.{ { q.q.q.b.b.b.b.b.b.b.q.q.q.{ { { { { @.@.N.b.n.H.OX+X*X&X&X&X",
"-XoX*X*X=X6X/.Z.2.1.1.` ` ` 1.1.1.1.1.1.1.1.1.1.w.w.w.w.1.1.1.1.1.1.1.1.1.1.1.1.b.b.q.b.w.w.b.q.q.{ { { { { { { q.q.q.q.{ q.q.b.b.b.b.b.b.b.b.@.+.+.+.+.+.+.+.+.b.1.2.D.6X7X=XQ.=XQ.6X6XD.Z.n.` q.q.q.q.q.q.q.q.b.b.b.b.b.b.q.q.b.b.q.q.b.b.b.b.q.q.q.q.q.q.q.q.b.b.b.b.b.b.b.b.#.#.b.b.b.b.b.b.b.b.b.b.b.b.b.b.b.b.b.b.b.b.b.b.q.q.q.b.b.+.b.b.b.N.b.b.1.1.Z.D.4X8X8X6X,X,X6X6X6X6X6X6X6X6X6X6X=X=X7X7X7X6X6X*X*X+X+X6X8X8X8X8X,X1X,X6X*X*X=X7X=X*X*X6X,X,XOXu.q.b.b.{ b.b.b.b.b.b.N.b.N.N.b.b.b.b.b.b.b.b.b.b.b.b.b.b.b.b.b.b.b.b.b.b.b.b.b.b.b.b.b.b.b.b.b.b.b.b.+.@.+.{ w.w.T.,X6X6X=X6X6X6X6X6X6X6X6X*X=X=X=X*X*X6X8X6X,XT.,X+X1X1X6X6X*X*X6X6X6X=X=X=X6X6X6X*X6X6X6X6X*X*X6X6X6X6X6X6X6X,X>XH.w.1.1.n.M.n.1.B.H.n.1.1.2.3.l.l.N.N.N.l.b.b.b.b.b.b.#.#.#.#.b.b.b.b.b.b.N.N.b.b.b.b.N.b.b.b.b.q.q.q.q.q.q.q.q.q.q.q.q.q.q.q.b.b.b.b.b.b.b.b.+.b.b.b.q.q.b.q.` 1.w.S.T.+X*X=X=X*X-X#XS.q.b.{ { { @.b.b.b.b.b.b.b.b.b.b.q.q.q.b.b.b.b.b.b.b.b.b.b.b.b.b.b.b.b.+.b.b.b.b.b.+.+.b.b.b.b.+.+.b.q.q.q.{ { q.b.b.b.b.b.b.q.q.q.q.b.q.{ { { +.@.b.b.3.2.D.+X*X%X%X&X",
"-XoX*X*X*X6XR.6.z.b.b.b.{ q.w.b.b.b.b.b.b.b.b.b.b.b.b.w.b.b.b.b.b.b.b.b.b.b.b.b.b.b.b.b.b.b.b.b.b.b.b.b.q.q.q.b.q.q.q.q.{ q.q.b.b.b.b.b.b.b.b.+.b.@.+.+.@.@.@.b.b.1.3.A.,X9X6XQ.9X=X*XT.2.1.n.b.q.q.q.q.q.q.q.q.b.b.b.b.b.b.b.b.b.q.q.q.q.b.b.b.q.q.q.q.q.q.q.q.b.b.b.b.b.b.b.b.#.b.b.b.b.b.b.b.b.b.b.b.b.b.b.b.b.b.b.b.b.b.b.b.q.q.q.q.b.b.b.b.b.b.b.1.1.Z.J.>X8X6X,X+X,X6X6X6X6X6X6X6X6X6X6X6X6X6X6X=X=X*X*X+XR.+X,X1XqX1XOXD.T.OX,X,X6X*X=X=X*XQ.*X6X+X,XT.u.w.b.b.{ b.b.b.b.b.b.N.N.N.N.b.b.b.b.b.b.b.b.b.b.b.b.b.b.b.b.b.b.b.b.b.b.b.b.b.b.b.b.b.b.b.b.b.b.b.b.+.@.+.{ w.w.T.,X6X6X=X6X6X*X6X6X6X6X*X*X*X*X*X*X*X+XT.U.A.6.A.U.OX1XqX8X,X+X*X*X*X*X*X6X6X7X*X*X6X6X6X=X6X*X6X6X*X*X6X6X6X+X1XOXD.w.1.1.w.n.~ J.yXqXT.I.7.8.<.<.z.n.B.b.l.l.N.N.N.N.#.#.#.b.b.b.b.b.b.b.b.N.b.b.b.b.N.b.b.b.b.q.q.q.q.q.q.q.q.q.q.q.q.q.q.q.b.b.b.b.b.b.b.b.b.b.b.b.b.b.b.b.q.q.1.2.A.+X=XQ.=X*X8X#Xw.9.q.q.b.b.b.b.b.b.b.b.b.b.b.b.b.q.q.q.b.b.b.b.b.b.b.b.b.b.b.b.b.b.b.b.b.b.b.b.b.b.b.b.b.b.b.+.+.+.b.q.q.{ { { b.b.b.b.b.b.b.b.q.q.b.b.r.r.q.@.@.N.b.b.1.w.D.+X*X-X%X&X",
"-XoX*X*X6XwX,X2.n.b.q.q.{ b.b.b.b.b.b.b.b.b.b.b.b.b.b.b.b.b.b.b.b.b.b.b.b.b.b.b.b.b.b.b.b.b.b.b.b.b.q.q.q.q.+.+.b.b.b.b.b.b.b.b.b.b.b.b.b.b.b.b.b.b.b.+.@.@.@.b.b.1.1.H.+X6X6X=X=X*X,XT.<.3.b.m.b.b.b.b.b.b.b.b.b.b.b.b.b.b.b.b.{ q.q.q.q.q.q.q.+.b.b.b.b.b.b.b.b.b.b.b.b.b.b.b.b.b.b.b.b.b.b.b.b.b.b.b.b.b.b.b.b.b.b.b.b.b.b.b.b.q.q.q.b.b.b.b.b.1.1.2.Z.J.>X1X,X+X+X+X6X6X6X=X6X6X6X=X6X6X7X6X6X=X=X*X*X+X,X1XqX1X,X@XJ.H.w.<.n.H.J.,X6X6X*X=X=X=X=X6X*X6XR.u.w.q.q.b.b.b.b.b.b.b.b.b.b.b.b.b.b.b.b.b.b.b.b.b.b.b.b.b.b.b.b.b.b.b.b.b.b.b.b.b.b.b.b.b.b.b.b.b.b.b.b.+.@.q.w.w.>X,X6X6X=X6X*X*X6X6X6X6X=X=X*X*X*X8X8XT.u.6.2.1.:.<.Z.J.@X2XqXqX8X6X6X6X*X*X6X6X=X=X=X=X=X=X=X*X=X=X=X=X6X*X6X*X#X@X@X[.w.,.1.2.>.2XmXZXbXcXfXk.5.>.>.2.z.z.x.N.N.N.N.#.N.b.b.b.b.b.b.b.b.b.b.#.b.b.b.b.b.b.b.b.+.b.b.b.b.b.b.b.b.b.b.b.b.b.b.b.b.b.b.b.b.b.b.b.b.b.b.b.b.b.b.b.m.q.1.<.A.+X*XQ.*X*X6XOXw.,.q.q.m.b.b.b.b.b.b.b.b.b.b.b.b.{ { { b.b.b.b.b.b.b.b.b.b.b.b.b.b.b.b.b.b.b.b.b.b.b.b.b.b.b.b.b.b.b.b.q.{ { q.b.b.b.b.b.b.b.b.n.b.w.9.q.{ { @.m.m.b.q.b.n.D.,X-X-X%X&X",
"oXoX*X*X*XwX,X2.w.q.q.{ { q.q.b.+.X.+.+.+.+.#.+.+.+.#.b.b.b.b.b.b.b.b.b.b.b.b.b.b.b.b.b.b.b.b.b.b.b.q.q.q.q.+.+.b.b.b.b.b.b.b.b.b.b.b.b.b.b.b.q.b.b.b.b.b.@.@.@.b.q.w.H.OX+X6X7X=X*X6X#Xw.1.q.{ +.b.b.b.b.b.b.b.b.b.b.b.b.b.b.b.+.+.q.q.q.q.q.q.+.+.b.b.b.b.b.b.+.b.b.b.b.b.+.+.b.b.b.b.b.b.b.b.b.b.b.b.b.b.b.b.b.b.b.b.b.b.b.b.+.{ { q.b.b.b.b.b.1.2.Z.J.2X1X8X6X6X6X6X6X6X=XQ.6X6X6X6X6X6X6X6X*X*X*X*X*X1X1X4X4X>XJ.n.w.1.1.1.1.w.Z.OX,X8X6X*X7X*X=X*X*X6X*XA.w.q.q.b.b.b.b.b.b.b.b.b.b.b.b.b.b.b.b.b.b.b.b.b.b.b.b.b.b.b.b.b.b.b.b.b.b.b.b.b.b.b.b.b.b.b.b.b.b.b.b.@.@.q.w.w.>X6X6X6X6X6X*X*X6X6X6X6X=X=X*X*X+X8X1XD.w.2.w.w.w.w.1.w.n.D.OX1X1X8X8X8X9X6X*X*X=X=X=X=X=X=X=X=X=X=X=X=X*X*X*X*X$X$X$X@XD.w.1.1.<.OXuXmXZXAXSXNXfXW.g.7.6.1.l.B.N.N.N.#.N.b.b.b.#.b.b.b.b.b.#.#.b.#.b.b.b.b.b.b.+.+.b.b.b.b.b.b.b.b.b.b.b.b.b.b.b.b.b.b.b.b.b.b.b.b.b.b.b.b.b.b.b.b.q.<.A.6X9X=X=X*X6XOXw.,.w.q.m.b.b.b.b.b.b.b.b.b.b.b.b.b.{ { b.b.b.b.b.b.b.b.b.b.b.b.b.b.b.b.b.b.b.b.b.b.b.b.b.b.b.b.b.+.b.b.{ { { q.b.b.b.b.b.b.b.b.q.1.,./ 9.{ { { b.b.b.` b.1.A.+X9X-X%X&X",
"oX$X-X*X*X8X,X2.w.q.{ { { b.b.b.b.b.b.b.b.b.N.b.#.#.#.N.b.N.N.N.b.b.b.b.b.b.b.b.b.b.b.b.b.b.b.b.b.b.b.b.b.b.b.b.b.b.b.b.b.b.b.b.b.b.b.b.q.q.w.w.b.w.w.b.b.b.@.@.b.{ w.H.OX+X*X=X*X*X6X>Xw.1.q.` b.b.b.b.b.b.b.b.b.b.b.b.b.b.b.b.b.b.b.b.b.b.b.b.b.b.b.b.b.b.b.b.+.+.b.b.b.b.+.+.b.b.#.#.b.b.N.N.b.b.b.b.b.b.b.b.b.b.b.b.b.b.b.b.+.@.b.b.q.q.w.w.1.2.Z.T.,X1X6X6X*X6X7X6X=X=X=X=X7X7X6X6X6X6X6X6X*X*X-X#X,X#XOXOXH.Z.w.1.1.b.n.n.1.1.w.H.@X8X6X*X9X=X=X=X=X6X6XU.2.1.w.n.n.b.b.b.b.b.b.b.b.b.b.b.b.b.b.b.b.b.b.b.b.b.b.b.b.b.b.b.b.b.b.b.b.b.b.b.b.b.b.b.b.b.b.b.b.b.b.b.b.b.b.2.^.6X6X6X6X6X*X*X6X6X6X6X=X=X*X*X+X1X@Xu.,.w.n.b.C.n.w.1.1.1.w.Z.OXOX#X1X-X-X*X*X=X=X=X=X=X=X=X=X=X=X=X=X=X;X=X-X$X$X$X#X@XH.n.3.2.2.A.*XcXAXAXSXAXNXgX9XU.2.3.B.N.N.N.N.N.N.N.b.#.#.b.b.b.b.#.#.#.#.b.b.b.b.#.b.b.b.b.b.b.b.b.b.b.b.b.b.b.b.b.b.b.b.b.b.b.b.b.b.b.b.b.b.b.b.b.b.{ q.w.2.A.6X9X*X=X*X6XOXu.1.b.{ m.n.b.b.b.b.b.b.b.b.b.b.b.b.{ +.b.b.b.b.b.b.b.b.b.b.b.b.b.b.b.b.+.+.b.b.b.b.b.+.+.+.b.b.+.+.b.b.q.q.q.q.@.b.b.b.+.l.` 1.1.w.n.M.M.q.9.9.q.b.b.q.b.1.u.OX8X-X%X=X",
"oX-X9X*XR.,X>X2.w.q.{ { { b.b.b.b.b.N.N.N.N.N.N.#.#.#.b.b.b.N.N.b.b.b.b.b.b.b.b.b.b.b.b.b.b.b.b.b.q.q.q.+.+.+.+.b.b.b.b.b.b.b.b.b.b.b.b.q.w.w.w.w.w.w.b.b.b.@.@.N.{ 1.S.@X1X*XR.*X*X+XT.w.1.m.N.+.b.b.b.b.b.b.b.b.b.b.b.b.b.b.b.b.b.b.b.b.b.b.b.b.b.b.b.b.b.b.b.+.+.b.b.b.b.b.+.b.#.#.#.#.#.N.N.b.b.b.b.b.b.b.b.b.b.b.b.b.b.b.b.b.@.b.b.q.w.w.2.1.Z.T.,X,X,X6X6X=X=X=X=X=X=X=X*X6X6X=X6X6X6X6X6X+X#X8X1X@XJ.A.w.2.1.w.b.b.b.b.+.b.` 1.Z.OX1X8X6X9X=X=X=X*X7X7XT.1.` w.B.C.b.1.b.b.b.b.b.b.b.b.b.b.b.b.b.b.b.b.b.b.b.b.b.b.b.b.b.b.b.b.b.b.b.b.b.b.b.b.b.b.b.b.b.b.b.b.b.b.b.z.2.^.6X6X6X=X6X*X*X6X6X6X6X=X=X*X*X1X4X[.w./ b.b.b.` ` +.b.b.b.w.w.w.u.D.OX#X#X+X*X*X=X6X=X=X=X=X=X=X=X=X=X-X;X=X-X:X%XoX+X4X5XH.3.z.:.>.U.xXVXNXDXDXDXAXZX6X6.2.B.x.N.N.N.N.N.b.b.#.#.b.b.b.b.b.#.#.#.#.b.b.b.#.+.b.b.b.b.b.b.b.b.b.b.b.b.b.b.b.b.b.b.b.b.b.b.b.b.b.b.b.b.b.b.b.N.{ b.q.2.u.#X6X*X=X*X6X@XZ.w.b.` n.n.q.q.q.b.b.b.b.b.b.b.b.b.b.b.b.b.b.b.b.b.b.b.b.b.b.b.b.b.b.b.+.b.b.b.b.b.b.+.+.+.+.b.+.+.+.b.q.q.q.b.@.@.b.b.b.q.1.w.n.H.<XtX'.S.q.9.q.b.N.b.n.w.u.OX8X*X%X=X",
"*XoX*X*X+X8X>Xw.q.m.{ { m.b.w.C.b.#.#.#.#.#.#.#.#.#.#.#.#.#.#.b.b.b.b.b.b.b.b.b.b.b.b.b.b.b.b.b.b.b.b.b.b.b.b.b.b.b.b.b.b.b.b.b.b.b.b.1.n.H.M.,.9.9.1.b.b.b.@.#.@.q.q.S.1X8X*X*X*X*X1XOXw.1.q.{ b.b.b.b.b.b.b.b.b.b.b.b.b.b.b.b.b.b.b.b.b.b.b.b.b.b.b.b.b.b.b.b.b.b.b.b.+.+.+.b.b.b.b.b.#.#.#.N.b.b.b.b.b.b.b.b.b.b.b.b.b.b.b.b.+.+.+.b.n.n.1.<.J.OX,X6X6X6X6X=X=X=X=X=X*X*X=X*X9X6X6X+X6X6X8X8XqX1XOXD.0.<.,.,.w.w.q.b.b.#.b.b.+.b.b.n.D.1X8X+X*X=X=X=X6X=X*X,Xn.) 3.|.'.w.b.b.b.b.b.b.b.b.b.b.N.N.N.b.b.b.b.b.b.b.b.b.b.b.b.b.b.b.b.b.b.b.b.b.b.b.b.b.b.b.b.b.b.l.+.b.+.` 1.n.2X6X6X7X7X6X=X=X6X7X6X6X*X*X*X+X1XOXS.9.q.b.@.{ @.b.b.b.b.q.w.w.,.,.<.0.D.OX1XqX8X6X6X6X6X=X=X=X=X=X=X=X-X-X=X=X&X%X*X+X,X5X5X.Xb.n.2.:.t.:XmXZXDXDXNXAXmX6XZ.3.B.l.l.N.N.X.X.V.b.b.b.b.b.b.b.+.+.+.b.b.b.b.b.+.b.b.b.b.b.b.b.b.b.b.b.b.b.b.b.b.b.b.b.b.b.b.b.b.b.b.b.b.b.b.b.b.@.{ b.,.A.8X*X*X9X*X,X@XZ.1.b.b.9..Xb.b.b.l.N.X.b.b.b.b.b.b.b.b.b.b.b.b.b.b.b.b.b.b.b.b.b.b.b.b.#.#.b.b.b.#.#.#.b.b.b.b.b.#.b.b.b.q.b.b.b.b.b.b.N.q.b.1.M.4X<X3X3X].M.w.q.1.{ b.b.3.Z.,X6X*X;X=X",
"*X%X*X*X+X8X>Xw.q.m.{ { m.q.w.H.b.#.#.#.#.#.#.#.#.#.#.#.#.#.#.b.b.b.b.b.b.b.b.b.b.b.b.b.b.b.b.b.b.b.b.b.b.b.b.b.b.b.b.b.b.b.b.b.b.b.b.1.M.].].S.w.9.9.w.b.b.b.#.@.q.q.S.1X8X*X*X*X*X1XOXw.1.q.{ b.b.b.b.b.b.b.b.b.b.b.b.b.b.b.b.b.b.b.b.b.b.b.b.b.b.b.b.b.b.b.b.b.b.b.b.b.b.+.+.b.b.b.b.N.N.#.#.b.b.b.b.b.b.b.b.b.b.b.b.b.b.b.b.+.b.b.b.w.w.w.u.T.+X,X6X6X6X6X*X*X*X=X=X*X*X6X9X+X,X6X8X0X8X,XOXD.S.u.0.w.9.9.w.w.q.b.b.#.#.#.#.+.N.b.w.H.2X8X+X6X*X=X=X6X*X*X,Xw.3.1.H..Xb.b.b.b.b.b.b.b.b.b.b.b.b.b.b.b.b.b.b.b.b.b.b.b.b.b.b.b.b.b.b.b.b.b.b.b.b.b.b.b.b.b.b.b.l.b.b.b.1.1.n.2X0X6X7X7X6X=X=X6X7X6X6X*X*X*X,X1X[.w.9.b.b.#.O.#.#.b.b.b.b.b.w.w.9.9.0.w.u.S.D.,X,X6X6X6X6X6X*X*X*X*X=X=X=X;X;X=X=X=X6X,X2X5X5X Xn.3.w.u.a.#XnXAXSXDXcXZXmX0XA.3.B.B.l.l.N.b.` b.b.b.b.b.b.b.+.+.+.b.b.b.b.b.b.b.b.b.b.b.b.b.b.b.b.b.b.b.b.b.b.b.b.b.b.b.b.b.b.b.b.b.b.b.b.b.b.#.{ b.1.A.1X*X*X9X*X,X,XZ.1.b.b.9..Xn.w.b.1.N.+.b.b.b.b.b.b.b.b.b.b.b.b.b.b.b.b.b.b.b.b.b.b.b.b.b.#.b.b.b.b.#.#.b.b.b.b.b.#.b.b.b.q.b.b.b.b.b.b.N.q.b.1.Z.4X<X2X<X@XH.w.q.q.+.b.b.` Z.,X,X*X;X=X",
"-X*X*X*X*X8X>Xw.q.b.{ { b.q.b.|.b.b.b.b.b.b.b.b.#.#.b.b.N.N.b.b.b.b.b.b.b.b.b.b.b.b.b.b.b.b.b.b.b.b.b.b.b.b.b.b.b.b.b.b.b.b.b.b.b.b.b.1.S.5X<X@Xu.w.1.w.b.b.+.#.@.{ 9.S.1X1X+X*X*X+X1XOXw.1.b.+.b.b.b.b.b.b.b.b.b.b.b.b.b.b.b.b.b.b.b.b.b.b.b.b.b.b.b.b.b.b.b.b.b.b.b.b.b.b.b.b.b.b.b.b.b.b.b.b.b.b.b.b.b.b.b.b.b.b.b.b.b.b.b.b.b.b.b.q.1.w.A.D.,X,X6X9X6X*X*X6X*X*X=X*X*X6X8X8X,X,X1X4X1X>XJ.A.2.1.1.1.9.w.w.b.q.b.b.b.b.b.#.#.#.N.b.q.Z.>X1X+X6X6X=X=X6X6X6X6Xw.1.w.w.3Xn.1.b.b.b.b.b.b.b.b.b.b.b.b.b.b.b.b.b.b.b.b.b.b.b.b.b.b.b.b.b.b.b.b.b.b.b.b.b.b.b.b.b.b.b.b.N.b.q.w.Z.2X0X6X7X=X=X=X=X6X7X7X6X*X*X6X,XqXD.2.9.b.@.+.#.#.#.b.b.b.b.b.q.b.w.w.9.1.,.,.2.D.T.OX,X1X8X8X6X6X*X*X*X*X*X=X=X=X=X7X7X6X,X2X3X3XJ.n.b.9.,.p.#XMXZXVXcXZXAXmX8X8.A.Z.3.1.b.b.` b.b.b.b.b.b.b.b.b.b.b.b.b.b.b.b.b.b.b.b.b.b.b.b.b.b.b.b.b.b.b.b.b.b.b.b.b.b.b.b.b.b.b.b.b.b.b.b.#.{ b.1.A.8X*X*X7X*X6X,XZ.1.b.w.9.'.H.w.b.1.b.+.b.#.#.#.#.@.b.b.b.b.b.b.b.b.b.b.b.b.b.b.b.b.b.b.b.b.b.b.b.b.b.b.b.b.b.b.b.b.b.b.b.b.b.b.b.#.#.b.b.1.b.1.Z.<X1X1X4X@XD.n.w.q.b.b.b.` Z.,X,X*X=X=X",
"-X*X*X*X*X6X>Xw.q.b.{ { b.q.n. Xb.b.b.b.b.b.b.b.#.#.N.N.N.N.b.b.b.b.b.b.b.b.b.b.b.b.b.b.b.b.b.b.b.b.b.b.b.b.b.b.b.b.b.b.b.b.b.b.b.b.l.1.Z.@X<X@XH.w.9.w.w.b.#.#.@.q.1.S.1X8X+X*X*X*X6XOXw.1.b.+.b.b.b.b.b.b.b.b.b.b.b.b.b.b.b.b.b.b.b.b.b.b.b.b.b.b.b.b.b.b.b.b.q.b.b.b.b.b.b.b.#.b.b.b.b.b.b.b.b.b.b.b.b.b.b.b.b.b.b.b.b.b.b.b.b.b.l.1.2.Z.T.#X8X8X6X*X*X*X6X6X*X*X*X6X6X6X,X,XqX2X>XJ.H.Z.n.2.1.w.w.w.b.b.b.b.b.b.b.b.b.b.b.#.#.N.b.q.n.].,X6X6X6X*X*X=X6X6X8Xw.1.n.,.rXJ.3.b.b.b.b.b.b.b.b.b.N.N.N.N.b.b.b.b.X.+.+.b.b.b.b.b.b.b.b.b.b.b.b.b.b.b.b.b.b.b.b.b.b.l.b.b.b.1.w.Z.2X0X7X7X=X=X=X=X7X7X7X6X*X*X6X6X1XA.<.w.n.b.O.N.#.b.b.b.b.b.b.b.b.b.b.b.w.w.w.1.2.w.Z.J.OX,X1X8X,X6X6X*X*X*X=X=X=X=X7X7X6X6X,X2X5X3X Xw./ 9.b.0.oXcXZXZXbXbXZXmX*Xi.>.2.n.` ` N.b.b.b.b.b.b.b.b.b.b.b.b.b.b.b.b.b.b.b.b.b.b.b.b.b.b.b.b.b.b.b.b.b.b.b.b.b.b.b.b.b.b.b.b.b.b.b.#.+.[ b.1.Z.4X6X*X7X*X6X2XZ.1.b.w.9.].].9.b.1.b.+.#.#.#.#.#.#.b.b.b.b.b.b.b.b.b.b.b.b.b.b.b.b.b.b.b.b.b.b.b.b.b.b.b.b.b.#.b.b.b.b.b.b.b.b.b.#.#.#.N.1.b.1.Z.4X1X1X1X,XD.w.w.q.b.b.b.` Z.,X,X*X=X=X",
"-X%X=X=X*X6X>X2.b.b.{ { b.1.n.5Xb.b.b.b.b.b.b.b.b.b.b.b.b.b.b.b.b.b.#.#.b.b.b.b.b.b.b.b.b.b.b.b.b.b.b.b.b.b.b.b.b.b.b.b.b.b.b.b.b.b.l.3.w.].<X@X[.p.w.9.b.b.b.#.b.q.1.Z.1X8X*X*X=X*X8X@Xw.1.b.+.b.b.b.b.b.b.b.b.b.b.b.b.b.b.b.b.b.b.b.b.b.b.b.b.b.b.b.b.b.b.b.b.{ { b.b.b.b.b.b.#.#.b.b.b.b.b.b.b.b.b.b.b.b.b.b.b.b.b.b.b.b.b.b.b.l.1.2.Z.OX1X8X9X*X*X=X*X*X*X*X*X6X8X8X1X,X#XOX>XJ.Z.n.1.1.1.1.b.b.b.b.b.b.b.b.b.b.b.b.b.b.b.b.N.N.b.1.n.J.,X8X8X6X*X*X=X*X6X8XZ.w.n.~ 4X.X3.w.q.q.b.b.b.b.b.b.b.b.b.b.b.b.b.b.X.X.+.+.b.b.b.b.b.b.b.b.b.b.b.b.b.b.b.b.b.b.b.b.b.l.b.b.b.1.1.u.,X6X7X7X7X6X=X*X=X7X=X=X*X*X6X,X,Xu.,.w.n.b.+.N.b.b.b.b.b.b.b.b.b.b.b.b.b.b.b.b.1.1.w.n.S.J.].>X1X1X6X6X6X*X*X=X=X=X=X=X*X*X*X*X#XqX2XD.n.n.b./ t.oXnXZXZXhXbXAXVXQ.4.<.w.1.{ N.+.+.b.b.b.b.b.b.b.b.b.b.b.b.{ b.b.b.b.b.b.b.b.b.b.b.b.b.b.b.b.b.N.N.b.b.b.b.b.b.b.b.b.b.b.b.b.#.+.[ b.1.Z.1X,X6X6X*X6X2XZ.1.b.q.1.[.tX,.n.1.b.+.#.#.#.#.#.#.b.b.b.b.b.b.b.b.b.b.b.b.b.b.b.b.b.b.b.b.b.b.b.b.b.b.#.#.#.#.b.b.b.b.b.b.b.b.b.#.#.#.N.{ n.,.Z.4X,X1X,X,XT.w.1.w.b.{ b.` Z.1X,X*X=X=X",
"=X%X=X=X*X8X>X2.w.b.{ q.b.1.n.3Xb.b.b.b.b.b.b.b.b.b.b.b.b.b.b.b.b.#.#.#.b.b.N.b.b.b.b.b.N.b.b.b.b.b.b.b.b.b.b.b.b.b.b.b.b.b.b.b.b.b.l.1.n.OX4X1X@XD.w.9.q.b.N.N.b.q.1.Z.1X6X*X=X=X*X6X#Xw.1.b.b.b.b.b.b.b.b.b.b.b.b.b.b.b.b.b.b.b.b.b.b.b.b.b.b.b.b.b.b.b.b.b.b.+.{ b.b.b.b.b.b.#.#.b.b.b.b.b.b.b.b.b.b.b.b.b.b.b.b.b.b.b.b.b.b.b.l.z.Z.>X1X8X8X*X*X%X%X*X*X*X*X6X1X8X1X,XOXJ.J.n.n.1.b.b.b.b.l.b.N.N.b.b.b.b.b.b.b.b.b.b.b.b.b.#.#.b.1.w.Z.OX8X6X6X*X*X=X*X6X8XJ.n.w.1. XrX1.w.w.w.b.b.b.b.b.b.+.+.+.b.b.b.b.b.b.b.b.b.b.b.b.b.b.b.b.b.b.b.b.b.b.b.b.b.b.b.b.b.b.l.b.b.b.q.w.Z.,X6X7X7X7X6X=X*X7X7X=X=X*X=X6X6XU.u.1.w.b.b.#.N.b.b.b.b.b.b.b.b.b.b.b.N.b.b.N.b.N.b.{ 1.q.w.n.Z.OXOX,X,X6X6X6X6X*X*X=X-X-X%X&X=X;X+X+X1X<XM.l.b.<.t.Y.vXZXSXNXSXAXMXoX4.<.n.b.{ @.+.b.b.b.b.+.+.b.b.b.b.b.b.+.+.b.b.b.b.b.b.b.b.b.b.b.b.b.b.b.b.N.N.b.b.b.b.b.b.b.b.N.N.b.b.b.#.$.[ N.1.Z.1X,X6X6X+X6X2XH.w.b.w.2.D.yX,.n.1.b.#.#.#.#.#.#.#.b.b.b.b.b.b.b.b.b.b.b.b.b.b.b.b.b.b.b.b.b.b.b.b.b.b.#.#.#.#.b.b.b.b.b.b.b.b.b.#.#.@.N.{ n.,.Z.4X,X1X+X1XOXu.1.w.b.{ b.` M.1X,X*X=X=X",
"=X&X=X=X=X6X,X2.b.q.{ q.b.1.n.4Xb.b.b.b.b.b.b.b.b.b.b.b.b.b.b.b.b.b.#.#.#.N.N.N.N.b.#.#.N.N.b.b.b.b.b.b.b.b.b.b.b.b.b.b.b.b.b.b.l.b.b.1.w.OX4X1X1XD.0.1.w.b.N.N.b.q.1.A.,X6X*X=X=X=X8X+Xu.1.b.b.b.b.b.b.b.b.b.b.b.b.b.b.b.b.b.b.b.b.b.b.b.b.b.b.b.b.b.b.b.b.b.b.+.b.b.b.b.+.+.b.b.b.b.b.#.#.#.b.b.b.b.b.b.b.b.b.b.b.b.b.b.b.b.b.l.B.H.>X2X1X6X+X*X*X*X%X*X-X*X*X1X,X+XOXJ.D.Z.Z.1.1.1.b.b.N.N.b.#.+.#.@.b.b.b.N.b.b.b.b.b.b.b.b.#.#.b.b.l.Z.T.8X,X+X*X*X*X*X6X,XOXw.2.w.M.iXw.w.w.w.b.b.b.b.b.b.b.b.b.b.b.N.N.N.N.N.N.b.b.b.b.b.b.b.b.b.b.b.b.b.b.b.b.b.b.b.b.b.B.b.b.b.b.w.n.Z.,X6X7X7X7X7X=X*X6X7X=X=X=X=X6X6Xi.u.2.w.b.b.N.N.b.b.b.b.b.b.b.b.N.b.b.#.+.+.#.+.N.m.#.{ { 1.1.2.Z.A.D.T.R.*X6X6X*X*X*X%X&X&X&X&X:XW.oX8XqXJ.B.B.w.<.4.U.xXAXAXDXNXZXvXU.0.w.b.O.@.b.b.b.b.b.b.+.+.+.+.b.b.b.b.+.b.b.b.b.b.b.b.b.b.b.b.b.b.b.b.b.N.N.N.N.b.b.b.b.N.N.N.N.b.b.b.#.$.} N.` S.1X,X6X6X+X6X2XH.1.b.1.,.D.iX/ n.1.N.#.#.#.#.#.#.#.b.b.b.b.b.b.b.b.b.b.b.b.b.b.b.b.b.b.b.#.N.b.b.#.#.#.#.#.N.N.b.b.b.b.b.b.b.b.b.#.#.@.N.{ n.,.Z.1X,X6X+X8X#XZ.1.w.b.{ b.` M.<X,X*X*X=X",
"=X&X=X=X*X6X>X2.b.b.{ b.b.3.n.4Xw.b.b.b.b.b.b.b.b.b.b.b.b.b.b.b.b.b.#.#.#.N.N.N.#.#.#.#.#.#.b.b.b.b.b.b.b.b.b.b.b.b.b.b.b.b.b.b.#.b.b.3.w.D.,X#X4XD.2.1.w.b.N.N.b.b.1.Z.,X6X*X=X=X=X8X+XZ.1.b.b.b.b.b.b.b.b.b.b.b.b.b.b.b.b.b.b.b.b.b.b.b.b.b.b.b.b.b.b.b.b.b.b.b.b.b.b.+.+.+.b.b.b.b.b.#.#.#.b.b.b.b.b.b.b.b.b.b.b.b.b.b.b.b.b.1.Z.>X4XqX6X*X*X*X*X*X*X9X9X8X,X,X>XJ.Z.w.2.1.1.M.b.q.X.b.N.N.N.N.#.b.+.+.b.b.b.b.b.b.b.b.b.b.b.#.#.N.b.l.n.J.1X+X+X*X*X*X6X*X,X>Xw.,.n.1.iXn.2.w.w.q.q.{ b.b.b.n.n.B.B.B.B.B.B.B.B.B.n.b.b.b.b.b.b.b.b.b.b.b.b.b.b.b.b.b.b.b.b.B.n.n.B.n.n.n.Z.,X6X6X7X7X7X*X=X=X=X=X=X=X6X,X,X6.w.n.b.l.b.N.b.b.b.b.b.b.b.b.b.N.b.#.#.+.#.#.#.#.#.#.#.N.b.q.1.:.<.2.A.T.+X,X6X+X$X-X:X:X:X&X&X&X=X=X*X,XqX^.z.z.n.2.>.Y.MXZXhXNXNXZXvXU.,./ B.{ @.@.@.b.b.b.b.b.b.b.b.b.b.b.+.b.b.b.b.b.b.b.b.b.b.b.b.b.b.b.b.N.N.N.N.b.b.N.N.N.N.N.N.b.b.b.N.#.{ N.1.S.1X,X6X6X*X6X,XZ.l.b.q.,.D.iX:.n.1.@.#.#.#.N.N.#.#.b.b.b.b.b.b.b.b.b.b.b.b.b.b.b.b.b.b.#.#.N.N.N.#.#.#.N.N.N.N.b.b.b.b.b.b.b.b.b.b.#.#.N.{ b.,.Z.1X,X6X*X8X,XA.w.b.b.{ b.` M.1X,X*X*X=X",
"=X=X=X=X*X6XJ.1.N.X.#.@.q.9.w.yXw.,.w.n.w.q.b.b.b.b.b.b.b.b.b.b.b.#.#.#.b.b.b.b.#.#.#.b.b.b.b.b.b.b.b.b.b.b.b.b.b.b.b.b.b.b.b.b.N.b.b.w.2.OXqX,X,X,XA.1.n.b.+.#.b.b.1.H.1X8X*X7X7X6X6X>Xn.1.b.N.#.+.+.N.N.#.#.b.N.b.b.b.b.b.+.+.b.b.b.b.b.b.b.b.b.b.b.b.b.b.b.b.b.b.b.b.b.b.b.b.b.b.b.b.b.b.b.b.w.w.w.b.b.b.b.b.X.b.b.b.b.b.n.1.D.OX+X+X*X*X6X=X).6X6X0XqX2X>X'.w.w.w.w.w.w.b.b.b.b.b.b.b.b.b.b.b.b.b.b.b.b.b.b.b.b.b.b.b.b.b.N.V.+.+.N.b.1.S.@X1X+X*X6X6X6X6X6XOXM.9.9.w.1XvX>.<.9.{ } m.C.H.Z.S.M.M.S.S.S.S.S.H.H.S.M.M.n.n.n.1.1.1.1.1.1.1.1.n.n.n.M.M.S.S.H.Z.F.Z.M.H.n.u.T.6X6X6X7X7X=X*X*X=X=X=X*X*X8X,XJ.2.w.b.b.b.b.b.b.b.b.b.b.b.b.b.b.b.b.b.b.b.+.b.#.#.#.b.b.b.b.b.b.l.1.1.3.2.n.F.J.1X#X#X$X-X-X:X:X%X=X=X7X6X6X6X,Xz.F.Z.<.>.a.uXAXcXNXAXAXxXY.4.,.q.@.@.@.+.N.N.N.b.b.b.b.b.b.q.{ b.@.b.+.b.b.b.b.b.b.b.#.N.b.b.N.b.b.b.b.b.b.b.b.b.b.b.b.b.b.b.b.#.N.1.w.[.1X+X*X=X6X6X,XJ.n.+.b./ S.nX7.2.b.+.$.#.N.N.N.N.#.#.b.b.b.b.b.b.b.b.b.b.b.b.b.b.b.b.b.b.b.b.b.b.b.b.b.b.b.b.b.b.b.b.b.b.b.b.b.b.b.b.b.b.{ b.1.u.1X,X6X*X*X1XZ.{ m.{ @.b.` Z.2X6X6X6X*X",
"=X=X=X=X*X1XJ.w.N.X.#.#.b.9.0.yXw.,.9.n.w.q.b.+.b.b.b.b.b.b.b.b.b.b.#.#.b.b.b.b.#.#.b.b.b.b.b.b.b.b.b.b.b.b.b.b.b.b.b.b.b.b.b.b.N.+.b.w.2.OXqX,X6X,XA.1.n.b.+.#.b.b.1.H.,X8XQ.7X7X6X6X>Xn.1.b.N.N.@.+.#.N.#.X.N.N.b.b.b.b.b.{ +.b.b.b.b.b.b.b.b.b.b.b.b.b.b.b.b.b.b.b.b.b.b.b.b.b.b.b.b.b.b.b.b.w.w.w.b.b.b.b.b.b.b.b.b.1.w.Z.S.U.oX*X*X=X=X7X6X7X6X,X,X>XJ.H.n.b.b.b.b.b.b.b.b.b.b.b.b.b.b.b.b.b.b.b.b.b.b.b.b.b.b.b.b.b.b.N.N.#.O.+.N.b.1.e.[.4X1X6X6X6X7X(.6X>XM.9.9.0.,XvX5.6.0.r.} m.M.F.Z.Z.Z.Z.Z.Z.Z.Z.Z.H.Z.Z.Z.Z.Z.n.n.Z.Z.Z.Z.Z.Z.Z.Z.Z.Z.Z.Z.Z.Z.Z.Z.Z.G.Z.Z.H.Z.u.T.6X6X6X7X=X*X*X*X=X;X-X*X1X1X@XH.b.b.b.b.b.b.b.b.b.b.b.b.b.b.b.b.b.b.b.b.b.b.b.b.b.b.b.b.b.b.b.b.B.b.l.l.l.z.n.n.H.D.OX#X8X-X*X*X*X-X=X=X*X*X=X6X^.F.z.n.w.,.a.9XZXAXCXVXVXcXY.<.9.{ @.m.N.b.b.N.l.l.l.b.b.b.w.q.b.@.@.@.+.+.b.b.b.b.b.#.b.b.N.N.b.b.b.b.b.b.b.b.b.b.b.b.b.b.b.b.b.N.1.w.[.2X+X*X=X=X6X,XJ.b.+.@.] e.mX_.6.n.O.$.#.b.x.x.b.#.#.#.b.b.b.b.b.b.b.b.b.b.b.b.b.b.b.b.b.b.b.b.b.b.b.b.b.b.b.b.b.b.b.b.@.@.b.b.b.b.b.b.b.{ b.1.Z.1X,X6X=X*X1XZ.{ m.{ @.b.` Z.2X6X6X6X*X",
"=X=X=X=X*X8XJ.w.N.X.#.#.b.9.w.iXp.,.9.n.w.b.b.+.#.b.b.b.b.b.b.b.b.b.b.b.b.b.b.b.b.b.b.b.b.b.b.b.b.b.b.b.b.b.b.b.b.b.b.b.b.b.b.b.N.+.b.w.2.OXqX,X,X,XA.1.w.b.+.#.b.b.1.H.,X8X*X7X7X6X6X>Xn.1.b.b.m.@.+.#.N.b.#.N.N.b.b.b.b.b.q.b.b.b.b.b.b.b.b.b.b.b.b.b.b.b.b.b.b.b.b.b.b.b.b.b.b.b.b.b.b.b.b.b.w.w.b.b.b.b.b.b.N.N.b.1.1.w.J.@X#X*X*X*X*X7X6X6X,X,XT.G.Z.n.l.1.b.b.b.b.b.b.b.b.b.b.b.b.b.b.b.b.b.b.b.b.b.b.b.b.b.b.b.b.b.N.N.N.#.O.+.N.b.1.w.D.1X8X6X6X6X7X7X0X2XH.,.,.2.,XmXE.7.u.M.`.`.B.G.A.Z.Z.Z.Z.Z.Z.Z.Z.Z.Z.Z.Z.Z.Z.Z.Z.H.H.H.H.H.H.H.H.Z.Z.Z.Z.Z.Z.Z.Z.Z.G.Z.Z.H.Z.u.T.6X6X6X7X=X*X*X*X=X=X*X*X8X1XJ.n.b.b.b.#.b.b.b.b.b.b.b.b.b.b.b.b.b.b.b.b.b.b.b.b.b.b.b.b.b.b.b.b.N.N.N.N.b.b.l.1.1.0.S.D.#X#X+X+X*X*X*X*X=X=X6X6XqXP.n.M.9.:.-.a.xXZXAXVXVXAXxXE.9./ 9.n.B.b.l.b.l.b.l.b.b.b.b.b.b.@.@.@.b.b.b.b.b.b.b.b.b.b.b.N.b.b.b.b.b.b.b.b.b.b.b.b.b.b.b.b.b.N.1.q.[.1X+X*X=X=X6X,XJ.n.+.@.] w.nXE.6.n.} $.#.b.z.l.b.#.#.#.b.b.b.b.b.b.b.b.b.b.b.b.b.b.b.b.b.b.b.b.b.b.b.b.b.b.b.b.b.b.b.b.@.+.b.b.b.b.b.b.b.{ b.1.Z.1X,X*X=X*X1Xu.9.m.{ @.b.` Z.2X6X6X6X=X",
"=X=X=X=X*X1XJ.1.N.X.#.#.b.9.w.iXS.,.9.q.w.b.b.+.#.#.b.b.b.b.b.b.b.b.b.b.b.b.b.b.b.b.b.b.b.b.b.b.b.b.b.b.b.b.b.b.b.b.b.b.b.b.b.b.N.+.b.w.2.OXqX,X,X,XD.2.1.b.#.#.b.b.1.H.,X8XQ.7X7X6X8X,XZ.1.b.b.C.m.+.b.N.b.#.b.N.b.b.b.b.b.q.b.b.b.b.b.b.b.b.b.b.b.b.b.b.b.b.b.b.b.b.b.b.b.b.b.b.b.b.b.b.b.b.b.b.b.b.b.b.b.b.b.B.b.1.1.w.D.OX1X*X*X*X*X*X6X6XT.A.Z.Z.2.2.1.1.b.b.b.b.b.b.b.b.b.b.b.b.b.b.b.b.b.b.b.b.b.b.b.b.b.b.b.b.b.b.N.N.N.+.+.+.N.b.1.9.w.1X8X6X=X6X6X7X6X2X'.1.,.2.+XbX7Xg.u.M.`.`.B.Z.G.Z.Z.Z.Z.Z.Z.Z.Z.Z.Z.Z.Z.Z.Z.Z.Z.Z.Z.Z.F.Z.Z.Z.Z.F.F.F.Z.Z.Z.Z.Z.Z.G.Z.Z.H.Z.u.T.6X6X6X7X=X*X*X*X;X=X*X*X8X>XH.1.b.b.b.#.b.b.b.b.b.b.b.b.b.b.b.b.b.b.b.b.b.b.b.b.b.b.b.b.b.b.b.b.l.b.b.b.b.b.b.l.w.9.<.<.u.A.+X*X*X*X=X=X=X=X6X6X,X2X XM.9.w.w.-.g.gXZXAXVXVXbX9XA.0.,.w.n.b.q.b.b.b.b.b.w.b.b.b.b.@.b.b.b.b.b.b.b.b.b.b.b.b.b.b.b.b.b.b.b.b.b.b.b.b.b.b.b.b.b.b.b.N.1.q.[.1X+X*X=X=X6X,XJ.n.+.@.] w.vXQ.2.n.} $.#.b.z.l.b.#.#.b.b.b.b.b.b.b.b.b.b.b.b.b.b.b.b.b.b.b.b.b.b.b.b.b.b.b.b.b.b.b.b.b.+.+.b.b.b.b.b.b.b.{ b.1.Z.1X,X*X=X*X1Xu.{ m.{ @.b.` Z.2X6X*X6X=X",
"=X=X=X=X*X8XJ.1.b.X.#.#.b.9.w.iXD.9.1.q.w.b.b.+.N.b.N.N.b.b.b.b.b.b.b.b.b.b.b.b.b.b.b.b.b.b.#.#.b.b.b.b.b.b.b.b.b.b.b.b.b.b.b.b.N.+.b.w.2.OXqX,X,X8XJ.<.1.b.N.#.b.b.1.H.1X8X*X7X7X*X8X,XZ.1.b.b.`.m.{ b.N.N.b.N.b.b.#.+.b.b.q.b.b.b.b.b.b.b.b.b.b.b.b.b.b.b.b.b.b.b.b.b.b.b.b.b.b.b.b.b.b.b.b.b.b.+.+.#.b.b.b.b.b.3.1.2.D.+X1X6X*X=X=X*X6X1XOXD.2.2.1.1.1.l.b.b.b.#.#.#.b.b.b.b.b.b.b.b.b.b.b.+.b.b.b.b.b.b.b.b.b.b.b.b.b.b.b.#.#.+.#.N.b.q.1.<.OX1X8X6X6X7X7X6XqX>X9.,.2.T.bXbXE.i.M.`.`.B.Z.G.Z.Z.Z.Z.Z.Z.Z.Z.Z.Z.Z.Z.F.F.F.H.Z.Z.Z.Z.Z.Z.Z.Z.H.H.H.H.Z.Z.Z.Z.Z.A.Z.n.H.Z.Z.T.6X6X6X7X*X*X*X*X=X-X*X8X1X>XM.1.b.b.b.b.b.b.b.b.b.b.b.b.b.b.b.b.b.b.b.b.b.b.b.b.b.@.b.b.b.b.b.b.b.b.b.b.b.b.b.b.n.b.1.,.<.t.A.U.*X*X*X=X=X=X7X6X+X4X<XD.w.n.w.,.>.I.lXVXZXVXbXmX8Xa.-.>.0.n.n.B.B.n.b.b.b.b.1.1.b.b.b.b.b.b.b.b.#.#.#.b.b.b.#.#.b.b.b.b.b.b.b.b.b.b.b.b.b.b.b.b.b.N.1.q.[.1X+X*X=X=X6X,XJ.b.+.@.{ 9.vXeX2.n.[ O.#.b.z.l.b.#.#.b.b.b.b.b.b.b.b.b.b.b.b.b.b.b.b.b.b.b.b.b.b.b.b.b.b.b.b.b.b.b.b.b.+.+.b.b.b.b.b.b.b.{ b.` Z.1X,X*X=X*X1Xu.] m.{ @.b.3.Z.2X6X*X6X=X",
"=X=X=X=X*X8XJ.1.N.X.#.+.b.9.u.iXD.9.1.q.w.b.b.X.N.N.N.N.b.b.b.b.b.#.b.b.b.b.b.b.b.b.b.b.b.b.#.#.b.b.b.b.b.b.b.b.b.b.b.b.b.b.b.b.N.b.b.w.2.OXqX6X+X0XT.<.1.b.b.#.b.b.1.H.1X8X6X7X6X*X8X,XZ.1.b.b.'.B.q.q.N.N.b.N.b.N.b.b.b.b.b.b.b.b.b.b.b.b.b.b.b.b.b.b.b.b.b.b.b.b.b.b.b.b.b.b.b.b.b.b.b.b.b.b.#.#.#.#.b.b.b.b.1.<.2.A.+X9X6X*X=X=X=X*X6X1XJ.n.1.1.q.b.b.b.b.b.b.#.#.#.b.b.b.b.b.b.b.b.b.b.b.b.b.b.b.b.b.b.b.b.b.b.b.b.b.b.b.#.#.+.#.b.b.q.9.2.D.#X8X6X*X7X7X6X8X2Xw.,.t.U.vXVXE.i.w.M.M.M.Z.G.Z.Z.Z.Z.Z.Z.Z.Z.Z.Z.Z.Z.Z.Z.Z.Z.Z.Z.Z.Z.Z.Z.Z.Z.H.F.H.Z.Z.Z.Z.Z.Z.A.Z.n.H.Z.Z.T.6X6X6X7X*X*X*X*X=X*X*X8X2XJ.n.1.b.b.b.b.b.b.b.b.b.b.b.b.b.b.b.b.b.b.b.b.b.b.b.w.b.@.b.b.b.b.b.b.b.b.b.b.b.b.b.b.N.b.b.1.1.2.6.6.+X+X*X-X=X=X7X6X*X#X@X<X].w.9.w.<.>.I.7XZXZXbXbXmX-Xi.8.t.u.S.M.M.M.B.n.n.b.1.1.b.b.b.b.b.b.b.b.#.#.#.b.b.b.b.#.b.b.b.b.b.b.b.b.b.b.b.b.b.b.b.b.#.N.1.q.[.1X+X*X=X=X6X,XJ.b.+.b.r.9.vXvX>.M.[ O.@.b.z.z.b.#.b.b.b.b.b.b.b.b.b.b.b.b.b.b.b.b.b.b.b.b.b.b.b.b.b.b.b.b.b.b.b.b.b.b.@.+.b.b.b.b.b.b.b.{ b.` Z.1X,X*X*X*X1Xu.9.m.{ @.b.3.Z.,X6X*X*X=X",
"=X=X=X=X6X8XJ.1.B.X.#.#.b.w.u.iX[.w.1.w.w.b.b.X.N.N.b.b.b.b.b.b.b.#.b.b.b.b.#.#.b.#.#.b.b.b.b.#.b.b.b.b.b.b.b.b.b.b.b.b.b.b.b.b.N.+.b.w.z.OXqX,X+XqXOX<.1.b.N.#.b.b.l.H.1X8X*X7X6X*X8X,XZ.1.b.b.|.B.q.q.N.N.N.N.#.#.b.b.b.b.b.b.b.b.b.b.b.b.b.b.b.b.b.b.b.b.b.b.b.b.b.b.b.b.b.b.b.b.b.b.b.b.b.b.#.#.#.#.b.b.b.b.2.Z.T.+X6X6X*X=X=X=X6X*X8X1XD.9.q.b.b.b.b.b.b.b.b.b.#.#.b.b.#.#.b.b.b.b.b.b.b.b.@.{ { { @.@.@.@.@.@.#.#.#.#.#.#.#.#.#.+.b.b.9.9.u.OX1X6X*X7X7X6X6X1X0.<.t.i.jXZX!.I.0.M.M.M.Z.G.Z.Z.Z.Z.Z.Z.Z.Z.Z.Z.Z.Z.Z.Z.Z.Z.Z.Z.Z.Z.Z.Z.Z.Z.Z.Z.Z.Z.Z.Z.Z.Z.Z.A.Z.n.H.Z.u.T.6X6X6X7X*X*X*X*X*X*X*X8X>XH.w.1.b.#.N.N.N.N.N.b.b.b.b.b.b.b.b.b.b.b.b.b.b.b.b.w.b.+.b.b.b.b.b.b.N.b.b.b.+.+.b.b.b.N.N.b.n.2.2.<.+X+X*X*X6X6X*X=X*X%X+X1X<XJ.M.n.z.2.6.A.9XbXmXmXZXmX9Xj.t.u.D.S.M.M.C.C.M.n.b.1.w.q.q.q.b.b.b.b.b.b.b.b.b.b.b.b.b.b.b.b.b.b.b.b.b.b.b.b.b.b.b.b.b.N.1.w.[.1X+X*X=X=X6X,XJ.b.+.@.r.-.vXbX>.M.[ $.b.b.z.z.b.#.b.b.b.b.b.b.b.b.b.b.b.b.b.b.b.b.b.b.b.b.b.b.b.b.b.b.b.b.b.b.b.b.b.b.+.@.b.b.b.b.b.b.b.{ m.1.Z.1X,X*X*X*X1Xu.9.m.{ b.b.3.Z.,X6X*X*X*X",
"=X=X=X=X*X8XJ.1.N.X.N.b.b.w.u.iX[.w.1.q.w.b.b.X.N.N.b.b.b.b.b.b.b.#.b.b.b.b.#.#.#.#.#.#.b.b.b.b.b.b.b.b.b.b.b.b.b.b.b.b.b.b.b.b.N.+.b.w.z.OXqX,X+XqXOX<.1.b.N.#.b.b.l.H.1X8X*X7X=X*X8X,XZ.1.b.b..XM.q.q.b.N.N.N.#.#.b.b.b.b.b.b.b.b.b.b.b.b.b.b.b.b.b.b.b.b.b.b.b.b.b.b.b.b.b.b.b.b.b.b.b.b.b.b.#.+.#.#.b.b.w.2.2.D.6X9X*X=X=X=X7X7X6X6X8X<XH./ m.b.@.+.b.b.N.N.b.b.b.b.b.#.#.#.#.b.b.b.b.b.b.b.b.{ { { @.@.@.@.@.@.#.#.#.#.#.#.#.#.+.+.b.b.w.9.0.OX1X,X*X7X7X=X6X,Xu.0.u.i.eXZXlXE.6.p.H.Z.Z.A.Z.Z.Z.Z.Z.Z.Z.Z.Z.Z.Z.Z.Z.Z.Z.Z.Z.Z.Z.Z.Z.Z.Z.Z.Z.Z.Z.Z.Z.Z.Z.Z.Z.A.Z.Z.H.Z.u.T.6X6X6X7X*X*X*X*X*X*X6X1XOXZ.1.b.b.#.N.N.N.b.N.b.b.b.n.b.n.b.l.b.b.b.b.b.n.b.n.b.b.+.+.b.b.b.b.b.+.+.b.b.b.b.b.#.#.#.N.b.n.w.2.6.+X+X*X6X7X6X=X=XW.=X;XY.,XyX<Xw.1.M.n.:.t.8XnXmXVXAXZX%Xy.i.a.u.w.M.M.H.C.M.n.l.w.q.q.q.b.b.b.b.b.b.b.b.b.b.b.b.b.b.b.b.b.b.b.b.b.b.b.b.b.b.b.b.b.N.1.w.[.1X+X*X=X=X6X,XJ.b.+.@.r.-.vXZX>.S.[ } b.b.z.z.b.#.b.b.b.b.b.b.b.b.b.b.b.b.b.b.b.b.b.b.b.b.b.b.b.b.b.b.b.b.b.b.b.b.b.b.@.@.b.b.b.b.b.b.b.{ b.1.Z.1X,X*X*X*X1Xu.9.m.{ b.b.3.A.,X6X*X*X*X",
"=X=X=X*X6X6XJ.2.B.N.#.b.b.<.D.nX@X,.w.w.1.b.` N.N.b.b.N.b.b.b.b.b.#.#.b.b.b.#.#.b.b.b.b.b.b.b.b.b.b.b.b.b.b.b.b.b.b.b.b.b.b.b.b.#.N.b.1.Z.>X8X,X8X,X,Xn.,.b.+.N.b.b.l.Z.1X8X6X7X6X*X6X,XZ.n.b.`  X X/ n.q.N.N.#.#.#.#.b.b.b.b.b.b.b.b.b.b.b.b.b.b.b.b.b.b.b.b.b.b.b.b.b.b.b.b.b.b.b.b.b.b.b.b.b.#.#.+.+.b.b.2.2.>X+X,X*X=X=X=X=X!.!.6X6XqX2XH.9.{ { @.@.b.b.b.N.b.b.b.b.b.b.b.b.b.b.b.b.b.b.b.b.b.b.b.q.q.q.b.b.{ { +.+.+.b.b.b.b.b.b.b.b.w.q.w.1.J.1X,X*X7X7X=X6X+XOXw.0.A.W.ZXbXQ.u.u.S.Z.c.A.Z.Z.Z.Z.Z.Z.Z.Z.Z.Z.Z.Z.Z.Z.Z.Z.Z.Z.Z.Z.Z.Z.Z.Z.Z.Z.Z.Z.Z.Z.Z.Z.Z.A.Z.Z.S.Z.A.OX,X6X=X7X=X*X*X*X*X*X6X,XJ.w.1.b.b.b.b.b.+.b.l.l.l.1.w.n.n.M.M.M.H.H.H.M.M.M.n.n.` { { b.b.b.b.b.b.b.b.b.b.{ { +.#.#.#.N.b.1.<.6.+X+X6X6X6X6X6X=X&X~.&X=X6X6X2X2XM.1.w.S.w.-.XXmXbXVXZXmX=Xy.t.D.S.D.S.w.n.H.H.n.1.q.q.w.b.b.b.b.b.b.b.b.b.b.b.b.b.b.b.b.b.b.b.b.b.b.b.b.b.b.b.b.b.N.1.w.[.1X+X*X=X=X6X6XJ.b.+.m.q.:.eXZXT.,.@.[ b.b.z.z.b.@.b.b.b.b.b.b.b.b.b.b.b.b.b.b.b.b.b.b.b.b.b.b.b.b.b.b.b.b.b.b.b.b.b.b.+.@.b.b.b.b.b.b.b.b.q.9.Z.OX6X*X*X-X#XD.9.{ { { q.1.Z.+X8X*X*X*X",
"=X=X=X*X6X6XJ.2.B.b.#.b.n.<.D.nX@X,.w.q.w.b.` N.b.b.b.b.b.b.b.b.b.b.#.b.b.b.b.b.b.b.b.b.b.b.b.b.b.b.b.b.b.b.b.b.b.b.b.b.b.b.b.b.#.N.b.1.Z.>X8X,X8X,X,Xn.3.b.+.N.b.b.l.Z.,X8X6X7X6X*X6X,XZ.n.b.`  X X,.n.q.b.b.#.#.#.#.#.b.b.b.b.b.b.b.b.b.b.b.b.b.b.b.b.b.b.b.b.b.b.b.b.b.b.b.b.b.b.b.b.b.b.b.b.b.b.+.b.1.w.Z.D.1X8X6X*X=X=X=X=X=X7X6X6X8X2XJ.w.q.q.b.b.b.b.b.b.b.b.b.b.b.b.b.b.b.b.b.b.b.b.b.b.b.b.{ q.q.q.b.+.{ +.+.+.b.b.N.b.b.b.b.b.b.b.q.w.1.H.>X,X6X*X=X=X6X+XOXw.w.A.Y.VXVXQ.t.u.S.Z.Z.A.Z.Z.Z.Z.Z.Z.Z.Z.Z.Z.Z.Z.Z.Z.Z.Z.Z.Z.Z.Z.Z.Z.Z.Z.Z.Z.Z.Z.Z.Z.Z.Z.Z.A.Z.Z.S.Z.A.@X,X6X=X=X=X*X*X*X*X*X+X+XD.w.1.b.b.b.b.b.b.b.b.b.n.M.M.M.S.H.H.H.H.H.H.Z.M.M.M.n.b.b.b.b.b.b.b.b.b.b.b.b.b.b.b.N.#.#.b.N.b.2.w.A.,X,X6X6X*X=X=X=XfXfXfXlX7X6X,X2X<XM.9./ 9.0.p.XXZXkXbXAXmXY.5.i.t.A.H.H.Z.H.F.M.n.b.w.q.q.q.b.b.b.b.b.b.b.b.b.b.b.b.b.b.b.b.b.b.b.b.b.b.b.b.b.b.b.N.1.w.[.2X+X*X=X=X6X6XJ.b.+.m.q.-.9XZXT.,.@.[ b.b.z.z.b.b.b.b.b.b.b.b.b.b.b.b.b.b.b.b.b.b.b.b.b.b.b.b.b.b.b.b.b.b.b.b.b.b.b.b.+.+.b.b.b.b.b.b.b.b.q.9.Z.OX6X*X*X-X#XD.9.9.q.q.w.2.A.+X8X*X*X*X",
"=X=X=X*X6X6XJ.2.B.N.#.b.n.<.D.nX@X,.w.q.w.b.` N.b.#.b.b.b.b.b.b.b.#.b.b.b.b.b.b.b.b.b.b.b.b.b.b.b.b.b.b.b.b.b.b.b.b.b.b.b.b.b.b.+.N.b.1.Z.>X8X,X8X,X2Xn.3.b.+.N.b.b.l.Z.,X8X6X7X6X*X6X,XZ.n.b.1.].<X,.w.q.b.+.@.#.#.#.#.b.b.b.b.b.b.b.b.b.b.b.b.b.b.b.b.b.b.b.b.b.b.b.b.b.b.b.b.b.b.b.b.b.b.b.b.b.b.b.1.2.Z.T.,X,X*X*X*X*X=X7X7X=X=X=X*X6X1XOXH.w.w.b.b.b.b.b.b.b.b.b.b.b.b.b.b.b.b.b.b.b.b.b.b.q.q.q.q.q.{ { { b.b.b.b.b.b.b.b.b.b.b.b.b.b.b.w.1.n.J.1X9X*X=X=X7X*X@Xp.w.a.Y.bXVX7Xi.u.S.S.A.A.Z.Z.Z.Z.Z.Z.Z.Z.Z.Z.Z.Z.Z.Z.Z.Z.Z.Z.Z.Z.Z.Z.Z.Z.Z.Z.Z.Z.Z.Z.Z.Z.Z.G.Z.Z.S.Z.A.@X6X6X6X7X=X*X*X*X*X*X+X+XD.w.2.n.b.b.b.b.n.n.M.M.S.Z.S.S.S.H.H.H.S.Z.Z.Z.Z.Z.Z.M.n.n.b.b.b.b.b.q.b.b.b.b.b.b.b.N.b.b.b.b.1.2.A.OX1X6X+X*X6X6X6X6X&XdXdXlXdX(.).2XqX Xn./ / 9.9.-.9XbXZXZXZXmX*X5.5.6.A.J.H.M.M.H.M.M.w.w.1.q.w.b.b.b.b.b.b.b.+.b.b.b.b.b.b.b.b.b.b.b.b.b.b.b.b.b.b.N.1.q.[.1X+X*X=X=X6X6XJ.b.+.m.r.-.9XZX+X9.@.} b.b.z.z.b.b.b.b.b.b.b.b.b.b.b.b.b.b.b.b.b.b.b.b.b.b.b.b.b.b.b.b.b.b.b.b.b.b.b.b.+.+.b.b.b.b.b.b.b.b.q.9.Z.OX6X*X*X-X#XS.w.9.q.n.n.w.A.+X8X*X*X-X",
"=X=X=X=X6X6XJ.2.B.N.#.b.n.<.U.nX<X,.w.q.w.b.` N.b.b.b.b.b.b.b.b.b.b.b.b.b.b.b.b.b.b.#.#.#.b.b.b.b.b.b.b.b.b.b.b.b.b.b.b.b.b.b.b.+.N.b.1.Z.>X6X,X8X,X2XZ.3.n.+.N.b.b.l.Z.1X8X6X7X6X*X6X,XZ.n.b.1.].4X<.w.w.b.{ #.#.#.#.#.b.b.b.b.b.b.b.b.b.b.b.b.b.b.b.b.b.b.b.b.b.b.b.b.b.b.b.b.b.b.b.b.b.b.b.b.b.1.1.2.Z.J.,X8X+X*X*X*X*X=X6X6X=X=X=X*X6X8X1X>XZ.n.n.n.b.n.B.n.n.n.n.n.n.n.n.n.n.n.n.n.n.n.n.n.q.q.q.q.q.q.q.q.q.b.b.b.b.b.b.b.b.b.b.b.b.b.b.b.1.1.A.1X8X*XW.=X7X*X@Xp.e.p.g.kXAXlXI.t.Z.H.Z.Z.Z.Z.Z.Z.Z.Z.Z.Z.Z.Z.Z.Z.Z.Z.Z.Z.Z.Z.Z.Z.Z.Z.Z.Z.Z.Z.Z.Z.Z.Z.Z.Z.Z.G.Z.Z.S.Z.A.#X6X6X6X7X=X*X*X*X6X6X*X+XD.Z.Z.M.n.n.n.n.M.M.Z.S.Z.Z.Z.Z.Z.Z.Z.Z.Z.Z.Z.Z.Z.Z.Z.Z.M.B.M.n.n.n.n.b.1.q.q.b.q.q.q.q.+.b.b.b.1.w.T.1X8X6X*X+X6X6X6X6X=X!.!.!.dX(.(.6X1X<X XS.9.,.9.0.4.9XmXbXbXZXbXW.f.7.7.D.J.n.n.H.H.M.n.n.w.w.q.w.b.b.b.b.b.b.@.+.b.b.b.b.b.b.b.b.b.b.b.b.b.b.b.b.b.N.1.q.[.1X+X*X=X=X6X6XJ.b.+.m.r.-.*XZX8Xw.} } b.n.z.z.b.b.b.b.b.b.b.b.b.b.b.b.b.b.b.b.b.b.b.b.b.b.b.b.b.b.b.b.b.b.b.b.b.b.b.b.+.+.b.b.b.b.b.b.+.b.b.9.Z.OX6X*X*X-X#XS.w.q.n.M.Z.Z.A.,X8X*X*X-X",
"=X=X=X*X6X,XJ.2.b.b.l.b.n.<.U.nX<X,.9.w.q.b.` N.N.b.N.N.b.b.b.b.b.b.b.b.b.b.b.b.b.#.#.#.#.#.#.b.b.b.b.b.b.b.b.b.b.b.b.b.b.b.b.b.+.N.b.1.Z.OX8X,X6X,X2XZ.1.n.+.N.b.b.l.Z.,X8X6X7X6X*X6X,XZ.n.b.1.[.yX0.w.w.b.` N.#.#.#.#.b.b.b.b.b.b.b.b.b.b.b.b.b.b.b.b.b.b.b.b.b.b.b.b.b.b.b.b.b.b.b.b.b.b.b.b.b.1.1.u.J.#X1X*X9X6X6X*X*X*X+X+X*X*X*X*X*X8X8X,XT.A.Z.n.Z.C.C.C.H.S.H.S.H.S.H.S.M.M.M.M.M.M.M.M.n.n.n.n.b.b.b.b.q.q.l.l.q.1.l.l.b.w.b.b.N.N.b.b.w.3.u.,X8X+XY.=X7X6X1XS.e.s.i.lXAXkXR.u.Z.S.H.Z.Z.Z.Z.Z.Z.Z.Z.Z.Z.Z.Z.Z.Z.Z.Z.Z.Z.Z.Z.Z.Z.Z.Z.Z.Z.Z.Z.Z.Z.Z.Z.Z.Z.G.Z.Z.H.Z.A.@X6X6X6X6X=X*X*X*X9X*X*XU.A.A.Z.M.S.M.S.M.S.Z.Z.Z.Z.Z.Z.Z.Z.Z.Z.Z.Z.Z.Z.Z.Z.Z.Z.Z.Z.S.S.S.S.M.M.M.b.b.b.b.w.q.q.q.1.b.w.1.2.Z.OX8X8X6X*X*X6X6X6X6X6X6X7X(.(.dXlX9X*X#X1X<XD.,.<.D.u.6.R.mXZXbXkXAXW.f.5.i.A.n.M.C.S.S.S.M.n.n.w.q.q.q.b.b.b.@.@.@.b.b.b.b.b.b.b.b.b.b.b.b.b.b.b.b.b.N.1.q.[.2X+X*X=X=X6X6XJ.b.+.m.r.-.=XZXwXS.{ } b.z.z.z.b.b.b.b.b.b.b.b.b.b.b.b.b.b.b.b.b.b.b.b.b.b.b.b.b.b.b.b.b.b.b.b.b.b.b.b.@.@.b.b.b.b.b.#.+.#.q.9.Z.OX6X*X*X-X#XD.w.q.M.M.H.Z.D.+X9X*X*X-X",
"=X=X=X*X6X,XJ.2.b.b.l.b.n.<.U.nX<X9.1.w.w.b.` N.N.N.N.N.b.b.b.b.b.b.b.b.b.b.b.b.b.#.#.#.#.#.#.#.b.b.b.b.b.b.b.b.b.b.b.b.b.b.b.b.+.N.b.1.Z.OX6X,X6X,X2XZ.1.n.#.N.b.b.l.Z.,X8X6X7X6X*X6X,XZ.n.b.1.[.iX0.0.q.n.` b.#.#.@.@.b.b.b.b.b.b.b.b.b.b.b.b.b.b.b.b.b.b.b.b.b.b.b.b.b.b.b.b.b.b.b.b.b.b.b.b.2.2.6.D.+X6X*X+X*X*X*X6X6X6X8X6X+X-X9X*X*X*X6X6XR.T.A.Z.Z.H.H.C.S.S.S.S.S.S.S.S.H.H.H.H.H.H.H.H.M.B.M.n.n.n.n.n.b.b.b.b.b.b.b.b.q.q.b.b.+.+.b.b.b.1.w.OX1X*X%X=X7X6X1X[.e.s.y.=XAXbX6XA.u.S.H.Z.Z.Z.Z.Z.Z.Z.Z.Z.Z.Z.Z.Z.Z.Z.Z.Z.Z.Z.Z.Z.Z.Z.Z.Z.Z.Z.Z.Z.Z.Z.Z.Z.Z.F.Z.Z.H.Z.A.#X6X6X6X7X=X*X*X*X-X-XY.g.i.u.Z.Z.S.S.S.S.S.u.u.u.Z.Z.Z.Z.Z.Z.Z.Z.Z.Z.Z.Z.Z.Z.Z.Z.Z.Z.H.H.H.H.H.H.H.C.M.B.n.b.b.b.w.n.n.w.u.D.#X1X8X*X*X*X6X6X+XT.4X4X6X7X7XdXdX=X;XoXXX1X1XD.6.Z.J.6.i.6XbXVXVXAXkXW.f.7.A.S.M.M.M.Z.H.H.S.n.b.w.q.q.b.b.+.@.@.@.b.b.b.b.b.b.b.b.b.b.b.b.b.b.b.b.b.N.1.q.[.2X+X*X=X=X6X6XJ.b.+.m.r.-.W.ZXvXD.] } q.z.z.z.b.b.b.b.b.b.b.b.b.b.b.b.b.b.b.b.b.b.b.b.b.b.b.b.b.b.b.b.b.b.b.b.b.b.b.b.@.@.b.b.b.b.b.#.+.#.q.9.Z.OX6X+X*X-X#X[.e.w.M.S.H.Z.A.+X9X*X%X-X",
"*X*X=X*X6X6XJ.2.b.l.l.l.n.2.U.nXtX9.1.w.1.b.l.b.N.N.b.b.b.b.b.b.b.b.b.b.#.#.b.b.b.b.#.b.#.#.b.b.b.b.b.b.b.b.b.b.b.b.b.b.b.b.b.b.+.N.b.1.Z.>X8X,X6X,X1XZ.1.n.#.N.b.b.l.Z.1X8X6X7X6X*X6X,XZ.n.b.1.[.iXu.,.w.m./ m.#.#.@.#.b.b.b.b.b.b.b.b.b.b.b.b.b.b.b.b.b.b.b.b.b.b.b.b.b.b.b.b.b.b.b.b.b.b.b.b.z.A.T.+X,X6X*X*XY.*X*X6X6X6X,X,XE.oX-X*X=X=X7X6X6XR.A.A.Z.H.H.M.Z.S.Z.S.Z.S.Z.S.H.S.H.S.H.S.S.S.M.M.M.M.M.M.M.M.M.M.M.M.n.n.n.n.w.w.b.b.N.N.N.b.n.w.w.D.+X*X-X=X7X6X4X[.e.s.4.=XVXVXwXD.w.S.H.Z.Z.Z.Z.Z.Z.Z.Z.Z.Z.Z.Z.Z.Z.Z.Z.Z.Z.Z.Z.Z.Z.Z.Z.Z.Z.Z.Z.Z.Z.Z.Z.Z.Z.A.Z.Z.H.Z.A.@X6X6X6X7X=X=X*X*X;X=XY.i.t.i.A.u.S.S.S.p.Z.u.u.u.Z.Z.Z.Z.Z.Z.Z.Z.Z.Z.Z.Z.Z.Z.Z.Z.Z.Z.F.F.F.H.H.H.H.H.H.M.M.B.B.B.n.M.w.0.D.@X1X+X8X*X*X6X6X+XU.Z.|. X5X0X7XfXdX!.=X-XoX+X8X,XT.A.Z.J.D.6.Y.VXAXkXCXkX!.g.Z.H.C.B.n.Z.S.S.S.M.n.n.q.q.b.b.+.@.@.@.b.b.b.b.b.b.b.b.b.b.b.b.b.b.b.b.b.N.1.w.[.1X+X*X=X=X6X6XJ.b.+.m.r.-.Y.ZXnXJ.] } q.w.z.z.b.b.q.b.b.b.b.b.b.b.b.b.b.b.b.b.b.b.b.b.b.b.b.b.b.b.b.b.b.b.b.b.b.b.b.b.@.@.b.b.b.b.b.b.b.b.q.9.Z.OX6X*X%X-X#X[.p.e.M.M.Z.Z.A.+X6X*XoX-X",
"*X*X=X*X6X,XJ.2.b.l.X.b.n.<.U.mXyXw.1.9.q.b.X.N.N.N.b.b.b.b.b.b.b.@.@.@.@.+.b.b.b.b.b.b.b.b.b.b.b.b.b.b.b.b.b.b.b.b.b.b.b.b.b.b.#.N.q.1.Z.OX8X,X6X,X4XZ.1.B.#.#.N.b.b.Z.1X8X6X7X7X*X6X,XZ.b.b.1.J.nXu.,.w.n.^ m.@.#.b.b.b.b.b.b.b.b.b.b.b.b.b.b.b.b.b.b.b.b.b.b.b.b.b.b.b.b.b.b.b.b.b.b.b.b.b.w.u.D.,X6X*X*X*X7X6X6X8X,X,XT.H.u.t.D.#X*X*X7X9X7X7XR.U.A.A.S.M.M.H.A.A.Z.H.H.Z.S.Z.Z.Z.Z.Z.Z.Z.Z.S.S.S.M.M.Z.M.M.H.H.S.S.B.M.M.M.n.n.n.n.n.b.n.n.n.n.w.D.+X6X*X=X=X6X4X[.e.e.4.Q.VXZXjXU.t.S.S.M.Z.Z.Z.Z.Z.Z.Z.Z.Z.Z.Z.Z.Z.Z.Z.Z.Z.Z.Z.Z.Z.Z.Z.Z.Z.Z.Z.Z.Z.Z.Z.Z.Z.Z.Z.Z.H.Z.A.+X6X6X7X7X=X=X*X*X-X-XY.i.t.D.D.A.u.u.u.u.u.u.u.S.Z.Z.Z.Z.Z.Z.Z.Z.H.H.H.Z.Z.Z.Z.Z.Z.Z.Z.Z.Z.Z.Z.Z.H.S.S.M.M.M.M.M.S.H.A.A.U.1X8X+X*X6X*X6X,XT.c.>.b.b.J.,X6X7X=X=XW.;X9X*X*X6X6XR.w.S.D.i.g.Q.kXCXCXVXgXU.i.D.H.w.M.M.M.n.S.S.S.H.w.w.b.b.b.b.b.b.b.b.b.b.b.b.b.b.b.b.b.b.b.b.b.b.#.N.1.w.[.1X,X*X7X6X6X6XJ.n.+.m.r.-.Y.ZXmXT.{ { q.b.z.z.b.b.q.q.b.b.b.b.b.b.b.b.b.b.b.b.b.b.b.b.b.b.b.b.b.b.b.b.b.b.b.b.b.b.b.b.@.@.b.b.b.b.b.b.b.b.q.9.Z.OX6X+X*X-X8XOXS.e.M.n.Z.u.A.+X6X*X%X*X",
"6X=X=X*X*X#XS.1.b.+.+.b.1.<.XXnXuXu.w.9.{ @.{ #.#.N.b.b.b.+.+.O.+.{ { { { @.b.b.q.q.q.q.w.q.w.q.q.q.q.{ q.q.q.q.q.q.q.q.q.q.q.b.+.{ b.3.Z.2X,X6X6X6XqXF.l.N.+.#.#.b.b.Z.2X6XQ.7X=XQ.6X1XH.w.q.9.T.iXD.,.e.q.{ @.+.b.b.b.b.b.b.b.b.b.b.b.b.b.b.b.b.b.b.b.b.b.b.b.b.w.b.b.b.b.#.#.#.#.b.b.1.1.n.u.#X#X+X*X6X7X7X6X6X6X,XOXn.1.` q.1.w.J.1X8X=XQ.7X!.Q.R.D.Z.n.C.'.Z.<.A.D.2.Z.J.M.F.F.Z.Z.Z.Z.Z.Z.Z.Z.Z.Z.Z.Z.Z.Z.Z.Z.Z.Z.Z.Z.Z.Z.S.S.S.M.M.M.M.Z.Z.Z.A.A.OX9X9X=X!.=X*XOXS.M.u.i.VXVXCX=X7.A.C.B.Z.A.A.A.A.A.Z.Z.Z.Z.Z.Z.Z.Z.Z.Z.Z.Z.Z.Z.Z.Z.Z.Z.Z.Z.Z.Z.Z.Z.Z.Z.Z.G.Z.Z.H.u.i.+X6X=X=X=X7X=X*X+X8XXXA.u.A.D.A.Z.Z.Z.Z.Z.Z.Z.p.u.Z.Z.Z.Z.Z.Z.Z.Z.Z.Z.Z.Z.Z.Z.Z.Z.Z.Z.Z.Z.Z.Z.Z.Z.Z.Z.Z.S.S.M.M.M.H.u.u.T.6X6X*X*X6X+X,X1XT.2.1.n.b.{ 1.n.T.6X6X6X*X=X7X=X=XQ.=X9X[.s.u.A.i.5.Y.bXmXZXmX9Xg.4.t.A.p.M.M.S.S.H.S.S.Z.M.n.b.l.q.b.{ b.b.b.b.b.b.b.+.b.b.b.b.b.b.b.b.#.N.1.n.>X,X6X7X7X).6X0X Xn.l.b.{ 9.A.ZXbX6X<.w.` X.b.b.n.n.w.q.{ ` q.q.w.b.b.b.b.b.b.q.q.q.1.1.{ +.@.#.#.#.b.b.b.b.b.#.#.b.b.b.@.@.b.b.b.b.b.b.b.b.q.9.Z.OX6X*X=X*X-XXXS.S.S.S.A.u.I.+X9X*X*X*X",
"=X=X=X*X-X#XS.1.b.+.+.b.,.<.oXnXuXu.w.9.{ @.[ #.#.b.b.b.b.b.#.@.@.{ { { { { q.q.q.q.q.w.w.w.w.w.q.q.q.q.q.q.q.q.{ { { q.q.q.q.b.@.{ b.` Z.,X+X6X6X6XqXF.l.V.+.#.#.@.w.H.,X6XQ.7X=XQ.6X1XH.w.{ 9.T.nXJ.,.e.q.{ b.b.b.n.n.b.b.b.b.b.b.b.b.b.b.b.b.b.b.b.b.b.b.b.b.w.w.b.b.b.#.#.#.#.N.N.q.1.w.A.T.#XoX+X*X*X=X7X7X6X,X^.H.b.b.+.{ ` w.H.>X6X6X!.7X=X=X*XU.A.w.M.H.D.t.u.D.Z.Z.H.F.F.F.F.Z.Z.A.A.Z.Z.Z.Z.Z.Z.Z.Z.Z.Z.Z.Z.Z.Z.Z.Z.Z.A.A.Z.Z.Z.S.Z.Z.Z.Z.A.A.T.6X9X=X!.=X*XOXD.M.Z.i.bXCXCXfXf.A.C.M.Z.A.A.A.A.A.A.A.Z.Z.Z.Z.Z.Z.Z.Z.Z.Z.Z.Z.Z.Z.Z.Z.Z.Z.Z.Z.Z.Z.Z.Z.F.G.Z.Z.H.t.i.*X*X=X=X=X7X6X6X,X1X[.u.u.A.A.Z.Z.Z.Z.Z.Z.Z.Z.p.p.Z.Z.Z.Z.Z.Z.Z.Z.Z.Z.Z.Z.Z.Z.Z.Z.Z.S.Z.Z.Z.Z.A.A.Z.Z.A.Z.S.S.e.p.A.u.A.R.6X6X=X*X+X8X1XOXZ.w.b.b.b.b.b.b.Z.T.2X0X6X6X=X=X=X=X=X*X#X[.u.t.t.i.h.j.9XnXmXmX;Xg.y.i.p.M.e.p.S.S.H.H.Z.Z.M.n.n.b.b.b.b.b.b.q.+.{ +.{ b.b.b.b.b.b.b.b.@.b.1.n.>X6X6X7X7X6X6X4X Xn.l.b.{ 9.A.ZXVX7X4.9.+.#.b.b.n.z.w.9.w.w.w.b.n.n.n.n.n.n.n.b.b.w.w.q.b.@.@.@.@.@.#.#.b.b.b.b.#.b.N.b.@.@.b.b.b.b.b.b.b.b.q.9.Z.OX6X*X=X=X*XXXS.p.S.S.A.u.I.+X6X6X*X6X",
"=X=X=X*X-X#XS.1.b.+.+.b.1.<.XXmXuXu.2.9.{ @.[ #.+.#.b.b.b.N.b.N.m.@.{ { { { { q.q.q.w.n.n.n.n.M.n.m.m.m.b.b.b.b.q.q.q.q.q.q.q.b.@.{ N.` Z.,X+X6X6X6XqXF.1.V.+.#.+.b.b.S.,X6XQ.9X=XQ.6X1XH.w.q.9.OXnX@X,.w.q.{ b.b.b.n.n.b.b.b.b.l.l.b.b.b.b.b.b.b.b.b.b.b.b.b.b.b.b.b.b.b.#.#.#.+.N.b.w.w.A.T.1XoX+X*X*X*X*X6X7X0XT.Z.2.b.b.#.{ { w.n.D.+X9X7X=X7X6X6XT.D.M.M.S.OXA.u.A.J.Z.n.H.B.F.F.Z.Z.A.A.A.Z.Z.Z.Z.Z.Z.Z.Z.Z.Z.Z.Z.Z.Z.Z.Z.A.A.Z.Z.Z.Z.Z.Z.Z.Z.Z.i.U.+X8X-X!.=X*X@X'.M.Z.A.jXCXCXlXE.u.M.C.S.A.Z.Z.Z.Z.Z.Z.Z.Z.Z.Z.Z.Z.Z.Z.Z.Z.Z.Z.Z.Z.Z.Z.Z.Z.Z.Z.Z.Z.Z.Z.F.G.Z.Z.H.u.i.*X=X=X=X=X7X6X6X1X@XD.u.u.H.A.Z.Z.Z.Z.Z.Z.Z.Z.u.Z.S.Z.Z.Z.Z.Z.Z.Z.Z.Z.Z.Z.Z.Z.Z.Z.Z.S.Z.Z.Z.Z.Z.Z.Z.Z.A.A.S.S.e.p.u.i.U.+X6X6X*X6XR.8X1XZ.1.b.b.+.b.N.b.b.1.Z.T.,X6X6X*X=X=X=X=X*X#X#XXXt.t.a.i.4.E.9XmXZXmX9Xg.4.D.p.u.u.u.S.S.S.Z.Z.M.M.M.n.b.b.b.b.q.q.b.b.q.q.b.b.b.b.b.b.b.b.@.b.1.n.>X6X6X7X7X6X6X2X Xn.l.b.{ 9.A.ZXVXeX6.w.b.#.N.l.z.1.9.9.n.n.n.n.M.M.M.M.M.M.M.B.M.n.n.n.N.b.@.+.+.@.b.N.b.b.b.b.b.b.N.b.@.+.b.b.b.b.b.b.b.b.q.9.Z.OX6X*X=X7X*XU.S.p.S.S.A.u.I.+X6X6X*X6X",
"6X=X=X*X-X#XS.1.b.+.+.b.1.<.oXmXiXu.2.9.{ m.{ #.#.b.b.b.b.b.N.b.b.q.{ { q.q.q.q.n.B.M.M.S.S.H.H.B.n.B.n.n.B.B.B.b.b.b.w.w.q.w.q.@.{ b.3.Z.1X,X6X6X6XqXF.l.V.+.#.+.b.w.Z.,X6XQ.9X=XQ.6X,XS.9.q.9.U.mX#X<.w.9.{ { b.b.l.z.b.b.b.b.l.l.b.b.b.b.b.b.b.b.b.b.b.b.b.b.b.b.b.b.b.#.#.#.+.b.w.n.A.T.,X8X*X*X*X=X*X*X6X6XT.A.2.3.q.b.N.+.{ w.w.w.T.0XwX=X7X6X6X,XJ.H.n.w.D.,XD.t.J.Z.2.H.F.Z.Z.Z.A.A.A.A.Z.Z.Z.Z.Z.Z.Z.Z.Z.Z.Z.Z.Z.Z.Z.Z.A.A.Z.Z.Z.Z.Z.Z.Z.A.Z.u.A.R.6X*X=X=X6X@X[.S.u.A.7XAXCXkXQ.t.M.M.M.Z.Z.Z.Z.Z.Z.Z.Z.Z.Z.Z.Z.Z.Z.Z.Z.Z.Z.Z.Z.Z.Z.Z.Z.Z.Z.Z.Z.Z.Z.Z.G.G.Z.S.H.u.A.6X*X=X=X=X7X6X6X8XOXp.t.A.D.A.Z.Z.Z.Z.Z.Z.Z.Z.u.Z.S.Z.Z.Z.Z.Z.Z.Z.Z.Z.Z.Z.Z.Z.Z.Z.Z.H.Z.Z.Z.Z.Z.Z.Z.Z.A.A.S.S.e.u.u.I.R.*X6X*X6X6X6X,XT.2.1.b.N.#.#.N.N.b.1.2.Z.T.,X6X6X6X*X*X*X*X+X-X-XXXi.y.i.i.y.h.9XnXZXmX-Xg.i.u.u.u.S.S.S.n.M.Z.H.H.F.M.n.n.q.q.q.q.b.b.b.b.b.b.b.b.b.b.b.b.@.b.1.n.>X6X6X7X7X6X6X1X Xn.1.b.{ 9.i.mXVXjXi.w.b.@.b.l.z.w.w.q.M.M.S.M.S.S.S.H.H.S.S.S.S.M.M.M.m.m.b.+.+.b.N.N.b.b.b.b.b.b.N.b.+.+.b.b.b.b.b.b.b.b.q.9.Z.OX6X*X=X7X*XU.S.p.S.S.A.u.I.+X6X6X*X6X",
"6X=X*X*X-X#XD.1.b.+.b.b.2.<.+XmXnXu.2.1.q.m.{ #.N.b.b.b.b.b.q.{ q.q.q.q.q.b.n.n.M.S.S.S.S.S.Z.S.M.M.M.M.M.M.M.M.B.n.n.n.b.w.w.q.{ ` b.,.Z.1X6X6X6X6XqXZ.1.B.#.N.+.b.b.Z.,X6XQ.9X=XQ.6X1XS.9.q.1.U.mX1X<.w.9.{ { b.b.z.z.l.l.b.b.X.b.b.b.N.b.b.b.b.b.b.b.b.b.b.b.b.b.b.b.#.#.b.b.b.1.w.Z.OX,X6X6X9X*X*X*X6X8X#XOXZ.w.w.q.q.b.b.b.+.q.1.1.D.,X8X6X6X6X6X,XOXD.Z.u.t.8X,Xt.Z.Z.n.Z.Z.Z.Z.Z.Z.Z.Z.Z.Z.Z.Z.Z.Z.Z.Z.Z.Z.Z.Z.Z.Z.Z.Z.Z.A.A.Z.Z.Z.Z.Z.Z.Z.A.A.u.i.U.+X*X=X=X*X,X'.M.u.A.W.AXCXVX9Xi.w.M.M.Z.Z.Z.Z.Z.Z.Z.Z.Z.Z.Z.Z.Z.Z.Z.Z.Z.Z.Z.Z.Z.Z.Z.Z.Z.Z.Z.Z.Z.Z.Z.G.F.Z.S.H.u.A.8X=X=X!.=X7X6X6X8XA.u.u.D.J.A.Z.Z.Z.Z.Z.Z.Z.A.A.A.Z.Z.Z.Z.Z.Z.Z.Z.Z.Z.Z.Z.Z.Z.Z.Z.Z.Z.Z.Z.Z.Z.Z.Z.Z.Z.Z.A.Z.S.S.u.i.U.+X*X*X*X6X6XqXT.n.w.b.b.#.N.#.#.b.b.l.z.n.Z.T.,X6X6X6X*X6X9X*X*X*X+XU.i.i.D.u.t.a.8XnXmXvX9Xg.i.i.u.A.S.S.w.M.M.S.H.H.Z.Z.n.b.b.b.b.q.b.b.b.b.b.b.b.b.b.b.b.b.b.1.w.>X6X6X7X6X6X6X1X^.n.1.b.{ 9.i.mXZXbXi.w.q.+.b.l.z.n.n.n.M.S.Z.M.Z.S.S.S.S.S.S.S.Z.S.Z.M.B.m.b.b.b.b.b.N.b.b.b.b.b.N.b.#.+.+.b.b.b.b.b.b.b.b.q.9.Z.OX6X*X=X7X6XU.S.S.S.S.A.u.I.+X7X6X*X6X",
"6X*X*X*X-X#XD.1.b.+.b.b.2.<.+XmXnXi.<.,.9.m.{ @.b.b.b.l.l.l.{ { q.w.w.b.n.n.M.M.M.Z.Z.Z.Z.Z.Z.Z.S.M.S.M.S.M.S.M.H.S.S.M.n.n.w.w.{ ` b.1.A.1X6X6X6X6XqXF.l.B.+.N.#.b.1.Z.,X6XQ.9X=XQ.6X1XS.9.q.,.I.mXqX0.w.9.9.q.b.n.n.n.n.b.b.b.b.b.b.b.b.b.b.b.b.b.b.b.b.b.b.b.b.b.b.b.b.b.b.b.b.n.Z.J.,X8X6XQ.eX=XQ.*X8X,XJ.Z.1.w.b.b.{ { b.b.b.q.q.1.w.J.,X6X6X6X6X6X,XT.D.u.4.,X1XD.u.A.Z.Z.Z.Z.Z.Z.Z.Z.Z.Z.Z.Z.Z.Z.Z.Z.Z.Z.Z.Z.Z.Z.Z.Z.Z.Z.Z.A.Z.Z.Z.Z.Z.Z.Z.H.A.u.u.U.+X*X=X=X*X2X XS.Z.A.E.AXVXVXcXi.u.S.M.B.F.F.F.Z.Z.Z.Z.Z.Z.Z.Z.Z.Z.Z.Z.Z.Z.Z.Z.Z.Z.Z.Z.Z.Z.Z.Z.Z.Z.Z.F.F.Z.S.H.Z.D.8X*X=X=X=X7X6X6X1Xa.t.i.OXOXH.Z.Z.Z.Z.Z.Z.Z.A.A.Z.Z.Z.Z.Z.Z.Z.Z.Z.Z.Z.Z.Z.Z.Z.Z.Z.Z.Z.Z.Z.Z.Z.Z.Z.Z.Z.Z.A.A.Z.Z.u.h.Y.*X*X*X*X6X,XqXZ.1.n.B.N.#.#.#.#.+.b.b.b.z.1.Z.J.,X,X,X+X6X8X9X*XY.+X+XU.u.u.a.t.t.U.qXmXmXmXR.E.g.i.A.D.S.w.M.M.S.H.F.Z.F.Z.C.M.B.n.b.q.1.` b.b.b.b.b.b.b.b.b.b.1.w.>X6X*X6X6X*X6X1XOXn.1.b.{ 9.i.VXAXbXh.0.9.b.b.n.n.Z.M.M.M.Z.Z.Z.Z.Z.Z.Z.Z.Z.Z.Z.Z.Z.Z.M.M.B.B.b.b.b.b.b.b.b.b.b.b.N.b.#.@.+.b.b.b.b.b.b.b.b.q.9.Z.OX6X*X=X7X6XU.S.S.S.M.A.u.I.+X6X6X*X6X",
"6X*X*X*X-X#XS.1.b.+.b.n.2.4.*XmXmXi.<.,.9.m.{ b.b.b.b.b.n.b.q.q.n.n.n.n.n.M.S.S.M.Z.Z.Z.Z.Z.Z.Z.Z.S.S.S.Z.S.Z.M.S.S.Z.M.Z.M.n.n.b.{ n.1.A.1X,X6X6X6XqXF.2.B.X.N.#.b.1.Z.,X6XQ.=X=XQ.6X1XS.9.q.,.I.ZXwXt.0.w.b.b.M.n.B.F.n.M.n.n.b.b.b.{ { { q.b.b.b.b.b.b.b.b.b.@.#.#.b.b.b.b.w.n.H.T.,X6X6X=X=X9X7X*X6X+XOXZ.1.9.q.b.b.b.+.b.b.@.{ b.b.w.Z.T.8X,X6X6X6X,X+XU.A.t.A.,X1XJ.A.A.Z.Z.Z.Z.Z.Z.Z.Z.Z.Z.Z.Z.Z.Z.Z.Z.Z.Z.Z.Z.Z.Z.Z.Z.Z.Z.A.Z.Z.Z.Z.Z.Z.n.H.D.Z.u.A.OX*X=XW.*X1X XM.Z.A.f.VXhXVXZXg.A.Z.M.C.C.F.F.F.F.Z.Z.Z.Z.Z.Z.Z.Z.Z.Z.Z.Z.Z.Z.Z.Z.Z.Z.Z.Z.Z.Z.Z.Z.Z.F.F.Z.S.H.Z.D.8X*X=X=X=X6X6X6X+Xi.t.i.,X,XD.u.Z.Z.Z.Z.Z.Z.Z.Z.Z.Z.Z.Z.Z.Z.Z.Z.Z.Z.Z.Z.Z.Z.Z.Z.Z.Z.Z.Z.Z.Z.Z.Z.Z.A.A.A.A.A.A.A.u.Y.*X*X*X*X6X1X#XJ.Z.1.l.b.N.#.#.#.#.#.b.N.b.b.1.2.Z.J.>X2X2X,X8XeX=XQ.+X*X#XU.u.s.s.u.i.U.*XvXZXjX7XE.i.i.D.H.M.S.M.M.M.Z.Z.G.F.H.C.M.n.n.b.w.q.b.b.b.b.b.b.b.b.b.b.1.w.>X6X*X*X=X*X6X6X>Xn.1.b.{ 9.i.bXAXVXE.<.w.b.n.B.F.Z.M.M.Z.Z.Z.Z.Z.Z.Z.Z.Z.Z.Z.Z.Z.Z.Z.Z.M.B.B.n.b.b.b.q.b.b.b.b.b.b.b.#.+.@.b.b.b.b.b.b.#.@.q.9.Z.OX6X*X=X7X6XU.S.S.S.S.A.u.I.+X6X6X*X6X",
"6X*X*X*X-X#XS.1.b.+.b.n.2.4.*XZXmXi.<.,.9.m.{ b.l.l.z.n.n.n.b.b.M.M.M.n.M.Z.Z.Z.n.Z.Z.Z.Z.H.H.H.Z.Z.Z.Z.Z.Z.Z.Z.Z.Z.Z.Z.S.S.S.S.n.b.M.1.u.,X+X*X6X6XqXG.2.B.l.N.b.b.1.Z.,X6XQ.=X=XW.*X1XS.w.w.,.g.AXxXi.u.w.n.n.F.F.F.F.F.B.C.C.B.b.b.{ ` { q.b.b.b.b.b.b.b.b.b.@.#.#.b.b.b.w.2.Z.T.8X8X6XQ.*X7X6X7X6X6XOXH.9./ b.@.@.+.+.b.b.b.@.@.b.n.1.1.J.qX2X,X,X6X6X+XT.U.U.4.OXuX>XZ.A.D.A.Z.Z.Z.Z.Z.Z.Z.Z.Z.Z.Z.Z.Z.Z.Z.Z.Z.Z.Z.Z.Z.Z.Z.Z.A.Z.Z.Z.Z.Z.Z.n.Z.J.A.u.A.T.+X=XW.*X1X>XZ.Z.A.5.VXlXVXAXj.i.u.Z.C.F.F.F.F.F.Z.Z.Z.Z.Z.Z.Z.Z.Z.Z.Z.Z.Z.Z.Z.Z.Z.Z.Z.Z.Z.Z.Z.Z.Z.F.F.M.S.H.S.D.qX6X*X=X=X6X*X,X+Xi.4.i.1X1XD.6.Z.Z.Z.Z.Z.Z.Z.Z.Z.Z.Z.Z.Z.Z.Z.Z.Z.Z.Z.Z.Z.Z.Z.Z.Z.Z.Z.Z.Z.Z.Z.Z.Z.A.A.A.A.A.A.u.i.+X-X*X*X*X8X1X>X1.n.B.l.X.N.N.X.#.#.#.#.b.b.b.b.1.2.Z.J.5X2X2X,XY.gXjX*X+X8X1X[.0.u.a.u.4.i.6XmXAXjXQ.g.i.A.S.S.S.M.M.Z.Z.Z.A.J.M.B.M.n.M.B.M.B.z.b.n.b.b.b.b.b.b.b.1.w.>X6X*X*X=X*X6X6X>Xn.1.b.{ 9.i.bXAXZXE.<.w.n.B.F.F.Z.M.n.Z.Z.Z.Z.Z.Z.Z.Z.Z.Z.Z.Z.Z.Z.Z.Z.M.M.M.B.n.b.q.q.b.b.b.b.b.b.b.#.@.@.b.b.b.b.b.b.#.#.q.9.Z.OX6X*X=X7X6XU.S.S.S.S.A.u.I.+X6X6X*X6X",
"=X*X6X*X-X#Xu.S.b.N.b.1.Z.8.9XmXvXU.<.<.w.9.{ b.n.M.F.F.F.H.C.C.S.Z.Z.Z.Z.Z.Z.Z.Z.Z.Z.Z.Z.Z.Z.Z.Z.Z.Z.Z.Z.Z.Z.Z.Z.Z.Z.Z.Z.Z.Z.S.C.C.M.Z.D.,X6X*X+X8X,XA.3.1.b.l.b.1.1.D.+X*X=X=X=X=X*X+XD.w.9.0.*XbXmX+Xt.S.H.n.F.F.F.F.F.F.M.M.B.B.B.n.b.b.q.q.b.q.q.q.b.b.q.b.+.#.N.b.q.w.Z.D.,X,X,X6X9X7X6X*X7X7X0XT.u.1.1.b.{ { @.@.b.b.b.b.@.@.b.b.b.w.2.2.4X,X,X6X8X6XY.I.6.D.<.1XiXA.6.t.u.A.A.A.Z.H.Z.Z.Z.Z.Z.Z.Z.Z.Z.Z.Z.Z.Z.Z.Z.Z.Z.Z.A.Z.Z.Z.Z.F.F.Z.H.Z.Z.J.D.u.A.+X-X;X*X,X3XJ.w.A.i.xXZXkXAXgX;.T.H.H.F.Z.Z.Z.Z.M.Z.Z.Z.Z.Z.Z.Z.Z.Z.Z.Z.Z.Z.Z.Z.Z.Z.Z.Z.Z.Z.H.H.H.G.Z.n.M.M.u.D.1X+X*X=X=X6X6X+XA.i.i.Y.nX#XA.2.J.Z.Z.Z.Z.Z.Z.Z.Z.Z.Z.Z.Z.Z.Z.Z.Z.Z.Z.Z.Z.Z.Z.Z.Z.Z.Z.Z.Z.Z.Z.Z.Z.H.A.A.D.A.u.D.,XoX=X;X*X+X8XOXA.2.1.l.l.b.#.#.#.#.#.#.#.N.b.b.b.b.1.3.w.J.5X3X,X6X!.=X=X*X1X1X1X[.p.t.t.i.i.I.Y.ZXZXvXY.i.A.D.u.S.S.M.Z.Z.Z.Z.c.Z.M.S.M.S.M.S.M.Z.M.M.n.n.b.l.l.1.w.1.w.OX8X*X*X*X6X*X,X2XZ.1.n.{ ,.5.gXAXVX;X-.w.M.H.F.F.Z.M.M.Z.Z.Z.Z.Z.Z.Z.Z.Z.Z.Z.Z.Z.Z.Z.Z.M.M.M.M.n.n.b.1.1.b.b.b.N.b.b.b.+.@.b.b.b.b.b.b.b.{ ` 1.Z.OX6X6X=X=X6XOXw.w.S.n.A.u.I.+X6X6X*X6X",
"*X*X6X*X-X#Xu.S.n.B.B.n.A.4.xXmXmX+Xt.u.M.n.b.C.M.F.F.F.F.H.H.M.Z.Z.Z.Z.Z.Z.Z.Z.Z.Z.Z.Z.Z.Z.Z.Z.Z.Z.Z.Z.Z.Z.Z.Z.Z.Z.Z.Z.Z.Z.Z.Z.H.M.n.Z.U.+X6X*X*X8X,XG.2.z.n.b.b.w.n.D.,X6X=X=X;X-X*X+XD.w.w.u.Q.bXmX+Xt.S.H.n.Z.F.F.F.F.F.M.M.M.B.B.n.n.b.b.q.q.1.1.1.q.q.q.` { +.b.b.n.Z.J.,X,X6X6X6X6X6X6X6X6X,XT.Z.n.w.q.b.{ { @.@.@.b.b.b.b.@.b.b.b.b.b.2.>X2X,X,X6X9X6XY.i.t.i.U.qXqXA.t.A.A.A.A.Z.Z.Z.Z.Z.Z.Z.Z.Z.Z.Z.Z.Z.Z.Z.Z.Z.Z.Z.Z.Z.Z.Z.Z.Z.Z.F.F.H.M.Z.J.D.u.D.#X*X;X+X1X2XH.2.A.7.9XZXbXAXcXf.g.Z.Z.Z.Z.H.H.Z.Z.Z.Z.Z.Z.Z.Z.Z.Z.Z.Z.Z.Z.Z.Z.Z.Z.Z.Z.Z.Z.Z.Z.Z.Z.F.M.M.S.M.w.D.1X+X*X=X=X6X6XOXi.5.j.*XmXOXA.t.J.Z.Z.Z.Z.Z.Z.Z.Z.Z.Z.Z.Z.Z.Z.Z.Z.Z.Z.Z.Z.Z.Z.Z.Z.Z.Z.Z.Z.Z.Z.Z.Z.Z.Z.A.A.Z.A.U.,X*X=X*X*X1X,XJ.w.1.l.b.b.b.#.#.#.#.#.#.#.b.b.b.b.b.b.1.w.n.J. X2X6X7X=X*X6X1X1X1X1XXXa.i.i.i.i.I.=XjXmXvX+Xi.u.D.Z.Z.Z.Z.Z.Z.A.Z.Z.S.S.S.S.S.S.S.H.S.H.F.M.M.n.n.w.w.1.w.#X8X*X*X=X*X*X,X,XZ.3.w.{ 1.5.jXAXVX9X4.w.M.F.F.F.Z.M.M.Z.Z.Z.Z.Z.Z.Z.Z.Z.Z.Z.Z.Z.Z.Z.Z.M.M.S.M.M.n.b.b.b.b.b.b.b.b.b.b.+.+.b.b.b.b.b.b.N.{ ` 1.Z.OX6X6X=X=X6XOXw.w.S.n.A.u.I.+X6X6X*X6X",
"*X*X6X*X-X#Xu.S.C.C.C.M.J.7.xXZXmX6Xi.u.S.M.B.C.M.B.F.F.F.H.S.S.Z.Z.Z.Z.Z.Z.Z.Z.Z.Z.Z.Z.Z.Z.Z.Z.Z.Z.Z.Z.Z.Z.Z.Z.Z.Z.Z.Z.Z.Z.Z.Z.S.S.Z.Z.U.+X6X*X*X8X6XD.n.n.B.B.C.n.Z.J.,X*X*X=X;X-X*X+XOXS.w.p.Q.bXmX+Xu.A.H.Z.Z.Z.F.F.Z.Z.S.M.M.M.M.M.n.n.n.n.w.9.1.9.w.w.w.1.q.q.w.w.A.T.,XqX6X6X6X6X6X6X6XqX,XT.Z.2.n.n.b.@.@.@.@.@.@.b.b.b.b.b.b.b.b.b.b.w.M.<X4X+X+X9XeXR.D.<.D.t.OXnX#X6.i.A.A.A.Z.Z.Z.H.Z.Z.Z.Z.Z.Z.Z.Z.Z.Z.Z.Z.Z.Z.Z.Z.Z.Z.Z.Z.Z.F.F.F.H.Z.Z.H.A.t.u.U.-X-X+X1X4XF.<.A.7.oXmXVXNXVXk.5.i.A.A.A.H.H.Z.Z.Z.Z.Z.Z.Z.Z.Z.Z.Z.Z.Z.Z.Z.Z.Z.Z.Z.Z.Z.Z.Z.Z.Z.Z.Z.M.M.M.n.9.S.1X+X*X*X*X6X6XT.i.5.Y.9XmXU.A.u.H.Z.Z.Z.Z.Z.Z.Z.Z.Z.Z.Z.Z.Z.Z.Z.Z.Z.Z.Z.Z.Z.Z.Z.Z.Z.Z.Z.Z.Z.Z.Z.Z.Z.H.A.Z.Z.J.+X6X*X%X+X-X1XT.Z.1.b.b.b.b.b.b.b.b.b.+.#.@.@.@.@.b.b.b.b.w.1.n.J.5X8X6X=X6X6X8X1X#XqX#XU.U.i.4.t.i.5.Y.vXZXnXU.i.D.A.A.Z.Z.Z.Z.Z.H.Z.S.S.S.S.S.Z.Z.H.H.H.H.F.F.F.F.n.n.w.Z.#X8X*X*X=X6X*X,X,XZ.:.1.q.,.6.gXAXVXgXy.u.M.Z.F.F.Z.M.M.Z.Z.Z.Z.Z.Z.Z.Z.Z.Z.Z.Z.Z.Z.Z.Z.Z.M.Z.S.M.M.M.n.b.b.b.b.b.b.b.b.+.+.b.b.b.b.b.b.b.@.{ 1.Z.OX6X6X=X=X6XOXu.w.S.w.A.u.I.+X6X6X*X6X",
"*X*X6X+X-X#Xu.n.B.C.C.n.D.4.jXmXZX*Xi.u.S.M.M.C.F.F.F.F.F.F.Z.Z.Z.Z.Z.Z.Z.Z.Z.Z.Z.Z.Z.Z.Z.Z.Z.Z.Z.Z.Z.Z.Z.Z.Z.Z.Z.Z.Z.Z.Z.Z.Z.Z.S.S.Z.u.U.+X-X*X*X9X,XD.Z.F.H.C.H.M.Z.T.,X*X*X=X;X-X*X+XOXS.M.D.Q.VXZX*Xi.A.H.Z.Z.Z.F.F.F.Z.S.M.M.M.S.M.S.M.S.M.n.w.w.w.n.n.n.w.n.n.n.A.J.+X6X9X6X*X6X6X6X6X,X,XJ.Z.2.1.b.b.N.@.@.@.@.@.b.b.b.b.b.b.b.b.b.b.b.b.` H.>X,X+X6X=X*X+Xu.A.6.i.iXpXA.u.u.i.A.A.Z.Z.H.Z.Z.Z.Z.Z.Z.Z.Z.Z.Z.Z.Z.Z.Z.Z.Z.Z.Z.Z.Z.F.F.F.F.H.M.Z.H.A.u.u.A.-X%X+X1X4XF.1.Z.i.Y.ZXZXcXAXfXf.i.A.i.i.A.A.A.A.Z.Z.Z.Z.Z.Z.Z.Z.Z.Z.Z.Z.Z.Z.Z.Z.Z.Z.Z.Z.Z.Z.Z.H.F.M.C.M.9.,.u.1X+X*X*X*X6X+XU.6.5.;XmXmXi.A.u.Z.Z.Z.Z.Z.Z.Z.Z.Z.Z.Z.Z.Z.Z.Z.Z.Z.Z.Z.Z.Z.Z.Z.Z.Z.Z.Z.Z.Z.Z.Z.Z.Z.Z.D.D.u.A.T.6X6X*X*X*X8X,XA.2.1.b.b.b.b.b.b.b.b.b.b.N.@.#.@.@.@.{ b.b.q.1.1.M.J.#X*X6X6X6X6X6X6X*X+X+XOXA.i.u.i.i.i.Y.vXmXuXT.6.A.A.A.A.Z.n.n.Z.Z.S.Z.S.Z.S.Z.Z.Z.Z.Z.Z.F.F.F.Z.M.S.w.A.,X8X*X*X*X*X*X6X,XA.1.n.b.1.6.lXCXCXcXh.u.u.Z.F.F.F.M.M.Z.Z.Z.Z.Z.Z.Z.Z.Z.Z.Z.Z.Z.Z.Z.Z.Z.Z.Z.S.H.H.S.M.n.b.b.b.b.b.b.b.+.+.b.b.b.b.b.b.b.@.{ 9.Z.OX6X6X=X=X6XOXu.w.S.w.A.u.I.+X6X6X*X6X",
"*X*X7X*X-X#X0.n.B.C.C.n.A.5.jXZXZX6Xi.u.S.S.M.M.Z.Z.F.F.F.Z.Z.Z.Z.Z.Z.Z.Z.Z.Z.Z.Z.Z.Z.Z.Z.Z.Z.Z.Z.Z.Z.Z.Z.Z.Z.Z.Z.Z.Z.Z.Z.Z.Z.Z.S.S.Z.u.U.+X8X*X*X6X+XA.Z.F.H.F.H.Z.Z.T.,X*X*X%X-X-X*X+XOXS.Z.A.~.NXZX9Xi.u.H.Z.Z.Z.Z.Z.Z.Z.S.M.M.M.S.S.S.S.S.S.S.M.Z.n.S.S.Z.Z.Z.u.D.U.+X*X*X*X7X=X*X6XqXqX>XG.n.b.b.b.b.b.b.b.b.+.+.b.b.b.b.b.b.b.b.b.b.#.b.b.` 1.J.1X8XR.W.*X,XD.4.A.i.U.nX8Xi.t.t.A.D.Z.Z.F.Z.Z.Z.Z.Z.Z.Z.Z.Z.Z.Z.Z.Z.Z.Z.Z.Z.Z.Z.Z.F.F.F.F.H.Z.Z.S.Z.w.u.i.*X%X+X1X4XJ.<.2.i.j.ZXZXhXAXNXdXh.i.i.i.i.i.A.A.A.Z.Z.Z.Z.Z.F.Z.Z.Z.Z.Z.Z.Z.Z.Z.Z.Z.Z.Z.Z.H.H.H.H.H.M.q./ L w.1X+X*X*X*X*XOXA.6.g.gXmXnXi.i.Z.Z.Z.S.F.F.F.F.Z.Z.Z.Z.Z.Z.Z.Z.Z.Z.Z.Z.Z.Z.Z.Z.Z.Z.Z.Z.Z.Z.Z.Z.S.Z.Z.A.A.Z.A.,X8X6X*X*X6X1XT.2.3.b.b.b.b.b.b.b.b.b.b.q.b.b.@.@.@.@.{ { q.q.w.w.w.w.D.+X8X8X6X*X6X7XR.6X6X,XT.D.D.a.a.t.t.U.uXmXuXU.A.i.A.D.Z.w.n.n.Z.Z.Z.Z.Z.Z.Z.Z.Z.Z.Z.Z.Z.Z.Z.Z.H.H.Z.A.,X8X*X*X*X*X*X6X1XD.2.S.b.9.7.gXCXCXMXY.u.u.A.G.F.F.M.C.Z.Z.Z.Z.Z.Z.Z.Z.Z.Z.Z.Z.Z.Z.Z.Z.Z.Z.Z.S.S.S.H.H.n.n.b.b.q.q.b.b.@.@.b.b.b.b.b.#.b.@.{ 9.S.OX,X6X=X=X6XOXu.w.S.M.A.u.I.+X6X6X*X6X",
"*X*X6X*X-X#X0.n.C.C.H.n.J.7.xXZXZX9XI.u.S.S.S.M.Z.Z.F.G.F.Z.Z.Z.Z.Z.Z.Z.Z.Z.Z.Z.Z.Z.Z.Z.Z.Z.Z.Z.Z.Z.Z.Z.Z.Z.Z.Z.Z.Z.Z.Z.Z.Z.Z.Z.S.H.Z.u.U.+X8X*X*X6X+XA.Z.F.H.Z.H.n.Z.T.,X*X*X%X-X%X*X+XU.u.w.i.~.NXZX9XI.u.A.Z.Z.Z.Z.Z.Z.Z.S.S.S.S.Z.S.H.H.H.S.H.Z.Z.Z.Z.S.Z.Z.t.A.U.+X*X*X=X=X7X=X6X6XqX2XJ.n.` { b.b.b.{ b.b.b.b.b.b.b.b.b.b.b.b.b.b.#.#.#.b.b.1.Z.1XqXQ.W.*X+XOX4.D.i.4.uXnXXXi.6.A.D.Z.Z.Z.Z.Z.Z.Z.Z.Z.Z.Z.Z.Z.Z.Z.Z.Z.Z.Z.Z.Z.Z.Z.F.F.F.F.H.H.H.S.Z.Z.u.u.Y.%X+X,X4XJ.2.>.i.g.MXZXcXAXCXzXgX-XoXj.i.i.t.4.A.A.Z.Z.Z.Z.F.F.Z.Z.Z.Z.Z.Z.Z.Z.Z.Z.Z.Z.Z.Z.Z.S.H.M.b.1.K I u.1X+X*X*X*XR.U.i.i.Y.bXmXvXt.i.Z.S.Z.S.F.F.F.F.Z.Z.Z.Z.Z.Z.Z.Z.Z.Z.Z.Z.Z.Z.Z.Z.Z.Z.Z.Z.Z.Z.Z.Z.S.S.Z.Z.A.A.T.6X6X6X*X6X6XOXZ.1.1.b.+.+.b.b.b.w.1.1.q.q.q.q.{ { { { { { { q.b.b.w.<.u.D.#X,X6X*X6X7XQ.7X9X6X#XOXD.p.s.p.u.t.T.vXmXvXE.7.7.A.D.Z.n.S.Z.A.Z.Z.Z.Z.Z.Z.Z.Z.Z.Z.Z.Z.Z.Z.S.H.Z.A.,X8X*X*X*X*X*X8X1XJ.Z.H.B.n.7.gXCXCXZXoXt.u.Z.G.F.F.S.C.Z.Z.Z.Z.Z.Z.Z.Z.Z.Z.Z.Z.Z.Z.Z.Z.Z.Z.Z.Z.Z.Z.S.H.M.M.n.b.b.b.b.b.@.@.b.b.b.b.b.#.b.@.q.w.H.OX6X*X=X=X6XOXu.w.S.M.A.u.I.+X6X6X*X6X",
"*X*X6XoX*X#X2.n.C.C.C.M.J.7.cXZXZX9XI.u.S.S.H.Z.Z.F.F.G.Z.Z.Z.Z.Z.Z.Z.Z.Z.Z.Z.Z.Z.Z.Z.S.S.S.S.S.Z.Z.Z.Z.Z.Z.Z.Z.Z.Z.Z.Z.Z.Z.Z.Z.S.H.Z.u.U.+X8X*X*X6X+XA.Z.F.H.M.H.n.Z.T.*X*X=X=X-X-X*X+XU.u.w.i.~.NXAXjXU.u.A.H.Z.A.Z.Z.Z.Z.S.M.S.S.A.Z.A.Z.A.Z.A.Z.u.u.A.Z.Z.Z.i.U.+X*X*X-X=X=X=X7X6X6X2XJ.Z.l.{ +.#.#.+.b.b.b.b.b.b.b.b.b.#.b.b.b.b.b.#.#.#.#.b.1.2.J.,X*X=X=X+X,XU.A.i.y.+XnXuXU.t.u.D.Z.Z.Z.Z.Z.Z.Z.Z.Z.Z.Z.Z.Z.Z.Z.Z.Z.Z.Z.Z.Z.Z.Z.F.F.F.F.H.H.H.S.S.S.A.u.g.%X6X,X4X5Xz.N t.4.;XcXNXCXBXAXAXmXvX9X*XY.a.i.A.A.Z.Z.Z.F.F.F.Z.Z.Z.Z.Z.Z.Z.Z.Z.Z.Z.Z.Z.n.n.n.n.w.1./ K I S.aX#X*X*X*XY.i.u.i.9XbXbXxXt.A.A.S.Z.H.F.F.F.F.F.Z.Z.Z.Z.Z.Z.Z.Z.Z.Z.Z.Z.Z.Z.Z.Z.Z.Z.Z.Z.Z.Z.Z.S.Z.H.Z.Z.T.6X6X6X6X6X6XR.A.2.w.b.b.N.N.b.b.b.b.w.w.w.w.q.q.q.{ { { { { { 9.w.q.w.,.w.u.D.OX6X6X7X(.(.7X6X6X#X>X].D.e.p.p.u.i.Y.wXmXwXR.7.A.Z.Z.M.'.S.A.A.A.Z.Z.Z.Z.Z.Z.F.Z.Z.Z.Z.Z.Z.H.w.A.,X8X*X*X*X*X*X8X1XD.c.H.C.n.7.gXCXCXVX-Xt.u.A.G.F.F.S.C.S.Z.Z.Z.Z.Z.Z.Z.Z.Z.Z.Z.Z.Z.Z.Z.Z.Z.Z.Z.Z.Z.M.M.H.C.C.B.n.b.b.b.@.@.b.b.b.b.b.#.b.+.q.w.H.@X6X*X=X=X6XOXu.w.S.M.A.u.I.+X6X6X*X6X",
"*X*X-XoX*X#X2.n.n.C.H.n.D.7.cXZXZX9Xg.t.u.S.M.M.H.F.F.F.Z.Z.Z.Z.Z.Z.Z.Z.Z.Z.Z.Z.Z.Z.Z.S.Z.S.Z.Z.Z.Z.Z.Z.Z.Z.Z.Z.Z.Z.Z.Z.Z.Z.Z.Z.S.Z.Z.A.U.+X6X*X*X6X+XA.Z.H.H.M.H.n.Z.T.6X9X*X=X;X-X*X-XXXp.w.i.~.NXAXjXU.i.A.D.Z.Z.F.Z.Z.Z.S.M.S.A.A.A.Z.Z.Z.Z.H.Z.Z.Z.Z.A.Z.A.U.+X6X-X=X=X=X=XQ.6X0X,XJ.n.l.b.@.+.+.O.+.b.b.b.b.b.b.b.b.b.#.b.b.b.b.b.#.#.#.#.N.1.3.2.T.qX8X+X6X8XqXi.t.a.4.pXmX8Xi.u.A.Z.Z.S.Z.Z.Z.Z.Z.Z.Z.Z.Z.Z.Z.Z.Z.Z.Z.Z.Z.Z.Z.Z.Z.S.F.F.H.H.S.S.S.H.H.u.y.*X9X,XqX2XZ.B 2.>.oXvXZXZXNXAXmXmXmXmXnXiXuXyXA.Z.Z.F.C.C.C.C.C.C.C.C.C.C.B.B.B.B.M.n.n.b.l.1.l.` ` / / ,.D.aX+X*X6X6XU.6.t.U.bXVXxXjXy.i.A.H.S.F.F.B.F.F.F.F.Z.Z.Z.Z.Z.Z.Z.Z.Z.Z.Z.Z.Z.Z.Z.Z.Z.Z.Z.Z.Z.S.S.S.H.u.Z.R.8X6X6X6X6X,XD.2.1.n.n.` b.b.b.b.b.n.n.w.n.n.n.n.n.n.m.m.q.q.9.9.9.w.w.w.w.w.u.T.6XwX7XQ.7X7X6X+X#X1X1X[.p.e.p.D.t.4.T.uXmX6XA.A.A.u.w.S.Z.A.A.A.Z.Z.Z.Z.Z.Z.Z.Z.Z.Z.Z.Z.Z.Z.w.u.#X8X*X*X*X*X*X6X,XA.2.Z.H.M.i.gXCXCXZX%Xt.u.A.Z.Z.F.S.H.Z.Z.Z.Z.Z.Z.Z.Z.Z.Z.Z.Z.Z.Z.Z.Z.Z.Z.Z.Z.Z.Z.Z.M.H.H.H.C.C.n.b.q.q.q.b.b.b.b.b.b.b.b.w.w.H.@X6X*X=X*X6XOXu.w.S.Z.A.u.A.+X9X6X*X6X",
"*X*XoX*X+X1X<.Z.B.C.n.Z.u.g.cXNXZXgXy.t.D.w.M.M.C.F.F.Z.Z.Z.Z.S.Z.Z.Z.Z.Z.Z.Z.Z.Z.Z.Z.Z.Z.Z.Z.Z.Z.Z.Z.Z.Z.Z.Z.Z.Z.Z.Z.Z.Z.Z.Z.Z.n.H.Z.u.T.6X*X*X*XwX,XA.Z.Z.M.M.M.n.A.T.,X6X6X=X=X=X6X6XOXD.Z.u.Y.ZXZXxX+X4.u.S.Z.Z.Z.F.F.Z.Z.Z.Z.Z.Z.Z.S.S.S.S.M.S.H.Z.Z.Z.A.U.*X=X=X=X=X7X7XQ.6X6X,XJ.n.1.b.N.@.@.@.@.@.@.@.b.b.b.b.b.b.b.b.@.+.+.+.+.+.+.+.b.b.b.1.3.Z.5X2X,X6X7X6XU.u.u.i.i.nXvX6X7.6.D.[.n.S.Z.Z.Z.Z.Z.Z.F.F.F.F.Z.Z.Z.S.S.S.S.M.M.M.M.M.M.M.S.S.S.H.H.S.A.4.#X8X,X6X,XA.*.:.1.n.].4XyXuXuXyX4X3X<X'.J.B.n.B.B.B.B.N.N.N.N.+.+.+.O.O....._ E ( ( ( _ _ _ _ ( X.) ! ~ Z.,XqX+X+X8X,X>.A.6.qXMXAXVX&Xj.i.D.Z.S.C.C.C.C.C.B.F.Z.Z.Z.Z.Z.Z.Z.Z.Z.Z.Z.Z.Z.Z.Z.Z.H.Z.Z.Z.S.H.S.S.n.u.D.8XwX=X!.=X,XT.Z.Z.Z.S.Z.M.S.S.S.S.Z.Z.Z.Z.Z.Z.Z.S.S.S.S.S.S.S.S.M.Z.n.n.n.n.2.<.6.J.,X,X+X6X*X*X*X*X+X*X+X#XA.4.<.u.D.A.t.iXuX,XA.u.A.A.u.A.H.Z.Z.H.H.H.Z.Z.Z.Z.Z.F.F.F.Z.Z.H.Z.D.,X9X*X*X*X*X*X6X,XJ.Z.Z.M.J.7.=XCXCXNXcXy.t.H.H.n.F.H.Z.Z.Z.Z.Z.Z.Z.Z.Z.Z.Z.Z.Z.Z.Z.Z.Z.Z.Z.Z.Z.Z.Z.Z.Z.Z.Z.Z.Z.Z.S.S.M.n.b.b.w.b.1.1.1.n.n.n.Z.J.,X8X6X*X*X6X#XA.u.H.u.Z.u.D.#X6X6X=X=X",
"*X*X%X-X+X1X<.Z.B.C.n.Z.i.j.cXNXSXhXg.y.D.w.M.M.C.H.F.F.Z.Z.Z.S.Z.Z.Z.Z.Z.Z.Z.Z.Z.Z.Z.Z.Z.Z.Z.Z.Z.Z.Z.Z.Z.Z.Z.Z.Z.Z.Z.Z.Z.Z.Z.Z.n.H.Z.u.T.6X*X6X6XwX,XA.Z.M.n.M.M.n.A.T.6X6X7X7X=X=X6X6XOXS.Z.u.Y.VXZXxX*X4.i.H.Z.S.S.C.F.F.Z.Z.Z.Z.Z.S.S.S.M.M.M.M.Z.Z.G.J.^.,X=X=X=X=X!.!.7X6XeX,XT.Z.n.b.+.O.@.@.@.@.@.@.+.+.+.+.b.b.b.b.b.@.@.+.@.@.+.+.b.b.1.l.l.1.n.H..X2X6X7X6XOXD.u.u.i.wXmXvXE.4.u.D.w.S.Z.Z.Z.Z.Z.F.F.F.F.F.Z.Z.Z.S.S.M.M.M.M.M.M.S.S.S.S.S.S.Z.Z.Z.Z.u.D.+X,X6X6XA.N ~ ~ ) ` b.b.z.l.1.` ` ` ` l.X.` ) ) ) ) ) _ _ ( E E E E E E U T _ _ _ _ _ E _ _ U ( ) ! 1.J.1X#X*X*X6XU.&.c.A.nXSXSXNX&Xy.4.u.D.S.M.C.C.C.C.B.F.Z.Z.Z.Z.Z.Z.Z.Z.Z.Z.Z.Z.Z.Z.Z.Z.Z.Z.Z.S.S.M.M.S.w.S.OX8X7X=X!.=X>XJ.Z.Z.Z.Z.Z.Z.Z.Z.Z.Z.Z.Z.Z.Z.Z.Z.Z.Z.Z.Z.Z.Z.Z.Z.Z.Z.Z.Z.Z.Z.n.n.2.n.Z.J.,X,X,X6X*X*X*X*X*X*X*XOXA.i.u.u.A.S.u.yXiXOXt.A.U.i.A.Z.Z.Z.Z.Z.H.H.Z.Z.Z.Z.F.F.F.F.Z.H.Z.D.,X9X*X*X=X*X*X6X,XJ.Z.Z.Z.J.7.=XVXCXNXcXg.t.H.H.M.B.H.Z.Z.Z.Z.Z.Z.Z.Z.Z.Z.Z.Z.Z.Z.Z.Z.Z.Z.Z.Z.Z.Z.Z.Z.Z.Z.Z.Z.Z.Z.Z.Z.Z.n.n.n.n.b.b.1.1.n.Z.Z.A.T.+X1X6X*X+X6X+XD.u.H.u.Z.u.D.#X6X6X=X=X",
"*X*X%X-X+X1X<.n.B.C.n.Z.t.g.cXNXNXcXg.y.D.w.M.M.C.F.F.Z.Z.Z.Z.S.Z.Z.Z.Z.Z.Z.Z.Z.Z.Z.Z.Z.Z.Z.Z.Z.Z.Z.Z.Z.Z.Z.Z.Z.Z.Z.Z.Z.Z.Z.Z.Z.Z.H.Z.u.T.6X6X6X6XwX+XA.Z.S.M.M.M.w.A.T.6X6X=X7X=X=X6X6XOXS.Z.u.W.NXZXbX*X6.u.H.Z.S.S.S.M.M.Z.Z.Z.Z.Z.Z.S.S.M.M.S.Z.Z.A.J.^.2X6X=X=X=XQ.Q.=X6X6X6XT.Z.2.b.b.b.O.@.@.@.@.@.@.@.@.b.b.b.b.b.b.b.b.+.@.+.+.+.+.b.b.l.l.b.b.l.n.P.4X6X7X6X1XOXp.u.i.U.vXZX6Xi.t.p.w.S.S.S.S.Z.Z.F.F.F.F.F.Z.Z.Z.S.S.S.S.S.S.S.S.S.S.H.S.Z.Z.Z.Z.Z.Z.u.<.D.,X,X8XT.:.,./ ) ) ` ` 1.3.` ) ) ) ` ` ` ) ^ ^ ) ) ) ) ^ ^ ! ! ! ! ( ( ( ( ( ( ( ( ( ( ( ( ) ) ) 1.D.1X8X+X9X*X+XI.&.2.G.nXNXSXAXcXk.5.t.D.Z.S.S.S.Z.Z.Z.Z.Z.Z.Z.Z.Z.Z.Z.Z.Z.Z.Z.Z.Z.Z.Z.Z.Z.Z.S.S.S.S.n.Z.u.OX1X8X*X=X=X*XT.H.Z.Z.Z.Z.Z.Z.Z.Z.Z.Z.Z.Z.Z.Z.Z.Z.Z.Z.Z.Z.Z.Z.Z.Z.Z.Z.Z.Z.Z.Z.Z.Z.Z.Z.u.A.T.,X#X6X9X6X*X*X*X6X6X1X+XU.u.u.A.D.<.D.yXiX1Xt.4.D.A.Z.Z.Z.Z.Z.Z.J.Z.Z.Z.Z.F.F.F.F.Z.H.Z.D.,X9X*X*X=X*X*X6X,XT.Z.Z.F.J.7.=XVXCXCXcXj.i.S.H.M.B.H.Z.Z.Z.Z.Z.Z.Z.Z.Z.Z.Z.Z.Z.Z.Z.Z.Z.Z.Z.Z.Z.Z.Z.Z.Z.Z.Z.Z.Z.Z.Z.Z.Z.S.M.M.M.n.n.M.M.Z.Z.Z.A.T.#X1X6X*X+X6X#XD.u.H.u.Z.u.D.#X6X6X=X=X",
"*X*X*X-X+X+X:.w.B.C.B.H.i.g.cXSXVXcXj.y.D.w.M.M.C.F.F.Z.Z.Z.Z.S.Z.Z.Z.Z.Z.Z.Z.Z.Z.Z.Z.Z.Z.Z.Z.Z.Z.Z.Z.Z.Z.Z.Z.Z.Z.Z.Z.Z.Z.Z.Z.Z.Z.H.Z.u.T.6X6X6X6XwX+Xu.Z.H.n.M.Z.w.A.T.6X6X=X7X=X=X6X6XOXD.Z.u.W.VXZXbX-Xi.u.H.Z.Z.S.S.M.S.Z.Z.Z.Z.Z.Z.S.S.S.S.H.H.Z.D.T.,X6X6X6X=X=X*X6X6X6X,XJ.Z.1.3.b.V.N.#.+.@.@.+.@.@.@.b.b.b.b.b.b.b.b.b.@.@.@.@.b.b.b.b.b.b.b.n.b.1.B.5X6X6X9XqX#XD.u.i.5.6XZXbX+Xi.u.p.p.S.S.S.Z.Z.F.F.F.F.F.Z.Z.Z.S.S.Z.Z.Z.Z.Z.Z.Z.Z.H.Z.Z.Z.Z.Z.Z.Z.0.=.A.qX,X8X1X2.L K K K ! ~ :.~ ~ ) ~ ! ~ ! K M K ! ! ! ~ ! ! ! ) ) ) ) ` / ` ` 1.1.1.q.b.b.n.n.H.H.Z.J.#XqX9XY.*X*X9XR.>.>.c.8XVXSXSXZXgXj.y.i.A.A.Z.Z.Z.Z.A.Z.Z.Z.Z.Z.Z.Z.Z.Z.Z.Z.Z.Z.Z.Z.Z.Z.Z.S.H.S.S.Z.Z.u.D.,X8X*X*X*X=X+XD.Z.Z.Z.Z.Z.Z.Z.Z.Z.Z.Z.Z.Z.Z.Z.Z.Z.Z.Z.Z.Z.Z.Z.Z.Z.Z.Z.Z.H.H.H.Z.F.H.Z.Z.Z.D.OX+X,X8X9X*X*X*X9X6X8X8X#XU.D.A.A.D.<.D.yXiXOXu.A.D.H.H.H.Z.n.Z.H.Z.Z.Z.Z.F.F.F.F.Z.H.Z.D.,X9X*X*X=X*X*X6X,XT.Z.Z.F.J.7.=XNXCXCXNXY.i.A.H.M.F.H.Z.Z.Z.Z.Z.Z.Z.Z.Z.Z.Z.Z.Z.Z.Z.Z.Z.Z.Z.Z.Z.Z.Z.Z.Z.Z.Z.Z.Z.Z.Z.Z.Z.S.M.M.M.M.M.H.H.H.H.Z.A.J.#X6X6X*X+X6X#XD.u.H.Z.Z.u.D.#X6X6X=X=X",
"*X*X*X-X+X#X:.2.H.C.B.H.i.g.cXSXNXbXj.y.D.w.H.M.C.F.F.F.F.Z.Z.S.Z.Z.Z.Z.Z.Z.Z.Z.Z.Z.Z.Z.Z.Z.Z.Z.Z.Z.Z.Z.Z.Z.Z.Z.Z.Z.Z.Z.Z.Z.Z.Z.Z.H.Z.u.R.6X6X6X+X8XT.u.A.H.M.n.n.n.A.T.6X6X7X7X7X6X6X6XT.A.Z.u.W.VXZXmX9Xi.u.A.Z.Z.S.S.Z.F.Z.Z.Z.S.S.S.S.S.S.S.A.A.D.T.,X6X6X6X7X=X*X6X8X8XOXH.w.1.1.q.b.N.N.b.+.+.@.b.b.b.b.b.b.b.b.b.b.b.b.b.b.b.b.b.b.b.b.b.n.b.b.M.n.3.l.Z.+X*X8X8X1XXXa.i.5.g.jXZXnXU.t.u.p.p.S.S.S.S.F.F.F.F.F.Z.Z.Z.Z.Z.Z.Z.Z.Z.Z.Z.Z.Z.F.Z.Z.Z.Z.Z.F.Z.,.L D.qX,X1XyXOXw.,./ ~ ~ ,.:.:.:.~ / ,.1.1.1.1.w.w.n.n.n.S.S.S.J.D.J.D.J.J.J.[.>X X>X>X<X<X2X2X2X2X,X+X6X9X*X%X%X*X9X+Xi.&.6.T.AXNXcXMXxX%Xa.a.u.u.A.A.A.A.A.A.Z.Z.Z.Z.Z.Z.Z.Z.Z.Z.Z.Z.Z.Z.Z.Z.M.M.S.S.S.Z.A.A.+X,X6X+X*X9X*XU.A.Z.Z.Z.Z.Z.Z.Z.Z.Z.Z.Z.Z.Z.Z.Z.Z.Z.Z.Z.Z.Z.Z.Z.Z.Z.Z.Z.H.H.H.H.Z.Z.H.Z.Z.Z.A.A.T.+X+X*X*X*X*X6X*X6X6X8X,XT.A.t.u.D.A.u.#XiXqX6.A.Z.Z.H.H.Z.Z.Z.Z.Z.Z.Z.Z.Z.F.F.M.H.Z.A.,X9X*X*X=X*X*X6X,XT.Z.Z.B.H.6.=XNXCXCXNX%Xi.A.H.S.F.H.Z.Z.Z.Z.Z.Z.Z.Z.Z.Z.Z.Z.Z.Z.Z.Z.Z.Z.Z.Z.Z.Z.Z.Z.Z.Z.Z.Z.Z.Z.Z.Z.Z.n.S.M.M.M.H.H.H.H.H.Z.A.J.+X6X6X*X+X6X+XD.u.S.u.Z.u.D.#X6X6X=X=X",
"*X*X*X-X+X#X=.2.H.H.B.H.i.g.cXSXNXVXj.y.A.w.H.M.F.F.F.F.Z.Z.S.S.Z.Z.Z.Z.Z.Z.Z.Z.Z.Z.Z.Z.Z.Z.Z.Z.Z.Z.Z.Z.Z.Z.Z.Z.Z.Z.Z.Z.Z.Z.Z.Z.Z.H.Z.Z.R.6X6X6X+X6XT.u.Z.H.M.M.n.n.A.T.6X6X7X7X=X=X6X6XT.A.Z.A.W.NXbXmX9Xi.u.A.Z.Z.Z.S.Z.Z.F.F.S.S.S.S.S.Z.S.Z.Z.A.T.+X6X8X6X6X6X6X*X6XqX5XH.n.q.q.b.b.b.b.l.b.b.b.b.b.b.b.b.b.q.b.b.b.b.b.b.b.b.b.b.b.b.b.b.b.b.1.1.n.n.1.3.<.U.+X8X8X1X#XU.i.g.7.Q.ZXZX9Xi.t.p.p.p.S.S.S.S.F.F.F.F.F.Z.Z.Z.Z.Z.Z.Z.Z.Z.Z.Z.Z.Z.Z.Z.H.Z.Z.Z.Z.L <.@XqX+X,XyX1X<X@X].].].@XOXOXOX].].@X>X<X<X<X<X<X2X4X4X4X4X4XqXqX8XqXqXqXqXqX8X8X8X8X8X8X8X8X8X6X6X6X-X-X-X*X*X*X*X+XU.&.6.A.gXfXcXZXZXnXoXt.u.u.u.u.A.i.A.A.Z.Z.Z.Z.Z.Z.Z.Z.Z.Z.Z.Z.Z.Z.Z.Z.M.M.S.S.Z.u.A.U.6X,X+X+X+X*XU.i.Z.Z.Z.Z.Z.Z.Z.Z.Z.Z.Z.Z.Z.Z.Z.Z.Z.Z.Z.Z.Z.Z.Z.Z.Z.Z.Z.Z.Z.H.H.H.Z.Z.Z.Z.J.D.Z.6.D.U.OX+X,X*X*X6X6X6X6X6X8X,XU.u.u.A.u.6.D.4XyX1XA.0.w.H.H.Z.Z.H.Z.Z.Z.Z.Z.Z.F.F.Z.H.Z.D.,X8X*X*X=X*X*X6X,XT.Z.Z.B.H.6.Q.NXCXAXNX=Xg.u.H.H.F.F.Z.Z.Z.Z.Z.Z.Z.Z.Z.Z.Z.Z.Z.Z.Z.Z.Z.Z.Z.Z.Z.Z.Z.Z.Z.Z.Z.Z.Z.Z.Z.Z.Z.Z.n.M.M.M.M.M.S.H.H.Z.A.D.+X6X6X*X*X6X#XD.u.S.u.Z.u.D.#X6X6X=X=X",
"*X*X*X-X+X#X=.1.H.H.B.H.i.g.cXSXNXVXY.y.u.u.H.M.F.F.F.F.Z.Z.S.S.Z.Z.Z.Z.Z.Z.Z.Z.Z.Z.Z.Z.Z.Z.Z.Z.Z.Z.Z.Z.Z.Z.Z.Z.Z.Z.Z.Z.Z.Z.Z.Z.Z.J.Z.u.OX6X6X6X+X8XT.u.A.H.M.n.n.n.A.T.6X6X7X7X=X6X6X6XT.D.Z.A.W.NXVXZXxXi.u.A.Z.S.Z.Z.Z.Z.Z.F.S.C.M.M.S.Z.Z.A.D.T.+X*X6X6X6X7X6X6X6X2XOXH.n.{ q.@.N.N.b.b.b.b.b.b.b.b.b.b.b.b.w.b.b.b.b.b.b.b.b.b.b.b.b.b.b.b.b.n.n.l.z.n.n.2.i.oX#X#X#X#XoXy.g.5.j.9XmXmX*Xi.u.p.p.p.S.S.M.M.C.F.F.F.Z.Z.Z.Z.Z.F.F.F.F.F.Z.Z.Z.S.H.H.M.n.w.1.L D.1X6X+X6X8X1X1X@X@X@X1X1X8X8X8X4X1X1X1X1X1X,X#X#X,X6X6X,X6X6X+X+X+X+X+X+X+X+X+X*X+X+X+X+X+X+X*X*X*X-X=X=X=X;X=X*X*X,X+XN 2.<.5.h.*XnXmXmXpXOXu.A.A.A.A.A.A.A.Z.S.Z.Z.Z.Z.Z.Z.Z.Z.Z.Z.Z.Z.Z.S.B.C.S.S.A.i.U.R.6X*X+X+X+XU.D.u.H.Z.Z.Z.Z.Z.Z.H.Z.Z.Z.Z.Z.Z.Z.Z.Z.Z.Z.Z.Z.Z.Z.Z.Z.Z.Z.Z.Z.Z.Z.Z.Z.Z.Z.Z.Z.Z.A.6.D.A.A.T.,X8X6X+X6X6X*X6X6X6X+XT.D.4.<.D.D.t.T.iXOXZ.0.Z.H.Z.Z.H.Z.Z.Z.Z.Z.Z.Z.F.Z.H.Z.A.,X9X*X*X=X*X*X,X,XT.Z.Z.B.H.6.W.NXCXCXNXlXg.u.H.H.F.F.Z.Z.Z.Z.Z.Z.Z.Z.Z.Z.Z.Z.Z.Z.Z.Z.Z.Z.Z.Z.Z.Z.Z.Z.Z.Z.Z.Z.Z.Z.Z.Z.Z.S.S.S.S.M.M.M.M.Z.Z.Z.u.A.+X6X6X*X*X6X#XD.u.S.u.Z.u.D.#X6X6X=X=X",
"*X*X*X;X+X#X=.1.H.H.B.H.i.g.cXSXNXVXW.y.i.u.H.M.F.F.F.F.Z.Z.S.S.Z.Z.Z.Z.Z.Z.Z.Z.Z.Z.Z.Z.Z.Z.Z.Z.Z.Z.Z.Z.Z.Z.Z.Z.Z.Z.Z.Z.Z.Z.Z.Z.Z.J.Z.Z.OX6X6X6X+X6XT.t.Z.H.M.n.n.n.A.T.6X6X7X7X7X6X6X6XOXD.Z.A.W.NXVXZXxXi.u.A.Z.Z.Z.Z.Z.Z.Z.Z.S.M.M.S.Z.Z.A.u.+X+X8X9X*X*X=X6X*X6XqX>XH.q.{ { @.+.O.+.N.N.B.N.b.b.b.b.b.b.b.b.w.b.b.b.b.b.b.b.b.b.b.b.b.b.b.b.l.M.B.b.z.F.J.H.4.XX#XXX@X8X+Xy.y.g.g.Y.vXZXxXI.u.p.p.p.S.S.S.M.C.C.F.F.Z.Z.Z.Z.F.F.F.F.F.F.M.M.M.M.C.M.n.w.` ~ =.OX8XR.Q.6X6X+X8X1X#X#X+X+X*X+X+X+X+X+X8X8X9X8X*X*X6X*X6X*X6X*X*X-X*X-X=X-X-X-X*X*X*X-X*X*X*X*X*X=X=X-X;X=X%X%X*X*X*X8X0X&.>.B &.;.5.t.OXiXnXnXS.Z.Z.Z.Z.Z.Z.Z.Z.S.S.S.Z.Z.Z.Z.Z.Z.Z.Z.Z.Z.Z.S.B.C.S.S.u.i.U.Q.=XQ.*X8X,XD.u.u.H.H.H.Z.Z.Z.Z.H.Z.Z.Z.Z.Z.Z.Z.Z.Z.Z.Z.Z.Z.Z.Z.Z.Z.Z.Z.Z.Z.Z.Z.Z.Z.Z.Z.Z.Z.Z.A.A.u.u.i.U.,X8X,X+X6X6X6X6X6X6X6X6Xi.A.A.D.u.t.D.<XyX].u.Z.H.Z.Z.H.Z.Z.Z.Z.Z.Z.Z.F.Z.H.Z.A.,X9X*X*X=X*X*X6X,XT.Z.Z.C.H.6.W.NXCXAXCXgXg.6.H.H.F.F.Z.Z.Z.Z.Z.Z.Z.Z.Z.Z.Z.Z.Z.Z.Z.Z.Z.Z.Z.Z.Z.Z.Z.Z.Z.Z.Z.Z.Z.Z.Z.Z.Z.S.S.S.S.M.M.M.Z.Z.Z.Z.u.A.OX6X6X*X*X6X#XD.u.S.u.Z.u.D.#X6X6X=X=X",
"*X*X*XoX*XOX:.:.H.H.n.H.i.j.cXSXNXNX&Xg.i.u.n.H.F.F.F.Z.Z.Z.S.S.Z.Z.Z.Z.Z.Z.Z.Z.Z.Z.Z.Z.Z.Z.Z.Z.Z.Z.Z.Z.Z.Z.Z.Z.Z.Z.Z.Z.Z.Z.Z.Z.Z.Z.u.Z.,X,X,X,XqX+XD.A.Z.Z.Z.S.n.S.A.T.6X6XQ.7X!.7X6X+X,X2.H.u.k.VXVXZXbXg.4.A.Z.Z.Z.Z.Z.Z.Z.Z.M.M.S.Z.n.Z.D.OX6X6X6X*X*X-X;X7XR.,X2XJ.w.w.q.{ @.{ @.@.b.b.N.b.1.q.q.q.q.q.w.w.n.n.M.M.M.M.M.M.M.M.M.M.M.M.C.C.S.S.H.S.S.M.S.S.u.u.D.#X8X+X#X8X;.Y.g.5.eXmXbXbXi.t.0.S.D.H.S.H.M.M.B.F.Z.Z.Z.Z.M.B.C.C.C.C.C.M.C.M.n.9./ ! K B D.R.6X7X7X7X7X6X9X*X+X+X*X*X=X=X*X*X*X*X*X*X*X=X=X=X=X=X=X=X=X=X=X-X-X-X-X-X=X-X=X%X=X%X=X*X=X=X-X=X=X=X=X=X;X;X=X-X*X6X,XOXT.J.&.&.*.:.2.H.<X4XrX.XS.n.M.F.M.n.S.M.M.M.S.M.M.M.S.S.Z.Z.Z.Z.Z.Z.M.M.M.Z.i.I.R.7X=X*X6X+XU.A.u.M.S.Z.Z.Z.Z.Z.Z.Z.Z.Z.Z.Z.Z.Z.Z.Z.Z.Z.Z.Z.Z.Z.Z.Z.Z.Z.Z.Z.Z.Z.Z.Z.S.S.Z.Z.Z.Z.A.A.D.u.6.u.D.+X,X8X6X6XQ.6X6X6X6X6X8XOXA.i.D.D.u.0.>X<XOX0.w.J.D.2.Z.Z.Z.Z.Z.Z.Z.Z.n. X2.u.8X*X*X-X7X*X6X+X,X>X2.H.C.n.i.j.NXNXBXCXbXY.6.Z.J.H.Z.F.Z.Z.Z.Z.Z.Z.Z.Z.Z.Z.Z.Z.Z.Z.Z.Z.Z.Z.Z.Z.Z.Z.Z.Z.Z.Z.Z.Z.Z.Z.Z.Z.S.S.M.M.S.H.F.Z.Z.Z.Z.Z.A.+X6X*X*X+X6X+XD.u.H.u.w.u.D.#X6X6X=X=X",
"*X*X-XoX*XOX:.:.H.C.n.H.i.h.MXSXNXNX=Xg.A.Z.Z.S.F.F.F.Z.Z.Z.S.S.Z.Z.Z.Z.Z.Z.Z.Z.Z.Z.Z.Z.Z.Z.Z.Z.Z.Z.Z.Z.Z.Z.Z.Z.Z.Z.Z.Z.Z.Z.Z.Z.Z.Z.u.Z.,X,X+X,X8X+XA.A.Z.Z.Z.Z.n.S.A.U.6X6XQ.7X!.7X6X+X,X2.H.u.W.NXVXZXbXg.4.u.Z.Z.Z.Z.Z.Z.Z.Z.Z.S.Z.Z.Z.A.T.,X6X*X*X*X=X-X=X*X8X,XJ.w.1.w.b.q.m.@.@.+.b.b.l.l.w.w.w.b.b.b.n.n.n.M.M.M.M.M.Z.Z.M.M.M.M.M.M.H.H.S.S.H.S.M.S.S.S.p.s.D.@X1X*X+X*Xi.5.7.i.R.vXZXbX-XU.i.u.S.S.Z.n.M.M.M.M.Z.Z.Z.F.C.B.n.n.n.B.M.M.w./ K K I / M.[.+X6X7X7X7X!.!.=X*X+X+X+X*X=X=XQ.=X*X*X*X*X*X=X=X=X=X=X=X=X=X=X=X=X=X=X=X*X*X*X=X-X-X-X-X-X*X*X*X=X-X;X;X;X-X-X=X*X*X*X8X8X1X,X,X>XJ.3.N M N 3.M..XJ.M.n.B.K.K.C.M.M.M.M.M.S.S.H.S.Z.Z.Z.Z.Z.Z.Z.M.M.M.Z.A.U.*X7X=X*X*XOXD.Z.M.S.Z.Z.Z.Z.Z.Z.Z.Z.Z.Z.Z.Z.Z.Z.Z.Z.Z.Z.Z.Z.Z.Z.Z.Z.Z.Z.Z.Z.Z.Z.Z.Z.S.S.Z.Z.Z.Z.A.A.A.A.A.A.A.J.,X,X6X6X6X6X6X6X6X6X6X+XU.A.A.A.i.u.u.[.<XOXS.w.Z.H.Z.Z.Z.Z.Z.Z.Z.Z.M.'.2.u.1X*X*X-X7X*X6X,X,X>X2.H.C.b.i.g.NXBXBXCXbXY.6.Z.H.Z.Z.G.Z.Z.Z.Z.Z.Z.Z.Z.Z.Z.Z.Z.Z.Z.Z.Z.Z.Z.Z.Z.Z.Z.Z.Z.Z.Z.Z.Z.Z.Z.Z.Z.S.S.M.M.S.H.F.Z.Z.Z.Z.Z.A.R.6X*X*X+X6X+XD.u.H.u.u.u.D.#X6X6X=X=X",
"*X*X-XoX*XOX:.:.H.C.B.H.i.Y.cXSXNXCX&Xg.i.J.H.M.F.F.F.Z.Z.Z.S.S.Z.Z.Z.Z.Z.Z.Z.Z.Z.Z.Z.Z.Z.Z.Z.Z.Z.Z.Z.Z.Z.Z.Z.Z.Z.Z.Z.Z.Z.Z.Z.Z.Z.A.6.A.,X1X#X,X8XT.A.u.A.Z.Z.Z.n.S.A.U.6X6XQ.7X=X7X6X+X,X<.H.u.W.NXVXZXmXY.i.i.A.Z.Z.Z.Z.Z.Z.Z.H.Z.Z.A.D.T.,X6X6X*X*X*X=X=X=X*X,XJ.2.:.,.w.q.9.b.q.{ q.q.b.q.1.b.b.n.n.M.M.S.H.Z.M.Z.Z.Z.Z.Z.Z.S.M.S.S.S.S.Z.Z.Z.Z.Z.Z.Z.Z.Z.S.u.p.D.A.+X6X8X+XOX-.4.i.i.7XZXbXuXY.y.4.u.A.Z.Z.H.H.F.F.Z.Z.Z.Z.n.B.C.C.B.b.` ) K K / 9.e.[.<X<X+X=X7X7X7X7X7X7X9X6X6X6X6X7X7X=X=X*X*X*X*X*X=X=X=X=X=X=X=X=X=X=X*X*X*X*X*X*X*X*X%X%X+X*X+X+X*X*X*X*X*X*X*X*X*X*X+X+X*X6X8X8X8X1X4X3XJ.Z.2.:.N M ~ 3.b.B.K.P.K.B.C.M.M.M.M.M.S.H.Z.Z.Z.Z.Z.Z.Z.Z.M.M.Z.A.U.+X*X*X9X*X+XU.A.Z.S.H.Z.Z.Z.Z.Z.Z.Z.Z.Z.Z.Z.Z.Z.Z.Z.Z.Z.Z.Z.Z.Z.Z.Z.Z.Z.Z.Z.Z.Z.Z.Z.Z.S.S.S.S.Z.Z.Z.Z.Z.Z.D.Z.A.A.J.,X6X6X6X6X6X6X6X6X6X6X,XT.A.u.i.D.<.u.@X<X[.w.w.J.Z.Z.Z.Z.Z.Z.Z.Z.M.J.<.u.8X*X*X*X=X*X6X,X6X>X2.H.C.n.A.g.NXBXCXCXVXQ.A.Z.Z.Z.Z.G.Z.Z.Z.Z.Z.Z.Z.Z.Z.Z.Z.Z.Z.Z.Z.Z.Z.Z.Z.Z.Z.Z.Z.Z.Z.Z.Z.Z.Z.Z.Z.Z.S.S.Z.Z.Z.Z.Z.Z.Z.Z.Z.Z.A.R.6X*X*X+X6X#XD.u.H.u.Z.u.D.+X6X6X=X=X",
"*X*X;X%X*XOX:.:.B.C.B.F.i.Y.VXNXNXAXgXg.i.A.Z.Z.F.F.F.Z.Z.Z.S.M.Z.Z.Z.Z.Z.Z.Z.Z.Z.Z.Z.Z.Z.Z.Z.Z.Z.Z.Z.Z.Z.Z.Z.Z.Z.Z.Z.Z.Z.Z.Z.Z.Z.G.c.A.,X1X#X,X1XU.u.u.D.H.Z.Z.Z.S.A.D.6X6XQ.7X=X7X6X+X,X<.H.u.W.CXNXZXmXY.i.i.A.A.Z.Z.Z.Z.Z.A.Z.u.u.D.OX+X6X6X*X*X-X*X=X=XW.Y.A.u.<.<.w.n.w.1.w.w.q.w.b.n.n.n.M.M.M.M.S.H.H.H.S.S.S.S.Z.Z.Z.Z.Z.S.Z.Z.Z.Z.Z.Z.Z.Z.Z.Z.Z.Z.Z.S.w.S.D.i.T.6X8X+XqXt.<.6.6.R.vXbXZXxXY.g.i.D.J.J.Z.M.F.H.H.F.F.Z.H.C.n.b.1./ ~ L ,.w.D.<XtX4X<X@X+X*X=X!.!.!.7X7X6X,X#X#X,X6X6X*X6X6X6X6X6X6X6X6X6X6X6X6X6X6X6X6X9X8X8X8X8X8X8X8XqX8XqXqXqXqXqXqX+X+X+X+X+X-X8X8X+X+X+X+X+X+X+X,X>X2X4XqX4XJ.n.1.M L ~ ` l.N.B.B.C.C.C.M.M.M.M.M.Z.Z.Z.Z.Z.Z.Z.Z.S.Z.Z.D.T.+X*X*X9X*XU.A.u.Z.S.H.Z.Z.Z.Z.Z.Z.Z.Z.Z.Z.Z.Z.Z.Z.Z.Z.Z.Z.Z.Z.Z.Z.Z.Z.Z.Z.Z.Z.Z.Z.Z.Z.S.S.S.S.Z.Z.Z.Z.Z.H.H.Z.Z.A.D.T.+X6X6X6X6X6X6X6X6X6X6X,XT.A.i.i.S.u.Z.[.<X[.Z.2.Z.Z.Z.Z.Z.Z.Z.Z.Z.J.<.u.8X*X*X*X=X*X6X,X6XT.2.H.C.n.A.g.NXzXCXBXCX=XA.Z.F.G.Z.J.Z.Z.Z.Z.Z.Z.Z.Z.Z.Z.Z.Z.Z.Z.Z.Z.Z.Z.Z.Z.Z.Z.Z.Z.Z.Z.Z.Z.Z.Z.Z.Z.S.S.Z.Z.Z.Z.Z.Z.Z.Z.Z.A.A.R.6X*X*X+X6X+XD.u.H.Z.Z.u.A.OX9X6X=X=X",
"*X*X;X%X*XOX:.~ B.C.B.H.i.Y.VXNXNXGXbXY.i.u.Z.H.F.F.F.Z.Z.Z.M.M.Z.Z.Z.Z.Z.Z.Z.Z.Z.Z.Z.Z.Z.Z.Z.Z.Z.Z.Z.Z.Z.Z.Z.Z.Z.Z.Z.Z.Z.Z.Z.Z.Z.G.Z.A.,X8X#X,X+XD.u.u.D.H.Z.Z.Z.S.Z.D.6X6XQ.7X7X=X6X,X,X<.S.u.&XAXNXMXmX*Xi.u.A.Z.Z.Z.Z.Z.Z.A.t.u.A.OX+X6X6X*X*X=X=X=X*X*XY.E.D.u.u.u.S.S.Z.w.w.w.w.n.M.M.M.M.S.S.S.S.S.Z.Z.Z.H.H.H.Z.Z.Z.Z.Z.Z.Z.Z.Z.Z.Z.Z.Z.Z.Z.Z.Z.Z.Z.Z.S.M.S.S.u.U.,X6X,X4X@X2.,.u.A.R.ZXAXVX=XE.7.6.u.u.z.n.F.H.H.H.H.Z.S.n.~ M N <.Z.D.@X#X,X1X1X#X#X-X9X9X*X=X!.=XQ.+XqX1X1X1X2X1X6X6X6X8X8X8X8X8X8X8X1X1X,X,X,X,X,X,X#X@X@X@X@X@X@X@XOXOXOXOXOXOXOXOXOXXXD.D.U.OX1XqXqX8X8X6X+X+X+X+X+X,X,X,X,X1X1X1XS.w.:.M B S ` b.b.b.B.M.C.M.M.n.M.Z.Z.Z.Z.Z.Z.Z.Z.Z.A.U.+X+X-X+X-XoXa.u.A.H.H.H.Z.Z.Z.Z.Z.Z.Z.Z.Z.Z.Z.Z.Z.Z.Z.Z.Z.Z.Z.Z.Z.Z.Z.Z.Z.Z.Z.Z.Z.Z.Z.Z.S.S.S.S.S.S.Z.Z.H.S.Z.Z.Z.Z.Z.Z.T.+X6X6X6X6X7X6X6X6X6X6X6XR.I.u.D.S.w.w.D.@XD.<.Z.Z.Z.Z.Z.Z.Z.Z.Z.H.:.u.qX*X*X*X=XQ.6X6X6XT.2.Z.C.n.A.g.NXzXFXzXAX=X7.c.G.G.G.F.Z.Z.Z.Z.Z.Z.Z.Z.Z.Z.Z.Z.Z.Z.Z.Z.Z.Z.Z.Z.Z.Z.Z.Z.Z.Z.Z.Z.Z.Z.Z.Z.Z.Z.Z.Z.Z.Z.Z.Z.Z.Z.Z.Z.A.+X6X*X*X*X6X#XD.u.S.Z.Z.0.u.+X9X6X=X=X",
"*X-X;X*X*XOX:.~ n.C.B.H.i.Y.VXNXBXGXVX=XU.Z.n.H.F.F.F.Z.Z.Z.M.M.Z.Z.Z.Z.Z.Z.Z.Z.Z.Z.Z.Z.Z.Z.Z.Z.Z.Z.Z.Z.Z.Z.Z.Z.Z.Z.Z.Z.Z.Z.Z.Z.Z.G.Z.A.,X8X#X,XT.A.u.A.D.Z.Z.Z.Z.Z.u.D.6X6XQ.7X7X=X6X,X,X<.S.i.&XAXNXVXZX-XU.u.A.Z.Z.Z.Z.Z.A.A.u.a.XX+X8X*X*X*X=X=X=X=X*X*XY.i.D.S.S.S.u.t.u.A.A.A.Z.S.S.S.M.M.H.H.S.M.Z.Z.Z.Z.H.H.H.Z.Z.Z.Z.Z.Z.Z.Z.Z.Z.Z.Z.Z.Z.Z.Z.Z.Z.Z.Z.S.M.S.S.A.I.R.,X,X>X4XM.,.u.6.I.bXVXVXkX=XY.U.D.D.J.J.H.H.n.2.1.3.N N :.2.A.T.,X8X8X*X+X+X*X*X-X*X+X+X*X*X7X7X6X,XOX].[.J.J.J.J.J.A.A.A.A.A.A.A.A.A.u.u.u.Z.u.Z.Z.2.2.2.2.2.2.2.2.<.<.<.<.<.<.<.<.<.<.,.,.<.0.u.D.1X1X1X8X8X*X*X*X6X6X+X+X+X+X8X8X#X@XD.w.,.~ S K ) / q.b.B.M.M.M.n.M.Z.Z.H.H.Z.Z.Z.A.J.OX,X#X#X$XoXU.a.u.D.J.F.F.Z.Z.Z.Z.Z.Z.Z.Z.Z.Z.Z.Z.Z.Z.Z.Z.Z.Z.Z.Z.Z.Z.Z.Z.Z.Z.Z.Z.Z.Z.Z.Z.S.S.S.S.S.S.Z.Z.H.Z.Z.Z.H.H.Z.u.D.+X6X6X*X6X7XQ.7X6X6X6X9X6XT.i.u.S.p.0.u.D.[.D.Z.Z.Z.Z.Z.Z.Z.S.Z.H.:.u.qX*X*X*X=XQ.6X6X8XT.<.M.B.n.A.5.DXBXFXzXAX7Xv.c.Z.G.Z.Z.Z.Z.Z.Z.Z.Z.Z.Z.Z.Z.Z.Z.Z.Z.Z.Z.Z.Z.Z.Z.Z.Z.Z.Z.Z.Z.Z.Z.Z.Z.Z.Z.Z.Z.Z.Z.Z.Z.Z.Z.Z.Z.A.Z.U.R.6X*X*X*X6X#XD.u.S.Z.H.0.u.OX9X=X=X7X",
"*X*X;X*X9XOX=.~ n.C.B.Z.i.Y.VXNXzXCXVXbXwXT.n.H.F.F.F.F.Z.Z.S.S.Z.Z.Z.Z.Z.Z.Z.Z.Z.Z.Z.Z.Z.Z.Z.Z.Z.Z.Z.Z.Z.Z.Z.Z.Z.Z.Z.Z.Z.Z.Z.Z.A.G.A.A.1X8X,X,XD.A.A.D.A.Z.Z.H.S.Z.u.D.6X6XQ.=X7XQ.6X6X1X<.S.A.&XAXNXMXZX;XU.t.u.u.Z.Z.A.A.A.u.U.XX#X-X*X*X*X=X7X=X=X=X6X+XE.i.S.S.S.J.D.A.i.A.A.i.u.u.S.S.M.n.S.S.S.Z.Z.Z.Z.Z.H.Z.Z.Z.Z.Z.Z.Z.Z.Z.Z.Z.Z.Z.Z.Z.Z.Z.Z.Z.Z.Z.Z.S.M.M.H.A.G.I.T.,X>X5X'.w.>.:.v.7XCXGXAXZXmXmXuXyX<X XF.z.3.~ ~ ~ :.2.G.2XqXqX8X6XR.Q.=X=X=X=X!.%X+X#X+X*X9X*XOXD.,.~ ~ ~ ~ ~ ~ ~ :.:.:.:.:.:.~ ~ ~ P ~ I ~ P ~ ~ ~ ~ ~ ~ ~ ~ ~ ~ 3.3.,.3.3.3.3.3.I L I L L P :.,.u.D.U.+X*X*X-X-X-X-X;X;X;X%X%XoX+X#X1X4X>XH.1.~ ~ ^ ) / ` 1.w.w.n.n.Z.H.H.H.Z.Z.c.A.T.,X1X#X#X#Xa.a.u.D.J.J.G.n.Z.Z.Z.Z.Z.Z.Z.Z.Z.Z.Z.Z.Z.Z.Z.Z.Z.Z.Z.Z.Z.Z.Z.Z.Z.Z.Z.Z.Z.Z.Z.Z.S.S.S.S.S.S.S.S.Z.Z.Z.Z.Z.Z.Z.Z.A.+X8X6X6X6X7X).7X6X6X6X6X6X+XT.u.p.S.S.u.u.S.[.Z.Z.Z.S.Z.Z.Z.S.Z.S.L u.qX*X*X*X=X*X6X6X1XT.<.M.B.B.A.5.hXBXFXzXAXjXR.A.Z.Z.Z.Z.Z.Z.Z.Z.Z.Z.Z.Z.Z.Z.Z.Z.Z.Z.Z.Z.Z.Z.Z.Z.Z.Z.Z.Z.Z.Z.Z.Z.Z.Z.Z.Z.Z.Z.Z.Z.Z.Z.Z.Z.Z.A.Z.Z.U.R.6X*X*X*X*X#XD.u.H.Z.H.2.6.OX8X=X=X7X",
"-X-X;X*X9XOX=.~ b.C.C.Z.i.oXZXNXBXBXNXZXmX1Xi.A.A.A.A.A.A.A.u.A.A.A.A.A.A.A.A.A.A.A.A.Z.Z.Z.Z.Z.S.S.S.S.S.S.S.S.Z.Z.Z.Z.Z.Z.Z.Z.A.A.A.A.1XqX,X,XA.A.A.D.A.Z.Z.H.S.n.w.A.8X6XQ.=X7XQ.*X6X2X<.M.A.%XAXcXMXZX9XU.t.i.u.A.A.A.A.u.i.+X*X-X-X*X*X=X9X=X=X=X*X*X+XU.t.u.S.[.4XyX6XR.E.7.7.6.t.u.S.S.M.n.S.Z.S.H.H.H.H.F.Z.Z.Z.Z.Z.A.Z.Z.Z.Z.Z.Z.Z.Z.Z.Z.Z.Z.Z.Z.Z.Z.S.M.B.S.J.A.v.U.1X2X@X3X'.B B A.A.jXbXbXmXnXnXqXOXZ.n.3.~ N :.2.Z.qX6X6X,X6X6X6X6X7X=X=XQ.!.=X=X=XqX4X4X1X#XA.<.=.w.1.` ` ` ` 3.3.3.,.3.,.3./ ` / 1./ ` / ` / ` ` ` ` ` ` ` ` ` ` / / / / / / / / / / / ,.,.,.,.,.L =.2.A.XX+X#X8X-X=X%X-X-X%X%X*X*X*X+X+X,X,X,X>X/ / K K K ~ / 3.n.n.S.H.H.H.S.Z.c.U.+X,X1X#X#X#Xa.i.u.A.OX>XG.z.Z.Z.Z.Z.Z.Z.Z.Z.Z.Z.Z.Z.Z.Z.Z.Z.Z.Z.Z.Z.Z.Z.Z.Z.Z.Z.Z.Z.Z.Z.Z.S.Z.Z.S.S.S.S.S.S.w.S.H.H.Z.Z.Z.A.A.+X0X6X6X7X7X=X7X7X6X6X6X6X6X6XOXu.0.D.J.0.0.S.S.S.S.Z.Z.Z.Z.Z.M.M.~ u.qX6X*X=X=XQ.6X6X1XT.1.n.B.M.A.7.hXCXFXzXAXbX7XR.A.6.A.A.Z.Z.Z.Z.Z.Z.Z.Z.Z.Z.Z.Z.Z.Z.Z.Z.Z.Z.Z.Z.Z.Z.Z.Z.Z.Z.Z.Z.Z.Z.Z.Z.Z.Z.Z.Z.Z.Z.Z.Z.Z.Z.Z.Z.A.R.6X*X*X*X*X#XA.u.H.n.H.2.2.OX8X6X=X=X",
";X%X;X*X6XT.L ~ 1.C.H.2.t.9XZXVXNXSXNXSXMXMXcXxX;X&X%XY.h.j.g.g.y.y.i.i.t.t.t.t.t.t.t.u.u.p.S.p.w.M.M.M.M.M.n.n.n.n.n.n.M.M.M.Z.A.Z.u.A.J.T.T.D.A.A.A.A.A.A.A.Z.C.B.~ S.qX6X=X!.!.=X*X1XOX9.` '.oXZXZXvXZX9Xy.i.4.i.A.i.u.i.U.#X*X*X*X*X*X=X=X=X=X=X*X*X*X+Xj.y.[.t.<.A.wXmXZXbXbXjXQ.g.y.t.s.p.S.M.n.M.S.H.H.F.F.Z.Z.Z.Z.Z.A.Z.Z.Z.Z.Z.Z.Z.Z.Z.Z.Z.Z.Z.Z.Z.Z.M.B.M.M.S.Z.A.i.i.+X8XqX@X0.L ~ 1.,.Z.>X<X XZ.2.<.N N :.2.A.T.,X8X*X*X*X*XY.*X*X*X9X*X*XY.+X*X9XqX4X5X'.n.1.3.,.,./ / ` ` ` ` ` ` ` / ` / ` / ` / ` / ` / ` / ` ` ` ` ` ` ` ` ` ` ` ` ` ` ` ` ` ` / / / / / / / / 3./ ~ ~ 1.n.D.[.1X-X*X+X+X*X*X*X*X*X*X=X=X=X=X6X4X].S.,.~ I I K / / ` b.m.m.m.9.=.U.8X#X#XqX1Xi.i.7.I.U.uXA.2.Z.Z.Z.Z.Z.Z.Z.Z.Z.Z.Z.Z.Z.Z.Z.Z.Z.S.S.Z.Z.Z.Z.Z.Z.Z.Z.Z.Z.Z.Z.M.S.H.A.u.u.w.M.M.w.n.M.Z.Z.Z.A.Z.Z.6X6X6X6X6X*X=X=X=X=X6X6X6X6X6X6X1XOXu.t.u.p.S.e.M.S.S.S.Z.H.J.J.{.{ ! H.1XR.*X=X=X=X6X*X1XOX/ 1.P.H.c.7.Q.VXAXBXCXCXVXbXlXQ.g.5.i.i.A.D.D.D.D.Z.Z.Z.Z.Z.F.F.H.H.F.Z.F.Z.F.Z.F.Z.F.Z.F.Z.F.Z.F.Z.Z.A.Z.Z.S.n.n.n.n.S.Z.u.A.T.,X8X*X6X6XT.A.Z.M.M.H.1.<.>X+X9X=X=X",
";X%X-X*X6XOX:.) ! { B.S.u.U.jXAXSXSXSXSXSXSXSXNXAXAXSXVXVXVXVXMX9X9X;X-X*XY.Y.U.a.i.i.t.t.t.<.<.u.w.u.u.S.S.H.D.S.S.S.H.H.S.S.Z.J.A.A.A.J.J.D.A.Z.S.Z.A.Z.A.A.Z.H.B.~ Z.qX*X=X=X=X9X9X1X].1.^ M.A.vXmXmXmX*X4.i.i.i.i.i.A.U.OX+X*X*X=X=X=X=X=X=X=X=X%X*X*X+XoXh.<.u.U.U.g.Y.gXZXZXZXxX*Xg.t.t.u.p.S.S.S.S.S.F.H.F.Z.Z.S.Z.Z.p.Z.Z.Z.Z.Z.Z.Z.Z.Z.Z.Z.Z.Z.Z.Z.Z.M.B.m.B.S.Z.A.i.i.Y.+XqX1XH.,.K / K ) ) ~ K M N L <.6.A.T.+X,X6X*X=X=X;X=X;X-X*X%XY.+X*X9X8X8X+XOXM.n.q.` ) ) / / ` ` ` ` ` ` ` ` ` ` ` / ` ` ` ` ` ` ` ` ` ` ` ` ` ` ` ` ` ` ` ` ` ` ` ` ` ` ` ` ` ` ` ` ` ` ` ` ` ` / / ` 1.q.w.D.U.+X1X8X8X+X+X6X*X=X=X!.!.!.=XqX<X@X[.H.0.,.I K K ! / ` ^ ^ K u.+X8X#X@X1XOXi.g.7.R.wXuXA.2.D.Z.Z.Z.Z.Z.Z.Z.Z.Z.Z.Z.Z.Z.Z.Z.Z.S.S.Z.Z.Z.Z.Z.Z.Z.Z.Z.Z.Z.Z.M.M.Z.u.u.u.M.S.M.M.S.M.w.u.A.A.J.T.6X6X6X6X*X*X-X-X=X=X=X6X6X6X6X6X6X+XD.A.u.u.S.S.S.S.Z.M.n.n.Z.n.`.[ ! H.4X+X6X=X=XW.6X*X1XOX/ 1.F.F.c.G.6XZXAXzXBXBXCXCXNXcXgX=Xg.i.5.4.6.i.A.D.Z.Z.Z.G.F.F.F.F.F.F.H.H.H.H.H.H.F.Z.F.F.F.F.F.F.Z.A.Z.S.M.M.M.M.n.S.H.Z.A.OX,X8X*X6X6XT.Z.n.b.b.B.` ,.<X+X9X=X=X",
"-X%X-X+X8X>X/ ) ! Y { C.H.u.R.bXNXBXBXBXCXCXCXNXNXNXNXNXVXVXVXVXAXZXZXZXmXbXbXbXmXvXvXwXwX8X,X,XT.J.D.A.A.A.Z.A.G.G.G.G.G.G.G.G.J.Z.Z.Z.Z.H.Z.n.Z.Z.Z.S.H.H.Z.M.C.B.~ u.8X*X=X=X=X=X*X,X].` K 1.t.8XiXmXmX#X4.A.U.i.t.i.U.+X-X-X*X*X=X=X=X=X=X=X=X=X=X=X*X-X*XoXD.D.u.t.4.i.Y.=XbXZXZXmX7Xg.i.t.u.S.D.H.Z.Z.F.G.F.Z.Z.Z.Z.u.Z.Z.Z.Z.Z.Z.Z.Z.Z.Z.Z.Z.Z.Z.Z.Z.Z.S.B.B.M.S.Z.A.i.i.i.U.1XyX>Xw.~ L ~ ~ ~ I L :.w.D.T.OX,X8X6X6X*X*X*X=X=X*X*X*X*X+X+X+X1X8X1XOXi.2.,./ ) ) ) ` ` 1.` ` ` ` ` ` ` ` ` ` ` ` ` ` ` ` ` ` ` ` ` ` ` ` ` ` ` ` ` ` ` ` ` ` ` ` ` ` ` ` ` ` ` ` ` ` ` ` ` ` ` ` ` / ) ~ =.>.u.T.,X1X8X8X6X*X=X=X=X=X=X7X+X#X1X1X1X@XJ.S.,.,.~ ~ K K K L +X*X8X#X@XOXU.i.7.7.6XmX8XA.0.D.Z.Z.Z.Z.Z.Z.Z.Z.Z.Z.Z.Z.Z.Z.Z.Z.S.S.Z.Z.Z.Z.Z.Z.A.Z.Z.Z.Z.Z.S.S.Z.Z.Z.S.S.S.S.M.S.Z.u.t.u.D.+X,X6X6X6X6X=X=X-X-X=X=X*X6X6X6X6X6X+X+X+XU.D.u.S.D.M.M.S.H.H.H.F.C.N._ H S.4X+X9X=X&XW.6X+X1X@X,.` n.n.Z.i.*XbXAXNXBXBXHXGXGXGXAXVXxX9XY.g.i.i.i.i.A.A.J.J.J.G.Z.Z.Z.Z.Z.Z.Z.Z.Z.Z.Z.Z.Z.Z.Z.Z.Z.Z.Z.Z.Z.Z.n.n.n.n.n.S.H.S.J.T.2X,X+X,X,X].H.C.C.V.b.) ,.2X+X9X=X=X",
"%XoX*X+X1X>X/ ^ { J J { M.Z.A.Y.VXNXCXCXCXCXCXCXAXAXAXAXVXZXVXVXkXkXkXbXkXvXvXvXjXwXwX9X0X6X6X,X^.T.J.G.A.Z.Z.Z.A.A.A.G.G.G.G.F.Z.M.M.M.H.H.M.M.n.M.M.H.H.S.S.n.b.q.K Z.1X*X*X;XW.=X*X,XOX1.K / <.D.1XiXnXOXt.A.i.i.i.A.+X8X9X*X*X*X*X=X=X=X=X=X=X=X=X=X*X-X-X#XaX[.0.<.i.U.g.5.Q.9XZXZXmXeXY.i.t.u.u.Z.Z.Z.F.H.F.Z.Z.Z.Z.Z.Z.Z.Z.Z.Z.Z.Z.Z.Z.Z.Z.Z.Z.Z.Z.Z.Z.Z.M.M.M.S.Z.A.u.i.i.A.#X4X4XJ.2.<.L ~ <.w.Z.D.OX1XqX8X6X6X6X*X6X*X*X*X*X*X*X*X8X8XqX1XOXD.u.0.>.=.,.` ` ` ` ` ` ` ` ` ` ` ` ` ` ` ` ` ` ` ` ` ` ` ` ` ` ` ` ` ` ` ` ` ` ` ` ` ` ` ` ` ` ` ` ` ` ` ` ` ` ` ` ` ` ` / ` ` 1.1.` ` / N N =.>.u.D.OX,X,X6X6X9X6X6X6X6X*X+X+X,X8X8X8X8XOXT.A.2.<.1.Z.D.8X+X+X+X+XU.i.i.7.R.wXmXA.A.u.Z.Z.Z.Z.Z.Z.Z.Z.Z.Z.Z.Z.Z.Z.Z.Z.Z.Z.S.Z.Z.Z.Z.Z.Z.A.Z.Z.Z.Z.Z.S.S.n.Z.S.S.S.M.Z.Z.Z.u.u.A.U.R.6X6X6X6X6X*X=X=X-X-X=X*X*X*X6X6X6X6X6X*X,X#XOXD.Z.w.n.M.M.C.C.C.B.B.O.! M S.1X+X9X=X=X=X6X+X8X>X,./ B.C.Z.t.g.=XVXAXBXBXBXCXFXFXCXVXZXmXxX9X*XY.g.7.7.6.u.Z.A.Z.Z.Z.Z.Z.Z.Z.Z.Z.Z.Z.S.S.S.S.S.S.S.S.H.H.H.H.M.M.M.M.M.C.H.Z.H.J.2X4X2X2X<X'.C.B.V.V.` ! ,.2X#X9X=X=X",
"*XoX-XXX,X X) ! [ T J T { b.n.t.Y.~.~.W.W.Q.Q.Q.W.Y.Y.E.E.E.E.E.E.E.E.I.I.I.I.i.A.i.7.i.A.A.A.Z.Z.Z.Z.Z.Z.Z.Z.G.F.F.F.F.F.G.F.F.H.C.C.C.C.C.C.C.B.M.C.C.B.n.b.q.^ / K S.4X*X*X=X=X=X6X8X>Xn.~ / ~ :.0.OX<XD.t.A.u.i.U.+X+X8X*X*X*X*X*X*X=X=X=X=X7X=X=X*X*X*X*X+X#X@X@XXXi.t.7.i.i.I.6XbXZXZXjX6XU.i.6.t.A.D.Z.Z.Z.Z.Z.Z.Z.Z.Z.Z.Z.Z.Z.Z.Z.Z.Z.Z.Z.Z.Z.Z.Z.Z.Z.Z.S.S.S.S.Z.A.u.u.D.D.D.,X1X,XT.D.<.u.D.T.>X,X1X8X8X6X6X*X*X=X6X6X*X*X6X6X6X,X,X,X@XD.u.,.,.P ~ ~ / ` ` / / ) ) ) ` ` ` ` ` ` ` ` ` ` ` ` ` ` ` ` ` ` ` ` ` ` ` ` ` ` ` ` ` ` ` ` ` ` ` ` ` ` ` ` ` ` ` ` ` ` / / ` ` ` ` ` ` 1.1.1.,.~ L L :.2.u.OX+X,X8X8X6X,X*X9X6X*XQ.*X*X6X6XwX8X,XT.T.T.,X8X6X+X+X#XOXi.t.i.U.wXbXvX>.D.D.w.Z.Z.Z.Z.Z.Z.Z.Z.Z.Z.Z.Z.Z.Z.Z.Z.Z.S.Z.Z.Z.Z.Z.Z.Z.Z.Z.Z.Z.Z.S.S.S.H.H.H.Z.Z.Z.A.u.A.D.T.+X6X6X6X6X6X6X=X=X=X=X=X-X-X*X*X6X6X6X6X*X*X*X8X1XOXu.1.n.1.1.1.` X.) ) ) ! M S.1X+X7X=X=X=X6X+X8X>X<.) b.M.M.w.t.E.9XVXCXCXCXCXCXCXCXVXbXmXmXmXbXxX9X6Xi.i.6.t.u.A.A.H.H.H.H.H.H.H.H.H.H.H.H.H.H.H.H.H.H.C.C.C.C.B.B.B.B.n.n.n.M.J.<X4X4X3X XB.+.{ _ _ ^ K ,.2X#X9X=X=X",
"*X*X-XoX,X>X) H J W ' J Y ^ b.n.4.4.4.7.7.i.i.i.A.A.A.A.A.A.A.A.i.i.A.Z.A.A.A.A.A.Z.Z.Z.Z.Z.Z.Z.M.M.M.M.H.H.H.H.H.H.H.H.H.H.H.C.C.C.C.C.B.m.B.m.B.B.B.N.b.` ) ^ H ^ K S.yX#X*X*X*X9X6X,XOXw.L L ~ L ~ n.D.S.A.D.i.U.+X6X*X*X*X*X*X*X*X*X=X=X=X=X=X=X=X=X*X*X*X+X+X1XqX#XD.i.i.i.i.i.g.R.jXZXZXmX*XU.i.t.A.D.A.Z.Z.Z.Z.Z.Z.Z.Z.Z.Z.Z.Z.Z.Z.Z.Z.Z.Z.Z.Z.Z.Z.Z.Z.Z.Z.Z.Z.S.Z.S.S.u.D.u.A.OX,X8X6X6X1X1X1X8X8X8X6X6XR.*X6X7XeX7X=X=X+X,X8XqX1X>XJ.H.2.<.~ / ~ / ,.,./ / / / / / / / ` ` ` ` ` ` ` ` ` ` ` ` ` ` ` ` ` ` ` ` ` ` ` ` ` ` ` ` ` ` ` ` ` ` ` ` ` ` ` ` ` ` ` ` / ` ` / ` ` / ) ) ) ` ` 1.1.3./ / ~ :.:.2.t.A.J.>X1XqXqX=X=X=X7X7X7X6X*X6X6X8X8X6X6X6X6X6X*X*X#XA.t.t.i.8XmXmX,X>.D.J.w.Z.Z.Z.Z.Z.Z.Z.Z.Z.Z.Z.Z.Z.Z.Z.Z.Z.Z.Z.Z.Z.Z.Z.Z.Z.Z.Z.Z.Z.Z.Z.S.S.H.H.S.n.n.Z.D.A.U.+X*X6X6X6X=X7X6X6X=X=X=X=X-X-X-X*X*X*X6X6X6X*X=X*X8X8X,XD.2.~ ) ! ! ) ) ) ) ! ! L H.1X+X6X=X=X=X7X+X8X1X<.I _ @.M.M.u.i.U.=XZXVXVXCXAXAXAXAXZXmXmXmXmXmXmXnXuXyX1X[.D.S.S.S.n.B.B.n.n.b.b.b.b.b.b.b.b.b.b.b.b.+.+.+.{ { ` ` ` ) ) ) ` ` n.C.n.m.{ _ Y W W ^ ^ K / 2X#X9X*X=X",
"%X*X-X+X1X2X1.^ H W [ T J ! ` w.M.M.M.M.M.M.M.S.q.q.q.q.w.q.n.n.q.w.n.n.M.M.C.H.n.b.b.b.b.b.b.{ m.m.m.m.m.#.O.{ #.#.#.#.#.#.#.#.b.b.b.+.X.` X.` +.+.X.` ) ^ ) ! H P I S.yX#X*X*X*X*X*X+XOXA.L L ) ~ / 1.1.w.H.A.T.+X+X6X*X*X*X*X*X*X*X*X*X*X6X6X=X6X6X6X6X6X6X6X9X+X+X#X1X#XU.u.A.i.i.A.Y.6XvXmXnX9XY.I.A.A.A.A.A.A.Z.Z.Z.Z.F.Z.Z.Z.Z.Z.Z.Z.Z.Z.Z.Z.Z.Z.Z.Z.Z.Z.Z.Z.Z.Z.S.S.S.S.S.u.u.T.,X6X6X6X6X6X,X+XR.R.R.R.*X*X6X9X9X7X=X*X,X,X,XOXJ.A.0.1.~ ~ ~ ) ` { { ` ` ` ` ` ` ` ` 1.` ` ` ` ` ` ` ` ` ` ` ` ` ` ` ` ` ` ` ` ` ` ` ` ` ` ` ` ` ` ` ` ` ` ` ` ` ` ` ` ` ` ` ` ` ` ` ` ` ` / ) ) ) / / ) ) ` ` 1.1.1.3.L L :.2.Z.J.2XqXR.Q.Q.=X7X7X7X7X=X*X6X6X7X6X6XQ.*X6X*XU.i.t.i.U.nXmXvXI.A.A.H.S.Z.Z.Z.Z.Z.Z.Z.Z.Z.Z.Z.Z.Z.Z.Z.Z.Z.Z.Z.Z.Z.Z.Z.Z.Z.Z.Z.Z.Z.Z.Z.Z.M.S.S.Z.n.Z.D.T.+X+X*X=X6X=X=X7X7X6X=X=X6X*X=X*X*X*X*X*X*X*X*X*X=X=X=X*X8X,XOXJ.3.~ ! ^ _ X.X.X.! ~ <.OX8X+X7X=X=X=X6X+X8X2X<.L ^ _ { q.q.w.t.i.8X*X*X7X9XwXwXwXwXqX8X8X8X1X1X2XrX4X X'.M.q.9.9.` ` ` ` ` ) ) ) ^ ^ ^ ^ ^ ^ ^ ) _ _ _ _ _ W W W W Y Y ( Y Y ! _ Y Y Y T T _ _ _ ^ K ,.2X#X-X*X-X",
"*X-X9X*X8X4X2.3.` ^ T T _ ^ ) ~ ^ ^ ^ ^ ^ ^ ^ ^ ^ ^ ^ ^ ^ ^ ^ ^ ^ ^ ^ ^ ^ ! H H ^ ^ ^ T T T T Y Y T T W _ W T T W W W W W W W W Y ! ) ^ ) ^ ) ) ! ! ! ! ) ) _ ) ^ / I S.tX+X*X*X*X9X6X6X8XT.2.1.! ^ ` ) K ,.Z.u.1X1X6X6X*X*X*X*X*X*X*X*X*X*X6X6X*X6X6X6X6X6X6X6X6X*X*X-XqX8X#XXXt.D.D.A.6.i.+XvXZXmX9XY.I.i.A.A.A.A.Z.Z.F.F.F.F.Z.Z.Z.Z.Z.Z.Z.Z.Z.Z.Z.Z.Z.Z.Z.Z.Z.A.Z.Z.S.S.M.M.S.w.A.T.6X6X6X6X*X*X*X6X9X9X6X6X7X6X*X*X*X=X*X6XyX2XJ.u.<.:.~ / q.` / / _ _ ^ ^ ` ` / ) ) ) ` ` ` ` ` ` ` ` ` ` ` ` ` ` ` ` ` ` ` ` ` ` ` ` ` ` ` ` ` ` ` ` ` ` ` ` ` ` ` ` ` ` ` ` ` ` ` ` ` ` ) ) / ` ` ` ` ` ` ` ) ) ) ` ` ` 1.3.~ L :.1.n.D.8X*X*XR.*X*X*X*X9X6XQ.Q.=X6X7X6XW.*X*XU.t.u.OX+XmXnX8X7.OXt.u.D.Z.Z.Z.Z.Z.Z.Z.Z.Z.Z.Z.Z.Z.Z.Z.Z.Z.Z.Z.Z.Z.Z.Z.Z.Z.Z.Z.Z.Z.Z.Z.Z.n.n.Z.Z.Z.A.T.+X8X8X6X*X=X=X7X7X6X6X6X6X6X6X6X*X*X*X*X*X*X*X*X*X=X=X=X*X*X,X8XqXF.n.` ) ) _ ) ! ~ 1.2.#X8X+X7X=X=X=X7X+X8X1X>.L _ T Y ^ { q.w.9.<.<.<.<.<.<.1.:.=.=.=.:.,.:.L K K K K H Y ^ ^ ^ _ _ _ _ _ _ W W _ _ _ _ _ _ _ W _ W ' W W W W W _ W _ [ _ T Y W W _ _ W W _ W Y ^ ! ,.2XOX*X*X;X",
"=X=X7X7X7X6X,X X~ ! ! ! ! K N M K H H H H H Y H ^ ^ ^ ^ ^ ^ ^ ^ ^ ^ ^ ^ ^ ^ ^ ^ ^ ^ ^ ^ ^ ^ ^ ^ ^ T ^ T ^ T ^ T W W W W W W W _ ) ) ) ) ) ) ) ) ) ) ) ) ) ) ) ) B I w.].1XqX*X*X*X*X6X6X6X,X1X<Xn.b./ ! M ,.H.>X1X,X6X6X*X*X=X=X*X*X*X6X6X*X6X6X8XT.A.T.,X+X,X8X=X=X7X6X6X1X1X1X@XD.p.u.u.D.D.A.wXvXmXvX*Xi.7.i.A.A.A.Z.G.G.G.G.Z.Z.Z.Z.Z.Z.Z.Z.Z.Z.Z.Z.Z.Z.Z.Z.A.A.D.H.S.n.M.S.n.w.u.A.+X7X7X7X7X7X*X*X*X*X6X6X6X*X*X*X*X6X9XqXA.Z.w.,.,./ / / ` ` _ _ _ _ _ _ ` ` ` ` ` ` ` ` ` ` ` ` ` ` ` ` ` ` ` ` ` ` ` ` ` ` ` ` ` ` ` ` ` ` ` ` ` ` ` ` ` ` ` ` ` ` ` ` ` ` ` ` ` ` ` ` ` ` ` ` ` ` ` ` ` ` ` ` ` ` ` ` ` ` ` / ,./ / ,.6.i.OX#X8XqX8X+X+X6X6X6X*X*X*X*X=X*X*X+XA.u.i.i.uXnXvXU.4.u.D.H.Z.Z.Z.Z.Z.Z.Z.Z.Z.Z.Z.Z.Z.Z.Z.Z.Z.H.H.Z.Z.Z.Z.n.n.Z.G.J.Z.n.Z.Z.H.w.<.<.A.OX,X6X6X6X6X6X=X=X=X6X6X6X6X,X,X6X8X8XU.+X-X*X*X*X*X*X=X=X=X*X6X6X,X,X4X Xn.) M S ) ` <X>X,X,X6X6X6X7X=X9X*X+X+X1XA.<.Y W W .._ _ _ _ T ! ! ! ! ^ _ ^ ) / ) ) ) ) ) ) _ _ _ W W W W W W W W W W W W W W W W W W W W W W W ' ' ' ' ' ' W W W W W W W W W W W W W W _ ^ M ~ u.OX8X9X*X*X",
"=X=X=X7X7X(.)./.Z.S.M.M.M.n.Z.n.w.q.q.q.q.q.b.q.9.9.9.9.1.1.1.1.1.,.1.1.1.1.1.1.` ` ` ` ` ` ` ` ) ) ) ) ) ) ) ) ^ ^ ^ ^ ^ ^ ^ ^ ) ~ ~ ~ ~ ~ ~ ~ ~ ~ ~ ~ ~ ~ ) ~ ,.w.D.@X1X8X8X*X*X*X6X6X6X6X,X2X5X Xn.,.:.w.>XyX,X6X6X6X=X=X=X=X=X=X*X6X6X6X,X1X+Xi.4.6.A.D.>XqX7X7X6X6X6X,X1X2X4X<X].D.u.u.u.A.7.R.vXmXnX6XI.7.i.A.A.Z.G.J.G.c.Z.Z.Z.Z.Z.Z.Z.Z.Z.Z.Z.Z.Z.Z.Z.Z.A.A.A.Z.S.S.S.S.n.Z.A.T.6X7X7X!.Q.Q.=X*X7X6X6X6X+X*X8X9X8XR.i.<.<.,.,.,.,.` 1.9.` ` _ _ _ _ _ _ ` ` ` ` ` ` ` ` ` ` ` ` ` ` ` ` ` ` ` ` ` ` ` ` ` ` ` ` ` ` ` ` ` ` ` ` ` ` ` ` ` ` ` ` ` ` ` ` ` ` ` ` ` ` ` ` ` ` ` ` ` ` ` ` ` _ _ _ ` ` ` ` ` ` ` ` / / / ,.L =.<.u.D.OX1XqX+X+X*X+X+X+X*X*X=X=X*X+XU.a.t.t.U.qXuX6XA.u.u.Z.Z.Z.Z.Z.Z.Z.Z.Z.Z.Z.Z.Z.Z.Z.Z.Z.Z.Z.Z.Z.Z.H.H.H.J.Z.2.n.Z.H.H.Z.<.2.Z.D.OX,X6X6X6X6X6X6X=X=X=X6X6X6X6X,X,XT.A.i.A.T.+X+X*X*X*X=X=X=X=X*X*X6X6X,X1X>XH.n.1.b.C.'.5X,X,X6X6X6X7X=X=X7X6X*X*X8XOXu.( W E E W E T T W W W W W %.%.| _ ^ _ ^ _ ^ _ W W W W W W Q Q Q W W W W W W W W R Q Q Q W W W W Q Q Q Q Q T T T W W W W W W W W _ _ _ _ _ _ ^ ) ~ w.[.1X1X*X*X-X",
"7X7X7X7X(.(.).).,X2X2X5X5X,X,X,X2X2X2X2X2X2X2X2X5X2X2X2X,X,X,X,X,X,X,X,X,X,X,X2X2X2X2X5X2X>X2X5X>X>X>X>X>X>X>X>X^.>X>X>X^.^.^.^. X X X X X X X X X X X XJ.J.].].D.[.@X1XqX8X6X*X*X*X6X6X6X6X6X,X2X3X<XOXJ.OX2XqX6X6X6X6X=X=X=X=X=X*X6X6X6X6X8X1XOXA.<.<.2.2.n.D.6X*X6X6X6X,X1X1X4X<X1XOXD.u.w.u.i.7.I.6XnXmXpX+X6.A.T.J.A.Z.Z.J.Z.Z.Z.Z.Z.Z.Z.Z.Z.Z.Z.Z.Z.Z.Z.Z.A.A.Z.Z.H.S.Z.Z.Z.A.T.,X6X7X!.W.=X=X6X6X6X6X,X,X8X,X+XU.A.6.>.=.,.~ ~ ~ / ` 1.9.` ` ` ` _ _ _ _ ` ` ` ` ` ` ` ` ` ` ` ` ` ` ` ` ` ` ` ` ` ` ` ` ` ` ` ` ` ` ` ` ` ` ` ` ` ` ` ` ` ` ` ` ` ` ` ` ` ` ` ` ` ` ` ` ` ` ` ` ` ` ` ` ` _ ` ` ` ` ` ` ` ` ` ` / / / / ,.P =.,.,.<.A.1XqX8X8X1X6X6X*X*XQ.=X*X8X#XU.t.>.6.T.wXuXOXu.w.S.Z.Z.Z.Z.Z.Z.Z.Z.Z.Z.Z.Z.Z.Z.Z.Z.Z.Z.Z.Z.Z.H.H.H.Z.n.Z.H.J.J.Z.>.:.u.OX1X8X6X6X6X6X6X6X6X6X6X6X6X,X2X>XT.D.w.<.>.2.D.+X,X*X=X=X=X=X*X*X*X*X6X6X6X8X,XOXOX].>X3X4X,X,X,X6X6X6X7X7XQ.7X6X*X*X9X-XOX` _ _ _ _ ..W W Q Q Q Q Q Q Q Q _ _ _ _ _ _ _ W W W W ' ' ' ' W W | _ .._ _ _ _ ............O.O.W ' T W W _ _ _ ^ ^ ^ ^ _ _ _ _ ^ ! ! ! ! ! ! L w.D.1XqX-X+X*X*X",
"6X7X!.!.(.(.(.7X6X6X1X1X,X6X6X6X0X6X6X6X0X0X6X6X6X6X6X6X6X6X6X6X6X6X6X6X6X6X6X6X0X0X6X6X0X0X0X0X9X8X6X7X7X7XeXeX6X6X0X0X0X0X0X0X8X1X1X1X1X1X1X1X1X1X1X1X,X,X1X1X1X1X1X8X8X6X*X*X*X*X6X6X6X6X6X6X+X2XqXqX8X,X,X+X6X6X6X6X=X=X=X=X=X7X6X6X6X8X1X1XA.w.w.n.n.1.3.1.Z.G.^.,XqX1X,X,XOX,X4X4X@XD.u.t.A.7.8.i.+XuXnXnX+Xi.6.A.G.6.6.^.Z.Z.Z.Z.Z.Z.Z.Z.Z.Z.Z.Z.Z.Z.Z.Z.D.A.A.Z.Z.Z.Z.Z.G.T.,X6X6X6X!.!.7X6X6X*X+X+X,X,X,XJ.u.:.=.:.,.<.,./ ~ / ) / ) / ` ` ` ` ` ` _ ` ` ` ` ` ` ` ` ` ` ` ` ` ` ` ` ` ` ` ` ` ` ` ` ` ` ` ` ` ` ` ` ` ` ` ` ` ` ` ` ` ` ` ` ` ` ` ` ` ` ` ` ` ` ` ` ` ` ` ` ` ` ` ` ` ` ` ` ` ` ` ` ` ` ` ` ` / / / / q./ ~ / ~ L t.<X@X@X,XqXqX8X*X*X=XQ.=X6X8X#XD.4.6.A.,XqX1XD.u.D.Z.Z.Z.Z.Z.Z.Z.Z.Z.Z.Z.Z.Z.Z.Z.Z.A.Z.Z.Z.Z.Z.M.Z.n.H.J.H.Z.<.3.<.A.U.6X8X*X+X6X6X6X6X8X8X8X8X1X1XT.J.Z.z.1.1.2.2.1.Z.OX,X6X=X7X7X*X*X*X*X*X*X*X6X6X6X6X,X,X1X1X4X,X6X6X6X6X6X6X7XQ.=X7X=X*X-X-X#XZ.l.) ! ) _ .._ W W W ' | | %.%.E Y Y Y T W W T T W W W W W W W W W _ _ ^ ^ ^ ^ Y Y Y Y Y Y Y Y T J T T ! ^ ! ! H H K K K ! Y ! ) / / 1.1.1.2.2.J.@X8X9X*X*X*X*X",
"6X6X6X(.(.(.7X7X6X*X*X*X*X*X=X=X6X).).).).).Q.Q.Q.Q.!.!.!.!.~.!.Q.Q.Q.Q.Q.Q.Q.Q.7X7X(.(.(.(.(.(.=X=X!.!.!.!.!.!.Q.Q.Q.Q.!.!.).).6X,X,X,X,X,X*X,X+X+X+X+X+X+X+X+X8X-X*X*X*X*X6X6X6X6X6X6X*X*X*X6X6X6X6X+XR.*X6X9X6X6X6X6X6X6X=X=X=X7X6X*X6X8X1X].,.,.1.n.B.b.b.w.1.n.Z.J.>X>X,X,X+X,X,X8X8X#XU.i.>.7.I.A.i.A.#XiXnX+X6.6.A.J.A.Z.Z.Z.Z.Z.Z.Z.Z.Z.Z.Z.Z.Z.Z.Z.Z.Z.A.A.Z.Z.Z.Z.G.A.^.,X6X6X6XQ.=X=X*X+X6X6X,X,X#XOX<.<.,.,.,.,./ / ,./ / / ) ) ) ) / / / / ` ` ` ` ` ` ` ` ` ` ` ` ` ` ` ` ` ` ` ` ` ` ` ` ` ` ` ` ` ` ` ` ` ` ` ` ` ` ` ` ` ` ` ` ` ` ` ` ` ` ` ` ` ` ` ` ` ` ` ` ` ` ` ` ` ` ` ` ` ` ` ` ` ` ` ` ` ` / / / / / / 9./ / 9.,.,.S.<Xt.<.t.U.,X+X+X*X=XQ.Q.*X8X1XOXD.6.4.A.,X1XOXS.H.Z.Z.Z.Z.Z.Z.Z.Z.Z.Z.Z.Z.Z.Z.Z.Z.Z.Z.Z.Z.Z.Z.M.S.J.H.n.:.N :.Z.OX6X*X*X*X*X*X6X6X6X6X8XqX1X>XOXJ.Z.n.1.1.1.1.b.n.1.Z.OX,X6X=X=X7X*X*X*X*X*X*X=X=X=X*X*X*X*X*X+X+X*X*X6X6X6X6X6X6X=X7X6X=X*X*X*X8X>XH.1.L M K ! H ! T ( ( ( _ _ ) ! ! ! ! ! ! ! ! ! ! ^ ! ^ ^ ^ ^ ) ) ) ) ) ) ) ) ` ` ` ` ` ` ` ` q.q.q.q.w.w.w.w.Z.Z.Z.S.S.S.S.S.'.'.].OXOX@X,X,X,X+X*X*X6X6X*X*X",
"6X6X6X7X7X7X=X7X=X*X*X-X=X=X=X=X7X7X7X7X7X7X7XlX9X=X=XfXfXfXfX=X=X=X=X=X7X7X7X7X9X9X7X7X7X7X7X9X9X=X=X9X=X=X9X9X=X=X7X7X7X7X7X7X7X7X7X7X7X7X7X7X6X6X6X6X6X7X7X7X*X*X=X*X*X*X=X*X6X6X6X6X*X*X*X*X*X=X=X=X=X=X6X=X6X6X6X6X6X6X=X=X=X7X7X*X6X1X>XD.1.1.q.{ b.b.b.b.+.+.` q.n.J.,X6XwX6X*X*X*X*X*XoXT.A.6.4.4.t.i.U.8XnXuXA.4.A.T.Z.Z.Z.Z.Z.Z.Z.Z.Z.Z.Z.Z.Z.Z.Z.Z.Z.Z.S.Z.Z.Z.Z.G.T.,X0X0X6X6X=X=X6X*X6X8X8X#XD.t.<.L P ~ / ` ` / ) / / / / / / / / / / ` / ` ` ` ` ` ` ` ` ` ` ` ` ` ` ` ` ` ` ` ` ` ` ` ` ` ` ` ` ` ` ` ` ` ` ` ` ` ` ` ` ` ` ` ` ` ` ` ` ` ` ` ` ` ` ` ` ` ` ` ` ` ` ` ` ` ` ` ` ) ` ` ` ` ` ` ` ` / / / / / / / ` ^ / 9.1.,.n.].<.&.&.6.T.+X6X9X=X!.Q.+X1X1X#XOX4.-.>.D.1X1XD.Z.Z.Z.Z.Z.Z.Z.Z.Z.Z.Z.Z.Z.Z.Z.Z.Z.Z.Z.Z.Z.H.H.H.S.n.1.~ ~ 2.J.5X,X8X-X*X=X*X=X*X*X6X6X,X>X].H.n.n.1.1.b.b.b.N.b.b.l.n.J.2X6X6X6X=X*X*X*X*X*X*X=X=X=X=X=X=X=X=X*X*X=X=X6X6X7X6X6X=X6X7X*X=X*X*X*X*XqX+XA.t.2.w.w.w.w.w.l.l.z.z.z.z.S.S.S.S.S.S.S.S.D.D.D.H.H.D.H.H.J.J.D.D.D.D.D.D.>X>X@X>X>X@X<X<X<X<X<X1X2X4X4X8X8XqXqXqXqXqXtXtX4X1X1X8X8X8X6X6X6X*X+X*X*X9X*X+X",
"1X1X6X6X7X7X=X=X;X-X-X-X;X=X&X&X*X+X+X*X*X*X*X%X=X%X%X&X&X&X&X%X%X*X*X*X*X*X*X*X*X*X*X*X*X*X*X*X-X-X-X-X=X=X=X*X*X*X*X*X*X*X*X*X=X=X=X=X=X=X=X=X=X!.!.!.!.=X=X=X=X=X=X=X=X=X=X=X=X6X=X*X*X*X*X=XW.!.=XlXlX=XQ.W.=X=X=X=X6X6X6X7XQ.7X7X*X6X1X].w.n.b.b.{ { { +.O.$.O.O.{ q.n.A.U.6X=XQ.Q.=X=X;X*XuX>X6.<.4.t.t.<.i.pXmXpXA.i.A.J.Z.Z.Z.Z.Z.Z.Z.Z.Z.Z.Z.Z.Z.Z.Z.S.w.S.H.Z.Z.Z.T./.0X0X0X6X6X=X=X*X8X,XOXD.u.<.=.L ,./ ~ ! ^ _ { { / / / / / / / / / / / / / / 3.` ` ` ` ` ` ` ` ` ` ` ` ` ` ` ` ` ` ` ` ` ` ` ` ` ` ` ` ` ` ` ` ` ` ` ` ` ` ` ` ` ` ` ` ` ` ` ` ` ` ` ` ` ` ` ` ` ` ` ` ` ` ` ` ` ` ` ` ` ` ` ` / / / / / / / / / ` ` ` ` / / ,.<.<.&.&.i.+X6X6X7X=X!.Q.*X1X1X1X#XD.4.=.4.D.@X[.Z.Z.Z.Z.Z.Z.Z.Z.Z.Z.Z.Z.Z.Z.Z.Z.Z.Z.Z.Z.H.Z.n.n.w.~ ~ 2.H.<X4X4X,X*X%X%X-X=X*X*X*X6X+XT.H.n.w.q.1.` +.N.N.N.N.#.X.l.l.Z.>X6X6X!.6X*X*X*X*X*X*X=X=X=X=X=X=X=X=X&X;X=X6X6X6X7X7X7X=X6X6X=X*X*X-X*X*X-X*X+X+X#X#X1X1X2X4X4XqX0X0XeX0XqX1X1X1X1X1X1X1XqXqX8X8X8X8X8X8X8X8X8X8X8X8X8X8X#X#X#X#X#X1X1X1X#X#X1X+X6X6X6X6X*X*X*X*X*X+X+X#X,X,X,X*X*X*X*X*X*X=X*X*X*X6X*X*X",
"1X8X6X6X7X=X=X=X-X-X-X-X=X=X&X=X*X6X6X6X*X*X-X-X-X;X;X;X=X=X;X;X-X*X*X*X*X-X*X*X*X*X6X6X6X6X6X*X-X-X-X-X-X-X-X-X-X-X*X*X*X*X*X*X=X=X=X=X=X=X=X=X=X=X=X=X=X=X=X=X=X=X=X9X7X=X7X=X7X6X=X=X=X=X=X=XgX9X!.W.W.=X=X9X=X=X=X=X6X6X6X6XQ.7X7X*X,X1X].w.1.q.N.@.@.m.m.$.O.$.$.@.b.w.2.>.A.E.Q.6X*X*X*X+XOXqXyX,X6.-.>.i.i.4.U.nXnX+X6.Z.Z.Z.Z.Z.Z.Z.Z.Z.Z.Z.Z.Z.Z.Z.Z.Z.M.S.H.Z.6.Z.T.0X0X6X7X7X6X6X*X*X+XT.6.=.=.=.<.9.,./ / ` { { _ ^ ] / / / / / / / / / / / ,.,.3.3.` ` ` ` ` ` ` ` ` ` ` ` ` ` ` ` ` ` ` ` ` ` ` ` ` ` ` ` ` ` ` ` ` ` ` ` ` ` ` ` ` ` ` ` ` ` ` ` ` ` ` ` ` ` ` ` ` ` ` ` ` ` ` ` ` ` ` ` ` ` / / / / / / / / / / ^ ` ` ^ ) ` 3.:.<.=.<.OXqX6XE.g.7X=X=X*X*X#X+X#XqXU.-.=.2.[.'.H.Z.Z.Z.Z.Z.A.A.A.A.Z.Z.Z.Z.Z.F.F.H.H.H.S.n.1.~ L ~ w.J.>X1X,X1X8X-X-X-X%X%X*X*X6XOXJ.Z.2.1.` { b.N.N.b.#.#.#.#.N.l.1.z.T.6X6X6X6X6X6X6X*X*X*X=X=X&X=X=X&X&X&X=X=X=X=X6X*X7X=X=X=X6X=X*X*X=X*X-X-X%X*X-X-X-X-X+X+X+X6X6X6X6X7X7X7X6X6X6X8X6X6X6X6X6X6X*X*X*X*X*X*X+X+X+X+X+X+X+X+X+X+X+X*X*X*X*X*X*X*X*X*X6X6X7X7X9X7X7X7X7X6X=X*X6X*X6X*X*X7X=X=X=X=X=X=X*X*X*X*X",
"*X*X*X*X*X=X=X=X*X-X=X=X=X=X-X-X=X=X*X*X=X=X=X=X=X=X=X=X=X=X=X-X-X*X*X*X-X-X-X-X*X*X*X*X*X*X-X-X*X-X-X-X*X*X*X*X*X*X*X*X*X*X*X=X=X=X=X=X7X7X7X7X=X=X=X=X=X=X7X=X7X7X7X7X7X7X7X7X!.Q.!.Q.=X=X=X=X*X6X6X=X=XQ.=X7X=X=X7X7X6X7X=X=X=X=X*X6X8X,XH.3.b.b.b.b.b.@.@.@.+.+.+.@.+.b.w.2.:.<.Z.J.>X2X2X2X1X,X,X,X,XU.4.&.4.6.t.A.qXnXqXu.2.A.J.D.u.w.n.H.S.H.Z.n.Z.G.G.Z.w.[.J.2.4.T.6X*X6XR.Q.7X9X*X+X6X8X+Xi.=.N ,.9.9./ / _ _ _ _ _ _ ` / / / / / / / ` ` ` ` ` ` ` ` ` ` ` ` ` ` ` ` ) ` ` / / / ` ` ` ` ` ` ) ` ` ` ` ) ~ ` 1.` ) ) / / ` 1.1.` / ) ` ` ) ` ` ` ` ^ ` ` ` ` ) ) ` ` ` ` ` / / / ` ` ` ` ` ` ` ` ` ` ` ` ` / ` / ` ` ` _ ` ) ) / 3.2.:.:.D.aX1Xt.-.4.oX-X:X%X%X;X=X*X*X8XT.>.M ` m.N.M.S.Z.0.u.D.a.y.t.u.A.Z.H.H.K.K.V.m.m.` K n I 2.D.,XqX8X#X-X*XoX+X-X-X-X#XOXD.u.2.2.w.b.b.b.b.b.b.b.b.@.#.#.#.b.B.` 3.G.2X8X6X6X6X6X6X6X*X*X*X*X=X=X=X=X=X=X7X7X=X=X=X=X=X=X=X=X=X=X=X=X=X=X=X-X-X-X-X-X=X*X*X*X*X*X*X=X=X=X=X=X6X6X6X6X6X6X6X6X6X6X6X6X6X6X6X6X=X*X*X*X=X=X=X=X*X*X*X*X*X*X*X*X=X=X=X=X=X=X!.!.!.!.!.(.6X=X=X=X=X=X=X=X=X=X=X=X=X=X=X=X=X=X=X=X",
"*X*X*X*X*X*X*X*X*X*X*X-X=X-X=X-X*X=X=X=X=X=X=X=X=X=X=X=X=X=X=X*X*X*X*X*X*X*X*X*X*X*X*X*X*X*X*X*X*X*X*X*X*X*X*X*X*X*X*X*X*X*X*X=X7X7X7X7X7X7X7X7X6X7X7X7X7X7X7X7X7X7X7X7X7X7X7X7X7X7X7X7X7X7X7X7X*X*X6X6X6X=X=X7X=X=X=X7X6X7X6X=X=X*X*X6X,XOXZ.1.b.b.b.b.b.b.b.b.@.@.@.@.b.b.b.b.b.b.z.n.M.G. X5X,X#X,X,X,X,XT.T.=.4.6.<.6.OXuXiXT.A.2.<.Z.H.H.S.n.H.H.Z.F.F.G.z.S.w.0.t.A.+X*X*X=X*X*X*X6X+X6X8X,X+XU.t.,.,.~ / / / _ _ _ _ _ ` ` ` ` ` ` ` ` ` ` ` ` ` ` ` ` ` ` ` ` ` ` ` ` ` ) ) ` ` / / ` ` ` ` ` ` ) ^ ) ) 1.) ~ ) / / ` 1.n.w./ ~ ! ~ ) ` ` / ) / ` { ` ` ` ` ` ` ) ) ` ` ` ` ` / ` / ` ` ` ` ` ` ` ` ` ` ` ` ` ` ` ` ` ` ` _ ) ` ` 1.,./ L w.@X@XS.-.-.-.a.oX-X-X%X=X&X=X=X6X,XZ.` ^ _ O.n.S.H.u.p.a.a.i.i.i.A.F.H.C.L.V.@.[ ^ ! ~ ,.Z.@X,X8X8X+XoX*X-X-X$X$X@XXXD.S.w.1.w.w.b.b.#.#.#.b.b.b.b.b.#.#.#.b.b.1.1.Z.>X0X6X6X6X6X6X6X6X*X*X*X*X6X6X7X7X6X6X6X=X*X*X*X*X*X*X*X*X*X*X*X*X*X*X=X*X*X*X*X*X*X*X=X*X-X*X-X*X-X*X*X6X6X6X6X6X6X6X6X6X6X6X6X6X6X6X6X6X6X6X6X6X6X6X6X6X6X6X6X6X6X6X6X7X7X7X7X7X7X7X7X7X7X7X7X7X7X7X7X=X=X=X=X=X=X=X=X7X=X7X=X7X=X7X=X",
"6X*X6X*X6X*X6X*X6X*X6X*X*X*X*X*X*X*X*X*X*X*X*X*X*X*X*X*X*X*X*X*X*X*X+X*X*X+X*X*X6X*X6X*X6X*X*X*X*X*X*X*X*X*X*X*X6X*X*X*X*X*X*X*X6X6X6X6X6X6X6X6X6X6X6X6X6X6X6X6X6X6X6X6X6X6X6X6X6X6X6X6X6X6X6X6X*X+X*X6X6X7X7X=X7X7X6X6X6X6X=X=X=X*X*X8X,XD.z.n.b.b.b.b.b.b.b.b.@.@.@.@.b.b.b.b.n.b.1.1.1.n.F.G.>X,X1X1X,X2X,X1XT.u.>.&.&.6.OXqXqXOXu.2.Z.H.H.S.n.H.H.H.Z.F.Z.Z.J.<.=.D.,X+X*X7X*X=X*X*X*X6X6X6X6X6X,XT.t.=.I / / / / _ ` ` ` ` ` ` ` ` ` ` ` ` ` ` ` ` ` ` ` ` ` ` ` ` ` ` ` ` ) ) ` ` / ` ` ` ^ ^ ) ) ` ` ` ` w.q.1.1./ ~ ~ / M ~ ` b.b.1.) ! ` ) ) ) ` ` ` ` ` ` ` ` ` ` ` ` ` ` ) ` ` ` ` ` ` ` ` ` ` ` ` ` ` ` ` ` ` ` ` ` ` ) ^ ` 1.1./ I <.].<XD.,.:.:.L t.sX-X-X=X=X=X=X=X*X,X1XH.) Y ^ ` q.M.e.S.S.p.u.S.H.H.S.B.B.N.b.^ ! K ~ w.D.,XyX8X9X8X+X+X*X-X8X#XXXD.u.0.w.,.1.w.w.b.b.#.#.#.b.b.b.b.b.@.@.#.b.b.b.1.z.J.,X8X6X6X6X6X6X6X*X*X*X*X*X6X6X6X6X0X6X*X*X*X*X*X*X*X*X*X*X*X*X*X*X*X*X*X*X*X*X*X*X*X*X*X*X*X*X*X*X*X*X*X6X6X6X6X6X6X6X6X6X6X6X6X6X6X6X6X6X6X6X6X6X6X6X6X6X6X6X6X6X6X6X6X6X6X6X6X6X6X6X6X*X*X*X*X*X*X*X*X*X*X*X*X*X*X*X*X*X*X*X*X*X*X*X",
"8X8X1X1X1X1X8X8X8X8X1X1X8X8X8X8X1X1X1X1X1X1X1X1X1X1X8X8X8X8X1X1X8X8X1X8X1X1X8X1X1X1X,X,X,X,X,X,X6X6X6X6X6X6X6X6X6X6X6X6X6X6X6X6X6X6X6X6X6X6X6X6X6X6X6X6X6X6X6X6X6X,X6X6X6X6X6X6X,X6X,X,X,X,X,X,X6X6X*X*X6X6X7X=X7X7X7X7X6X6X6X6X6X*X6X8XOXu.2.n.b.b.b.b.b.b.b.b.@.@.@.@.b.b.b.b.b.b.b.b.z.l.l.2.J.T.2X4X4X2X>X,XyXOXu.<.>.=.=.>.+X,X,XT.A.w.Z.S.S.Z.n.n.Z.F.H.F.Z.<.<.OXqX6X*X9X=X7X*X+X6X8X6XT.8X8X8X1XD.=.I ,./ / / ` ` ` ` ` ` ` ` ` ` ` ` ` ` ` ` ` ` ` ` ` ` ` ` ` ` ` ` ` ) ) ` ` / ` ` ` / ) ) ) ` ` ` ` K ! / q.1.3.1.n.1.1.3.) ~ ) 1.b.` ` / / ) ` ` ` ` ` ` ` / ` ` ` ) ) ) ` ` ` ` ` ` ` ` ` ` ` ` ` ` ` ` ` ` ` ` ` ` ` ` ` ` 1.,.~ J.<X>Xw.P ,.,.L -.i.+X-X*X=X=X=X=X6X8X1X Xn.^ H ^ / q.n.M.M.M.M.H.H.M.n.b.l.` ` L :.2.D.OX,X,X8X+X6X9X8X9X8X+X#XS.p.w.,.,.9.w.w.w.b.b.b.#.#.#.b.b.b.b.b.b.@.#.b.b.b.z.<.Z.,XqX6X6X6X6X6X*X*X*X*X*X*X6X6X6X8X8X6X8X8X6X8X6X8X6X8X6X6X6X6X6X6X6X6X6X6X6X6X6X6X6X6X6X6X6X6X6X6X6X6X6X6X6X6X6X6X6X6X6X6X6X6X6X6X6X6X6X6X6X6X6X6X6X6X6X6X6X6X6X6X6X6X,X,X,X,X,X,X,X6X,X,X,X,X,X,X,X,X,X,X,X6X6X6X,X,X6X8X6X6X6X6X6X6X",
"OXOXOXOXOXOXOXOX@X@X@X@X@X@X@X@X>X>X>X>X>X@X@X@X>X>X>X>X,X,X,X>X,X,X,X,X>X,X>X,X@X@X@X@X@X@X@X#X,X,X,X,X,X,X,X,X,X,X,X,X,X,X,X,X,X,X,X,X,X,X,X,X,X,X,X,X,X,X,X,X4X1X4X1X4X1X4X1X4X4X4X4X4X4X4XqX8X6X*X*X=X6X7X7X7X7X7X7X6X6X6X6X6X*X6X,XD.<.<.n.b.b.b.b.b.b.b.b.@.@.b.b.b.b.b.b.l.b.b.n.n.n.l.1.1.2.Z.J.5X2X4X1X,X2X1X#Xi.=.&.=.>.A.,X,XJ.Z.u.Z.H.Z.n.Z.H.H.Z.2.>.u.T.1X6X*X*X7X7X7X=X*X6X8XT.4.OX+X8XyX@X0.,.,./ / ` ` ` ` ` ` ` ` ` ` ` ` ` ` ` ` ` ` ` ` ` ` ) ` ` ` ` ` ` ` ` ` ` ` ` ` ` ` { ` ) ) / / / ) 1.3./ ~ M h h k 3.1.1.3./ ~ / ` ` ` ` ` / ) / ) ` ` ` ` / ` ` ` ` ` ` ` ` ` ` ` ` ` ` ` ` ` ` ` ` ` ` ` ` ` ` ` ` ` ` / ~ ~ 1.n.4X'.1.P ~ ,.,.P L 2.U.6X6X=X=X9X=X7X6X#X@X>Xn.K K ^ { r.m.m.m.V.m.m.{ ` ) ^ ! ~ <.A.+X,X6X6X,X+X6X6X6X8X,XOXD.A.0.9.1.1.1.w.b.b.b.b.b.b.b.b.#.+.b.q.b.b.b.b.b.b.b.n.n.1.2.T.,X6X6X6X6X6X*X*X*X*XqX8X+X+X,X2X,X1X,X,X,X,X,X,X,X,X,X,X,X,X,X#X#X#X#X#X+X#X#X#X#X#X,X,X,X,X,X,X,X,X,X2X,X2X,X,X,X,X,X2X,X2X,X2X,X2X,X,X,X,X,X,X,X,X,X2X,X2X,X2X,X2X,X,X,X,X1X1X1X1X1X1X1X1X1X1X1X1X2X1X1X1X1X1X1X1X4XqXqX4XqXqXqXqX",
"Z.Z.Z.Z.Z.Z.Z.Z.Z.n.Z.n.Z.Z.Z.Z.Z.Z.Z.Z.Z.Z.n.Z.Z.Z.Z.Z.Z.Z.Z.Z.Z.Z.Z.Z.Z.Z.Z.Z.Z.Z.Z.Z.Z.Z.Z.Z.H.H.D.H.D.H.D.H.D.H.D.H.D.H.D.H.J.H.H.H.J.J.J.J.H.H.H.H.H.H.H.H.J.J.J.J.J.J.J.J.J.].J.].J.].J.J.OX+X*X6X*X=X6X7X7X7X7X6X6X6X6X6X*X6X,XT.Z.2.2.n.b.b.b.b.b.b.b.b.b.@.b.b.b.b.b.b.b.b.b.b.l.n.n.n.l.3.3.n.H. X2X2X2X1X4X1X#XU.6.>.&.&.4.A.OXOXH.w.H.Z.Z.H.J.Z.1.=.<.T.qX8X*X*X=X=X9X=X*X*X6X,XA.&.6.A.#XyXqX[.2.~ ,./ ` ` ` ` ` ` ` ` ` ` ` ` ` ` ` ` ` ` ` ` ` ` ` ` ` ` ` ` ` ` ` ` ` ` ` ` ` ` ` ) / ` w.w.w.1.w.~ n g r 7 - 6 r u n 3.n.w.1.,./ ` 1.` / ) / / ` ` ` ` ` ` ` ` ` ` ` ` ` / ` ` ` ` ` ` ` ` ` ` ` ` ` ` ` ` ` ` / 1.1.~ L ~ w.'.5Xw.M K ` ` / / P <.u.OX6X6X=X=XQ.7X*XR.#X4XOX,.K I I { { +.+.+.O.[ _ ! K ! / ,.A.R.6X6X6X6X6X6X8X,XT.T.D.Z.2.w.w.q.q.q.b.b.b.{ b.b.b.b.b.b.#.+.q.q.b.b.b.b.b.b.b.b.n.1.2.A.,XqX6X6X6X6X*X*X*X-X#XOXA.u.A.Z.H.S.Z.Z.A.Z.A.A.A.Z.A.Z.A.Z.A.Z.A.A.A.Z.A.Z.A.Z.A.A.D.H.D.H.D.H.D.H.D.H.J.H.J.J.J.H.G.H.G.H.J.H.J.J.J.H.J.H.J.J.J.H.J.H.J.H.J.H.J.H.J.H.H.H.J.J.J.J.J.H.J.G.J.J.J.J.H.H.H.H.J.J.J.J.J.J.J.J.J.J.J.J.",
"1.w.1.w.1.w.1.1.3.1.3.1.3.1.3.1.1.1.1.1.1.1.1.1.1.1.` ` 1.1.3.3.1.1.3.1.3.1.3.1.1.1.1.1.1.1.1.1.1.1.2.1.2.1.2.1.2.1.2.1.2.1.2.1.1.1.1.1.1.1.1.1.1.1.1.1.1.1.1.1.1.1.1.1.1.1.1.1.1.w.1.w.1.w.1.2.6.I.+X9X6X*X=X6X=X=X6X6X6X6X6X*X+X8X1XD.2.2.n.b.b.b.b.b.b.b.b.b.b.b.b.b.b.b.b.b.b.b.l.l.l.l.b.n.n.n.n.l.l.n.H.J.2X2X>X@XqXpX+X6.>.&.&.>.A.J.D.Z.Z.Z.S.H.Z.<.>.<.T.,X8X6X=X=X=X=X7X=XQ.6X,XU.<.=.=.<.A.OX4X<XH.~ ,.,./ / ` ` ` ` ` ` ` ` ` ` ` ` ` ` ` ` ` ` ` ` ` ` ` ` ` ` ` ` ` ` ` ` ` ` ` ` ) ) / 1.1./ M n y r 7 7 ; ; 7 q ; 7 q y u h ~ 1.L ~ 3.1.3.` 3.` ` ` ) ) ` ` ` ` ` ` ` ` ` ` ` ` ` ` ` ` ` ` ` ` ` ` ` ` ` ` ` / / / ~ ~ P ,.S. Xn.,.! ) ` ` ) ) ,.:.<.J.,X6X6X=X=X=X=XR.*X8X#X[.,.I H ^ _ _ W W W W Y Y ) 9.S.D.+X6X6X6X6X6X6X,X,XT.A.n.w.2.1.w.b.b.b.b.N.N.b.+.b.+.b.b.b.b.+.+.q.q.q.q.b.b.b.b.b.b.b.w.2.Z.T.qX6X6X6X6X*X*X*X+XU.u.<.,.,.1.1.1.3.3.1.3.1.3.1.3.1.1.1.1.1.1.1.1.1.1.1.1.1.1.1.1.2.1.2.1.2.1.2.1.2.1.2.1.2.1.2.1.2.1.2.1.2.1.2.1.2.1.2.1.2.1.2.1.2.1.2.1.2.1.2.1.1.1.1.1.1.1.1.1.1.1.1.1.1.1.1.1.w.w.w.w.w.w.w.w.1.1.1.1.1.1.1.1.",
"b.q.b.w.b.w.b.w.b.b.b.b.b.b.b.b.b.b.b.b.b.q.b.q.b.q.b.q.b.q.b.q.b.q.b.q.b.w.b.w.b.w.b.w.b.w.b.w.b.w.b.w.b.w.b.w.b.w.b.w.b.w.b.b.b.b.b.b.b.b.b.b.b.b.b.b.b.b.b.b.b.b.b.b.b.b.b.b.b.q.b.q.q.q.b.w.&.7.+X8X6X*XQ.=X7X=X6X6X6X6X6X*X+XqX1XZ.<.n.M.l.b.b.b.b.b.b.b.b.b.b.b.b.b.b.b.b.b.b.l.l.l.l.b.b.` b.B.n.l.1.w.n.2.>X4X,XOX1XqX,XT.u.=.&.=.2.A.H.u.u.u.w.:.=.2.T.qX6X+X*X7X7X=XQ.=XQ.Q.6XT.6.>.>.:.:.>.2.[.4X].w.,.,.,./ ` ` ` ` ` ` ` ` ` ` ` ` ` ` ` ` ` ` ` ` ` ` ` ` ` ` ` ` ` ` ` ` ` ` ` ` 1.3.,.~ M j y 7 7 ; ; 7 q q 7 7 q q 7 ; = 7 r y M ~ 3.1.1.3.3.1.` ` ` ` ` ` ) ` ` ` ` ` ` ` ` ` ` ` ` ` ` ` ` ` ` ` ` ` ` ` ` / ~ P P P ,.w.H. X~ ` q.q.` ` ` ` 1.~ :.Z.,X8X=XQ.=XW.=X*X*X+X+X1XD.9.K ^ _ _ E E .._ ( ^ 9.D.@X8X6X6X6X+X6X0X,XT.A.2.1.w.b.q.q.b.N.#.#.#.N.N.N.#.b.b.b.b.b.b.b.q.q.q.q.q.b.b.b.b.b.l.1.n.2.2.J.qX6X6X6X6X*X*X*X+Xi.t.<.,.w.b.b.q.b.w.b.w.b.w.b.w.b.b.b.b.b.b.b.b.b.b.b.b.b.b.b.b.b.w.b.w.b.w.b.b.b.b.b.b.b.b.b.b.b.b.b.b.b.b.b.b.l.b.l.b.l.b.l.b.b.b.b.b.b.b.b.b.b.b.b.b.b.b.b.b.b.b.b.b.b.b.b.b.b.q.b.q.b.q.b.q.b.q.b.q.b.q.b.q.",
"b.b.b.b.b.b.b.b.b.b.b.b.b.b.b.b.b.@.@.@.+.@.@.@.@.+.@.+.@.@.+.+.b.b.b.b.b.b.b.b.b.b.b.b.b.b.b.b.b.b.b.b.b.b.b.b.b.b.b.b.b.b.b.b.b.b.b.b.b.b.b.b.b.b.b.b.b.b.b.b.+.+.+.b.b.b.+.` N.+.+.{ b.b.N.b.>.I.6X6X*X6X7X=X=X=X=X7X6X6X6X*X1X4XD.w.S.n.1.b.b.b.b.b.b.b.b.b.b.b.b.b.b.b.b.b.b.b.b.b.b.b.b.b.b.b.b.b.b.b.n.w.1.2.Z.[.2X4X4X1X,XOXD.6.=.=.:.2.,.,.=.=.=.<.T.8X6X6X6X6X=X=X=X=X=X*X6X8X1XOXA.2.L =.:.<.Z.J.>X3X<.M K 1.w.) ~ 1.` ` ` ` ` ` ` ` 1.` ) ) / ` ` ) ` ` { ` ` ` ` ` q.` ) ) / ` 1.1.3.M f y q 6 6 6 7 7 7 7 9 7 7 7 9 9 9 7 9 7 7 7 = q u k ~ 3.1.1.) ) / ) ) / ` ` ! ^ / { q.{ { / ` ` ` ` ` ` ` ` ` ` ` ` ` ` ` / ,.,.I P M.'.S.~ ` ` ` ` ` ` _ _ ) ` 3.2.D.8X8X*X=X=X=X-X-X-X*X+X1XJ.1.~ ^ _ ......( ) C.<X<X#X1X+X6X6X,X,XD.u.2.3.1.w.b.b.b.@.@.#.#.#.#.#.#.N.N.b.b.b.b.b.b.q.b.q.q.q.q.b.b.b.b.b.l.b.M.2.1.Z.2X+X*X*X6X*X*X+X#X4.<.w.w.q.{ { b.b.b.b.b.b.b.b.b.b.b.b.b.b.b.b.b.b.b.b.b.b.b.b.b.b.b.b.b.b.b.b.b.b.b.b.b.b.b.b.b.b.b.b.b.b.b.b.b.b.b.b.b.b.b.b.b.b.b.b.b.b.b.b.b.b.b.b.b.b.b.b.b.b.b.b.b.b.b.b.b.b.b.b.b.b.b.b.b.b.b.b.b.b.b.b.b.",
"b.b.b.b.b.b.b.b.b.+.b.b.b.b.b.@.@.@.@.@.@.@.@.@.@.@.@.@.@.@.@.@.@.+.b.b.b.b.b.b.+.+.b.b.b.b.b.b.b.b.b.b.b.b.b.b.b.b.b.b.b.b.b.b.#.#.#.#.#.#.#.#.#.#.#.#.#.#.#.#.@.@.+.+.@.@.@.@.N.#.#.@.@.@.@.w.>.A.6X6X*X6X6X=X6X6X=X=X6X6X6X6X2X2XH.1.M.n.1.b.b.b.b.b.b.b.b.b.b.b.b.b.b.b.b.b.b.b.b.b.b.b.b.b.b.b.b.b.b.b.b.b.n.w.w.w.A.D.@X@X1X,X,XJ.A.<.:.=.=.=.=.>.6.D.,X8X6X6X6X=X=X=X=X=X=X6X+XT.D.H.J.J.H.w.:.L L w.'.3XZ.,.~ ,.1./ / 1.` ` ` ` ` ` ` ` ) ) ) / ` ` ` ) ` ` ^ ^ ! ) ` 1.! ) ` w.1./ M n y y q 7 6 7 q q 7 9 7 9 9 7 9 7 9 9 9 9 9 9 7 7 y q ; = 7 u k M w.w.1.` ) ~ ) / B.q.~ H H ! / { ) / ` ` ` ` ` ` ` ` ` ` ` ` ` / ,.P P 9.S.S.1.~ ` ` ` ` ` _ _ _ ) ` ` 3.Z.+X6X*X=X=X=X-X=X-X-X*XqX,XD.2.~ ~ ! ! ( b..XrX4X@X#X1X1X,XT.D.Z.w.w.w.1.{ b.@.#.#.@.#.#.#.#.#.+.+.b.b.b.q.q.q.b.b.1.q.9.w.q.q.b.b.b.b.b.l.b.n.b.1.M.>X#X*X*X6X*X*X+X1Xu.2.1.w.q.+.O.@.+.b.b.b.b.b.b.b.b.b.b.b.b.b.b.b.b.b.b.b.b.b.b.b.b.b.b.b.b.b.b.b.b.b.b.b.b.b.b.b.b.b.b.b.b.b.b.b.b.b.b.b.b.b.b.b.b.b.b.b.b.b.b.b.#.#.#.#.#.#.#.#.#.#.#.#.#.#.#.#.#.@.@.@.@.@.@.@.@.@.@.@.@.@.+.+.",
"#.#.#.#.#.#.#.#.#.#.#.#.#.#.#.#.#.#.#.#.#.#.#.#.#.#.#.#.#.#.#.#.#.#.#.#.#.#.#.#.#.#.#.#.#.#.#.#.b.b.b.b.b.b.b.b.b.b.b.b.b.b.b.b.#.#.#.#.#.#.#.#.#.#.#.#.#.#.#.#.N.#.@.+.+.@.N.N.#.N.m.N.@.+.+.q.>.A.6X6X6X6X6X=X6X6X6X6X6X6X6X6X2X>Xw.1.n.b.b.N.b.b.b.b.b.b.b.b.b.#.b.b.#.#.#.#.b.b.b.b.b.b.b.b.b.b.b.b.b.b.b.b.n.n.1.,.,.w.S.J.5X2X4X4X<XD.<.=.=.N =.<.U.,X6X+X6X6X6X=X=X=X=X=X*X8X#Xu.:.,.w.n.n.w.,.~ ~ ,.w.w.'.S.1.~ ~ / ,.` ` ` ` ` ` ` ` ` / ) ` ` ` / ) ) ^ ) ` q.q.` ~ ! 1.3./ ~ n f y e ; ; - ; 7 9 q q 9 9 9 9 9 9 9 9 9 9 9 9 9 9 9 7 - ; 1 9 q q 9 7 y j M 1.n.n.3.) K ! / q.q.` ) ! ) ) ` ` 1.1.` ` ` ` ` ` ` ` ` / 1.P ~ M.S.1./ ,.` ` ` ` ` ` _ _ _ ` ) ) 2.D.+X9X*X=X-X-X-X-X-X-X6X8X,XT.2.:.:.3.P. X3X3X1X1X,XOXOXD.Z.1.1.1.q.b.{ { { @.@.@.#.#.+.b.b.b.b.b.b.b.b.b.q.q.q.1.1.1.9.9.9.w.b.b.b.b.b.l.l.b.b.1.n.H.#X*X6X6X*X+X6X8XA.0.,.9.b.@.+.+.#.#.b.b.b.b.b.b.b.b.b.b.b.b.b.b.b.b.b.b.b.b.b.b.b.b.b.b.b.b.b.b.b.b.b.b.b.b.N.N.N.N.b.b.b.b.b.b.b.b.b.b.b.b.N.N.N.N.b.b.b.b.b.b.#.#.#.#.#.#.#.#.#.#.#.#.#.#.#.#.#.#.#.#.#.#.#.#.#.#.#.#.#.#.#.#.",
"#.#.#.#.#.#.#.#.#.#.#.#.#.#.#.#.#.#.#.#.#.#.#.#.#.#.#.#.#.#.#.#.#.#.#.#.#.#.#.#.#.#.#.#.#.#.#.#.b.b.b.b.b.b.b.b.b.b.b.b.b.b.b.b.N.b.b.b.b.b.b.b.b.b.b.b.b.b.b.b.N.N.b.b.+.+.b.b.+.N.N.N.b.+.+.w.>.U.8X8X6X9X6X*X6X6X6X6X6X6X6X,X<XH.w.` b.b.b.b.b.b.b.b.b.b.b.b.b.#.#.b.#.#.#.#.b.b.b.b.b.b.b.b.b.b.b.b.b.b.b.b.b.n.n.b.1.1.w.n.H.J.>X<X4X<XJ.u.<.>.<.i.+X9X6X*X6X*X=X=X=X=X=X*X*X8X+X2.L ~ / K ! / / 9.9.,.~ L H.H.n./ ~ / 1./ / ` ` ` ` ` ` ` / ` 1.` ) ) ) / b.{ ) ) ) ` q.n.~ M j y q 7 ; = q 9 9 9 q 9 7 ; 9 9 9 9 9 9 9 9 4 9 9 9 9 9 9 9 9 9 q q q 7 1 ; ; 7 q y j M 3.M.3.1.1.` ` ` ` ` ` ` ` ` ` ` ` ` ` ` ` ` ` ` ` / / / w.n.w./ ~ 3.` ` ` ` ` ` _ _ _ _ ) ~ ~ t.OX8X*X*X-X-X-X-X-X-X+X6X6X,XT.G.D.J.qXqX2XOX>X2X>XD.2.9.9.9.q.q.{ { @.{ @.{ @.@.#.N.b.b.b.b.b.b.b.b.n.b.b.w.w.w.1.1.9.9.w.w.w.w.b.b.b.l.1.b.b.b.w.n.OX6X6X6X*X*X6X8XT.A.1.1.b.m.+.O.#.#.#.#.b.b.b.b.b.b.b.b.b.b.b.b.b.b.b.b.b.b.b.b.b.b.b.b.b.b.b.b.b.b.b.b.b.b.b.b.N.b.b.b.b.b.b.b.b.b.b.b.b.b.b.N.N.b.b.b.b.b.b.b.b.b.b.b.b.b.b.b.b.b.b.b.b.b.b.b.b.b.b.b.b.b.b.b.b.b.b.b.b.b.b.b.",
"b.b.b.b.b.b.b.b.b.b.b.b.b.b.b.b.b.@.b.@.b.+.b.+.b.@.b.@.b.@.b.b.b.b.b.b.b.b.b.b.b.b.b.b.b.b.b.b.b.b.b.b.b.b.b.b.b.b.b.b.b.b.b.b.b.b.b.b.b.b.b.b.b.b.b.b.b.b.b.b.b.b.b.b.b.{ { b.{ q.b.b.b.b.b.w.<.U.8X8X6X6X7X6X6X6X6X6X6X6X6X,X>Xn.1.q.b.b.b.N.b.b.b.b.b.b.b.b.b.b.b.b.N.N.#.#.b.b.N.N.N.#.#.b.b.b.b.b.b.b.b.b.b.b.B.n.b.q.w.b.w.w.w.D.>X<X<X2XOXT.T.+X6X6X7X=X*X*X*X*X=X=X=X*X+X#XD.2.1.q.{ ^ / ^ ^ ! I ~ ,.,.1.M.S.9.I ~ / ) / ` ` ` ` ` / / ` ` ` / ) / ` 1.) ` 1.w.1.~ B k y r 7 = - 7 q r 9 9 9 9 9 9 9 4 9 9 4 4 4 4 4 4 4 4 4 4 4 9 9 9 q q 7 ; ; 1 9 q q 9 ; ; 9 r u h ~ ~ 3.1.` ) ) ) q.1.` ` / ` ` ` ` ` ` ` ` ` ` ` ) b.n.1.) ~ ` ` ` ` ` ` ` ` _ _ [ [ / / ~ <.D.8X*X*X-X*X-X*X-X*X6X6X6X6X6X6X8X8XU.8XyX2XJ.Z.Z.n./ ` q.q.b.m.@.{ @.@.@.b.N.N.b.b.M.M.M.M.M.M.M.M.M.M.M.n.n.n.n.w.q.q.w.w.q.q.l.l.b.l.l.b.b.b.{ 1.T.+X8X+X*X*X6X8X,XA.1.1.b.N.#.O.b.b.b.b.b.b.b.b.b.b.b.b.b.b.b.b.b.b.N.N.b.b.b.b.b.b.N.N.N.N.b.b.b.b.b.b.b.b.b.b.b.b.b.b.b.b.b.b.b.b.b.b.b.b.b.b.b.b.b.b.b.b.b.b.b.b.b.b.b.b.b.b.b.b.b.b.b.b.b.b.b.b.b.b.b.b.b.b.b.b.b.b.b.b.b.b.",
"b.b.b.+.b.b.b.b.b.b.b.b.b.b.b.b.b.b.b.b.b.b.b.b.b.b.b.b.b.b.b.b.b.b.b.+.b.b.b.b.b.b.b.b.b.b.b.b.b.b.b.b.b.b.b.b.b.b.b.b.b.b.b.b.b.b.b.b.b.b.b.b.b.b.b.b.b.b.b.b.1.b.n.b.l.q.b.b.b.b.1.q.b.b.b.w.u.OX8X6X*X6X6X6X=X=X6X6X6X6X6X,XJ.q.q.n.b.+.N.b.b.b.b.b.b.b.w.b.b.b.b.b.b.b.N.N.b.b.N.N.#.#.#.#.b.b.b.b.b.b.b.b.b.N.b.b.b.+.b.b.w.1.,.w.S.[.<X<X1X1X8X6X6X=X=X=X=X*X*X*X=X*X*X*XqXU.2.,./ { { ^ { { ^ ^ / / ,.1.L 9.n.9.~ / / / / ` ` ` ` ` ` / / ) / ) ` 1.1.1.) / / ) M f e = ; ; ; 9 q w q 9 q 9 9 4 9 9 9 4 9 9 4 4 4 4 4 4 4 4 4 4 4 4 4 9 ; 4 9 w w q 1 ; 4 9 0 w q 1 ; ; q u h ~ 3.1.1.` 1.1.` ` / ` ` ` ` ` ` ` ` ` ` ` ) b.b.) ! ` 1.` ` ` ` ` ` ` ` _ [ [ _ / / ,.u.@X*X*X*X-X*X*X-X*X8X6X,X*X*X-X*X*X+X+XT.A.n.n.b.1.b.b.q.{ { { @.@.@.@.b.b.n.B.B.M.S.H.H.H.Z.Z.Z.Z.Z.Z.Z.M.Z.M.M.n.n.e.w.q.w.q.l.l.b.b.b.b.b.b.{ 1.A.+X8X*X+X*X9X6X1XD.2.1.b.#.#.+.b.b.b.b.b.b.b.b.b.b.b.b.b.b.b.b.b.b.N.N.b.b.b.b.b.b.N.N.N.b.b.b.b.b.b.b.b.b.b.b.b.b.b.b.b.b.b.b.b.b.b.b.b.b.b.b.b.b.b.b.b.b.b.b.b.b.b.b.b.b.b.b.b.b.b.b.b.b.b.b.b.b.b.b.b.b.b.b.b.b.b.b.b.b.b.b.",
"b.b.+.+.b.b.b.b.b.b.+.+.b.b.b.b.b.b.b.b.b.b.b.b.b.b.b.b.b.b.b.b.b.b.+.+.b.b.b.b.b.b.+.+.b.b.b.b.b.b.b.b.b.b.b.b.b.b.b.b.b.b.b.b.b.b.b.b.b.b.b.b.b.b.b.b.b.b.b.b.1.w.b.w.1.b.C.'.H.B.w.q.b.b.w.1.A.#X8X6X+X*X6X6X=X=X6X6X6X6X6X,XS./ b.C.b.+.N.b.b.b.b.b.b.b.w.b.b.b.b.b.b.N.N.N.b.b.#.#.#.#.#.#.b.b.b.b.b.b.b.b.N.b.X.X.X.b.N.N.w.w.9.9.w.w.S.D.1X,X*X*X=X=X!.Q.=X*X*X*X-X-X*X*X9Xi.=.P ) ^ ^ ^ ^ [ { { { ` ~ / ~ / ,./ / / / / / ` ` ` ` ` / ` ` ) ~ ) 1.1.) K 1.M g e 6 - 7 7 9 9 q r w 9 3 = q q 9 9 9 9 4 ; 4 4 4 4 4 4 4 4 4 4 4 4 4 4 4 4 q 9 4 ; ; 9 9 q w 9 4 ; ; ; q r ; 7 7 e y j ~ b.! ) ) ` ` ` ` / ` ` ` ` ` ` ` ` ` { ` ` ` ` ` ` ` ` ` ` ` ` ` ` ^ ^ ^ / / P <.a.+X*X*X*X*X*X*X*X8X1X+X*X*X-X%X%X9Xh.=.=.1.n.N.#.b.N.@.@.{ { @.@.b.b.n.M.B.F.F.Z.Z.A.A.A.Z.Z.Z.H.Z.Z.Z.Z.Z.Z.Z.S.M.M.n.n.n.n.b.b.b.b.b.b.b.+.{ q.6.U.8X*X+X6X9X+X8XJ.n.1.b.#.+.#.b.b.b.b.b.b.b.b.b.b.b.b.b.b.b.b.b.b.b.b.b.b.b.b.b.b.b.b.b.b.b.b.b.b.b.b.b.b.b.b.b.b.b.b.b.b.b.b.b.b.b.b.b.b.b.b.b.b.b.b.b.b.b.b.b.b.b.b.b.b.b.b.b.b.l.b.b.b.b.b.l.b.b.b.b.b.b.b.b.b.b.b.b.b.b.b.",
"b.b.+.+.+.b.b.b.+.+.+.b.b.b.b.b.b.b.b.b.b.b.b.b.b.b.b.b.b.b.b.b.b.b.+.+.+.b.b.b.b.b.b.b.b.b.b.b.b.b.b.b.b.b.b.b.b.b.b.b.b.b.b.b.b.b.b.b.b.b.b.b.b.b.b.b.b.b.b.b.b.b.q.1.1.n.].3X>XH.w.1.b.b.w.,.D.+X8X*XR.*X*X*X*X6X6X6X6X6X6X1Xw./ n.|.b.` N.b.b.b.b.b.b.q.w.w.b.b.b.b.b.b.b.b.b.b.b.#.#.#.#.b.b.b.b.b.b.b.b.b.N.+.+.b.N.N.#.` q.b.n.n.w.1.2.0.>X#X+X6X7X9X7X=X=X*X=X*X*X*X*X,XT.<.L ,.q.` ^ @.[ ^ ^ / ) ) ) / 1./ K I / / / / / ` ` ` ` ` ` ` 1./ ~ / 1.` M k r e 7 6 7 q 9 9 9 4 ; ; 4 9 0 0 ; ; ; 4 9 9 4 4 4 4 4 4 4 4 4 4 4 4 4 4 4 4 4 4 ; 3 4 9 9 9 4 4 3 4 w w w 9 9 1 q q q 7 - 7 r y B M ~ ` 1.1./ ) ` ` ` ` ` ` ` ` q.^ ) q.b.` ) 1.` ` ` ` ` ` ) ` ^ ^ ^ { / I :.0.#X+X*X*X*X*X-X*X+X+X*X*X-X-X-X*XY.y.<.w.b.` +.N.{ { @.b.b.b.{ ` l.b.n.Z.H.F.G.Z.A.A.A.A.A.Z.Z.Z.Z.Z.Z.Z.Z.F.H.S.M.M.M.M.M.M.C.C.l.b.b.b.{ b.b.w.<.U.1X+X+X6X9X+XqXT.Z.1.l.+.#.#.b.b.b.b.b.b.b.b.b.b.b.b.b.b.b.b.b.b.b.b.b.b.b.b.b.b.b.b.b.b.b.b.b.b.b.b.b.b.b.b.b.b.b.b.b.b.b.b.b.b.b.b.b.b.b.b.b.b.b.b.b.b.b.b.b.b.b.b.b.b.b.b.b.b.b.b.b.b.b.b.b.b.b.b.b.b.b.b.b.b.b.b.b.b.b.b.",
"b.b.b.b.b.b.b.b.b.b.b.b.b.b.b.b.b.b.b.b.b.b.b.b.b.b.b.b.b.b.b.b.b.b.b.b.b.b.b.b.b.b.b.b.b.b.b.b.b.b.b.b.b.b.b.b.b.b.b.b.b.b.b.b.b.b.b.b.b.b.b.b.b.b.b.b.b.b.b.b.+.m.b.,.<.U.+X+X1XJ.w.1.b.b.b.1.OX+X*X*X*X*X=X=XW.*X8X6X6X8X+XD.,.P <X X` b.n.l.b.b.b.b.q.q.q.q.q.q.q.q.q.q.q.q.b.q.q.q.b.b.b.b.b.b.b.b.b.b.b.@.b.b.N.@.#.@.@.@.b.b.b.b.b.n.w.2.u.OX8X6X*X=X=XQ.=X=X=X=X6X+X,X4X,.,.,./ / / / / ` / ` ` ` ` ` / ` / ` / / ^ ) ` ` ) ) ) ) ) ) ~ 3.1.1.~ n u q ; 9 9 9 9 9 9 9 9 9 4 4 4 4 4 4 4 4 9 4 4 4 4 4 4 4 4 4 4 4 4 4 4 4 4 4 4 4 4 4 4 4 4 4 4 4 9 4 9 9 9 9 9 9 9 9 9 9 7 7 7 9 9 9 7 7 e u n ) q.q.1.~ ~ ) ` 1.q.` ) ` ` ` / ` ` ` ` ` ` ` ` ` ` ` ` ` _ ` ` ` / / / D.>X8X*X=X;X=X=X*X*X*X*X*X*X*X,XT.2.w.w.H.` @.b.b.b.{ q.q.w.n.n.Z.Z.Z.Z.Z.Z.Z.Z.Z.Z.Z.Z.Z.Z.Z.Z.Z.Z.Z.Z.Z.Z.Z.Z.M.M.M.M.M.M.M.M.M.M.n.n.n.b.w.w.2.Z.T.8X6X+X*X9X8X1XJ.1.1.b.N.O.b.b.b.b.b.b.b.b.N.N.N.b.b.N.N.N.N.b.b.b.b.b.b.b.b.b.b.b.b.b.b.b.b.b.b.b.b.b.b.b.b.b.b.b.b.b.b.b.b.b.b.b.b.b.b.b.b.b.b.b.b.b.b.b.b.b.b.b.b.b.b.b.b.b.b.b.b.b.b.b.b.b.b.b.b.b.b.b.b.b.b.b.b.b.b.b.",
"b.b.b.b.b.b.b.b.b.b.b.b.b.b.b.b.b.b.b.b.b.b.b.b.b.b.b.b.b.b.b.b.b.b.b.b.b.b.b.b.b.b.b.b.b.b.b.b.b.b.b.b.b.b.b.b.b.b.b.b.b.b.b.b.b.b.b.b.b.b.b.b.b.b.b.b.b.b.b.#.O.#.b.,.t.Y.*X+X1XD.2.1.b.b.b.w.+X*X=X*X=X=X=X=X*X*X6X+X6X1X>XD.0.e.tX'.1.n.l.l.l.b.l.q.9.9.9.9.q.q.q.{ q.q.q.q.q.{ { { q.q.q.q.{ +.{ { +.+.{ { b.@.b.@.b.@.b.b.b.b.b.b.b.w.1.<.A.OX8X6X*X*X=XQ.=X=X=X6X6X,X>X>X,.,./ / / / / / ` / ` ` ` ` ` ` ` ` ` ` { ` / ) ` ) ) ) ` 1.w.1.M n g t q 1 ; 4 9 4 4 4 4 4 4 4 4 4 4 4 4 4 4 4 4 4 4 4 4 4 4 4 4 4 4 4 4 4 4 4 4 4 4 4 4 4 4 4 4 4 4 4 4 4 4 9 9 9 9 9 9 9 9 9 9 9 9 9 9 9 9 9 7 7 6 7 r g n K w.b.b.` ~ ! ) 1.` ` / / ` ` ` ` ` ` ` ` ` ` ` ` ` ` ` ` ` ` ) / S.OX1X-X=X=X&X=X-X*X*X*X6X6X6X,XOXw.2.w.B.{ { { b.q.q.w.w.n.n.Z.Z.Z.Z.Z.Z.Z.S.S.Z.Z.Z.Z.Z.Z.Z.Z.Z.Z.Z.Z.Z.Z.Z.Z.S.M.M.M.M.M.M.M.H.S.M.M.M.n.n.n.n.Z.T.,X6X+X*X*X6X1X[.w.1.N.N.O.b.b.b.b.b.b.b.b.b.b.N.N.N.N.N.N.N.b.b.b.b.b.b.b.b.b.b.b.b.b.b.b.b.b.b.b.b.b.b.b.b.b.b.b.b.b.b.b.b.b.b.b.b.b.b.b.b.b.b.b.b.b.b.b.b.b.b.b.b.b.b.b.b.b.b.b.b.b.b.b.b.b.b.b.b.b.b.b.b.b.b.b.b.b.b.b.",
"b.b.b.b.b.b.b.b.b.b.b.b.b.b.b.b.b.b.b.b.b.b.b.b.b.b.b.b.b.b.b.b.b.b.b.b.b.b.b.b.b.b.b.b.b.b.b.b.b.b.b.b.b.b.b.b.b.b.b.b.b.b.b.b.b.b.b.b.b.b.b.b.b.b.b.b.b.b.b.#.+.#.{ <.i.oX:X+X1XD.2.1.b.b.b.n.+X*X=X*X=X=X-X-X*X*X*X+X6X,XT.A.u.#XyXD.w.M.l.b.b.b.b.q.w.9.9.q.q.q.q.q.q.q.q.q.q.q.q.q.q.q.q.q.q.q.q.q.q.q.q.q.q.{ q.{ q.q.q.b.b.b.b.b.b.w.1.<.D.#X8X6X*X*X=XQ.=X=X=X*X6X8XOXZ.,.,./ / / / / / ` ` ` ` ` ` ` ` ` ` ) ` ` ` ` ) ) ` q.w.1.~ n h y r 7 ; ; 4 9 9 4 4 4 4 4 4 4 4 4 4 4 4 4 4 4 4 4 4 4 4 4 4 4 4 4 4 4 4 4 4 4 4 4 4 4 4 4 4 4 4 4 4 4 4 4 4 4 9 9 9 9 9 9 9 9 9 9 9 9 9 9 9 9 9 q 7 7 - = 6 e y j n ~ 1.q.1.` / ` ` ` ` ` ` ` ` ` ` ` ` ` ` ` ` ` ` ` ` ` ` ) / 1.D.,X*X=X&X=X=X-X*X*X*X6X6X6X,X,XA.:.w.n.B.{ ` q.q.q.w.n.M.Z.Z.Z.Z.Z.Z.Z.Z.Z.Z.Z.Z.Z.Z.Z.Z.Z.Z.Z.Z.Z.Z.Z.Z.Z.Z.S.S.S.S.S.S.S.S.S.S.S.S.S.M.M.Z.Z.Z.J.+X6X6X*X*X+X1X@XZ.1.b.N.#.b.b.b.b.b.b.b.b.b.b.N.N.N.N.N.N.N.b.b.b.b.b.b.b.b.b.b.b.b.b.b.b.b.b.b.b.b.b.b.b.b.b.b.b.b.b.b.b.b.b.b.b.b.b.b.b.b.b.b.b.b.b.b.b.b.b.b.b.b.b.b.b.b.b.b.b.b.b.b.b.b.b.b.b.b.b.b.b.b.b.b.b.b.b.b.b.",
"b.b.b.b.b.b.b.b.b.b.b.b.b.b.b.b.b.b.b.b.b.b.b.b.b.b.b.b.b.b.b.b.b.b.b.b.b.b.b.b.b.b.b.b.b.b.b.b.b.b.b.b.b.b.b.b.b.b.b.b.b.b.b.b.b.b.b.b.b.b.b.b.b.b.b.b.b.b.b.b.#.+.1.0.U.*X-X+X1XD.2.1.b.b.b.n.,X*X=X*X=X=X-X-X*X*X*X6X6X+XA.u.i.iXuXu.Z.H.n.C.b.b.b.b.b.q.q.q.q.q.b.b.b.b.b.b.B.B.n.n.n.B.B.B.b.b.b.b.b.b.b.b.q.q.q.q.q.1.1.{ b.N.b.n.b.1.2.2.T.,X8X6X*X*X=XQ.=X=X=X*X6X8XJ.>.,.,./ / / / / / ` ` ` ` ` ` ` ` ) ` ) ) ) ` ` / 9.1./ L n g r 7 ; ; 1 9 r r w 9 4 4 4 4 4 4 4 4 4 4 4 4 4 4 4 4 4 4 4 4 4 4 4 4 4 4 4 4 4 4 4 4 4 4 4 4 4 4 4 4 4 4 4 4 4 4 4 4 9 9 9 9 9 9 9 9 9 9 9 9 9 9 9 9 q q q q 7 ; - - - 7 y k ~ 1.3.,.` ` ` ` ` ` ` ` ` ` ` ` ` ` ` ` ` ` ` ` ` ` ) / ~ Z.OX-X*X=X=X=X-X*X*X*X6X6X6X6X1XT.:.n.w.'.q.1.b.b.b.n.M.Z.Z.Z.Z.Z.Z.Z.Z.Z.Z.Z.Z.Z.Z.Z.Z.Z.Z.Z.Z.Z.Z.Z.Z.Z.Z.Z.Z.S.S.S.Z.S.Z.S.Z.M.Z.M.Z.M.Z.Z.Z.Z.A.T.6X6X*X*X+X1X,XH.w.q.N.#.b.b.b.b.b.b.b.b.b.b.N.N.N.N.N.b.b.b.b.b.b.b.b.b.b.b.b.b.b.b.b.b.b.b.b.b.b.b.b.b.b.b.b.b.b.b.b.b.b.b.b.b.b.b.b.b.b.b.b.b.b.b.b.b.b.b.b.b.b.b.b.b.b.b.b.b.b.b.b.b.b.b.b.b.b.b.b.b.b.b.b.b.b.b.b.b.",
"b.b.b.b.b.b.b.b.b.b.b.b.b.b.b.b.b.b.b.b.b.b.b.b.b.b.b.b.b.b.b.b.b.b.b.b.b.b.b.b.b.b.b.b.b.b.b.b.b.b.b.b.b.b.b.b.b.b.b.b.b.b.b.b.b.b.b.b.b.b.b.b.b.b.b.b.b.b.b.b.#.O.q.S.#X-X-X+X1XD.2.b.b.b.b.S.,X*X*X*X=X=X;X-X*X*X*X8X6XT.u.6.Y.ZXwXi.A.H.n.C.B.B.V.B.B.n.n.n.M.n.n.n.n.n.n.n.M.M.M.M.M.M.M.C.n.B.B.B.B.B.B.B.n.n.b.b.w.q.q.1.b.b.b.b.n.1.2.u.,X,X8X6X*X*X=X=X=X=X*X*X,X#XZ.L ,.3.` ` / / / / ` ` ` ` ` ` ` ` ~ ` ` ) ! ) 1.1.3.M j y q 7 ; ; q q q 9 3 3 4 0 4 4 4 4 4 4 4 4 4 4 4 4 4 4 4 4 4 4 4 4 4 4 4 4 4 4 4 4 4 4 4 4 4 4 4 4 4 4 4 4 4 4 4 4 4 4 4 4 9 9 9 9 4 4 4 9 9 9 9 9 9 9 9 9 9 9 1 1 9 q q 9 ; - ; 7 y f M n.3.` ` ` ` ` ` ` ` ` ` ` ` ` ` ` ` ` ` ` ` ` ` / ~ 2.J.,X9X-X=X;X*X*X*X*X6X6X6X6X8X+X<.A.w.>XS.n.n.n.M.M.M.Z.Z.Z.Z.Z.Z.Z.Z.Z.Z.Z.Z.Z.Z.Z.Z.Z.Z.Z.Z.Z.Z.Z.Z.Z.Z.Z.Z.Z.Z.Z.Z.Z.Z.Z.Z.Z.Z.Z.Z.Z.Z.Z.Z.A.A.U.+X9X*XoX+X8X2X[.n.1.b.N.b.b.b.b.b.b.b.b.N.N.N.N.N.N.N.b.b.b.b.b.b.b.b.b.b.b.b.b.b.b.b.b.b.b.b.b.b.b.b.b.b.b.b.b.b.b.b.b.b.b.b.b.b.b.b.b.b.b.b.b.b.b.b.b.b.b.b.b.b.b.b.b.b.b.b.b.b.b.b.b.b.b.b.b.b.b.b.b.b.b.b.b.b.b.b.b.",
"b.b.b.b.b.b.b.b.b.b.b.b.b.b.b.b.b.b.b.b.b.b.b.b.b.b.b.b.b.b.b.b.b.b.b.b.b.b.b.b.b.b.b.b.b.b.b.b.b.b.b.b.b.b.b.b.b.b.b.b.b.b.b.b.b.b.b.b.b.b.b.b.b.b.b.b.b.b.b.b.N.{ w.D.#X*X*X8X1XA.2.b.b.q.b.H.,X6X*X*X=X=X;X-X*X*X6XqX6XA.u.A.lXGX9Xg.A.A.n.n.C.B.B.C.C.M.S.S.S.M.M.M.S.M.S.M.S.S.S.S.S.S.S.S.M.M.M.M.M.M.M.M.H.H.H.M.M.M.n.b.b.b.q.b.1.<.2.A.,X,X6X6X*X*X=X=X*X*X6X6X+XD.2.~ 3.` ` ` / / / / ` ` ` ` ` ` ` ` ) 1.q./ ) ` 1.` g y q ; ; ; 9 q 9 9 0 9 3 ; 3 4 4 4 4 4 4 4 4 4 4 4 4 4 4 4 4 4 4 4 4 4 4 4 4 4 4 4 4 4 4 4 4 4 4 4 4 4 4 4 4 4 4 4 4 4 4 4 4 4 9 9 9 9 9 9 4 9 9 9 9 9 9 9 9 9 9 4 ; ; 9 q q 7 q q q ; * 7 j 2.3.` ` ` ` ` ` ` ` ` ` ` ` ` ` ` ` ` ` ` ` ` ` ` / ,.A.+X9X-X*X=X*X*X*X*X6X6X6X6X8X6XA.u.Z.>XJ.H.S.M.S.S.S.Z.Z.Z.Z.Z.Z.Z.Z.Z.Z.Z.Z.Z.Z.Z.Z.Z.Z.Z.Z.Z.Z.Z.Z.Z.Z.Z.Z.Z.Z.Z.Z.Z.Z.Z.Z.Z.Z.Z.Z.Z.H.H.Z.Z.Z.A.R.*X*X*X*X8X1XOXS.w.b.b.b.b.b.b.b.b.b.b.N.N.N.N.N.N.N.b.b.b.b.b.b.b.b.b.b.b.b.b.b.b.b.b.b.b.b.b.b.b.b.b.b.b.b.b.b.b.b.b.b.b.b.b.b.b.b.b.b.b.b.b.b.b.b.b.b.b.b.b.b.b.b.b.b.b.b.b.b.b.b.b.b.b.b.b.b.b.b.b.b.b.b.b.b.b.b.b.",
"b.b.b.b.b.b.b.b.b.b.b.b.b.b.b.b.b.b.b.b.b.b.b.b.b.b.b.b.b.b.b.b.b.b.b.b.b.b.b.b.b.b.b.b.b.b.b.b.b.b.b.b.b.b.b.b.b.b.b.b.b.b.b.b.b.b.b.b.b.b.b.b.b.b.b.b.b.b.b.b.b.1.n.@X-X*X*X9X1XZ.2.b.b.q.b.[.8X6X*X*X=X=X;X-X=X+X*X8XR.i.A.+XVXGX!.g.U.u.Z.n.C.C.C.C.H.H.F.F.S.S.S.S.S.S.H.H.S.S.S.S.Z.S.Z.S.S.S.S.S.S.S.S.S.H.H.S.S.S.M.M.M.M.b.b.n.w.1.Z.T.1X,X+X6X*X*X*X*X*X*X6X8XT.2.:.,.3.` ` ` ` / / / ` ` ` ` ` ` ` ` / 1.1./ ` 1.) n ; ; 1 7 q q q 9 ; 3 9 0 0 0 4 4 4 4 4 4 4 4 4 4 4 4 4 4 4 4 4 4 4 4 4 4 4 4 4 4 4 4 4 4 4 4 4 4 4 4 4 4 4 4 4 4 4 4 4 4 4 4 4 4 9 9 9 9 9 9 9 9 9 9 9 9 9 9 9 9 9 9 0 w w 9 ; - ; 9 q q ; ; i n 3.` ` ` ` ` ` ` ` ` ` ` ` ` ` ` / / ` ` ` ` ` ` ` ,.2.U.6X6X*X*X*X*X*X*X6X6X6X6X6X6XR.6.A.J.>XJ.Z.M.S.S.S.H.Z.Z.Z.Z.Z.Z.Z.Z.Z.Z.Z.Z.Z.Z.Z.Z.Z.Z.Z.Z.Z.Z.Z.Z.Z.Z.Z.Z.Z.Z.Z.Z.Z.Z.Z.Z.Z.Z.Z.Z.Z.Z.Z.Z.A.A.U.*X6X*X*X8X1X@XH.n.b.b.b.b.b.b.b.b.b.b.b.b.b.N.b.b.b.b.b.b.b.b.b.b.b.b.b.b.b.b.b.b.b.b.b.b.b.b.b.b.b.b.b.b.b.b.b.b.b.b.b.b.b.b.b.b.b.b.b.b.b.b.b.b.b.b.b.b.b.b.b.b.b.b.b.b.b.b.b.b.b.b.b.b.b.b.b.b.b.b.b.b.b.b.b.b.b.b.",
"b.b.b.b.b.b.b.b.b.b.b.b.b.b.b.b.b.b.b.b.b.b.b.b.b.b.b.b.b.b.b.b.b.b.b.b.b.b.b.b.b.b.b.b.b.b.b.b.b.b.b.b.b.b.b.b.b.b.b.b.b.b.b.b.b.b.b.b.b.b.b.b.b.b.b.b.b.b.b.b.b.1.Z.,X8XoX*X8X1XZ.1.n.b.1.n.].8X6X6X*X=X=X;X*X=XoX+X6XT.6.D.wXVXAX~.j.I.u.J.M.M.C.C.C.F.F.F.Z.Z.Z.S.S.Z.Z.Z.Z.S.S.S.S.S.S.S.S.Z.Z.Z.S.Z.Z.Z.Z.Z.n.Z.Z.Z.S.Z.H.H.B.n.M.Z.2.A.,X8X6X*X6X6X*X*X-X*X+X6X8XJ.>.~ 1.` ` ` ` ` ` / / ` ` ` ` ` ` ` ` / ` / ) 1.w.M g q 9 4 4 4 4 4 4 w 9 3 3 3 4 4 4 4 4 4 4 4 4 4 4 4 4 4 4 4 4 4 4 4 4 4 4 4 4 4 4 4 4 4 4 4 4 4 4 4 4 4 4 4 4 4 4 4 4 4 4 4 4 4 4 9 9 9 9 9 9 9 9 9 9 9 9 9 9 9 9 4 9 9 4 3 ; 9 q w ; ; 9 q 9 r y 3.` ` ` ` ` ` ` ` ` ` ` ` ` ` ` / / ` ` ` ` / ` 1.~ ,.A.,X6X*X*X*X*X*X*X6X6X6X6X*X6X6X6.A.A.1XOXu.u.Z.S.H.H.H.H.Z.Z.Z.Z.Z.Z.Z.Z.Z.Z.Z.Z.Z.Z.Z.Z.Z.Z.Z.Z.Z.Z.Z.Z.Z.Z.Z.Z.Z.Z.Z.Z.Z.Z.Z.Z.Z.Z.Z.Z.Z.Z.A.A.U.+X6X*X*X*X,X@XD.w.1.b.b.b.b.b.b.b.b.b.b.b.b.b.b.b.b.b.b.b.b.b.b.b.b.b.b.b.b.b.b.b.b.b.b.b.b.b.b.b.b.b.b.b.b.b.b.b.b.b.b.b.b.b.b.b.b.b.b.b.b.b.b.b.b.b.b.b.b.b.b.b.b.b.b.b.b.b.b.b.b.b.b.b.b.b.b.b.b.b.b.b.b.b.b.b.b.b.",
"b.b.b.b.b.b.b.b.b.b.b.b.b.b.b.b.b.b.b.b.b.b.b.b.b.b.b.b.b.b.b.b.b.b.b.b.b.b.b.b.b.b.b.b.b.b.b.b.b.b.b.b.b.b.b.b.b.b.b.b.b.b.b.b.b.b.b.b.b.b.b.b.b.b.b.b.b.b.b.b.1.n.J.+X-X-X*X6X,X2.1.n.1.1.D.<X,X6X=X=X=X=X;X-X*X*X*X+XU.u.OXvXhXzXhXW.5.6.u.n.n.C.H.H.F.Z.F.J.Z.Z.Z.Z.Z.Z.Z.Z.Z.Z.Z.Z.Z.Z.Z.Z.Z.Z.Z.Z.Z.Z.Z.Z.Z.Z.Z.Z.Z.Z.Z.Z.n.M.S.S.Z.S.T.,X6X6X6X6X*X*X*X*X*X#X1XOXu.:.~ 3.` ` ` ` ` ` / / ` ` ` ` ` ` ` ` ) n.~ / n.` n ; 9 9 4 4 4 4 4 4 4 4 4 4 4 4 4 4 4 4 4 4 4 4 4 4 4 4 4 4 4 4 4 4 4 4 4 4 4 4 4 4 4 4 4 4 4 4 4 4 4 4 4 4 4 4 4 4 4 4 4 4 4 4 4 4 4 4 4 4 4 4 4 4 4 4 4 4 4 4 4 4 4 9 4 4 4 4 4 4 4 9 9 9 9 9 9 7 ~ ~ 1.1./ ~ / / ` ` ` ` ` ` ` ` / / ` ` ` ` ` ` ) w.,.:.OXqX*X9X*X*X=X=X6X6X7X6X6X6X*XU.7.7.T.yXD.u.S.D.Z.w.Z.Z.Z.Z.Z.Z.Z.Z.F.F.Z.Z.Z.Z.Z.Z.Z.Z.Z.Z.Z.Z.Z.Z.Z.Z.Z.Z.Z.Z.Z.Z.Z.Z.Z.Z.Z.Z.Z.Z.Z.Z.Z.Z.Z.Z.U.*X9X*X*X*X+X1XOXn.1.w.b.b.q.b.b.b.+.+.+.b.N.b.#.X.b.N.b.b.b.b.b.b.b.b.b.b.b.b.b.b.b.b.b.b.b.b.b.b.b.b.b.b.b.b.b.b.b.b.b.b.b.b.b.b.b.b.b.b.b.b.b.b.b.b.b.b.b.b.b.b.b.b.b.b.b.b.b.b.b.b.b.b.b.b.b.b.b.b.b.b.b.b.b.b.b.b.",
"b.b.b.b.b.b.b.b.b.b.b.b.b.b.b.b.b.b.b.b.b.b.b.b.b.b.b.b.b.b.b.b.b.b.b.b.b.b.b.b.b.b.b.b.b.b.b.b.b.b.b.b.b.b.b.b.b.b.b.b.b.b.b.b.b.b.b.b.b.b.b.b.b.b.b.b.b.b.b.b.1.Z.T.6X-X*X*X1XOX2.1.n.1.1.D.<X,X6X*X=X=X=X=X-X=X*X6X+X7.<.D.wXAXAXbXW.7.t.A.H.H.n.1.z.F.P.F.2.Z.Z.Z.Z.Z.Z.Z.Z.Z.Z.Z.Z.Z.Z.Z.Z.Z.Z.Z.Z.Z.Z.Z.Z.Z.Z.Z.Z.Z.Z.Z.Z.M.M.S.S.u.A.T.6X6X6X6X6X*X*X*X*X+XqX,XA.<.<.,.) ` ` ` ` ` ` ` / ` ` ` ` ` ` ` ` / 1.3.~ 1.~ u 7 9 9 9 9 4 4 4 4 4 4 4 4 4 4 4 4 4 4 4 4 4 4 4 4 4 4 4 4 4 4 4 4 4 4 4 4 4 4 4 4 4 4 4 4 4 4 4 4 4 4 4 4 4 4 4 4 4 4 4 4 4 4 4 4 4 4 4 4 4 4 4 4 4 4 4 4 4 4 4 4 4 9 4 4 4 4 4 4 4 4 9 9 9 9 9 7 f ` 1.! 1.1.~ 1.` ` ` ` ` ` ` ` / / ` ` ` ` ` ` ) ` ,.<.D.,X6X6X6X*X=X=X6X6X7X7X6X6X6XR.i.7.T.qX@XS.u.S.A.u.Z.Z.Z.Z.Z.Z.Z.Z.F.F.Z.Z.Z.Z.Z.Z.Z.Z.Z.Z.Z.Z.Z.Z.Z.Z.Z.Z.Z.Z.Z.Z.Z.Z.H.Z.Z.Z.Z.Z.Z.H.H.H.Z.2.t.E.*X*X-X*X+X1XOXA.w.1.q.b.b.b.b.b.b.b.X.b.N.b.b.#.b.N.b.b.b.b.b.b.b.b.b.b.b.b.b.b.b.b.b.b.b.b.b.b.b.b.b.b.b.b.b.b.b.b.b.b.b.b.b.b.b.b.b.b.b.b.b.b.b.b.b.b.b.b.b.b.b.b.b.b.b.b.b.b.b.b.b.b.b.b.b.b.b.b.b.b.b.b.b.b.b.b.",
"b.b.b.b.b.b.b.b.b.b.b.b.b.b.b.b.b.b.b.b.b.b.b.b.b.b.b.b.b.b.b.b.b.b.b.b.b.b.b.b.b.b.b.b.b.b.b.b.b.b.b.b.b.b.b.b.b.b.b.b.b.b.b.b.b.b.b.b.b.b.b.b.b.b.b.b.b.b.b.b.1.A.+X*X*X*X*X8XOX2.1.n.1.w.[.1X6X6X=X=X=X=X;X-X*X*X6X+X6.=.6.R.bXVXZXbX9X+XA.2.Z.H.Z.F.Z.Z.Z.Z.Z.Z.Z.Z.Z.Z.Z.Z.Z.Z.Z.Z.Z.Z.Z.Z.Z.Z.Z.Z.A.A.Z.Z.Z.Z.Z.Z.Z.Z.Z.Z.M.S.S.u.u.D.+X6X6X6X6X6X6X6X*X*X+X1XOX<.L 1.1.! ` ` ` ` ` ` ` ` ` ` ` ` ` ` ` ` / ~ 1.~ 1.M 7 q 9 4 4 4 4 4 4 4 4 4 4 4 4 4 4 4 4 4 4 4 4 4 4 4 4 4 4 4 4 4 4 4 4 4 4 4 4 4 4 4 4 4 4 4 4 4 4 4 4 4 4 4 4 4 4 4 4 4 4 4 4 4 4 4 4 4 4 4 4 4 4 4 4 4 4 4 4 4 4 4 4 4 4 4 4 4 4 4 4 4 9 9 9 9 9 7 7 ~ 1.M 1.w.! 1.` ` ` ` ` ` ` ` / / / ` ` ` _ ` ) ) / <.2.D.1X8X6X6X*X*X6X6X7X7X=X=X*XR.g.7.A.#XuXT.t.u.S.A.Z.H.S.S.Z.Z.Z.Z.Z.Z.Z.Z.Z.Z.Z.Z.Z.Z.Z.Z.Z.Z.Z.Z.Z.Z.Z.Z.Z.Z.Z.Z.Z.Z.Z.Z.Z.Z.Z.Z.H.H.n.M.Z.u.i.U.*X-X-X*X+X#X,XD.0.,.1.b.b.{ { m.B.b.X.b.b.b.b.b.b.N.b.b.b.b.b.b.b.b.b.b.b.b.b.b.b.b.b.b.b.b.b.b.b.b.b.b.b.b.b.b.b.b.b.b.b.b.b.b.b.b.b.b.b.b.b.b.b.b.b.b.b.b.b.b.b.b.b.b.b.b.b.b.b.b.b.b.b.b.b.b.b.b.b.b.b.b.b.b.b.b.",
"b.b.b.b.b.b.b.b.b.b.b.b.b.b.b.b.b.b.b.b.b.b.b.b.b.b.b.b.b.b.b.b.b.b.b.b.b.b.b.b.b.b.b.b.b.b.b.b.b.b.b.b.b.b.b.b.b.b.b.b.b.b.b.b.b.b.b.b.b.b.b.b.b.b.b.b.b.b.b.b.<.A.6X6X*X%X*XqXD.2.1.n.1.w.OX1X6X6X=X=X=X=X=X-X=X*X9X+X7.=.>.7.Y.*XnXZXmXnX,XA.t.A.J.J.Z.c.Z.J.Z.Z.Z.Z.Z.Z.Z.Z.Z.Z.Z.Z.Z.Z.Z.Z.Z.Z.Z.Z.Z.Z.Z.Z.Z.Z.Z.Z.Z.Z.Z.Z.S.S.p.u.D.T.+X9X6X6X6X6X6X6X*X*X1X@Xu.=.P 1.1.) ` ` ` ` ` ` ` ` ` ` ` ` ` ` ` ` ~ ~ 3.3.:.g & q 4 4 4 9 4 4 4 4 4 4 4 4 4 4 4 4 4 4 4 4 4 4 4 4 4 4 4 4 4 4 4 4 4 4 4 4 4 4 4 4 4 4 4 4 4 4 4 4 4 4 4 4 4 4 4 4 4 4 4 4 4 4 4 4 4 4 4 4 4 4 4 4 4 4 4 4 4 4 4 4 4 4 4 4 4 4 4 4 4 9 9 9 9 9 9 7 # k / ~ 1.1.) ` ` ` ` ` ` ` ` ` / / / / ` ` _ _ ` ! ` 1.:.u.1X1X6X6X*X6X6X6X7X6X=X6X6X+XU.i.i.U.nX#Xt.t.D.S.u.H.S.S.Z.Z.Z.Z.Z.Z.Z.Z.Z.Z.Z.Z.Z.Z.Z.Z.Z.Z.Z.Z.Z.Z.Z.Z.Z.Z.Z.Z.Z.Z.Z.Z.Z.Z.Z.S.Z.S.H.H.Z.u.i.U.*X-X-X*X*X-X1XOXu.<.` b.b.` ` m.C.m.X.X.b.b.b.b.b.b.b.b.b.b.b.b.b.b.b.b.b.b.b.b.b.b.b.b.b.b.b.b.b.b.b.b.b.b.b.b.b.b.b.b.b.b.b.b.b.b.b.b.b.b.b.b.b.b.b.b.b.b.b.b.b.b.b.b.b.b.b.b.b.b.b.b.b.b.b.b.b.b.b.b.b.b.b.b.b.b.",
"b.b.b.b.b.b.b.b.b.b.b.b.b.b.b.b.b.b.b.b.b.b.b.b.b.b.b.b.b.b.b.b.b.b.b.b.b.b.b.b.b.b.b.b.b.b.b.b.b.b.b.b.b.b.b.b.b.b.b.b.b.b.b.b.b.b.b.b.b.b.b.b.b.b.b.b.b.b.b.b.2.T.6X6X*X*X*X1XA.1.w.n.1.Z.@X#X6X6X*X*X=X=X-X-X*X*X6X+XT.u.6.<.i.a.XXqXvXnXmXmX,XU.6.6.A.J.J.Z.Z.Z.Z.Z.Z.Z.Z.Z.Z.Z.Z.Z.Z.Z.Z.Z.Z.Z.Z.Z.A.A.Z.Z.Z.Z.Z.Z.Z.Z.Z.Z.S.p.u.S.D.R.6X7X6X6X6X6X6X6X6X1XtXD.<.,.,./ / 1.` ` ` ` ` ` 3.` ` ` ` ` ` ` ` ` ~ 1.~ 1.N q = 9 4 4 4 4 4 4 4 4 4 4 4 4 4 4 4 4 4 4 4 4 4 4 4 4 4 4 4 4 4 4 4 4 4 4 4 4 4 4 4 4 4 4 4 4 4 4 4 4 4 4 4 4 4 4 4 4 4 4 4 4 4 4 4 4 4 4 4 4 4 4 4 4 4 4 4 4 4 4 4 4 4 4 4 4 4 4 4 9 9 9 9 9 9 9 9 7 6 t M n./ ) 1.) ` ` ` ` ` ` ` ` / / / / ` ` _ _ { ^ ` 1.L 2.@X1X6X6X6X6X6X6X*X*X*X*X*X+XU.i.t.i.iX8Xa.<.D.S.u.S.S.S.Z.Z.Z.Z.F.Z.Z.Z.Z.Z.Z.Z.Z.Z.Z.Z.Z.Z.Z.Z.Z.Z.Z.S.Z.S.Z.S.Z.S.Z.M.H.H.H.H.Z.M. XH.1.=.>.U.*X9X-X*X*X*X8X,XS.,.1.b.b.{ { m.C.C.b.b.b.b.b.b.b.b.b.b.b.b.b.b.b.b.b.b.b.b.b.b.b.b.b.b.b.b.b.b.b.b.b.b.b.b.b.b.b.b.b.b.b.b.b.b.b.b.b.b.b.b.b.b.b.b.b.b.b.b.b.b.b.b.b.b.b.b.b.b.b.b.b.b.b.b.b.b.b.b.b.b.b.b.b.b.b.b.",
"b.b.b.b.b.b.b.b.b.b.b.b.b.b.b.b.b.b.b.b.b.b.b.b.b.b.b.b.b.b.b.b.b.b.b.b.b.b.b.b.b.b.b.b.b.b.b.b.b.b.b.b.b.b.b.b.b.b.b.b.b.b.b.b.b.b.b.b.b.b.b.b.b.b.b.b.b.b.b.b.Z.R.9X*X*X*X+X,XZ.1.n.n.1.S.1X#X6X6X*X*X*X*X-X-X*X*X6X6X,XT.A.6.2.>.>.t.U.6XvXmXmXvX6XU.A.A.A.Z.Z.Z.Z.Z.Z.Z.Z.Z.Z.Z.Z.Z.Z.Z.Z.Z.Z.Z.Z.Z.A.A.Z.Z.Z.Z.Z.Z.Z.Z.A.Z.S.e.u.D.T.,X6X7X7X7X7X6X*X*X6X1X1Xw.P ,.1.) ) b.` ` ` ` ` ` 3.` ` ` ` ) ` ` ` ` ,.w.N :.j * 9 9 4 4 4 4 4 4 4 4 4 4 4 4 4 4 4 4 4 4 4 4 4 4 4 4 4 4 4 4 4 4 4 4 4 4 4 4 4 4 4 4 4 4 4 4 4 4 4 4 4 4 4 4 4 4 4 4 4 4 4 4 4 4 4 4 4 4 4 4 4 4 4 4 4 4 4 4 4 4 4 4 4 4 4 4 4 4 9 9 9 9 9 9 9 9 9 7 e $ f n./ ~ w.) ` ` ` ` ` ` ` / / / / / ` ` _ _ ` ) ` 1.~ <.D.OX6X6X6X6X6X6X*X*X*X*X*X#XOXa.t.t.#XuX+Xt.i.S.u.S.S.S.Z.Z.Z.Z.F.Z.Z.Z.Z.Z.Z.Z.Z.Z.Z.Z.Z.Z.Z.Z.Z.Z.S.S.S.S.S.S.S.S.S.H.H.H.H.S.n.n.) ~ :.<.A.+X-X*X%X%X*X*X8X1XD.0.w.q.q.q.{ b.C.|.b.b.+.+.b.b.b.b.b.b.b.b.b.b.b.b.b.b.b.b.b.b.b.b.b.b.b.b.b.b.b.b.b.b.b.b.b.b.b.b.b.b.b.b.b.b.b.b.b.b.b.b.b.b.b.b.b.b.b.b.b.b.b.b.b.b.b.b.b.b.b.b.b.b.b.b.b.b.b.b.b.b.b.b.b.b.b.b.",
"b.b.b.b.b.b.b.b.b.b.b.b.b.b.b.b.b.b.b.b.b.b.b.b.b.b.b.b.b.b.b.b.b.b.b.b.b.b.b.b.b.b.b.b.b.b.b.b.b.b.b.b.b.b.b.b.b.b.b.b.b.b.b.b.b.b.b.b.b.b.b.b.b.b.b.b.b.b.b.b.G.6X9X*X*X*X*XOX2.1.n.w.1.D.1X#X6X6X*X*X*X*X-X-X*X*X6X6X6X,X,XOXw.9.<.<.6.7.I.R.jXvXmXuX+XA.u.Z.Z.Z.Z.Z.Z.Z.Z.Z.Z.Z.Z.Z.Z.Z.Z.Z.A.A.Z.Z.A.A.Z.Z.Z.Z.A.A.A.A.A.Z.S.u.u.D.#X6X6X7X7X7X7X6X=X*X*X+XD.<.P ,.1./ / ` ` ` ` ` ` ` 3.` ` ` ` ) ` ` ` / 1.~ 3.M r - q 9 4 4 4 4 4 4 4 4 9 9 9 9 9 9 9 9 4 4 4 4 4 4 4 4 4 4 4 4 4 4 4 4 4 4 4 4 4 4 4 4 4 4 4 4 4 4 4 4 4 4 4 4 4 4 4 4 4 4 4 4 4 4 4 4 4 4 4 4 4 4 4 4 4 4 4 4 4 4 4 4 4 4 4 4 9 9 9 9 9 9 9 9 7 7 7 7 e % y ~ 1./ 1.) ` ` ` ` ` ` ` / / / / / ` ` _ _ _ ` ) ~ ,.:.2.T.6X6X6X6X6X6X*X*X*X+X+X#X#Xa.u.t.i.nXpXi.u.S.w.S.S.S.Z.Z.Z.Z.F.Z.Z.Z.Z.Z.Z.Z.Z.Z.Z.Z.Z.Z.Z.Z.Z.Z.S.M.M.M.M.M.M.M.H.S.M.n.w.w.1.1.M / M.].1X8X-XoX%X%X-X*X8X1XOXS.n.q.q.b.q.{ m.|.m.b.+.` +.b.b.b.b.b.b.b.b.b.b.b.b.b.b.b.b.b.b.b.b.b.b.b.b.b.b.b.b.b.b.b.b.b.b.b.b.b.b.b.b.b.b.b.b.b.b.b.b.b.b.b.b.b.b.b.b.b.b.b.b.b.b.b.b.b.b.b.b.b.b.b.b.b.b.b.b.b.b.b.b.b.b.b.",
"b.b.b.b.b.b.b.b.b.b.b.b.b.b.b.b.b.b.b.b.b.b.b.b.b.b.b.b.b.b.b.b.b.b.b.b.b.b.b.b.b.b.b.b.b.b.b.b.b.b.b.b.b.b.b.b.b.b.b.b.b.b.b.b.b.b.b.b.b.b.b.b.b.b.b.b.b.b.b.w.T.6X9X*X*X6X,XT.2.1.b.w.2.J.qX*X*X*X*X*X*X*X*X*X*X*X6X6X6X6XqXqXrX XD.t.>.>.8.i.5.I.6XuXnXuXOX2.Z.Z.Z.Z.Z.Z.Z.Z.Z.Z.Z.Z.Z.Z.Z.Z.Z.Z.Z.Z.A.A.A.Z.Z.Z.A.Z.Z.Z.S.S.u.w.u.D.+X8X7X=X=X=X=X6X*X*X*X1X<.,.~ I / 1.` ) ` ` ` ` ` ` ` ` ` ` ` ` ` ` / / n.M n.n = 9 q 4 4 4 4 4 4 4 4 4 9 9 9 9 9 9 9 9 4 4 4 4 4 4 4 4 4 4 4 4 4 4 4 4 4 4 4 4 4 4 4 4 4 4 4 4 4 4 4 4 4 4 4 4 4 4 4 4 4 4 4 4 4 4 4 4 4 4 4 4 4 4 4 4 4 4 4 4 4 4 4 4 4 4 4 4 9 9 9 9 9 9 9 9 9 9 9 7 7 - e h w.w.) ` ` ` ` ` ` ` ` ` / / / ` ` ` _ _ ^ { ^ ! ,.~ ~ D.,X*X*X*X*X*X*X*X*X*X+X1X#XD.p.u.-.nXnXa.u.p.w.S.p.S.S.Z.Z.Z.F.Z.Z.Z.Z.Z.Z.Z.Z.Z.Z.Z.Z.Z.Z.Z.Z.Z.M.M.M.M.M.M.M.M.S.n.1.,.~ ~ ~ ~ <X3X2X>X+X*X*X-XW.=X*X*X6X8X+XD.M.9.9.B.b.` b..XM.n.q.` 1.b.b.#.b.b.b.b.b.b.b.b.b.b.b.b.b.b.b.b.b.b.b.b.b.b.b.b.b.b.b.b.b.b.b.b.b.b.b.b.b.b.b.b.b.b.b.b.b.b.b.b.b.b.b.b.b.b.b.b.b.b.b.b.b.b.b.b.b.b.b.b.b.b.b.b.b.b.b.b.b.b.b.b.",
"b.b.b.#.#.#.+.@.b.@.@.+.+.+.@.@.b.b.b.b.b.b.b.b.b.b.b.b.b.b.b.#.#.#.#.#.#.#.@.b.b.b.b.b.b.b.b.b.b.b.b.b.b.b.b.b.b.b.b.b.b.b.b.b.b.b.b.b.N.N.N.N.l.N.B.b.b.b.b.w.@X-X-X*X*X6X,XJ.1.b.q.1.Z.@X9X*X=X=X=X-X*X*X*X*X*X6X6X6X6X6X6X,X#X+X1X#XOXi.8.=.=.<.u.J.>X4XrXyXT.v.8.6.A.J.Z.2.H.H.H.H.F.F.Z.Z.Z.Z.Z.Z.Z.Z.Z.Z.Z.Z.Z.Z.S.S.M.M.D.u.u.T.6X*X=X=XlXQ.W.*X8X8X#X[.,./ / / ` ` ` ` ` ` ` ` ` ` ` ` ` ` ` ` ` ` ` ` ~ 1.N 7 - r ; 0 4 4 4 4 4 4 4 4 4 4 4 4 4 4 4 4 4 4 4 4 4 4 4 4 4 4 4 4 4 4 4 4 4 4 4 4 4 4 4 4 4 4 4 4 4 4 4 4 4 4 4 4 4 4 4 4 4 4 4 4 4 4 4 4 4 4 4 4 4 4 4 4 4 4 4 4 4 4 4 4 4 4 4 4 4 4 4 4 4 9 4 9 9 9 9 9 9 r & y :.3.1.) ` ` ` ` ` ` ` ` ` ` ` ` ` ` ` ` ` / / / / / / / @XXXoX-X-X*X*X=X6X6X6X,X1X1XD.t.4.$XmXpXs.w.[.w.M.M.M.M.S.Z.Z.Z.S.S.S.n.n.Z.Z.Z.Z.Z.F.G.G.G.G.G.C.C.C.C.C.M.M.M.,.~ L L <.A.>XqX,X6X6X6X6X6X6X6X6X6X6X6X6X6X+XU.u.w.w.9.q.q.n.w.yX=.9.n.q.N...L.b.b.b.b.b.b.b.b.b.b.b.b.b.b.b.b.b.b.N.N.N.b.b.b.b.b.b.b.b.b.+.b.b.b.b.b.b.b.b.b.b.b.b.b.b.b.b.b.b.b.b.b.b.b.b.b.b.b.b.b.b.b.b.b.b.b.N.N.N.N.N.N.N.N.N.N.N.N.b.b.",
"b.b.b.b.#.#.@.@.@.@.+.@.{ { { { q.q.q.q.b.b.b.b.b.b.b.b.b.b.b.b.#.#.#.#.#.#.@.@.b.b.b.b.b.b.b.b.b.b.b.b.b.b.b.b.b.b.b.b.b.b.b.b.b.b.b.b.N.N.N.N.l.N.N.b.b.b.b.n.@X-X-X*X6X0X,XH.1.b.q.1.Z.#X6X=X=X=X=X=X*X*X*X*X6X6X6X6X6X6X6X6X*X*X8X8X8X#XT.U.<.>.:.,.2.H.>X4XwXwX,XU.6.6.A.J.Z.S.H.H.F.F.F.F.Z.Z.Z.Z.Z.Z.Z.Z.A.Z.Z.Z.S.S.M.M.H.u.D.OX6X*X=X=X=X=X=XoX-X8X@Xu.,.` ` ` ` ` ` ` ` ` ` ` ` ` ` ` ` ` ` ` ` ` ` ` ) 1.j 7 ; 9 0 4 4 4 4 4 4 4 4 4 4 4 4 4 4 4 4 4 4 4 4 4 4 4 4 4 4 4 4 4 4 4 4 4 4 4 4 4 4 4 4 4 4 4 4 4 4 4 4 4 4 4 4 4 4 4 4 4 4 4 4 4 4 4 4 4 4 4 4 4 4 4 4 4 4 4 4 4 4 4 4 4 4 4 4 4 4 4 4 4 4 4 4 4 4 4 4 4 0 4 3 r n 1.` ) ` ` ` ` ` ` ` ` ` ` ` ` ` ` / / / / / ^ ^ ^ ^ / p.XX#X$X*X*X6X*X6X6X6X,X1X2X[.t.t.h.pXiXXXs.p.S.S.S.M.S.S.Z.Z.S.S.M.M.S.S.S.Z.H.J.G.G.G.c.c.G.F.B.B.C.B.b.1.~ L N >.Z.T.2X1X,X,X*X*X*X*X6X6X6X6X6X6X6X6X6X6XR.OXu.u.w.q.w.w.w.<.yXu.0.w.w.N.#.#.b.b.b.b.b.b.b.b.b.b.b.b.b.b.b.b.b.b.N.N.b.b.b.b.b.b.b.b.b.b.b.b.b.b.b.b.b.b.b.b.b.b.b.b.b.b.b.b.b.b.b.b.b.b.b.b.b.b.b.b.b.b.b.b.b.b.N.N.N.N.b.N.N.N.N.N.N.N.b.b.",
"b.b.b.b.b.b.b.b.b.@.@.@.{ { { { q.q.q.q.+.b.b.b.b.b.b.b.b.b.b.b.#.#.#.#.#.#.b.b.b.b.b.b.b.b.b.b.b.b.b.b.b.b.b.b.b.b.b.b.b.b.b.b.b.b.b.b.N.N.N.N.b.N.N.b.b.b.n.S.#X-X*X*X6X0X>XZ.1.q.q.w.H.#X6X=X=X=X=X=X*X-X*X*X*X*X6X6X6X6X6X6X+X+X*X*X*X8X8X8XT.A.6.=.=.=.<.2.T.,X4X2XJ.Z.Z.S.M.S.Z.Z.F.G.Z.Z.Z.Z.Z.Z.Z.Z.A.A.A.A.Z.Z.Z.Z.S.Z.Z.u.D.+X9X*X=X=XW.=X*XoX+X4XJ.,.,.` ` ` ` ` ` ` ` ` ` ` ` ` ` ` ` ` ` ` ` ` ` ` / ~ r ; 9 ; w ; 4 4 4 4 4 4 4 4 4 4 4 4 4 4 4 4 4 4 4 4 4 4 4 4 4 4 4 4 4 4 4 4 4 4 4 4 4 4 4 4 4 4 4 4 4 4 4 4 4 4 4 4 4 4 4 4 4 4 4 4 4 4 4 4 4 4 4 4 4 4 4 4 4 4 4 4 4 4 4 4 4 4 4 4 4 4 4 4 4 4 4 4 4 4 4 4 0 : w 9 u 1.3.` ` ` ` ` ` ` ` ` ` ` ` ` ` ` / / / / / / ^ ^ ^ / <.XX8X+XoX-X9X=X6X6X6X,X1X1XOXu.i.4.+XmXpXi.t.D.A.Z.Z.Z.Z.Z.Z.Z.S.S.S.S.S.S.H.H.Z.Z.Z.F.F.F.H.H.C.b.1.~ ~ ~ 1.2.J.J.>X1X8X8X6X*X*X*X*X*X6X6X6X6X6X6X6X6X6X6X*X+XD.u.n.n.n.w.1.<.tXtXu.,.n.N.V...b.b.b.b.b.b.b.b.b.b.b.b.b.b.b.b.b.N.N.N.b.b.b.b.b.b.b.b.b.b.b.b.b.b.b.b.b.b.b.b.b.b.b.b.b.b.b.b.b.b.b.b.b.b.b.b.b.b.b.b.b.b.b.b.b.b.b.N.b.b.b.b.b.b.b.b.b.b.b.b.",
"b.b.b.b.b.b.b.b.b.+.+.@.q.{ q.q.{ q.q.q.b.+.b.b.b.b.b.b.b.b.b.b.#.#.#.#.#.#.b.b.b.b.b.b.b.b.b.b.b.b.b.b.b.b.b.b.b.b.b.b.b.b.b.b.b.b.b.b.b.N.N.N.N.b.b.b.b.q.B.'.#X$X+X*X6XqXT.2.1.q.q.q.D.,X6X=X=X=X=X=X*X-X*X*X*X*X6X6X6X6X6X*X*X*X*X*X*X*X*X6X8X8X+XU.u.>.=.=.L ,.w.[.<X X'.n.M.M.S.Z.Z.Z.Z.Z.Z.Z.Z.Z.Z.Z.A.A.A.A.A.A.Z.Z.Z.Z.u.A.T.+X9X7X=X=XW.-X*X*X1X@Xu.L / ` ` ` ` ` ` ` ` ` ` ` ` ` ` ` ` ` ` ` ` ` ` / 1.n 7 ; 9 4 0 3 4 4 4 4 4 4 4 4 4 4 4 4 4 4 4 4 4 4 4 4 4 4 4 4 4 4 4 4 4 4 4 4 4 4 4 4 4 4 4 4 4 4 4 4 4 4 4 4 4 4 4 4 4 4 4 4 4 4 4 4 4 4 4 4 4 4 4 4 4 4 4 4 4 4 4 4 4 4 4 4 4 4 4 4 4 4 4 4 4 4 4 4 4 4 4 4 0 = w ; q M 1./ ` ` ` ` ` ` ` ` ` ` ` ` ` ` / / / / / / ] ^ ^ / =.a.+X+X*X-X9X=X6X6X6X,X1X1XOXA.h.4.E.mXmXU.6.A.A.A.A.A.Z.Z.Z.M.S.S.S.S.S.M.M.M.n.M.C.H.H.M.n.b.1.~ L L <.w.[.,XqX8X,X+X+X+X6X9X*X-X*X*X6X6X6X6X6X6X6X6X6X6X6X-XD.S.M.S.M.n.1.,.D.iXD.,.w.b.K...b.b.b.b.b.b.b.b.b.b.b.b.b.b.b.b.N.N.N.N.b.b.b.b.b.b.b.b.b.b.b.b.b.b.b.b.b.b.b.b.b.b.b.b.b.b.b.b.b.b.b.b.b.b.b.b.b.b.b.b.b.b.b.b.b.b.b.b.b.b.b.b.b.b.b.b.b.b.b.b.",
"b.b.b.b.b.b.b.b.b.b.q.{ q.{ q.q.{ { q.q.q.q.@.@.b.b.b.b.b.b.b.b.@.@.@.@.b.b.b.b.b.b.b.b.b.b.b.b.b.b.b.b.b.b.b.b.b.b.b.b.b.b.b.b.b.b.b.b.b.b.b.b.b.b.b.b.b.q.M.].#X+X+X+X8X,XJ.2.w.q.q.w.J.,X6X=X=X-X-X-X-X-X-X*X=X=X=X=X=X=X6X=X=X-X*X*X*X*X*X*X*X6X8X8X1XOXA.u.9.P K P q.'.'.'.M.M.H.H.Z.Z.Z.Z.Z.Z.Z.Z.Z.Z.A.A.A.A.A.A.Z.Z.Z.Z.u.D.OX6X9X6X=X=X=X*X*XqX1XD.<.~ / ` ` ` ` ` ` ` ` ` ` ` ` ` ` ` ` ` ` ` ` / ` / ) y 7 - 9 r 3 9 4 4 4 4 4 4 4 4 4 4 4 4 4 4 4 4 4 4 4 4 4 4 4 4 4 4 4 4 4 4 4 4 4 4 4 4 4 4 4 4 4 4 4 4 4 4 4 4 4 4 4 4 4 4 4 4 4 4 4 4 4 4 4 4 4 4 4 4 4 4 4 4 4 4 4 4 4 4 4 4 4 4 4 4 4 4 4 4 4 4 4 4 4 4 4 4 4 0 4 9 1 g w./ ` ` ` ` / / / ` ` ` ` ` ` ` / / / / / / / / / / -.4.U.+X9X*X*X=X=X6X6X*X6X1X+XU.i.5.E.xXmX9XI.7.A.A.A.Z.Z.Z.S.M.Z.Z.F.H.H.S.M.M.C.M.B.b.{ / P K L :.u.D.>X1X1X,XOX+X,X6X9X9X7X6X*X-X*X*X6X6X6X6X6X6X6X*X*X-X-X-XU.S.Z.S.H.M.n.w.<.iX@X0.1.1.C.#.b.b.b.b.b.b.b.b.b.b.b.b.b.b.b.b.b.b.b.b.b.b.b.b.+.+.+.b.b.b.b.b.b.b.b.b.b.b.b.b.q.b.b.b.b.b.b.b.b.b.b.b.b.b.b.b.b.b.b.b.b.b.b.b.b.b.b.b.b.b.b.b.b.b.b.b.b.b.b.b.",
"b.b.b.b.b.b.b.b.b.b.q.q.q.q.q.q.q.{ q.q.{ { @.@.b.b.b.b.b.b.#.#.b.@.b.b.b.b.b.b.b.b.b.b.b.b.b.b.b.b.b.b.b.b.b.b.b.b.b.b.b.b.b.b.b.b.b.b.b.b.b.b.N.+.b.b.q.q.M.<X#XoX+X6X8X,XZ.1.b.q.w.Z.OX,X6X=X=X-X-X-X-X-X-X*X-X=X=X=X=X=X6X=X=X=X*X*X=X=X=X*XR.*X6X8X8X6X6X#X[.M.9.P K / ] q.M.M.S.H.H.J.G.H.Z.Z.Z.Z.Z.Z.Z.A.A.A.A.A.Z.Z.Z.Z.u.U.,X8X*X*X*X*X9X*X+XqX#X<.P ,./ ` ` ` ` ` ` ` ` ` ` ` ` ` ` ` ` ` ` ` ` ` ` ` n 7 9 ; 9 r ; 0 4 4 4 4 4 4 4 4 4 4 4 4 4 4 4 4 4 4 4 4 4 4 4 4 4 4 4 4 4 4 4 4 4 4 4 4 4 4 4 4 4 4 4 4 4 4 4 4 4 4 4 4 4 4 4 4 4 4 4 4 4 4 4 4 4 4 4 4 4 4 4 4 4 4 4 4 4 4 4 4 4 4 4 4 4 4 4 4 4 4 4 4 4 4 4 4 4 r ; q 7 q L 3.3.` ` ` / ` / / ` ` ` ` ` ` / / / / / / / / / / -.;.h.*X9X*XQ.=X=X7X6X*X6X8X,XOX4.i.g.*XmXmXQ.7.I.A.A.Z.Z.S.M.M.M.Z.F.H.H.H.H.M.q.1./ K I P / 9.S.D.+X1XqX8X6X+X+X*X6X6X9X7X=X=X*X*X*X*X6X6X6X6X6X6X*X*X*X*X*X*X#XS.Z.H.J.H.M.Z.,.aXpXD.,.3.B.N.b.b.b.b.b.b.b.b.b.b.b.b.b.b.b.b.b.b.b.b.b.b.b.b.+.b.+.b.b.b.b.b.b.b.b.b.b.b.q.b.q.b.b.b.b.b.b.b.b.b.b.b.b.b.b.b.b.b.b.b.b.b.b.b.b.b.b.b.b.b.b.b.b.b.b.b.b.b.b.b.",
"b.b.b.b.b.b.b.b.q.q.q.q.q.q.w.w.q.q.q.q.q.q.q.b.b.b.b.b.b.b.b.b.b.b.b.b.b.b.b.b.b.b.b.b.b.b.b.b.b.b.b.b.b.b.b.b.b.b.b.b.b.b.b.b.b.b.@.@.#.#.#.#.N.+.b.b.w.1.M.<X+X%X*X8X1XOXM.1.b.1.1.Z.OX8X*X*X=X-X-X-X-X*X*X*X*X*X=X=X=X=X7X=X=X=X=X=X=X=X=X=X*X*X*X*X*X*X*X,X[.'.].S.w.P K K 1.9.w.n.Z.S.F.H.S.S.Z.Z.Z.Z.Z.Z.Z.Z.Z.Z.Z.Z.Z.Z.u.OX8X8X*X*X*X*X6X*X6X#XD.=.P ,./ ` ` ` ` ` ` ` ` ` ` ` ` ` ` ` ` ` ` ` ` ` 3.3.u ; ; q 9 9 9 4 4 4 4 4 4 4 4 4 4 4 4 4 4 4 4 4 4 4 4 4 4 4 4 4 4 4 4 4 4 4 4 4 4 4 4 4 4 4 4 4 4 4 4 4 4 4 4 4 4 4 4 4 4 4 4 4 4 4 4 4 4 4 4 4 4 4 4 4 4 4 4 4 4 4 4 4 4 4 4 4 4 4 4 4 4 4 4 4 4 4 4 4 4 4 4 4 4 9 4 q 9 ; g 1.3.` ` ` ` ` ` ` ` ` ` ` ` ` / / / / / / / / / ,.-.t.+X*X*X*X=X=X=X7X7X*X*X6X6X+X>.i.i.U.mXZX7XE.I.A.A.Z.S.M.B.B.M.S.H.H.M.n.w.w.~ I I P ,.e.'.@XqX8X6X+X+X+X6X6X9X9X*X=XW.Q.=X=X*X*X*X*X6X6X6X6X6X6X*X*X*X*X-X*X8XD.u.Z.H.M.M.H.<.OXiX1X2.1.b.b.b.+.@.+.@.@.@.@.@.@.+.+.+.+.@.@.#.#.#.#.#.#.b.b.b.b.+.b.q.q.q.q.b.b.b.b.b.b.b.b.b.q.b.b.b.b.b.b.b.@.@.+.@.@.@.@.@.@.@.@.+.+.+.b.b.b.b.b.b.b.b.b.b.b.b.b.b.b.b.b.",
"b.b.b.b.b.b.b.b.q.w.w.w.w.w.w.w.q.q.q.q.q.q.q.b.b.b.b.b.b.b.b.b.b.b.b.b.b.b.b.b.b.b.b.b.b.b.b.b.b.b.b.b.b.b.b.b.b.b.b.b.b.b.b.b.q.q.b.@.#.#.#.#.N.+.b.b.w.1.S.<X+X*X6X8X2XJ.n.1.b.1.2.A.+X9X*X%X=X-X-X*X*X*X*X*X*X*X*X*X=X7X7X7X9X=X*X=X=X=X*X=X=X=X=X=X*X*X*X6X8X2X1X<X<XD.w.:.L P ,.1.w.n.Z.S.S.M.M.M.S.S.S.S.Z.Z.Z.Z.Z.Z.Z.Z.A.+XqX8X+X*X*X*X*X8XqXD.<.=.~ / / ` ` ` ` ` ` ` ` ` ` ` ` ` ` ` ` ` ` ` ` 3.3.3.e 1 * r 9 : r ; 4 4 4 4 4 4 4 4 4 4 4 4 4 4 4 4 4 4 4 4 4 4 4 4 4 4 4 4 4 4 4 4 4 4 4 4 4 4 4 4 4 4 4 4 4 4 4 4 4 4 4 4 4 4 4 4 4 4 4 4 4 4 4 4 4 4 4 4 4 4 4 4 4 4 4 4 4 4 4 4 4 4 4 4 4 4 4 4 4 4 4 4 4 4 4 4 0 = q 9 9 ; q n.3.3.3.` ` ` ` ` ` ` ` ` ` ` / / / / / / / / / ,.=.U.9X*X+X*X9X=X=X7X7X=X=X6X6X+X-.u.4.A.nXZXwXR.A.A.Z.Z.M.B.m.M.C.H.S.n.w.,.:.L N =.<.S.[.1X4XqX+X*X*X9X9X*X*X*X*X*X=X=X=X=X=X*X*X*X*X6X1X1X1X,X6X6X6X*X*X-X=X%XqXD.w.Z.H.M.M.H.u.i.nXpXu.w.1.b.b.+.@.@.@.@.@.@.@.@.@.+.+.+.@.@.#.#.#.#.#.#.b.b.b.b.b.b.q.q.q.q.b.b.b.b.b.b.q.q.b.b.b.b.b.b.b.b.b.@.@.+.+.@.@.@.@.@.@.@.+.+.+.b.b.b.b.b.b.b.b.b.b.b.b.b.b.b.b.b.",
"b.b.b.b.b.b.w.w.n.n.n.n.n.n.w.w.q.q.q.q.b.b.b.b.1.1.1.q.b.b.b.b.b.b.b.b.b.q.q.q.b.b.b.b.b.b.b.b.b.b.b.b.b.b.b.b.{ { q.b.b.b.b.b.b.q.b.b.@.@.@.@.b.` b.n.1.w.].1X*X*X+XqX<XS.w.q.b.,.2.T.8X8X*X-X=X*X*X*X*X-X8X8X+X+X*X*X*X6X6X6X7X7X6X6X*X*X*X*X*X*X=X=X=X=X=X*X6X6X6X6X6X6X1X1XA.<.L B L ~ 1.1.C.M.M.B.B.B.M.M.H.M.n.n.M.S.n.,.>X,X,X6X-X*X*X8X+X8X#Xu.:.~ / 1.` ` ` ` ` ` ` ` ` ` ` ` ` ` ` ` ` ) M 1.1./ 1.g 7 9 9 9 9 9 9 9 4 4 4 4 4 4 4 4 4 4 4 4 4 4 4 4 4 4 4 4 4 4 4 4 4 4 4 4 4 4 4 4 0 9 4 4 4 4 4 9 4 4 4 9 w w 9 4 4 4 4 4 4 4 4 4 4 4 4 4 4 4 4 4 4 4 4 4 4 4 4 4 4 4 4 4 4 4 4 4 4 4 4 4 4 4 4 4 4 4 4 4 4 4 4 4 4 4 9 q 1 ; r j M.L ~ n.` ! ) ) ` ` ` ` ` ` / / ` ` / / / 1./ P <.+X8X+X8X6XR.7X=X=X=X=X*X*X*X*XD.2.0.D.,XnXmX,XA.A.Z.n.n.m.m.m.m.w.1.~ ~ ~ :.>.A.T.+X6X6X6X6X*X*X*X*X*X*X*X*X6X6X*X*X=X6X*X=X*X6X,X1X1X1X1X1X1X1X8X6X*X*X=X=X*X+X#XJ.Z.n.H.H.H.A.i.8XnX#X2.2.1.b.b.b.b.+.+.{ ` b.b.b.b.b.b.b.b.#.#.@.@.b.b.b.b.q.q.q.q.b.b.b.b.B.B.B.B.B.B.B.B.q.q.q.q.q.q.1.{ b.b.b.b.b.b.b.b.b.b.b.b.+.+.b.b.b.b.b.b.b.b.b.b.+.+.+.b.b.b.b.b.",
"q.q.b.b.b.n.n.n.M.M.M.Z.Z.Z.Z.n.M.n.B.n.n.n.n.B.w.w.b.b.b.b.b.b.l.b.w.b.b.b.b.b.b.b.b.b.b.b.b.b.b.b.b.b.b.b.b.b.q.q.b.b.b.b.b.q.q.q.q.{ b.@.@.b.b.` b.n.,.u.@X1X*X=X*XqX<XM.q.q.w.3.2.OX8X6X*X-X*X*X9X8X1X+X#X@X1X1X8X6X6X6X6X6X+X+X+X*X*X*X*X*X9X6X7X*X*X*X*X=X7X7X7X7X7X6X6X,X,XT.A.2.1.~ K n ) ` q.n.B.C.M.M.B.B.C.C.M.q./ ~ ,X,X,X6X*X-X-X-X#X#XOX0.~ ~ / ` ` ` ` ` ` ` ` ` ` ` ` ` ` ` ` ` ) ` ~ ) ,.1.N y 9 9 9 9 9 9 9 9 4 4 4 4 4 4 4 4 4 4 4 4 4 4 4 4 4 4 4 4 4 4 4 4 4 4 4 4 4 4 4 4 w 9 9 4 4 4 4 4 w w 9 4 5 ; ; = & = 5 4 w 9 4 4 4 4 4 4 4 4 9 9 4 4 4 4 4 4 4 4 4 4 4 4 4 4 4 4 4 4 4 4 4 4 4 4 4 4 4 4 4 4 4 4 9 3 4 9 9 ; q i 1.~ ,.1./ ) ` ) ` ` ` ` ` ` / / / / / / / / / ~ D.#X6X*X6X6X*X6X*X=X=X=X*X*X*X*XD.,.L <.OXnXnX1X6.u.Z.M.M.m.{ { ) ~ K L ~ 0.J.OX,X6X8X7X7X=X=X=X*X*X6X*X*X+X+X+X6X6X6X6X8X8X8X8X,X,XOXOXD.A.A.u.D.T.#X6X*X*X-X-X*X#XJ.Z.n.F.H.Z.u.i.#XnXqXi.2.2.q.+.b.b.b.b.b.b.{ { { { +.{ { { N.#.#.+.b.b.b.b.q.b.w.b.n.n.n.M.B.B.B.B.B.B.B.B.b.b.b.b.b.q.w.q.{ +.+.+.b.b.b.b.b.b.b.b.+.b.b.b.b.b.b.b.b.b.b.b.b.b.b.b.b.b.b.b.",
"1.1.b.b.n.M.M.H.S.S.S.H.S.H.S.S.S.M.S.M.S.M.S.M.M.B.M.n.n.b.b.b.1.1.b.l.b.b.b.b.b.b.b.b.b.b.b.b.b.b.b.b.b.b.b.b.b.b.b.b.b.+.b.q.q.9.q.{ { { +.+.b.` 1.w.<.u.>X1X=X=X*X2X].n.q.q.w.1.Z.T.9X*X=X-X*X*X8X8X#XOXD.S.D.D.J.OXOX,X,X,X8X8X1X,X,X,X,X+X+X+X*X*X*X*X*X=X7XlXlX7X7X7X6X6X6X6X,XOXJ.Z.,.K M K ! ) q.b.m.m.M.M.`.`.q.^ ) w.,X+X6X6X-X-X*X-X8X@Xu.,.~ / ` ) ` ` ` ` ` ` ` ` ` ` ` ` ` ` ` ` ! q.q.K 3.w.j 7 9 9 9 9 9 9 9 9 4 4 4 4 4 4 4 4 4 4 4 4 4 4 4 4 4 4 4 4 4 4 4 4 4 4 4 4 4 4 4 4 4 9 9 9 9 9 9 9 9 9 4 5 ; = + + X + = ; 4 4 4 4 9 9 4 4 4 4 4 4 4 4 4 4 4 4 4 4 4 4 4 4 4 4 4 4 4 4 4 4 4 4 4 4 4 4 4 4 4 4 4 4 0 3 ; 9 q 9 1 9 B :.3.~ ~ 1.` ) ` ` ` ` ` ` / / / ) / 9.,.~ ~ 2.@X+X1X8X+X6X8X*X*X*X*X*X*X*X=X*X4X[.,.~ ].yXrX Xn.n.w.w.9.^ K H I / 9.S.].<X1X8X6X6X6X7XQ.Q.!.7X*X+X,X+X1X8X8X8X1X,X,X#X+XOXT.J.A.A.Z.n.w.2.1.<.2.6.T.8X9X*X=X7X*X+XOXZ.n.B.H.Z.u.i.U.uXnX+X6.w.w.b.b.b.b.b.N.b.b.b.b.q.b.{ { { b.b.N.b.b.b.b.b.b.b.n.n.M.S.H.H.M.M.M.M.M.M.M.M.n.n.n.n.n.n.n.n.q.{ { b.q.b.b.b.b.b.b.b.b.b.b.b.b.b.b.b.b.b.b.b.b.b.b.b.b.b.b.b.",
"b.b.b.n.M.M.H.H.Z.Z.Z.Z.Z.Z.Z.Z.S.S.M.M.n.n.Z.Z.H.H.S.M.M.n.n.n.n.b.b.b.b.b.b.b.b.b.b.b.b.b.b.b.b.b.b.b.b.b.b.b.b.b.b.b.b.b.b.q.w.w.w.q.b.b.b.b.b.1.1.2.<.A.1X6X7X=X6X<X'.m.{ q.q.w.A.+X6X*X=X-X*X6X1X#XD.u.w.9.,.,.w.w.Z.J.J.T.2X<X2X2X2X1X1X8X#X+X+X+X6X*X*X*X!.!.(.(.7X7X7X6X6X,X,X4X4X<X].H.1.:.~ M K ! / { m.b.m.q.^ H {  X,X+X6X6X-X*X+X+X8XJ.<.P ) ` ` ^ ` ` ` ` ` ` ` ` ` ` ` ` ` ` ` ` ) ` w.! 1.1.r ; 9 9 9 9 9 9 9 9 4 4 4 4 4 4 4 4 4 4 4 4 4 4 4 4 4 4 4 4 4 4 4 4 4 4 4 4 4 4 4 4 4 4 9 9 9 9 4 4 ; ; = = = & + + + + + + + = 5 4 9 9 9 9 4 4 4 5 4 4 4 4 4 4 4 4 4 4 4 4 4 4 4 4 4 4 4 4 4 4 4 4 4 4 4 4 4 4 4 4 0 4 4 9 q 4 ; ; u :.n.~ ~ 1.` ` ` ` ` ` ` ` / / ` ~ / w.,.L / S.4X+X8X8XU.R.8X+X*X*X*X*X*X*X=X*X1X>X:.n 1.S.1.,.1./ ~ K K K I I e.D.@X<XtX4X1X+XR.R.*X=X=X7X7X7X8X1X1X1X,X,X,X>XOXJ.J.H.Z.Z.n.2.2.2.2.1.w.n.n.w.1.>.Z.,X8X*XQ.7X*X-XOXJ.Z.F.F.Z.i.i.i.9XZXpXt.u.w.b.b.b.b.b.b.b.b.b.b.b.b.b.b.b.b.b.b.b.b.b.b.b.n.n.n.M.Z.H.H.H.S.M.S.M.S.M.S.M.S.M.S.M.S.M.M.n.b.b.b.b.b.b.q.q.b.b.q.b.b.b.1.1.b.b.b.b.b.b.b.b.b.b.b.b.b.b.b.b.",
"n.n.n.M.M.M.S.S.Z.Z.Z.A.A.A.A.A.Z.S.S.S.Z.Z.Z.Z.H.Z.H.Z.Z.Z.Z.Z.n.M.n.b.b.q.q.q.q.q.q.q.q.q.q.{ q.q.q.q.q.q.q.b.{ { q.q.b.b.m.n.n.w.n.n.n.m.B.B.B.w.w.2.2.T.8X6X7X7X,X@XH.m.{ { 9.w.D.+X6X-X*X*X6X6X,XT.u.2.,.9.9.9.9.9.9.1.2.2.w.w.Z.H.J.@X>X1X4X4XqX1X1X1X1X6X*X=X=X=X6X6X6X6X6X6X6X6X1X1X2X2X^.J.Z.3.~ K K ! ) ) / ^ K K B.rX,X6X6X6X*X-X+X+X#XS.,.P / ` ` ) ` ` ` ` ` ` ` ` ` ` ` ` ` ` ` ` ` ! 1.` 1.B ; 9 9 4 4 4 9 9 9 9 4 4 4 4 4 4 4 4 4 4 4 4 4 4 4 4 4 4 4 4 4 4 4 4 4 4 4 4 4 4 4 4 9 9 9 4 4 ; ; = + + + + + + & & & + + X X + & = ; 5 4 9 9 9 4 4 4 4 4 4 4 4 4 4 4 4 4 4 4 4 4 4 4 4 4 4 4 4 4 4 4 4 4 4 4 4 4 4 9 9 9 9 9 4 4 9 4 B 2.~ / ` ) ` ` ` ` ` ` ` / / 1.) ~ 1.,.L 2.].4X,XqX,Xt.i.#X,X*X*X*X*X*X=X=X*X,X2Xn.N ~ / K / K K K ~ ,.w.D.[.<X1X#X@X@X#X#X1X#X,X6X8X8X8X8X6X1X<X>X].J.H.Z.n.1.1.1.1.b.n.b.b.n.n.n.b.b.b.b.l.n.:.<.T.8X6X*X*X*X8X,XJ.F.F.F.Z.D.i.y.*XZXnXU.u.n.n.b.q.q.q.q.q.w.b.w.w.q.q.q.1.b.b.b.b.n.n.n.M.M.M.Z.Z.Z.Z.Z.Z.S.S.S.S.Z.S.Z.S.Z.M.Z.S.Z.M.M.n.M.B.n.n.b.b.q.q.w.w.q.q.q.q.1.1.b.b.b.b.b.b.b.b.b.b.b.b.b.q.q.b.",
"M.M.M.M.M.S.Z.Z.Z.Z.Z.Z.A.Z.A.A.S.S.H.H.Z.H.Z.Z.Z.Z.Z.Z.Z.Z.Z.Z.H.M.M.n.b.w.q.1.q.q.q.q.q.q.q.q.q.q.q.q.q.q.q.q.{ q.q.b.m.m.M.M.M.M.M.M.M.B.B.M.M.n.w.u.u.+X9X*X7X7X,X].B.{ { @.1.n.T.6X*X-X%X*X8XqX2XJ.w.1.9.q.q.{ { { q.q.w.w.` 1.1.w.n.n.n.n.J.D.J.OX@X,X1X1X8X8X8X8X6X6X6X6X6X6X6X+X,X,X,X6XwX0X2X^.Z.2.~ L M K ! K K 1.H.3X,X6X6X6X*X*X+X#XD.0.,.~ ` ` ` ` ` ` ` ` ` ` ` ` ` ` ` ` ` ` ` ` ` ! / w.~ u ; 9 4 4 4 4 9 9 9 9 4 4 4 4 4 4 4 4 4 4 4 4 4 4 4 4 4 4 4 4 4 4 4 4 4 4 4 4 4 4 4 4 w 9 4 5 = & + + + + + + + + + + + + + + + + + X + & ; 5 4 9 9 9 4 4 4 4 4 4 4 4 4 4 4 4 4 4 4 4 4 4 4 4 4 4 4 4 4 4 4 4 4 4 4 4 9 9 9 9 4 4 9 0 = j :.1.` ) ) ` ` ` ` ` ` ` / / 1./ ~ / ~ ,.S.<X2X,X,XU.>.>.A.1X+X*X*X*X*X=X=X=X6XqX5X2.~ ! K / ! / w.H.OX2X1X8X1X#X#X#X#X1X1X1X1X1X,X1X@XOXD.D.S.M.M.n.n.w.1.1.b.q.l.b.b.N.N.b.b.b.b.b.b.b.b.b.C.3.>.A.,X8X6X=X*X8X,XT.F.F.F.Z.A.i.y.Y.nXmX8XA.Z.n.n.b.w.w.w.w.1.1.1.1.1.1.1.1.b.b.b.n.n.C.H.H.Z.Z.Z.Z.Z.Z.Z.Z.H.S.H.S.Z.S.Z.S.Z.Z.Z.Z.Z.Z.n.n.H.C.C.M.n.n.b.b.b.b.w.w.w.w.1.q.b.b.b.b.b.b.b.b.q.q.b.b.b.b.b.b.",
"M.M.S.S.S.H.Z.Z.Z.Z.Z.Z.A.A.A.A.A.A.S.A.Z.Z.Z.Z.Z.Z.Z.Z.Z.Z.Z.Z.H.H.M.M.n.b.b.q.q.q.q.q.q.q.q.q.q.q.q.q.q.q.q.q.q.b.b.b.m.B.M.M.S.S.S.M.M.M.M.M.M.n.Z.u.A.6X9XQ.!.7X,XJ.b.{ { @.` Z.OX6X*X=X%X*X8XqX2XJ.w.1.q.m.{ { { @.b.b.m.m.b.b.b.q.q.1.1.,.,.,.2.0.A.D.D.J.].].@X#X1X1X6X6X).).6X6X).6X6X6X0X0XwXwX2X^.H.Z.,.1./ K / S..X5X6X6X*X*X*X*X#X#X0.,.~ / ` ` ) { ` ` ` ` ` ` ` ` ` ` ` ` ` ` ` ` ` ^ / w.n q 9 9 4 4 4 4 9 9 9 9 4 4 4 4 4 4 4 4 4 4 4 4 4 4 4 4 4 4 4 4 4 4 4 4 4 4 4 4 4 4 4 4 5 ; ; = + + + + & + + + + + + & + + + & & + + + + + + = ; 5 4 4 4 4 4 4 4 4 4 4 4 4 4 4 4 4 4 4 4 4 4 4 4 4 4 4 4 4 4 4 4 4 4 4 4 9 9 9 4 9 9 9 ; r B 1.1.) / ` ` ` ` ` ` ` / / 1.1.,.~ ,.w.].4X>X>XD.6.>.=.t.#X#X-X*X*X-X-X-X*X0X0X2XZ.N M / / '.'.>X2XqX0X6X6XY.oX-X8X8X#XXXD.[.D.S.p.e.w.w.,.1.1.1.1.q.b.b.b.V.b.N.#.#.#.+.+.X.l.+.#.N.N.N.N.b.1.1.Z.,X8X6X*X*X*X1XOXH.F.F.Z.A.i.i.g.;XmXnXU.Z.M.M.M.M.n.n.n.1.1.1.w.w.n.n.b.n.n.n.M.B.C.H.H.Z.Z.Z.Z.Z.Z.Z.Z.Z.Z.H.Z.Z.Z.Z.Z.Z.Z.Z.Z.Z.Z.Z.Z.H.H.M.M.M.M.M.n.M.n.n.n.n.n.n.b.b.b.b.b.b.b.b.b.b.b.b.b.b.m.m.m.",
"M.M.S.S.S.H.H.F.Z.Z.A.A.A.A.Z.A.A.A.A.A.Z.Z.Z.Z.Z.Z.Z.Z.Z.Z.Z.Z.H.H.S.M.M.n.n.n.w.w.w.w.w.w.q.q.w.w.w.q.q.q.q.q.n.n.n.B.B.B.M.M.S.S.S.S.S.M.M.M.H.S.A.i.I.6XwXQ.!.7X,XJ.q.{ { b.3.Z.+X6X*X=X*X*X,X,X5XJ.n.` { m.m.m.@.@.@.{ { { ` { { { b.b.b.b.w.w.1.1.2.2.2.,.,.9.w.S.D.].>X,X6X0XwX0X0X0X0X).).0X0X0XqXqX4X4X].J.2.N :.OX4X1X6X*X*X*X*X,X#X>X,.~ / 1.` ) ^ { ` ` ` ` ` ` ` ` ` ` ` ` ` ` ` ` ^ ` ` 1.g ; r 3 4 4 4 4 4 9 9 9 4 4 4 4 4 4 4 4 4 4 4 4 4 4 4 4 4 4 4 4 4 4 4 4 4 4 4 4 4 4 4 4 + + + + + + & & & + + + + + & & + + @ + + + & = + + + + + = ; ; 4 4 4 4 4 4 4 4 4 4 4 4 4 4 4 4 4 4 4 4 4 4 4 4 4 4 4 4 4 4 4 4 4 9 9 9 0 0 4 ; 9 9 j 1.1.) ` ) ` ` ` ` ` ` / / / 1.,.~ ,.S.>X4X>X>Xu.=.>.=.>.#X1X-X*X*X*X-X*X*X6X0XwX>X2.Z.3X.X3X3X<X<X,X0X6X6X8X#X@XXXD.p.u.u.w.w.,./ 9.9.9.{ n.n.n.b.b.b.b.+.+.O.+.+.#.#.#.#.N.b.b.b.#.#.#.#.+.b.w.Z.T.8X7X*X*X*X6X>XJ.F.F.F.A.t.i.i.oXZXZXR.u.Z.Z.S.S.S.M.M.n.n.n.n.M.M.Z.M.S.M.H.S.F.S.Z.Z.Z.Z.Z.Z.Z.A.D.D.Z.Z.Z.Z.Z.Z.Z.Z.Z.Z.Z.Z.Z.Z.Z.Z.Z.M.M.M.M.S.S.M.S.S.S.M.M.M.n.n.w.w.b.w.b.q.b.q.b.b.b.n.n.M.C.M.",
"Z.Z.Z.Z.Z.Z.Z.Z.Z.Z.Z.Z.Z.Z.Z.Z.Z.Z.Z.Z.Z.Z.Z.Z.Z.Z.Z.Z.Z.Z.Z.Z.Z.Z.Z.Z.Z.Z.Z.Z.Z.n.n.n.w.1.1.1.1.1.1.w.n.n.n.M.S.S.S.S.S.S.S.S.A.u.A.Z.S.S.M.S.n.H.Z.i.R.6X=X=X=X6X+XD.Z.M.M.n.2.J.,X6X*X*X*X*XR.qXOX2.2.b.b.b.@.@.@.@.b.b.b.b.b.b.b.b.b.b.b.b.b.b.b.b.b.w.b.w.` ` ` { q.w.n.n.H.J.J.^.5X2X2XqX0X6X,X1X,X2X5X>X>X1X,X#X+X+X*X*X*X=X*X*X8XqX@Xw.,.,./ ` ` ` / / / / ` ` ` ` ` ` ` ` ` ` ` ` ` ` K m.! ! e ; r 4 4 4 4 4 4 4 4 4 4 4 4 4 4 4 4 4 4 4 4 4 4 4 9 9 0 0 4 4 4 9 0 0 0 9 4 3 = & + + + + @ + @ + @ + @ + @ + @ + @ + @ + @ + @ + @ + @ + @ + @ + @ + = = ; 4 4 4 4 4 3 4 4 4 4 4 4 9 4 4 4 4 4 4 4 4 4 4 4 4 4 4 4 4 9 9 4 4 4 4 9 9 ; q 7 ~ q.! ^ { ` ` ` ` ` ) / / / 1.,.,.w.J.<X4X4X2.N :.<.>.A.pX+X8X+XR.9X9X*X*X6X6X6X6XqX4X4X<X3X3X3X3X5X>XJ.H.w.w.w.q.9.9.1.9.9.q.q.q.{ { q.q.q.b.b.b.b.b.b.b.b.#.#.#.N.N.N.N.b.b.b.b.b.b.#.#.O.#.b.w.J.6X7X=X*X*X6X,XT.G.F.H.Z.H.u.6.R.mXAXcXi.D.A.Z.Z.H.S.M.M.M.S.Z.Z.Z.Z.Z.Z.Z.Z.Z.Z.Z.Z.Z.Z.Z.Z.Z.Z.Z.Z.Z.Z.Z.Z.Z.Z.Z.Z.Z.Z.Z.Z.Z.Z.Z.Z.Z.Z.Z.Z.Z.Z.Z.Z.Z.Z.Z.Z.Z.Z.Z.Z.Z.Z.S.S.S.S.S.S.S.S.S.S.S.S.S.S.S.",
"Z.Z.Z.Z.Z.Z.Z.Z.Z.Z.Z.Z.Z.Z.Z.Z.Z.Z.Z.Z.Z.Z.Z.Z.Z.Z.Z.Z.Z.Z.Z.Z.Z.Z.Z.Z.Z.Z.Z.Z.Z.Z.Z.Z.Z.n.n.n.n.n.n.Z.Z.Z.Z.Z.Z.Z.Z.Z.Z.Z.Z.Z.A.A.A.Z.Z.S.S.S.Z.J.Z.6.R.7X=X=X*X*X#XD.Z.Z.Z.Z.c.T.0X6X*X*X-X*X+X8XT.2.2.n.b.b.b.#.#.b.b.b.b.b.b.b.b.b.b.b.b.b.b.b.b.b.b.b.b.b.@.@.#.N.N.b.b.n.l.l.n.n.B.F.F.F.T.T.OX>X5X2X4X4X4X<X1X+X*X*X-X-X;X-X*X+X8X1XJ.1.3.` ` ` 3.3.,.3.` / ` ` ` ` ` ` ` ` ` ` ` ` ` ` ^ ^ ` f e 7 0 9 4 4 4 4 4 4 4 4 4 4 4 4 4 4 4 4 4 4 4 4 4 4 9 9 4 4 4 9 9 9 9 9 ; ; = : & + + + + @ @ @ @ @ @ @ @ @ @ @ @ @ @ @ @ @ @ @ @ @ @ @ @ @ @ @ @ @ @ + + + & = ; 3 4 9 4 9 0 9 4 4 4 4 4 4 4 4 4 4 4 4 4 4 4 4 4 4 4 4 9 9 4 4 4 4 9 9 4 ; 7 h w.) ^ ` ` _ ` ` ` ` / / / / ~ ~ Z.<X4X].2.n.2.N :.J.1X1XR.6X*X+X9X9X*X*X=X*X*X6X,X,X>X].H.H.M.M.n.n.w.w.b.b.b.q.q.{ { { q.q.{ { { { { { b.b.b.b.b.b.b.b.b.b.b.b.b.N.N.N.b.b.b.b.b.b.#.#.O.#.b.w.J.,XeX=X=X=X6X6XR.A.Z.H.M.H.Z.t.Y.bXCXVXY.a.i.u.S.H.S.M.M.S.Z.Z.Z.Z.A.Z.Z.Z.Z.Z.Z.Z.Z.Z.Z.Z.Z.Z.Z.Z.Z.Z.Z.Z.Z.Z.Z.Z.Z.Z.Z.Z.Z.Z.Z.Z.Z.Z.Z.Z.Z.Z.Z.Z.Z.Z.Z.Z.Z.Z.Z.Z.Z.Z.Z.Z.Z.Z.Z.Z.Z.Z.Z.Z.Z.Z.Z.Z.Z.Z.",
"Z.Z.Z.Z.Z.Z.Z.Z.Z.Z.Z.Z.Z.Z.Z.Z.Z.Z.Z.Z.Z.Z.Z.Z.Z.Z.Z.Z.Z.Z.Z.Z.Z.Z.Z.Z.Z.Z.Z.Z.H.H.Z.Z.Z.Z.Z.Z.Z.Z.Z.Z.Z.Z.H.H.Z.Z.Z.Z.Z.Z.Z.Z.A.u.A.Z.Z.S.S.S.Z.H.Z.i.R.6X=X=X*X*XOXD.Z.Z.Z.Z.A./.0X6X6X*X*X*X+X8XJ.2.2.b.q.b.b.#.#.b.b.b.b.b.b.b.b.b.b.b.b.b.b.b.b.b.b.b.b.b.@.@.+.b.b.b.b.b.1.1.1.1.l.l.l.2.2.6.Z.Z.J.'. X>X>X>X,X1X*X*X-X-X;X-X=X*X+XOXu.~ 3.` ` ` ` 3.3.3.3.` ` ` ` ` ` ` ` ` ` ` ` ` ` ` { ! ` e e q ; 0 4 4 4 4 4 4 4 9 4 4 4 4 4 4 4 4 4 4 4 4 4 4 9 9 4 4 9 0 9 4 3 ; & + + + + + + + + @ @ @ @ @ @ @ @ @ @ @ @ @ @ @ @ @ @ @ @ @ @ @ @ @ @ @ @ @ @ + + X X X + = 3 4 4 9 0 0 9 4 4 4 4 4 4 4 4 4 4 4 4 4 4 4 4 4 4 4 9 9 4 4 4 4 9 9 9 = e t ` ` ^ / ` ` ` ` ` ` / / / / ~ ,.'.rX<Xw.N 1.2.:.A.qXqXA.U.6X6X*X*X*X*X*X*X=X*X+XT.A.Z.Z.n.n.1.1.1.9.w.9.q.b.b.b.b.b.b.b.b.b.b.b.@.@.@.@.b.b.b.b.b.b.b.b.b.b.b.b.b.b.N.N.b.b.b.b.b.b.#.#.O.#.b.w.H.,X0X6X7X*X*X6X,XA.Z.H.M.H.S.u.I.gXVXVX9XU.t.u.D.S.Z.M.S.S.Z.Z.Z.Z.A.A.Z.Z.Z.Z.Z.Z.Z.Z.Z.Z.Z.Z.Z.Z.Z.Z.Z.Z.Z.Z.Z.Z.Z.Z.Z.Z.Z.Z.Z.Z.Z.Z.Z.Z.Z.Z.Z.Z.Z.Z.Z.Z.Z.Z.Z.Z.Z.Z.Z.Z.Z.Z.Z.Z.Z.Z.Z.Z.Z.Z.Z.Z.Z.Z.",
"Z.Z.Z.Z.Z.Z.Z.Z.Z.Z.Z.Z.Z.Z.Z.Z.Z.Z.Z.Z.Z.Z.Z.Z.Z.Z.Z.Z.Z.Z.Z.Z.Z.Z.Z.Z.Z.Z.Z.Z.Z.Z.Z.Z.Z.Z.Z.Z.Z.Z.Z.Z.Z.Z.Z.Z.Z.Z.Z.Z.Z.Z.Z.Z.A.u.Z.Z.Z.S.S.Z.Z.Z.Z.A.6X6XQ.=X*X+XU.A.Z.Z.Z.Z.T.,X0X6X6X*X*X*X8X1XD.<.1.b.q.b.b.#.#.#.b.b.b.b.b.b.b.b.b.b.b.b.b.b.b.b.b.b.b.b.+.+.+.+.+.+.b.b.n.n.n.b.b.l.l.1.1.<.1.1.w.n.n.n.n.Z.D.OX6X*X*X-X;X-X*X8X+XD.2.L 3.` ` ` ` ` 3.3.` ` ` ` ` ` ` ` ` ` ` ` ` ` ` ` { ^ n 6 9 q ; 9 4 4 4 4 4 4 4 4 4 4 4 4 4 4 4 4 4 4 4 4 9 4 4 4 9 9 4 4 ; = : & + + + + + & & & + @ @ @ @ @ @ @ @ @ @ @ @ @ @ @ @ @ @ @ @ @ @ @ @ @ @ @ @ @ @ + + + X X X + & : ; 3 4 9 4 4 4 4 4 4 4 4 4 4 4 4 4 4 4 4 4 4 4 4 9 9 4 4 4 4 9 9 9 - q - n b.! ` ` ` ` ` ` ` / / ` ~ ~ n.<X4XH.,.1.~ :.H.4X4XD.<.t.+X8X+X*X*X*X*X*X-X*X+XA.2.2.w.n.b.w.q.w.b.b.b.b.b.b.b.b.b.b.b.b.b.b.b.+.@.b.b.b.b.b.b.b.b.b.b.b.b.b.b.b.b.N.N.b.b.b.b.N.N.#.#.O.#.b.q.Z.,X6X6X9XW.R.8X6XA.Z.H.n.H.H.u.i.=XVXAXmX+X4.t.D.S.Z.S.S.S.Z.Z.Z.Z.A.A.Z.Z.Z.Z.Z.Z.Z.Z.Z.Z.Z.Z.Z.Z.Z.Z.Z.Z.Z.Z.Z.Z.Z.Z.Z.Z.Z.Z.Z.Z.Z.Z.Z.Z.Z.Z.Z.Z.Z.Z.Z.Z.Z.Z.Z.Z.Z.Z.Z.Z.Z.Z.Z.Z.Z.Z.Z.Z.Z.Z.Z.Z.Z.Z.",
"Z.Z.Z.Z.Z.Z.Z.Z.Z.Z.Z.Z.Z.Z.Z.Z.Z.Z.Z.Z.Z.Z.Z.Z.Z.Z.Z.Z.Z.Z.Z.Z.Z.Z.Z.Z.Z.Z.Z.Z.Z.Z.Z.Z.Z.Z.Z.Z.Z.Z.Z.Z.Z.Z.Z.Z.Z.Z.Z.Z.Z.Z.Z.Z.A.A.Z.Z.Z.Z.Z.Z.Z.A.u.A.6X6X=X6X6XR.A.A.Z.Z.Z.Z.^.0X0X6X6X*X-X$X8X,XA.<.w.b.q.b.b.#.#.#.b.b.b.b.b.b.b.b.b.b.b.b.b.b.b.b.b.b.b.b.{ { b.b.b.b.b.b.b.b.b.b.b.b.b.b.w.w.w.w.w.w.w.w.3.<.w.T.+X*X=X*X;X%X*X9X1XA.<.~ 3.` ` ` ` ` 3.3.` ` ` ` ` ` ` ` ` ` ` ` ` ` ` ` / { y 7 7 q 9 4 4 4 4 4 4 4 4 4 4 4 4 4 4 4 4 4 4 4 9 9 9 4 4 4 4 4 ; = & + + + + + + + + + & & + @ @ @ @ @ @ @ @ @ @ @ @ @ @ @ @ @ @ @ @ @ @ @ @ @ @ @ @ @ @ + & + + + + + + + + & = ; 5 4 9 w 4 4 4 4 4 4 4 4 4 4 4 4 4 4 4 4 9 9 9 9 4 4 9 9 9 7 ; - u b.K { ` ` ` ` ` ` / / ` ! 1. X3XH.<.:.1.~ n.3XrXH.>.>.<.+X8X*X*X*X*X*X-X-X-X#XA.<.2.n.1.1.1.b.b.b.b.b.{ +.+.b.b.N.N.N.b.b.b.b.b.b.b.b.b.b.b.b.b.b.b.b.b.b.b.b.b.b.b.b.b.b.b.b.b.b.N.#.O.#.@.q.Z.OX6X6X9X+XQ.9X6XT.Z.Z.n.S.H.u.i.Y.gXZXZX9Xi.i.A.A.Z.S.S.S.Z.Z.Z.Z.A.A.Z.Z.Z.Z.Z.Z.Z.Z.Z.Z.Z.Z.Z.Z.Z.Z.Z.Z.Z.Z.Z.Z.Z.Z.Z.Z.Z.Z.Z.Z.Z.Z.Z.Z.Z.Z.Z.Z.Z.Z.Z.Z.Z.Z.Z.Z.Z.Z.Z.Z.Z.Z.Z.Z.Z.Z.Z.Z.Z.Z.Z.Z.Z.Z.",
"Z.Z.Z.Z.Z.Z.Z.Z.Z.Z.Z.Z.Z.Z.Z.Z.Z.Z.Z.Z.Z.Z.Z.Z.Z.Z.Z.Z.Z.Z.Z.Z.Z.Z.Z.Z.Z.Z.Z.Z.Z.Z.Z.Z.Z.Z.Z.Z.Z.Z.Z.Z.Z.Z.Z.Z.Z.Z.Z.Z.Z.Z.Z.Z.A.A.Z.Z.Z.Z.Z.Z.Z.Z.Z.A.6X6XQ.6X6XT.A.u.Z.Z.Z.G./.6X0X6X*X*X-X$X1X@Xu.,.n.n.q.b.b.#.#.b.b.b.b.b.b.b.b.b.b.b.b.b.q.q.q.q.b.b.l.b.1.1.1.b.b.b.b.b.b.b.b.b.b.b.b.b.b.b.b.b.b.q.b.b.1.3.w.T.,X*X*X*X=X%X*XqX+Xu.<.,.3.` ` ` ` ` 3.3.` ` ` ` ` ` ` ` ` ` ` ` ` ` ` ` ! ! 6 e 6 9 w 4 4 4 4 4 4 4 4 4 4 4 4 4 4 4 4 4 4 4 9 9 9 4 4 4 = = & + + + + & + + + + + + + + @ @ @ @ @ @ @ @ @ @ @ @ @ @ @ @ @ @ @ @ @ @ @ @ @ @ @ @ @ @ @ + + + + & & + + + . + + : = 1 4 9 4 4 4 4 4 4 4 4 4 4 4 4 4 4 4 4 9 9 9 9 4 4 9 9 9 q ; 7 e K ~ ` ` ` ` ` ` ` / / / ) n.5X X,.L ,.~ M.5X5XH.<.:.<.:.T.8X+X*X*X*X*X-X-X-X-XXXt.2.n.w.q.q.b.b.b.b.X.+.+.+.b.b.N.b.b.b.b.b.b.b.b.b.b.b.b.b.b.b.b.b.b.b.b.b.b.b.b.b.#.b.#.b.b.b.b.N.#.O.#.@.` n.T.0X6X6X*X*X6X6XR.A.n.Z.S.S.u.t.g.9XZXZXxXY.i.i.A.H.H.Z.S.Z.Z.Z.Z.A.A.Z.Z.Z.Z.Z.Z.Z.Z.Z.Z.Z.Z.Z.Z.Z.Z.Z.Z.Z.Z.Z.Z.Z.Z.Z.Z.Z.Z.Z.Z.Z.Z.Z.Z.Z.Z.Z.Z.Z.Z.Z.Z.Z.Z.Z.Z.Z.Z.Z.Z.Z.Z.Z.Z.Z.Z.Z.Z.Z.Z.Z.Z.Z.Z.",
"Z.Z.Z.Z.Z.Z.Z.Z.Z.Z.Z.Z.Z.Z.Z.Z.Z.Z.Z.Z.Z.Z.Z.Z.Z.Z.Z.Z.Z.Z.Z.Z.Z.Z.Z.Z.Z.Z.Z.Z.H.H.Z.Z.Z.Z.Z.Z.Z.Z.Z.Z.Z.Z.H.H.Z.Z.Z.Z.Z.Z.Z.Z.Z.A.Z.Z.Z.Z.Z.Z.Z.Z.Z.U.6X6X+X6X6XU.u.u.Z.Z.Z.J.2X0X6X6X*X*X-X$X1X[.0.,.M.B.q.b.b.b.b.b.b.b.b.b.b.b.b.b.b.b.b.b.b.b.b.b.b.b.b.b.b.b.b.b.w.q.1.1.b.b.b.b.b.b.b.b.q.q.+.+.+.+.b.q.b.1.w.OX8X6X*X6X=XoX*X9X#Xt.:.1.` ` / ) ` / 3.3.` ` ` ` ` ` ` ` ` ` ` ` ` ` ` / / g 7 7 7 9 q 4 4 4 4 4 4 4 4 4 4 4 4 4 4 4 4 4 4 4 9 9 9 4 4 4 + + + + + + & & + + + + + + + + @ @ @ @ @ @ @ @ @ @ @ @ @ @ @ @ @ @ @ @ @ @ @ @ @ @ @ @ @ @ @ + + + + + & & + + + + + + & = ; 4 4 4 4 4 4 4 4 4 4 4 4 4 4 4 4 4 9 9 9 9 4 4 4 9 9 9 7 q - g ` ) ` ` ` ` ` ) / / ~ w.H.'.w.~ ~ 1.n.'..XM.~ ~ >.<.=.T.1X+X*X6X=X*X:X%X-X-XXX0.<.n.M.n.b.b.b.N.N.b.+.b.b.b.#.#.b.N.b.b.b.b.b.b.b.b.b.q.b.b.b.b.b.b.b.b.b.b.b.b.b.N.b.#.b.b.b.b.b.#.O.N.@.` 2.J.,X6X=X*X=X6X6X,XG.<.S.n.S.A.u.g.=XbXmXmX9Xg.t.A.D.H.Z.Z.Z.Z.Z.Z.Z.Z.Z.Z.Z.Z.Z.Z.Z.Z.Z.Z.Z.Z.Z.Z.Z.Z.Z.Z.Z.Z.Z.Z.Z.Z.Z.Z.Z.Z.Z.Z.Z.Z.Z.Z.Z.Z.Z.Z.Z.Z.Z.Z.Z.Z.Z.Z.Z.Z.Z.Z.Z.Z.Z.Z.Z.Z.Z.Z.Z.Z.Z.Z.Z.Z.",
"Z.Z.Z.Z.Z.Z.Z.Z.Z.Z.Z.Z.Z.Z.Z.Z.Z.Z.Z.Z.Z.Z.Z.Z.Z.Z.Z.Z.Z.Z.Z.Z.Z.Z.Z.Z.Z.Z.Z.Z.Z.Z.Z.Z.Z.Z.Z.Z.Z.Z.Z.Z.Z.Z.Z.Z.Z.Z.Z.Z.Z.Z.Z.Z.Z.Z.Z.Z.Z.Z.Z.Z.F.Z.Z.D.8X6X+X6X,XD.u.u.Z.Z.Z.J.,X0X6XQ.*X*X8X+X#X[.0.,.S.M.q.b.b.b.b.b.b.b.b.b.b.b.b.b.b.b.n.b.M.n.M.n.M.n.n.M.B.M.M.n.n.n.b.b.b.b.b.b.+.{ { { b.q.@.@.@.@.+.b.b.1.2.OX8X6X6X9X;XoX*X9XOX<.P 1.` / / ) / / ` 3.` ` ` ` ` ` ` ` ` ` ` ` ` ` ` ` / 8 e ; q 9 9 9 4 4 4 4 4 4 4 4 4 4 4 4 4 4 4 4 4 4 9 w 9 4 4 5 + + + & & + + + + + + + + & & & @ @ @ @ @ @ @ @ @ @ @ @ @ @ @ @ @ @ @ @ @ @ @ @ @ @ @ @ @ @ @ @ + + + + + + + + + + + + + + = ; 4 4 4 4 4 4 4 4 4 4 4 4 4 4 4 4 9 9 9 9 4 4 4 4 9 ; q q - e b.! ` ` ` ` ` ) / / K M.'.w.L ~ 1.9.rX Xn./ ~ ~ :.:.N J.,X+X6X9X=X%X:XoXoX#XXX0.<.w.H.B.b.` +.+.N.N.b.b.b.b.b.b.b.b.b.b.b.b.b.b.b.b.b.q.b.b.b.b.b.b.b.b.b.b.b.b.b.N.#.#.b.b.b.b.b.#.+.#.@.` 1.J.,X6X*X*X*XQ.6X6XT.>.H.Z.S.S.u.i.*XbXbXZXxXj.4.A.D.A.Z.Z.Z.Z.Z.Z.Z.Z.Z.Z.Z.Z.Z.Z.Z.Z.Z.Z.Z.Z.Z.Z.Z.Z.Z.Z.Z.Z.Z.Z.Z.Z.Z.Z.Z.Z.Z.Z.Z.Z.Z.Z.Z.Z.Z.Z.Z.Z.Z.Z.Z.Z.Z.Z.Z.Z.Z.Z.Z.Z.Z.Z.Z.Z.Z.Z.Z.Z.Z.Z.Z.Z.",
"Z.Z.Z.Z.Z.Z.Z.Z.Z.Z.Z.Z.Z.Z.Z.Z.Z.Z.Z.Z.Z.Z.Z.Z.Z.Z.Z.Z.Z.Z.Z.Z.Z.Z.Z.Z.Z.Z.Z.Z.Z.Z.Z.Z.Z.Z.Z.Z.Z.Z.Z.Z.Z.Z.Z.Z.Z.Z.Z.Z.Z.Z.Z.Z.Z.Z.Z.Z.Z.Z.F.Z.Z.Z.A.T.,X,X,X,XOXD.u.Z.Z.0.u.D.6X6X6X6X6X=X*X+X#Xp.w.w.S. X/ b.1.q.b.b.b.b.q.q.w.w.w.n.M.M.M.M.S.M.S.M.S.M.H.H.S.S.S.M.M.M.M.M.C.C.B.m.m.b.b.q.b.q.@.@.@.@.+.q.q.1.n.@X8X6X*X6X-X%X-X8Xi.>.,.~ / ` / ` ` ` ` ` ` ` ` ` ` ` ` ` ` ~ ~ 1.1./ ` 1.u e - ; q 0 9 4 4 4 4 4 4 4 4 4 4 4 4 4 4 4 4 4 4 4 4 5 4 0 5 + + + + + + + + + + + + + + + + + @ @ @ @ @ @ @ @ @ @ @ @ @ @ @ @ @ @ @ @ @ @ @ @ @ @ @ @ @ @ @ @ + + + + + + + + + + + + + + + + 9 4 4 4 9 9 4 4 4 4 4 4 4 4 4 4 9 9 9 9 4 4 4 4 4 9 9 q 7 - g B.! ) ) ` b.` ! ` w.M.w.~ ~ K 9.rX'.n./ ~ ` 1.3.:.:.2.+X8X*X=X=X=X:XoXoX$X@Xp.<.,. X` B.b.+.C.` N.N.b.b.b.b.b.b.b.b.b.b.b.b.b.b.b.b.b.b.b.b.b.b.b.b.b.b.b.b.b.N.N.#.#.b.b.N.N.N.#.O.@.@.q.1.Z.T.6X+X*X*X*X6XwXT.2.w.H.n.Z.J.6.A.vXZXZXmX;Xi.6.A.A.Z.Z.Z.Z.Z.Z.Z.Z.Z.Z.Z.Z.Z.Z.Z.Z.Z.Z.Z.Z.Z.Z.Z.Z.Z.Z.Z.Z.Z.Z.Z.Z.Z.Z.Z.Z.Z.Z.Z.Z.Z.Z.Z.Z.Z.Z.Z.Z.Z.Z.Z.Z.Z.Z.Z.Z.Z.Z.Z.Z.Z.Z.Z.Z.Z.Z.Z.Z.Z.Z.Z.Z.",
"Z.Z.Z.Z.Z.Z.Z.Z.Z.Z.Z.Z.Z.Z.Z.Z.Z.Z.Z.Z.Z.Z.Z.Z.Z.Z.Z.Z.Z.Z.Z.Z.Z.Z.Z.Z.Z.Z.Z.Z.Z.Z.Z.Z.Z.Z.Z.Z.Z.Z.Z.Z.Z.Z.Z.Z.Z.Z.Z.Z.Z.Z.Z.Z.A.Z.Z.Z.Z.Z.F.F.Z.Z.Z.T.,X8X1X,XT.A.u.Z.Z.w.A.T.0X6X7X7X6X6X*X+X#Xp.u.0.[. X1.n.1.1.1.l.b.w.w.w.n.n.n.n.M.S.S.H.S.S.S.S.S.S.H.H.Z.Z.Z.S.S.M.M.M.M.M.B.B.B.m.m.m.b.b.b.b.b.b.b.q.b.w.Z.>X8X*X*X6X-X%X-X#Xi.,.,./ / ` / ` ` ` ` ` ` ` ` ` ` ` ` ` ` ) 3.1.) / 1.~ r q ; 9 q 9 9 9 4 4 4 4 4 4 4 4 4 4 4 4 4 4 4 4 4 4 4 5 4 4 ; + + + + + + + + + + + + + + + + + @ @ @ @ @ @ @ @ @ @ @ @ @ @ @ @ @ @ @ @ @ @ @ @ @ @ @ @ @ @ @ @ + + + + + + + + + + + + + + + + 4 4 4 9 4 4 4 4 4 4 4 4 4 4 4 9 9 9 9 9 4 4 4 4 4 9 9 9 7 - y ~ ) ` ) ) q.` ! / n./ w.,.M S.rXM.q.1.) ) 1.q.1.3.:.2.OXqX*X=X=X=X%XoXoX$X@XS.w.,.'.B.b.b.+.V.` b.N.b.b.b.b.b.b.b.b.b.b.b.b.b.b.b.b.b.b.b.b.b.b.b.b.b.b.b.b.b.N.N.#.#.b.b.x.N.N.#.O.@.@.{ 1.Z.T.,X+X*X6X*X6X6XR.u.2.H.n.Z.D.u.A.9XZXZXZXgXj.i.A.A.Z.Z.Z.Z.Z.Z.Z.Z.Z.Z.Z.Z.Z.Z.Z.Z.Z.Z.Z.Z.Z.Z.Z.Z.Z.Z.Z.Z.Z.Z.Z.Z.Z.Z.Z.Z.Z.Z.Z.Z.Z.Z.Z.Z.Z.Z.Z.Z.Z.Z.Z.Z.Z.Z.Z.Z.Z.Z.Z.Z.Z.Z.Z.Z.Z.Z.Z.Z.Z.Z.Z.Z.",
"Z.Z.Z.Z.Z.Z.Z.Z.Z.Z.Z.Z.Z.Z.Z.Z.Z.Z.Z.Z.Z.Z.Z.Z.Z.Z.Z.Z.Z.Z.Z.Z.Z.Z.Z.Z.Z.Z.Z.Z.Z.Z.Z.Z.Z.Z.Z.Z.Z.Z.Z.Z.Z.Z.Z.Z.Z.Z.Z.Z.Z.Z.Z.Z.Z.Z.Z.Z.Z.F.F.F.G.Z.A.T.1XqX1X@XD.u.w.S.S.Z.A.OX6X6X6X7X6X6X6X,X#Xp.p.u.<X Xn.H.n.n.n.n.n.n.n.n.Z.Z.Z.Z.Z.Z.S.S.Z.Z.Z.Z.Z.Z.Z.Z.Z.Z.Z.Z.Z.S.S.S.M.M.M.C.M.C.C.C.n.n.B.n.b.b.b.b.n.n.H.@X8X6X*X*X-X%X-X+Xt.,.,./ ` ` ` ` ` ` ` ` ` ` ` ` ` ` ` ` 1.~ 1.1.! ` 1.n 6 7 9 q 9 4 4 9 4 4 4 4 4 4 4 4 4 4 4 4 4 4 4 4 4 4 4 4 4 5 = X + + + + + + + + + + + + + + + + @ @ @ @ @ @ @ @ @ @ @ @ @ @ @ @ @ @ @ @ @ @ @ @ @ @ @ @ @ @ @ @ + + + + + + + + + + + + + + + + ; 5 9 w 9 4 4 4 4 4 4 4 4 4 4 9 9 9 9 9 4 4 4 4 4 9 9 9 7 - q h ` 1./ ) 1.` ~ / 1.w./ K M..X'.1./ / ) / 1.1.` ` 3.2.T.8X6X=X=X=X%XoXoX$X#XD.w.1.S..X` b.q.b.) N.+.{ b.q.b.q.b.b.b.w.b.w.b.n.n.b.b.b.b.b.b.b.b.b.b.b.b.b.b.N.N.N.#.#.b.b.l.b.N.N.#.@.@.{ 1.w.J.,X+X-X6X=X=X7X*XU.>.u.S.n.H.Z.Z.R.ZXZXZXMX=Xg.i.A.Z.Z.Z.Z.Z.Z.Z.Z.Z.Z.Z.Z.Z.Z.Z.Z.Z.Z.Z.Z.Z.Z.Z.Z.Z.Z.Z.Z.Z.Z.Z.Z.Z.Z.Z.Z.Z.Z.Z.Z.Z.Z.Z.Z.Z.Z.Z.Z.Z.Z.Z.Z.Z.Z.Z.Z.Z.Z.Z.Z.Z.Z.Z.Z.Z.Z.Z.Z.Z.Z.Z.Z.",
"Z.Z.Z.Z.Z.Z.Z.Z.Z.Z.Z.Z.Z.Z.Z.Z.Z.Z.Z.Z.Z.Z.Z.Z.Z.Z.Z.Z.Z.Z.Z.Z.Z.Z.Z.Z.Z.Z.Z.Z.Z.Z.Z.Z.Z.Z.Z.Z.Z.Z.Z.Z.Z.Z.Z.Z.Z.Z.Z.Z.Z.Z.Z.Z.Z.Z.Z.Z.F.F.F.F.G.Z.Z.J.2X4X>XJ.A.w.w.H.H.Z.D.+X6X6X7X7X6X6X6X,X@Xs.p.S.4X].Z.H.F.F.F.F.Z.M.Z.Z.H.H.Z.Z.Z.Z.Z.Z.Z.Z.Z.Z.Z.Z.Z.Z.Z.Z.Z.Z.Z.Z.Z.S.M.M.M.H.C.H.H.H.S.M.M.M.B.B.B.n.n.Z.D.,X9X*X*X*X-X%X*X+Xt.,.,./ ` ` ` ` ` ` ` / ` ` ` ` ` ` ` ` 1.~ 3.3.~ q.) u ; ; 9 q 9 3 4 9 4 4 4 4 4 4 4 4 4 4 4 4 4 4 4 4 4 4 9 4 5 ; + X + + + + + + + + + + + + + + + + @ @ @ @ @ @ @ @ @ @ @ @ @ @ @ @ @ @ @ @ @ @ @ @ @ @ @ @ @ @ @ @ + + + + + + + + + + + + + + + + & ; 9 w 9 4 4 4 4 4 4 4 4 4 4 9 9 9 9 9 4 4 4 4 4 4 9 9 q ; ; y ~ b.1.~ ` ` ) / / w.I ,..XS.K / / ~ ` ` ` ) ) ) 3.1.J.1X6X*X=X=X-X*X*X#X#XD.u.1.n.rX` b.b.q.` b.{ { { q.q.q.q.q.q.9.1.w.1.w.w.w.q.{ q.q.b.b.b.b.b.b.b.b.b.N.N.N.#.#.b.b.l.l.N.N.N.@.@.{ ` w.J.1X#X*X9X*X=X6X6X+X>.w.S.M.S.H.Z.i.cXNXAXZXjXE.6.A.A.Z.Z.Z.Z.Z.Z.Z.Z.Z.Z.Z.Z.Z.Z.Z.Z.Z.Z.Z.Z.Z.Z.Z.Z.Z.Z.Z.Z.Z.Z.Z.Z.Z.Z.Z.Z.Z.Z.Z.Z.Z.Z.Z.Z.Z.Z.Z.Z.Z.Z.Z.Z.Z.Z.Z.Z.Z.Z.Z.Z.Z.Z.Z.Z.Z.Z.Z.Z.Z.Z.Z.",
"Z.Z.Z.Z.Z.Z.Z.Z.Z.Z.Z.Z.Z.Z.Z.Z.Z.Z.Z.Z.Z.Z.Z.Z.Z.Z.Z.Z.Z.Z.Z.Z.Z.Z.Z.Z.Z.Z.Z.Z.Z.Z.Z.Z.Z.Z.Z.Z.Z.Z.Z.Z.Z.Z.Z.Z.Z.Z.Z.Z.Z.Z.Z.Z.Z.Z.Z.Z.F.F.F.F.G.Z.Z.J.>X@XD.S.S.Z.Z.S.S.u.D.,X6X6X7X7X6X6X6X,XU.u.u.S.yXJ.H.H.F.F.F.F.F.H.Z.Z.Z.Z.Z.Z.Z.Z.Z.Z.Z.Z.Z.Z.Z.Z.Z.Z.Z.Z.Z.Z.Z.Z.Z.Z.Z.Z.Z.S.S.S.S.S.H.H.H.S.S.S.M.M.Z.S.J.,X8X*X*X;X-X%X*XU.<.=.,./ ` ` ` ` ) ) ` / ` ` ` ` ` ` ` ` 1.~ ) ` 1.w.n 8 9 9 9 9 9 9 9 9 9 9 4 4 4 4 4 4 4 4 4 4 4 4 4 4 4 9 0 9 4 = + + + @ @ @ @ @ @ @ @ @ @ @ @ @ @ @ @ @ @ @ @ @ @ @ @ @ @ @ @ @ @ @ @ @ @ @ @ @ @ @ @ @ @ @ @ @ @ @ @ @ @ @ @ @ @ @ @ @ @ @ @ @ @ + + ; 4 w 4 4 4 4 4 4 4 4 4 4 4 9 9 9 9 9 4 4 4 4 4 9 4 9 q ; = 7 M 1.1.) ` 1./ / ` K n..X9./ 1.K / / { ` ` ) ) ` 1.3.Z.,X6X=X7X=X-X*X*X*X,XOXA.2.1.rXb.b.w.1.1.b.{ { { { q.q.q.q.q.9.w.9.w.w.w.w.q.{ { { +.b.b.b.b.b.b.b.b.b.b.b.#.#.b.b.b.b.b.b.N.@.{ { 9.1.H.@X#X-X6X*X=X=X6X6X4.0.n.M.M.H.H.4.fXNXAXZXbXoX6.i.A.Z.Z.Z.Z.Z.Z.Z.Z.Z.Z.Z.Z.Z.Z.Z.Z.Z.Z.Z.Z.Z.Z.Z.Z.Z.Z.Z.Z.Z.Z.Z.Z.Z.Z.Z.Z.Z.Z.Z.Z.Z.Z.Z.Z.Z.Z.Z.Z.Z.Z.Z.Z.Z.Z.Z.Z.Z.Z.Z.Z.Z.Z.Z.Z.Z.Z.Z.Z.Z.Z.Z.",
"Z.Z.Z.Z.Z.Z.Z.Z.Z.Z.Z.Z.Z.Z.Z.Z.Z.Z.Z.Z.Z.Z.Z.Z.Z.Z.Z.Z.Z.Z.Z.Z.Z.Z.Z.Z.Z.Z.Z.Z.Z.Z.Z.Z.Z.Z.Z.Z.Z.Z.Z.Z.Z.Z.Z.Z.Z.Z.Z.Z.Z.Z.Z.Z.Z.Z.Z.F.F.F.F.F.G.Z.Z.D.J.D.S.u.H.Z.M.S.u.w.D.,X6X7X7X7X6X6X6X,XA.t.u.D.yXu.J.Z.Z.Z.F.Z.Z.Z.Z.Z.Z.Z.Z.Z.Z.Z.Z.Z.Z.Z.Z.Z.Z.Z.Z.Z.Z.Z.Z.Z.Z.Z.Z.Z.H.Z.Z.Z.Z.Z.Z.Z.D.D.A.H.H.S.Z.S.u.D.OX#X8X*X=X=X-X*X*XU.-.=.,./ ` ` ` ` ) ) ` ` ` ` ` ` ` ` ` ` ` ` ) / w./ g - q q 9 3 4 9 9 4 9 9 4 4 4 4 4 4 4 4 4 4 4 4 4 4 9 9 w 9 5 & + + @ @ @ @ @ @ @ @ @ @ @ @ @ @ @ @ @ @ @ @ @ @ @ @ @ @ @ @ @ @ @ @ @ @ @ @ @ @ @ @ @ @ @ @ @ @ @ @ @ @ @ @ @ @ @ @ @ @ @ @ @ @ @ + + = 5 4 4 4 4 4 4 4 4 4 4 4 4 9 9 9 9 9 4 4 4 4 4 9 4 ; q 1 = ; f ) w./ ` 1.` / K n.'.n./ / 9./ / / / / ` ` X.X.X.) Z.,X6X*X=X=X-X*X*X*X,X>XA.1.1.3X Xw.w.1.w.q.q.{ { { q.r.q.q.n.n.n.n.n.n.Z.M.b.b.b.b.b.b.b.b.b.b.b.b.b.b.b.b.#.#.b.b.b.b.b.b.N.@.{ { q.,.Z.OX#X*X*X=X=X=X6X8XA.0.n.M.M.H.H.6.k.NXAXVXZX;Xi.i.A.Z.Z.Z.Z.Z.Z.Z.Z.Z.Z.Z.Z.Z.Z.Z.Z.Z.Z.Z.Z.Z.Z.Z.Z.Z.Z.Z.Z.Z.Z.Z.Z.Z.Z.Z.Z.Z.Z.Z.Z.Z.Z.Z.Z.Z.Z.Z.Z.Z.Z.Z.Z.Z.Z.Z.Z.Z.Z.Z.Z.Z.Z.Z.Z.Z.Z.Z.Z.Z.Z.Z.",
"Z.Z.Z.Z.Z.Z.Z.Z.Z.Z.Z.Z.Z.Z.Z.Z.Z.Z.Z.Z.Z.Z.Z.Z.Z.Z.Z.Z.Z.Z.Z.Z.Z.Z.Z.Z.Z.Z.Z.Z.Z.Z.Z.Z.Z.Z.Z.Z.Z.Z.Z.Z.Z.Z.Z.Z.Z.Z.Z.Z.Z.Z.Z.Z.Z.Z.Z.Z.F.F.F.F.F.Z.F.Z.Z.A.u.u.H.Z.M.S.w.0.U.8X6X7X7X7X7X6X6X,Xa.t.t.D.iX2.J.Z.A.Z.Z.Z.Z.Z.Z.Z.Z.Z.Z.Z.Z.Z.Z.Z.Z.Z.Z.Z.Z.Z.Z.Z.Z.Z.Z.Z.Z.Z.Z.Z.Z.Z.Z.Z.Z.Z.Z.Z.A.A.A.A.A.Z.Z.A.Z.D.OX+X*X*X*X%X-X*X*Xh.=.=.,./ ` ` ` ` ) ` / ` ` ` ` ` ` ` ` ` ) w.) ) w.n e - 9 0 9 4 4 9 9 4 9 9 4 4 4 4 4 4 4 4 4 4 4 4 4 4 4 4 9 4 ; + + = @ @ @ @ @ @ @ @ @ @ @ @ @ @ @ @ @ @ @ @ @ @ @ @ @ @ @ @ @ @ @ @ @ @ @ @ @ @ @ @ @ @ @ @ @ @ @ @ @ @ @ @ @ @ @ @ @ @ @ @ @ @ @ + + & ; 4 4 4 4 4 4 4 4 4 4 4 4 9 9 9 9 9 4 4 4 4 4 0 4 ; 9 9 ; 7 e n 1./ / 1./ ) !  Xn.K 9.q.K 9./ / / / ` { X.X.X.) c.2X6X*X=X=X=X*X6X*X6X,XJ.<.1.H.rX1.w.1.n.9.r.r.r.r.r.M.n.M.M.M.M.M.S.S.S.S.B.m.m.b.b.N.b.b.b.b.b.b.b.b.b.b.#.#.#.b.b.b.b.b.N.O.@.m.q.,.w.[.1X*X*X=X7X=X6X6X,X0.w.M.n.M.H.u.f.NXCXcXZXxXU.A.A.Z.Z.Z.Z.Z.Z.Z.Z.Z.Z.Z.Z.Z.Z.Z.Z.Z.Z.Z.Z.Z.Z.Z.Z.Z.Z.Z.Z.Z.Z.Z.Z.Z.Z.Z.Z.Z.Z.Z.Z.Z.Z.Z.Z.Z.Z.Z.Z.Z.Z.Z.Z.Z.Z.Z.Z.Z.Z.Z.Z.Z.Z.Z.Z.Z.Z.Z.Z.Z.Z.Z.",
"Z.Z.Z.Z.Z.Z.Z.Z.Z.Z.Z.Z.Z.Z.Z.Z.Z.Z.Z.Z.Z.Z.Z.Z.Z.Z.Z.Z.Z.Z.Z.Z.Z.Z.Z.Z.Z.Z.Z.Z.Z.Z.Z.Z.Z.Z.Z.Z.Z.Z.Z.Z.Z.Z.Z.Z.Z.Z.Z.Z.Z.Z.Z.Z.Z.F.F.F.F.F.F.Z.Z.Z.Z.Z.Z.u.p.H.S.n.n.n.w.u.T.qX6X7X7X7X7X6X6X+Xi.t.t.D.iX2.T.Z.G.G.G.F.Z.Z.Z.Z.Z.Z.Z.Z.Z.Z.Z.Z.Z.Z.Z.Z.Z.Z.Z.Z.Z.Z.Z.Z.Z.Z.Z.Z.Z.Z.Z.Z.Z.H.G.D.A.A.A.A.A.Z.Z.u.u.D.+X+X*X*X*X%X-X*X+Xa.=.~ 1./ ` ` ) ` ) ` / ` ` ` ` ` ` ` ` ` ! n.` ! 1.h 6 7 ; 9 0 9 4 9 9 4 9 9 4 4 4 4 4 4 4 4 4 4 4 4 4 4 4 4 4 4 = X + = @ @ @ @ @ @ @ @ @ @ @ @ @ @ @ @ @ @ @ @ @ @ @ @ @ @ @ @ @ @ @ @ @ @ @ @ @ @ @ @ @ @ @ @ @ @ @ @ @ @ @ @ @ @ @ @ @ @ @ @ @ @ @ + + & = 5 4 9 4 4 4 4 4 4 4 4 4 9 9 9 9 9 4 4 4 4 4 0 4 - 9 q 9 q - h 1./ / ` / ~ |.) ~ / ~ ~ 1.~ / / / ` ` ` ) ) 1.~ 2.,X6X6X=X=X=X6X6X*X6X,XD.2.2.2.iX,.w.,.M.,.n.m.M.M.M.M.M.S.M.M.M.M.S.S.S.S.C.C.C.B.n.n.b.b.b.b.b.b.b.b.b.b.@.@.b.b.b.b.b.b.N.{ { m.q./ w.J.,X*X*X=X7X7X6X*XqX2.2.S.n.n.H.A.5.NXAXhXZXbXY.A.A.Z.Z.S.F.F.F.F.Z.Z.Z.Z.Z.Z.Z.Z.Z.Z.Z.Z.Z.Z.Z.Z.Z.Z.Z.Z.Z.Z.Z.Z.Z.Z.Z.Z.Z.Z.Z.Z.Z.Z.Z.Z.Z.Z.Z.Z.Z.Z.Z.Z.Z.Z.Z.Z.Z.Z.Z.Z.Z.Z.Z.Z.Z.Z.Z.Z.Z.Z.Z.Z.",
"Z.Z.Z.Z.Z.Z.Z.Z.Z.Z.Z.Z.Z.Z.Z.Z.Z.Z.Z.Z.Z.Z.Z.Z.Z.Z.Z.Z.Z.Z.Z.Z.Z.Z.Z.Z.Z.Z.Z.Z.Z.Z.Z.Z.Z.Z.Z.Z.Z.Z.Z.Z.Z.Z.Z.Z.Z.Z.Z.Z.Z.Z.Z.Z.F.F.B.n.F.H.Z.A.Z.A.D.T.D.S.e.M.M.b.H.H.1.Z.,X8X6X7X=X=X=X9X*XY.t.a.<.yXyX2.D.Z.Z.Z.Z.Z.Z.Z.S.S.Z.Z.Z.Z.Z.Z.Z.Z.Z.Z.Z.Z.Z.Z.Z.Z.Z.Z.Z.Z.Z.Z.Z.Z.Z.Z.Z.Z.Z.Z.Z.Z.A.A.A.S.M.M.S.p.u.T.,X6X*X*X*X*X*X0X+X0.,.) ) ` ` ` ` ` ` ` / / ` ` ` ` ` ) ` ` ) ` / 3.3.e e ; 9 4 4 4 4 4 4 4 4 4 4 4 4 4 4 4 4 4 4 4 4 4 4 4 5 9 4 = + + + + @ @ @ @ @ @ @ @ @ @ @ @ @ @ @ @ @ @ @ @ @ @ @ @ @ @ @ @ @ @ @ @ @ @ @ @ @ @ @ @ @ @ @ @ @ @ @ @ @ @ @ @ @ @ @ @ @ @ @ @ @ @ @ + + + = 4 9 4 4 w 4 4 4 4 4 4 4 4 9 9 9 4 4 4 4 4 4 4 4 4 4 9 9 9 q 7 ~ ,.1.) 1.b.` ` ` / ` ,.3./ / / / ` ` ` ` ` ` ` <.D.qX9X=X=X7X6X6X6X6X,XT.u.D.,.iX<Xw.@X2.S.S.S.S.S.S.S.S.S.Z.S.Z.S.Z.Z.Z.Z.Z.S.S.S.S.S.S.S.M.M.n.n.n.1.1.1.{ { q.q.q.b.q.b.q.q.{ { { q.n.M.,X6X6X*X=X6X*X*X8XT.B S.S.S.M.Z.A.W.ZXAXhXAXMX5.u.S.C.B.B.F.G.G.F.Z.Z.Z.Z.Z.F.F.Z.Z.Z.Z.Z.Z.Z.Z.Z.Z.Z.Z.Z.Z.Z.Z.Z.Z.Z.Z.Z.Z.Z.Z.Z.Z.Z.Z.Z.Z.Z.Z.Z.Z.Z.Z.Z.Z.Z.Z.Z.Z.Z.Z.Z.Z.Z.Z.Z.Z.Z.Z.Z.Z.Z.Z.",
"Z.Z.Z.Z.Z.Z.Z.Z.Z.Z.Z.Z.Z.Z.Z.Z.Z.Z.Z.Z.Z.Z.Z.Z.Z.Z.Z.Z.Z.Z.Z.Z.Z.Z.Z.Z.Z.Z.Z.Z.Z.Z.Z.Z.Z.Z.Z.Z.Z.Z.Z.Z.Z.Z.Z.Z.Z.Z.Z.Z.Z.Z.Z.Z.G.F.F.F.F.F.Z.u.A.U.OX,X,XD.S.M.C.n.H.Z.>.A.6X6X6X*X=X=X-X;X-XY.t.a.t.yXyX2.J.Z.Z.Z.Z.Z.Z.Z.S.S.Z.Z.Z.Z.Z.Z.Z.Z.Z.Z.Z.Z.Z.Z.Z.Z.Z.Z.Z.Z.Z.Z.Z.Z.Z.Z.Z.Z.Z.Z.Z.Z.Z.Z.S.M.M.M.M.p.u.T.6X6X*X*X*X*X*X0XOX0.` / ^ ` ` ` ` ` ` ` / / ` ` ` ` ` ` ` ` ` ` ) 3.n q q 7 9 4 4 4 4 4 4 4 4 4 4 4 4 4 4 4 4 4 4 4 4 4 4 4 4 4 4 = + + + + @ @ @ @ @ @ @ @ @ @ @ @ @ @ @ @ @ @ @ @ @ @ @ @ @ @ @ @ @ @ @ @ @ @ @ @ @ @ @ @ @ @ @ @ @ @ @ @ @ @ @ @ @ @ @ @ @ @ @ @ @ @ @ + + + = 4 9 4 4 0 4 4 4 4 4 4 4 4 4 4 4 4 4 4 4 4 4 4 4 4 4 4 4 9 7 7 h 1.~ ` ) ` ` ` ` ` ,.,.,.` / / ` ` ` 3.` ` ` / ,.S.8X9X!.=X7X6X6X6X6X6XT.u.D.<.yX<XS.D.t.S.Z.Z.Z.Z.Z.Z.Z.Z.Z.Z.Z.Z.Z.Z.Z.Z.Z.Z.Z.Z.Z.Z.Z.Z.Z.Z.Z.Z.Z.n.n.n.b.b.b.b.q.q.q.q.q.{ { { { q.b.w.,X6X6X6X=X6X*X*X6X+X=.2.H.M.S.M.D.U.bXAXDXCXSXj.t.S.C.K.K.F.G.G.F.F.Z.Z.Z.Z.F.F.Z.Z.Z.Z.Z.Z.Z.Z.Z.Z.Z.Z.Z.Z.Z.Z.Z.Z.Z.Z.Z.Z.Z.Z.Z.Z.Z.Z.Z.Z.Z.Z.Z.Z.Z.Z.Z.Z.Z.Z.Z.Z.Z.Z.Z.Z.Z.Z.Z.Z.Z.Z.Z.Z.Z.Z.",
"Z.Z.Z.Z.Z.Z.Z.Z.Z.Z.Z.Z.Z.Z.Z.Z.Z.Z.Z.Z.Z.Z.Z.Z.Z.Z.Z.Z.Z.Z.Z.Z.Z.Z.Z.Z.Z.Z.Z.Z.Z.Z.Z.Z.Z.Z.Z.Z.Z.Z.Z.Z.Z.Z.Z.Z.Z.Z.Z.Z.Z.Z.Z.Z.F.F.F.F.F.S.Z.u.U.T.,XqX1X[.S.S.C.B.F.2.>.A.8X6X6X*X*X-X*X-X*XU.i.a.i.iXyX6.J.Z.Z.Z.Z.Z.Z.Z.S.S.Z.Z.Z.Z.Z.Z.Z.Z.Z.Z.Z.Z.Z.Z.Z.Z.Z.Z.Z.Z.Z.Z.Z.Z.Z.Z.Z.Z.Z.Z.Z.Z.Z.Z.S.M.M.M.M.p.A.T.6X6X*X*X*X*X*X8XT.2./ / ^ ` ` ` ` ` ` ` / / ` ` ) ) ` ` ` ` ` ) ) 3.u ; q 9 9 4 4 4 4 4 4 4 4 4 4 4 4 4 4 4 4 4 4 4 4 4 4 4 9 4 ; + + + + + @ @ + @ @ @ @ @ @ @ @ @ @ @ @ @ @ @ @ @ @ @ @ @ @ @ @ @ @ @ @ @ @ @ @ @ @ @ @ @ @ @ @ @ @ @ @ @ @ @ @ @ @ @ @ @ @ @ @ @ @ @ @ + + + + ; 4 9 9 9 4 4 4 4 4 4 4 4 4 4 4 4 4 4 4 4 4 4 4 4 4 4 4 9 ; q t 3.~ 1.) ~ ` ` ` ` ,.3.3.` / / ` ` ` 3.` ` ` / ,.Z.1X9X=X=X7X6X6X6X6X6XT.i.u.u.,XyXOXt.u.S.Z.Z.Z.Z.Z.Z.Z.Z.Z.Z.Z.Z.Z.Z.Z.Z.Z.Z.Z.Z.Z.Z.Z.Z.H.H.Z.Z.Z.Z.Z.M.B.B.B.n.m.b.b.q.q.q.9.q.q.q.q.1.,X6X6X6X6X6X*X*X*X6X6.=.H.n.C.M.A.g.lXZXzXBXAXgXt.e.C.C.V.B.F.F.Z.Z.Z.Z.Z.Z.Z.Z.Z.Z.Z.Z.Z.Z.Z.Z.Z.Z.Z.Z.Z.Z.Z.Z.Z.Z.Z.Z.Z.Z.Z.Z.Z.Z.Z.Z.Z.Z.Z.Z.Z.Z.Z.Z.Z.Z.Z.Z.Z.Z.Z.Z.Z.Z.Z.Z.Z.Z.Z.Z.Z.Z.Z.Z.",
"Z.Z.Z.Z.Z.Z.Z.Z.Z.Z.Z.Z.Z.Z.Z.Z.Z.Z.Z.Z.Z.Z.Z.Z.Z.Z.Z.Z.Z.Z.Z.Z.Z.Z.Z.Z.Z.Z.Z.Z.Z.Z.Z.Z.Z.Z.Z.Z.Z.Z.Z.Z.Z.Z.Z.Z.Z.Z.Z.Z.Z.Z.Z.Z.F.F.F.F.F.Z.A.u.T.R.6X8X,XD.u.n.B.H.B.:.3.T.8X*X*X*X*X=X*X*X+XE.i.t.U.iX4X6.J.Z.Z.Z.Z.Z.Z.Z.S.S.Z.Z.Z.Z.Z.Z.Z.Z.Z.Z.Z.Z.Z.Z.Z.Z.Z.Z.Z.Z.Z.Z.Z.Z.Z.Z.Z.Z.Z.Z.Z.Z.Z.Z.S.M.M.M.M.p.D.OX6X6X*X*X*X*X*X8XT.<./ ` ) ` ` ` ` ` ` ` / / ` ` ) ) ` ` ` ` ` ) / ~ 7 ; 9 q 9 4 4 4 4 4 4 4 4 4 4 4 4 4 4 4 4 4 4 4 4 4 4 4 9 5 & + + & & + @ @ + @ @ @ @ @ @ @ @ @ @ @ @ @ @ @ @ @ @ @ @ @ @ @ @ @ @ @ @ @ @ @ @ @ @ @ @ @ @ @ @ @ @ @ @ @ @ @ @ @ @ @ @ @ @ @ @ @ @ @ @ + + + + = 4 w 9 4 4 4 4 4 4 4 4 4 4 4 4 4 4 4 4 4 4 4 4 4 4 4 4 9 9 q 7 M 3./ 1.! ` ` ` ` ` 3.3.` / / ` ` ` 3.` ` ` / ,.w.,X8X=X=X6X6X6X6X6X6XOXA.i.D.D.yX4X<.u.D.Z.Z.Z.Z.Z.Z.Z.Z.Z.Z.Z.Z.Z.Z.Z.Z.Z.Z.Z.Z.Z.Z.Z.Z.Z.Z.Z.Z.Z.Z.Z.Z.M.M.M.M.B.B.n.B.q.b.b.b.b.w.w.1.OX6X6X6X6X6X*X*X+X8XU.N Z.n.H.S.A.7.=XVXCXBXAXVXh.p.n.m.M.B.M.n.Z.Z.Z.Z.Z.Z.Z.Z.Z.Z.Z.Z.Z.Z.Z.Z.Z.Z.Z.Z.Z.Z.Z.Z.Z.Z.Z.Z.Z.Z.Z.Z.Z.Z.Z.Z.Z.Z.Z.Z.Z.Z.Z.Z.Z.Z.Z.Z.Z.Z.Z.Z.Z.Z.Z.Z.Z.Z.Z.Z.Z.Z.Z.Z.",
"Z.Z.Z.Z.Z.Z.Z.Z.Z.Z.Z.Z.Z.Z.Z.Z.Z.Z.Z.Z.Z.Z.Z.Z.Z.Z.Z.Z.Z.Z.Z.Z.Z.Z.Z.Z.Z.Z.Z.Z.Z.Z.Z.Z.Z.Z.Z.Z.Z.Z.Z.Z.Z.Z.Z.Z.Z.Z.Z.Z.Z.Z.Z.Z.F.F.F.F.Z.Z.A.i.+X*X6X6X+XA.u.Z.B.H.z.~ 2.+X8X*X*X*X*X=X*X*X+Xh.i.t.#XnX@X6.J.Z.Z.Z.Z.Z.Z.Z.S.S.Z.Z.Z.Z.Z.Z.Z.Z.Z.Z.Z.Z.Z.Z.Z.Z.Z.Z.Z.Z.Z.Z.Z.Z.Z.Z.Z.Z.Z.Z.Z.Z.Z.Z.S.M.M.M.M.u.D.+X6X6X=X*X*X+X6X6XD.,./ ` ) ` ` ` ` ` ` ` / / / ` ) ` / / / ` ) ) 1.K - ; 9 q 9 4 4 4 4 4 4 4 4 4 4 4 4 4 4 4 4 4 4 4 4 4 4 4 9 ; + + + & & + @ @ @ @ @ @ @ @ @ @ @ @ @ @ @ @ @ @ @ @ @ @ @ @ @ @ @ @ @ @ @ @ @ @ @ @ @ @ @ @ @ @ @ @ @ @ @ @ @ @ @ @ @ @ @ @ @ @ @ @ @ @ @ + + + + + ; 9 9 4 4 4 4 4 4 4 4 4 4 4 4 4 4 4 4 4 4 4 4 4 4 4 4 9 q 9 - u 1.~ n.) ` ` ` ` ` ` 3.` / / ) ` ` 3.` ` ` / ~ <.OX9X=X=X).6X6X6X6X6X+XD.u.D.u.yXyX6.u.D.Z.Z.Z.Z.Z.Z.Z.Z.Z.Z.Z.Z.Z.Z.Z.Z.Z.Z.Z.Z.Z.Z.Z.Z.Z.Z.Z.Z.Z.Z.Z.Z.M.M.M.M.M.C.C.C.n.M.M.M.M.n.n.w.T.,X6X6X6X6X*X*X*X8X,XN w.n.H.M.A.7.W.NXAXBXBXAX%X[.e.r.M.`.M.M.S.Z.Z.Z.Z.Z.Z.Z.Z.Z.Z.Z.Z.Z.Z.Z.Z.Z.Z.Z.Z.Z.Z.Z.Z.Z.Z.Z.Z.Z.Z.Z.Z.Z.Z.Z.Z.Z.Z.Z.Z.Z.Z.Z.Z.Z.Z.Z.Z.Z.Z.Z.Z.Z.Z.Z.Z.Z.Z.Z.Z.Z.Z.Z.",
"Z.Z.Z.Z.Z.Z.Z.Z.Z.Z.Z.Z.Z.Z.Z.Z.Z.Z.Z.Z.Z.Z.Z.Z.Z.Z.Z.Z.Z.Z.Z.Z.Z.Z.Z.Z.Z.Z.Z.Z.Z.Z.Z.Z.Z.Z.Z.Z.Z.Z.Z.Z.Z.Z.Z.Z.Z.Z.Z.Z.Z.Z.Z.Z.Z.Z.F.Z.Z.u.D.A.8X6X6X*XR.A.A.H.B.C.3.N Z.,X6X*X*X*X*X*X*X*XY.i.y.4.8XnXOX6.D.Z.Z.Z.Z.Z.Z.Z.S.S.Z.Z.Z.Z.Z.Z.Z.Z.Z.Z.Z.Z.Z.Z.Z.Z.Z.Z.Z.Z.Z.Z.Z.Z.Z.Z.Z.Z.Z.Z.Z.Z.Z.Z.S.M.M.M.S.u.U.+X6X=X*X*X*X+X6X,XA.P ) ` ` ` ` ` ` 3.` ` / / ` ` ) ) / / / ` ) ) 1.k ; 7 9 9 9 4 4 4 4 4 4 4 4 4 4 4 4 4 4 4 4 4 4 4 4 4 4 4 4 = + + & & + + @ @ @ @ @ @ @ @ @ @ @ @ @ @ @ @ @ @ @ @ @ @ @ @ @ @ @ @ @ @ @ @ @ @ @ @ @ @ @ @ @ @ @ @ @ @ @ @ @ @ @ @ @ @ @ @ @ @ @ @ @ @ @ + + + + + = 4 4 4 4 4 4 4 4 4 4 4 4 4 4 4 4 4 4 4 4 4 4 4 4 4 4 9 q 7 ; q L ~ b.) ` ` ` ` ` ` 3.` / / ` ` ` 3.` ` ` ` ~ ,.T.6X6X=XQ.6X6X6X6X6X+XT.u.D.t.qXiXD.u.A.Z.Z.Z.Z.Z.Z.Z.Z.Z.Z.Z.Z.Z.Z.Z.Z.Z.Z.Z.Z.Z.Z.Z.Z.Z.Z.Z.Z.Z.Z.Z.S.M.M.S.S.H.H.H.H.S.S.H.H.H.S.M.Z.T.+X6X6X*X6X*X*X6X6XqX<.:.n.M.M.Z.i.E.hXGXHXBXSX;Xh.t.9.e.`.p.e.S.Z.Z.Z.Z.Z.Z.Z.Z.Z.Z.Z.Z.Z.Z.Z.Z.Z.Z.Z.Z.Z.Z.Z.Z.Z.Z.Z.Z.Z.Z.Z.Z.Z.Z.Z.Z.Z.Z.Z.Z.Z.Z.Z.Z.Z.Z.Z.Z.Z.Z.Z.Z.Z.Z.Z.Z.Z.Z.Z.Z.Z.Z.Z.",
"Z.Z.Z.Z.Z.Z.Z.Z.Z.Z.Z.Z.Z.Z.Z.Z.Z.Z.Z.Z.Z.Z.Z.Z.Z.Z.Z.Z.Z.Z.Z.Z.Z.Z.Z.Z.Z.Z.Z.Z.Z.Z.Z.Z.Z.Z.Z.Z.Z.Z.Z.Z.Z.Z.Z.Z.Z.Z.Z.Z.Z.Z.Z.Z.Z.Z.Z.Z.u.u.D.U.8X6X6X=XR.A.A.H.C.B.~ N J.8X*X*X*X*X*X*X*X+XU.i.i.4.pXmXU.t.J.A.Z.Z.Z.Z.Z.Z.S.S.Z.Z.Z.Z.Z.Z.Z.Z.Z.Z.Z.Z.Z.Z.Z.Z.Z.Z.Z.Z.Z.Z.Z.Z.Z.Z.Z.Z.Z.Z.Z.Z.Z.Z.S.M.M.M.S.A.T.+X6X6X*X*X*X+X6X,Xu.L ) { ` ` ` ` ` 3.` ` / / ` ` ` ` / / / / ) ) 1.u 7 7 1 q 9 4 4 4 4 4 4 4 4 4 4 4 4 4 4 4 4 4 4 4 4 4 4 4 ; & + + & + + & @ @ @ @ @ @ @ @ @ @ @ @ @ @ @ @ @ @ @ @ @ @ @ @ @ @ @ @ @ @ @ @ @ @ @ @ @ @ @ @ @ @ @ @ @ @ @ @ @ @ @ @ @ @ @ @ @ @ @ @ @ @ @ + + + + + + ; 4 4 4 4 4 4 4 4 4 4 4 4 4 4 4 4 4 4 4 4 4 4 4 4 4 9 9 7 ; ; h 1.` ` ` ` ` ` ` ` ` ` / / ` ` 3.3.` ` ` 1.~ ,.D.6X=X=XQ.7X6X6X6X6X#XT.u.i.6.,XiX,Xi.u.Z.Z.Z.Z.Z.Z.Z.Z.Z.Z.Z.Z.Z.Z.Z.Z.Z.Z.Z.Z.Z.Z.Z.Z.H.H.Z.Z.Z.Z.Z.Z.Z.S.Z.S.S.S.S.S.S.S.S.H.S.S.Z.Z.D.+X6X6X*X6X7X*X9X+XqXD.B n.C.n.H.A.g.=XCXFXBXBXhX=Xh.i.s.s.s.s.u.A.Z.Z.Z.Z.Z.Z.Z.Z.Z.Z.Z.Z.Z.Z.Z.Z.Z.Z.Z.Z.Z.Z.Z.Z.Z.Z.Z.Z.Z.Z.Z.Z.Z.Z.Z.Z.Z.Z.Z.Z.Z.Z.Z.Z.Z.Z.Z.Z.Z.Z.Z.Z.Z.Z.Z.Z.Z.Z.Z.Z.Z.Z.",
"Z.Z.Z.Z.Z.Z.Z.Z.Z.Z.Z.Z.Z.Z.Z.Z.Z.Z.Z.Z.Z.Z.Z.Z.Z.Z.Z.Z.Z.Z.Z.Z.Z.Z.Z.Z.Z.Z.Z.Z.Z.Z.Z.Z.Z.Z.Z.Z.Z.Z.Z.Z.Z.Z.Z.Z.Z.Z.Z.Z.Z.Z.Z.Z.Z.Z.Z.u.w.u.D.XX6X*X=X*XR.A.u.Z.B.b.M ~ OX8X+X-X=X*X*X*X+X,XT.i.i.4.nXmXU.t.J.Z.Z.Z.Z.Z.Z.Z.S.S.Z.Z.Z.Z.Z.Z.Z.Z.Z.Z.Z.Z.Z.Z.Z.Z.Z.Z.Z.Z.Z.Z.Z.Z.Z.Z.Z.Z.Z.Z.Z.Z.Z.Z.S.S.M.M.S.A.T.6X7X6X*X*X*X+X6X,X6.L ) { ` ` ` ` 3.3.3.` / / ` ` ` ` / / / / ) ) / e 7 7 1 q 4 4 4 4 4 4 4 4 4 4 4 4 4 4 4 4 4 4 4 4 4 4 4 4 ; + + & & + + & @ @ @ @ @ @ @ @ @ @ @ @ @ @ @ @ @ @ @ @ @ @ @ @ @ @ @ @ @ @ @ @ @ @ @ @ @ @ @ @ @ @ @ @ @ @ @ @ @ @ @ @ @ @ @ @ @ @ @ @ @ @ @ + + & + + + ; 4 4 4 4 4 4 4 4 4 4 4 4 4 4 4 4 4 4 4 4 4 4 4 4 4 9 9 q 1 7 g H.! 1.` ` ` ` ` ` ` ` / / ` ` 3.` ` ` ` { ~ :.D.1X6X=XQ.6X6X6X6X6X,XOXu.u.t.OXnXqXi.u.Z.Z.Z.Z.Z.Z.Z.Z.Z.Z.Z.Z.Z.Z.Z.Z.Z.Z.Z.Z.Z.Z.Z.Z.Z.Z.Z.Z.Z.Z.Z.Z.H.S.S.Z.Z.Z.Z.Z.Z.Z.Z.Z.Z.Z.Z.Z.D.+X8X6X*X6X7X=X9XY.wX,Xn M.M.n.H.H.t.W.NXFXHXHXGXCXhX%Xh.y.y.s.u.A.A.A.Z.Z.Z.Z.Z.Z.Z.Z.Z.Z.Z.Z.Z.Z.Z.Z.Z.Z.Z.Z.Z.Z.Z.Z.Z.Z.Z.Z.Z.Z.Z.Z.Z.Z.Z.Z.Z.Z.Z.Z.Z.Z.Z.Z.Z.Z.Z.Z.Z.Z.Z.Z.Z.Z.Z.Z.Z.Z.Z.Z.",
"Z.Z.Z.Z.Z.Z.Z.Z.Z.Z.Z.Z.Z.Z.Z.Z.Z.Z.Z.Z.Z.Z.Z.Z.Z.Z.Z.Z.Z.Z.Z.Z.Z.Z.Z.Z.Z.Z.Z.Z.Z.Z.Z.Z.Z.Z.Z.Z.Z.Z.Z.Z.Z.Z.H.H.Z.Z.Z.Z.Z.Z.Z.Z.Z.Z.Z.D.H.u.D.#XR.6X9X6XI.u.A.H.1.) ~ n.OX8X9X*X*X%X%X*X,XOXA.u.g.g.vXnXA.u.J.Z.Z.Z.Z.Z.Z.Z.Z.Z.Z.Z.Z.Z.Z.Z.Z.Z.Z.Z.Z.Z.Z.Z.Z.Z.Z.Z.Z.Z.Z.Z.Z.Z.Z.Z.Z.Z.Z.Z.Z.Z.Z.Z.Z.n.M.S.Z.t.R.Q.=X7X6X6X*X+X8XD.<.,./ ^ ) ` ) ` ` ` ` ` / / ` ` ` ` ` ` ` ` ` ` M e 7 - i - 4 4 4 4 4 4 4 4 4 4 4 4 4 4 4 4 4 4 4 4 4 4 9 w + + + + + + + + @ @ @ @ @ @ @ @ @ @ @ @ @ @ @ @ @ @ @ @ @ @ @ @ @ @ @ @ @ @ @ @ @ @ @ @ @ @ @ @ @ @ @ @ @ @ @ @ @ @ @ @ @ @ @ @ @ @ @ @ @ @ @ + + + + + + + ; w 4 4 4 4 9 9 9 w 4 4 4 4 4 4 4 4 4 4 4 4 4 4 4 9 1 7 q : u 1./ ) ` ` ) ` ` ` ` ` / / ` ` ` ` ` ` / / / P <.#XwX*X7X6X6X6X6X6X,X,XA.A.A.i.iXnXi.A.A.Z.Z.Z.Z.Z.Z.H.Z.Z.Z.Z.Z.Z.Z.Z.Z.Z.Z.Z.Z.Z.Z.Z.Z.Z.Z.Z.Z.Z.Z.Z.Z.Z.Z.Z.Z.Z.Z.Z.Z.Z.Z.Z.Z.Z.Z.Z.A.OX8X6X*X6X=X=X*X6X+X1X2.N H.B.B.n.u.Y.fXGXGXDXCXCXCXCXbX=Xj.5.i.u.u.A.A.A.A.u.Z.Z.Z.Z.Z.Z.Z.Z.Z.Z.Z.Z.Z.Z.Z.Z.Z.Z.Z.Z.Z.Z.Z.Z.Z.Z.Z.Z.Z.Z.Z.Z.Z.Z.Z.Z.Z.Z.Z.Z.Z.Z.Z.Z.Z.Z.Z.Z.Z.Z.Z.Z.Z.Z.Z.Z.",
"Z.Z.Z.Z.Z.Z.Z.Z.Z.Z.Z.Z.Z.Z.Z.Z.Z.Z.Z.Z.Z.Z.Z.Z.Z.Z.Z.Z.Z.Z.Z.Z.Z.Z.Z.Z.Z.Z.Z.Z.Z.Z.Z.Z.Z.Z.Z.Z.Z.Z.Z.Z.Z.Z.Z.Z.Z.Z.Z.Z.Z.Z.Z.Z.Z.Z.Z.S.S.w.S.OX1X6X+XU.i.u.Z.S.l.) ~ Z.@X8X*X-X=X%X*X*X,XT.D.A.i.Y.vXnXA.6.J.Z.Z.Z.Z.Z.Z.Z.Z.Z.Z.Z.Z.Z.Z.Z.Z.Z.Z.Z.Z.Z.Z.Z.Z.Z.Z.Z.Z.Z.Z.Z.Z.Z.Z.Z.Z.Z.Z.Z.Z.Z.Z.Z.Z.Z.S.S.Z.u.R.Q.=X7X7X6X*X+X8XA.<.,./ ^ ) ` ` ` ` 3.3.3./ / / / ` ` ` ` ` ` ` 1.n e 7 ; r ; 4 4 4 4 4 4 4 4 4 4 4 4 4 4 4 4 4 4 4 4 4 4 4 9 + + + + + + + + @ @ @ @ @ @ @ @ @ @ @ @ @ @ @ @ @ @ @ @ @ @ @ @ @ @ @ @ @ @ @ @ @ @ @ @ @ @ @ @ @ @ @ @ @ @ @ @ @ @ @ @ @ @ @ @ @ @ @ @ @ @ @ + + + + + + + ; w 4 4 4 4 4 9 9 9 4 4 4 4 4 4 4 4 4 4 4 4 4 4 4 4 4 9 9 : y ,./ ) ` ` ) ` ` ` ` ` / / ` ` ` ` ` ` / / / P <.#XwX*X6X6X6X6X6X6X6X,XA.i.A.i.uXmXT.i.Z.Z.Z.Z.Z.Z.Z.Z.Z.Z.Z.Z.Z.Z.Z.Z.Z.Z.Z.Z.Z.Z.Z.Z.Z.Z.Z.Z.Z.Z.Z.Z.Z.Z.Z.Z.Z.Z.Z.Z.Z.Z.Z.Z.Z.Z.Z.Z.A.OX1X6X*X7X=X=X=X6X+X1XA.L n.B.C.B.w.i.%XNXCXBXBXJXFXFXAXCXNXgX+XT.A.u.u.A.A.D.Z.Z.Z.Z.Z.Z.Z.Z.Z.Z.Z.Z.Z.Z.Z.Z.Z.Z.Z.Z.Z.Z.Z.Z.Z.Z.Z.Z.Z.Z.Z.Z.Z.Z.Z.Z.Z.Z.Z.Z.Z.Z.Z.Z.Z.Z.Z.Z.Z.Z.Z.Z.Z.Z.Z.Z.",
"Z.Z.Z.Z.Z.Z.Z.Z.Z.Z.Z.Z.Z.Z.Z.Z.Z.Z.Z.Z.Z.Z.Z.Z.Z.Z.Z.Z.Z.Z.Z.S.Z.S.Z.S.Z.S.Z.S.Z.S.Z.S.H.S.H.S.Z.S.Z.S.Z.S.H.S.Z.S.Z.S.F.H.Z.Z.F.Z.H.S.M.e.S.[.1XOXD.A.Z.S.n.b.` ! ~ H.1X+X*X-X=X=X*X6X,XT.H.Z.7.W.mXvXA.6.J.Z.Z.S.S.Z.Z.Z.Z.Z.Z.Z.Z.Z.Z.Z.Z.Z.Z.Z.Z.Z.Z.Z.Z.Z.Z.Z.Z.Z.Z.Z.Z.Z.Z.Z.Z.Z.Z.Z.Z.Z.Z.Z.Z.S.S.Z.A.i.R.Q.=X7X7X6X*X,X,XA.<.~ ` ^ ) ` ` ` 3.3.3.3./ / / ` ` ` ` ` ` ` / 1.f 7 q ; w 9 4 4 4 4 4 4 4 4 4 4 4 4 4 4 4 4 4 4 4 4 4 4 4 4 + + + + + + + + @ @ @ @ @ @ @ @ @ @ @ @ @ @ @ @ @ @ @ @ @ @ @ @ @ @ @ @ @ @ @ @ @ @ @ @ @ @ @ @ @ @ @ @ @ @ @ @ @ @ @ @ @ @ @ @ @ @ @ @ @ @ @ + + + + + + + ; 9 4 4 4 4 4 4 4 4 4 4 4 4 4 4 4 4 4 4 4 4 4 4 4 4 9 9 9 = y L ` / ` ` / ` ` ` ` ` / / ) ` 3.` ` ` / / / P ,.OXqX*X6X6X6X6X6X6X6X,XU.t.A.i.,XmX0X6.A.Z.Z.Z.Z.Z.Z.Z.Z.Z.Z.Z.Z.Z.Z.Z.Z.Z.Z.Z.Z.Z.Z.Z.Z.Z.Z.Z.Z.Z.Z.Z.Z.Z.Z.Z.Z.Z.Z.Z.Z.Z.Z.Z.Z.Z.Z.Z.A.J.,X6X6X7X=X=X=X7XR.1XT.~ / B.C.C.n.t.h.&XcXCXCXzXzXzXCXCXVXbXnXuX8XOXD.D.A.A.Z.Z.Z.Z.Z.Z.Z.Z.Z.Z.Z.Z.Z.Z.Z.Z.Z.Z.Z.Z.Z.Z.Z.Z.Z.Z.Z.Z.Z.Z.Z.Z.Z.Z.Z.Z.Z.Z.Z.Z.Z.Z.Z.Z.Z.Z.Z.Z.Z.Z.Z.Z.Z.Z.Z.Z.",
"Z.Z.Z.Z.Z.Z.Z.Z.Z.Z.Z.Z.Z.Z.Z.Z.Z.M.Z.M.Z.M.Z.M.Z.M.Z.M.Z.M.Z.S.H.H.H.H.H.H.H.H.Z.S.Z.S.S.S.S.S.Z.S.Z.S.Z.S.S.S.Z.S.Z.S.Z.S.Z.Z.Z.Z.H.M.n.w.M.S.H.A.A.H.H.M.b.) ) ! 3.].4X+X%X:X;X-X*X8X,XJ.H.A.7.=XmXvXA.6.A.Z.Z.S.S.S.Z.Z.Z.Z.Z.Z.Z.Z.Z.Z.Z.Z.Z.Z.Z.Z.Z.Z.Z.Z.Z.Z.Z.Z.Z.Z.Z.Z.Z.Z.Z.Z.Z.Z.Z.Z.Z.Z.Z.S.S.u.A.A.*X6X=X7X7X6X*X,X+Xu.:.~ ` ^ ) ` ` ` 3.3.3.3.,./ ` ` ` ` ` ` ` ` / 1.u - q 4 9 q 4 4 4 4 4 4 4 4 4 4 4 4 4 4 4 4 4 4 4 4 4 4 5 ; + + + + + + + + @ @ @ @ @ @ @ @ @ @ @ @ @ @ @ @ @ @ @ @ @ @ @ @ @ @ @ @ @ @ @ @ @ @ @ @ @ @ @ @ @ @ @ @ @ @ @ @ @ @ @ @ @ @ @ @ @ @ @ @ @ @ @ + + + + + + + = 4 9 4 4 4 4 4 4 4 4 4 4 4 4 4 4 4 4 4 4 4 4 4 4 4 9 9 9 - q n 1.` ` ` / ` ` ` ` ` / / ` ` 3.` ` ` / ^ / ~ ,.D.8X*X6X6X6X6X6X6X6X,XT.6.A.i.U.nXnXi.Z.Z.Z.H.H.Z.Z.Z.Z.Z.Z.Z.Z.Z.Z.Z.Z.Z.Z.Z.Z.Z.Z.Z.Z.Z.Z.Z.Z.Z.Z.Z.Z.Z.Z.Z.Z.Z.Z.Z.Z.Z.Z.Z.Z.Z.Z.Z.A.D.OX,X6X6X=X=X7X7XR.1X2X1.K b.V.C.M.w.t.h.&XhXGXGXFXCXCXCXAXZXmXnXnXuXqX,XD.A.Z.Z.Z.Z.Z.Z.Z.Z.Z.Z.Z.Z.Z.Z.Z.Z.Z.Z.Z.Z.Z.Z.Z.Z.Z.Z.Z.Z.Z.Z.Z.Z.Z.Z.Z.Z.Z.Z.Z.Z.Z.Z.Z.Z.Z.Z.Z.Z.Z.Z.Z.Z.Z.Z.Z.Z.",
"Z.Z.Z.Z.Z.Z.Z.Z.Z.Z.Z.Z.Z.Z.Z.Z.S.S.S.S.S.S.S.S.S.M.S.M.S.M.S.M.M.M.M.M.M.M.M.M.M.M.M.M.M.M.M.M.M.M.M.M.M.M.M.M.M.M.M.M.M.M.M.M.Z.S.M.n.n.n.n.n.n.n.n.M.n.+._ T ( ^ n.<X4X+X%X-X;X-X*X6XOXD.Z.J.7.lXZXuXA.u.D.H.Z.S.S.S.Z.Z.Z.Z.Z.Z.Z.Z.Z.Z.Z.Z.Z.Z.Z.Z.Z.Z.Z.Z.Z.Z.Z.Z.Z.Z.Z.Z.Z.Z.Z.Z.Z.Z.Z.Z.Z.Z.Z.H.S.u.A.U.6X6X7X7X=X*X-X,X+Xt.:.~ ` ^ _ ` ` ` 3.3.3.` ,./ ,.3.` ` ` ` ` ` / ~ r = q 9 1 q 4 4 4 4 4 4 4 4 4 4 4 4 4 4 4 4 4 4 4 4 9 4 ; = + + + + + + + + @ @ @ @ @ @ @ @ @ @ @ @ @ @ @ @ @ @ @ @ @ @ @ @ @ @ @ @ @ @ @ @ @ @ @ @ @ @ @ @ @ @ @ @ @ @ @ @ @ @ @ @ @ @ @ @ @ @ @ @ @ @ @ + + + + + + + & ; 9 4 4 4 4 4 4 4 4 4 4 4 4 4 4 4 4 4 4 4 4 4 4 4 9 9 9 ; 9 j 1./ ` ) ` ` ` ` ` ` / / ` ` 3.` ` ` ` ^ / ~ ,.D.6X*X6X6X6X6X6X6X6X,XR.i.i.A.A.vXZXU.Z.Z.Z.H.H.Z.Z.Z.Z.Z.Z.Z.Z.Z.Z.Z.Z.Z.Z.Z.Z.Z.Z.Z.Z.Z.Z.Z.Z.Z.Z.Z.Z.Z.Z.Z.Z.Z.Z.Z.Z.Z.Z.Z.Z.Z.Z.Z.Z.D.OX,X6X=X=X=X7X6XR.,X4XZ.K 1.b.N.C.S.s.t.h.oXjXkXkXkXkXbXbXvXnXnXnXnXnXnXyXqXA.Z.Z.Z.F.F.F.Z.Z.Z.Z.Z.Z.Z.Z.Z.Z.Z.Z.Z.Z.Z.Z.Z.Z.Z.Z.Z.Z.Z.Z.Z.Z.Z.Z.Z.Z.Z.Z.Z.Z.Z.Z.Z.Z.Z.Z.Z.Z.Z.Z.Z.Z.Z.Z.Z.",
"Z.Z.Z.Z.Z.Z.Z.Z.Z.Z.Z.Z.Z.Z.Z.Z.S.M.S.M.S.M.S.M.S.M.S.M.S.M.S.M.S.M.S.M.S.M.S.M.H.H.H.H.H.C.H.H.H.H.H.H.H.H.H.H.H.H.H.H.H.H.H.H.H.H.H.M.B.C.C.n.n.n.w.` ) W W W Y ` H.<X4X*X*X-X%X-X*X1XOXZ.M.H.g.cXZX9Xi.i.D.H.Z.S.S.S.Z.Z.Z.Z.Z.Z.Z.Z.Z.Z.Z.Z.Z.Z.Z.Z.Z.Z.Z.Z.Z.Z.Z.Z.Z.Z.Z.Z.Z.Z.Z.Z.Z.Z.Z.Z.Z.Z.Z.H.S.w.A.T.6X7X7X7X=X*X-X1XU.6.:.~ { ^ _ ` ) ` 3.3.3.3./ / 3.3.` ` ` ` ` ` 3.M 7 ; 9 9 4 9 4 4 4 4 4 4 4 4 4 4 4 4 4 4 4 4 4 4 4 9 9 4 ; & + + + + + + + + @ @ @ @ @ @ @ @ @ @ @ @ @ @ @ @ @ @ @ @ @ @ @ @ @ @ @ @ @ @ @ @ @ @ @ @ @ @ @ @ @ @ @ @ @ @ @ @ @ @ @ @ @ @ @ @ @ @ @ @ @ @ @ + + + + + & + + = 4 4 4 4 4 4 4 4 4 4 4 4 4 4 4 4 4 4 4 4 4 4 4 4 4 9 4 7 ; g 1./ ` ) ` ` ` ` ` ` / / ` ` 3.` ` ` ` ^ / / =.u.+X*X6X6X6X6X6X6X,X,X+XA.i.A.i.0XZX,XA.Z.Z.Z.Z.Z.Z.Z.Z.Z.Z.Z.Z.Z.Z.Z.Z.Z.Z.Z.Z.Z.Z.Z.Z.Z.Z.Z.Z.Z.Z.Z.Z.Z.Z.Z.Z.Z.Z.Z.Z.Z.Z.Z.Z.Z.Z.Z.Z.S.D.,X6X=X=X=X7XQ.6X,X4X'.~ ` X.l.B.H.S.s.s.a.i.I.E.E.E.I.D.U.i.t.t.i.i.i.i.u.A.A.Z.Z.F.F.F.Z.Z.Z.Z.Z.Z.Z.Z.Z.Z.Z.Z.Z.Z.Z.Z.Z.Z.Z.Z.Z.Z.Z.Z.Z.Z.Z.Z.Z.Z.Z.Z.Z.Z.Z.Z.Z.Z.Z.Z.Z.Z.Z.Z.Z.Z.Z.Z.Z.",
"Z.Z.Z.Z.Z.Z.Z.Z.Z.Z.Z.Z.Z.Z.Z.Z.M.M.M.M.M.M.M.M.M.B.M.B.M.B.B.B.M.M.M.M.M.M.M.M.M.M.M.M.M.M.M.M.n.B.n.B.B.B.B.n.n.n.n.B.n.B.n.n.n.M.B.b.b.m.m.q.w.1./ ^ T T Q W Y b. X3X1X-X-X%X%X%X*X+XJ.Z.M.H.I.bXZX*Xi.A.D.H.Z.S.S.S.Z.Z.Z.Z.Z.Z.Z.Z.Z.Z.Z.Z.Z.Z.Z.Z.Z.Z.Z.Z.Z.Z.Z.Z.Z.Z.Z.Z.Z.Z.Z.Z.Z.Z.Z.Z.Z.Z.Z.H.H.0.A.R.6X7X7X7X=X*X-X1XU.<.=./ { { _ ` ) ` 3.3.3.3.,.,.3.3.` ` ` ` ` ` 1.k = q 7 q 9 4 4 4 4 4 4 4 4 4 4 4 4 4 4 4 4 4 4 4 4 9 9 4 = + + + + + + + + + @ @ @ @ @ @ @ @ @ @ @ @ @ @ @ @ @ @ @ @ @ @ @ @ @ @ @ @ @ @ @ @ @ @ @ @ @ @ @ @ @ @ @ @ @ @ @ @ @ @ @ @ @ @ @ @ @ @ @ @ @ @ @ + & + + & & + + + 4 4 4 4 4 9 9 9 4 4 4 4 4 4 4 4 4 4 4 4 4 4 4 4 4 9 4 q ; u 1.) ` ) ` ` ` ` ` ` / / ` ` ` ` ` ` ` ^ / / P t.#X*X6X6X6X6X6X6X6X6X+XT.7.A.i.*XmXwXZ.Z.Z.Z.Z.Z.Z.Z.Z.Z.Z.Z.Z.Z.Z.Z.Z.Z.Z.Z.Z.Z.Z.Z.Z.Z.Z.Z.Z.Z.Z.Z.Z.Z.Z.Z.Z.Z.Z.Z.Z.Z.Z.Z.Z.Z.Z.S.Z.u.D.,X9X6X=X=X7XY.6X,X5X5X1.! o.o.l.B.M.e.e.u.u.A.G.A.Z.n.w.u.U.h.i.i.i.i.A.u.A.A.Z.Z.F.F.F.Z.Z.Z.Z.Z.Z.Z.Z.Z.Z.Z.Z.Z.Z.Z.Z.Z.Z.Z.Z.Z.Z.Z.Z.Z.Z.Z.Z.Z.Z.Z.Z.Z.Z.Z.Z.Z.Z.Z.Z.Z.Z.Z.Z.Z.Z.Z.Z.Z.",
"M.M.M.M.M.M.M.S.S.S.S.S.S.S.S.M.B.B.B.B.B.B.B.B.b.b.b.b.b.b.b.b.q.q.q.q.q.q.q.q.1.1.1.1.` 1.` 1.) ) ) ) ) / / / / / ) ) ) ) ) / ) 3./ ~ ^ / ) ! ! ! ! ^ _ _ W W Y M.5X2X,X9X=X%X%X=X*X+XD.w.n.H.Y.ZXZXR.i.D.H.S.S.M.M.S.Z.Z.Z.Z.Z.Z.Z.Z.Z.Z.Z.Z.Z.Z.Z.Z.Z.Z.Z.Z.Z.Z.Z.Z.Z.Z.Z.Z.Z.Z.Z.Z.Z.Z.Z.Z.H.Z.Z.H.H.w.A.+X6X7X7X7X=X*X-X1XD.<.~ / { ` ^ ` ` ` 3.3.3.3.,./ ` ` ` ` ` ` ` 3.1.j * q ; q 0 1 4 4 4 4 4 4 4 4 4 4 4 4 4 4 4 4 4 4 4 4 9 4 = + + + + + + + + + @ @ @ @ @ @ @ @ @ @ @ @ @ @ @ @ @ @ @ @ @ @ @ @ @ @ @ @ @ @ @ @ @ @ @ @ @ @ @ @ @ @ @ @ @ @ @ @ @ @ @ @ @ @ @ @ @ @ @ @ @ @ @ + & + + & & + + + 4 4 4 4 9 9 9 w 4 4 4 4 4 4 4 4 4 4 4 4 4 4 4 4 4 9 9 q = y 1.) ` ) ) ` ` ` ` ` ` ` ` ` ` ` ` ` / ^ ] / P 0.#X8X6X6X6X6X6X6X6X,X+XOX6.A.A.Y.mXvXA.Z.Z.Z.Z.Z.H.H.Z.Z.Z.Z.Z.Z.Z.Z.Z.Z.Z.Z.Z.Z.Z.Z.Z.Z.Z.Z.Z.Z.Z.Z.Z.Z.Z.Z.Z.Z.Z.Z.Z.Z.Z.Z.Z.Z.Z.S.Z.Z.D.,X6X=X!.=X9XE.wX6XOX4Xw.M o.) ) b.C.M.M.M.w.n.Z.F.M.M.C.H.u.u.u.i.A.A.Z.Z.Z.Z.Z.Z.F.F.F.F.Z.Z.Z.Z.Z.Z.Z.Z.Z.Z.Z.Z.Z.Z.Z.Z.S.M.M.M.M.M.M.M.M.M.M.M.M.M.M.M.M.M.M.M.M.M.M.M.M.M.M.M.B.B.F.M.",
"{ { { { ` { ` ` ` ` ` ) ) ) ^ ^ ) _ ) ) ) ) ) ) ! ! ! ) ) ) _ ) ) ^ ^ ^ ^ ^ ^ ^ ! ! ! ! ! ! ! ! ! ! ^ ^ ! ! ! ! ! ! ! ! ! ! ! ! K L ~ ~ ~ ~ / / K K K ~ ! ! ^ / ].OX,X8X8X7X=X=X=X=X+X+X>.w.w.A.;XcXxX%Xi.A.H.S.C.C.B.n.n.B.H.H.F.Z.Z.Z.Z.Z.Z.Z.Z.Z.Z.S.S.S.S.S.S.S.S.S.S.S.S.S.S.S.S.S.S.S.S.Z.J.Z.Z.H.Z.w.D.#X6X*X=X=X=X*X+X1XZ.1.~ ) / / ) ` ` ` ` ` ` ` ` ` / ` ` ` 1./ / ~ 3.q 1 w 1 9 4 4 4 4 4 4 4 4 4 4 4 4 4 4 4 4 4 4 9 3 4 9 4 = + + + + + + + + @ @ @ @ @ @ @ @ @ @ @ @ @ @ @ @ @ @ @ @ @ @ @ @ @ @ @ @ @ @ @ @ @ @ @ @ @ @ @ @ @ @ @ @ @ @ @ @ @ @ @ @ @ @ @ @ @ @ @ @ @ @ @ @ @ + + + + + + + + + = 5 4 4 4 9 9 4 4 4 4 4 4 4 4 4 4 4 4 4 4 4 4 4 ; 9 q 4 q 7 N 3.3.` ` ) ` / ` ` ` ` ` ` ` ` ` / ) ` / / ,.<.H.yX1X*X*X*X=X6X6X6XOXOXu.D.i.g.VXZXqXz.z. XH.n.F.M.F.H.F.F.F.F.F.G.F.Z.F.Z.F.Z.F.Z.F.Z.F.S.F.Z.F.Z.H.H.H.H.Z.Z.Z.Z.H.H.S.S.S.S.S.Z.S.S.Z.T.0X6XQ.=X~.=X=X*X8X1Xu.N ) ) ) ) ) b.B.C.B.B.V.C.C.V.C.C.H.H.H.H.H.H.H.P.H.H.H.H.H.H.H.H.H.F.F.F.F.H.F.B.Z.M.Z.M.Z.M.Z.M.b.b.m.m.m.m.b.b.b.b.b.b.b.b.b.b.{ { { { { { { { ` ` X.X.X.X.X.X.",
"Y Y Y Y Y H ! K K K K K K K H H ! ! ! ! ! ! ! ! M C M ! ! ! ! ! ! ! ! ! ^ ! ^ ! ) ^ ) ^ ) ) ) ) K K K K ~ / ) / ` / ` / ` / ` / ,.,.,.,.1.,.1.1.S.S.H.D.H.D.H.J.OX+X+X6X7X7X=X=X=X7X*X,X,.w.w.S.9XVXMX-Xi.t.Z.S.M.H.H.H.H.B.z.z.Z.Z.Z.Z.Z.Z.Z.Z.Z.Z.Z.Z.S.S.S.S.S.S.S.S.S.S.S.S.S.S.S.S.S.S.S.Z.J.Z.Z.Z.Z.u.D.+X*X*X=X=X6X*X,X2Xn.` ) / ` / / ` ` ` ` ` ` ` ` ` ` ` ` ` / / 3.3.:.q 1 q 4 4 4 4 4 4 4 4 4 4 4 4 4 4 4 4 4 4 4 4 9 4 4 9 4 : + + + + + + @ @ @ @ @ @ @ @ @ @ @ @ @ @ @ @ @ @ @ @ @ @ @ @ @ @ @ @ @ @ @ @ @ @ @ @ @ @ @ @ @ @ @ @ @ @ @ @ @ @ @ @ @ @ @ @ @ @ @ @ @ @ @ @ @ @ @ + + + + + + + + + + ; 4 4 4 4 9 4 4 4 4 4 4 4 4 4 4 4 4 4 4 4 4 4 3 4 9 9 q ; M 1.3.` / ` ` ` ` ` ` ` ` ` ` ` / / ) ` / / ,.,.S.yX1X*X*X=X=X=X6X6X@XOXw.a.i.g.kXVXvXG.c.J.Z.Z.H.H.S.F.F.F.F.F.G.G.Z.Z.Z.Z.Z.Z.Z.Z.Z.Z.Z.Z.Z.Z.Z.Z.Z.Z.Z.Z.Z.Z.Z.Z.Z.Z.S.S.S.S.Z.Z.H.J.G.>X0X6XQ.=XQ.=X=X*X*X-XU.<.M ! ) ) X.X.X.X.N.N.N.V.V.V.V.V.l.l.l.l.l.l.l.l.` ` ` ` ` X.` X.` ` ` ` ` ` ` ` ) ) ) ) ) ) ) ) ) ^ ) ^ ) ^ ) ^ ! ! ! ! ! ! ^ ^ Y T Y Y ! Y Y Y ^ ^ _ _ ( ( ( ( ",
") ) ) ) / / ,.,.3.3.3.,.1.,.3.3.1.1.1.1.1.1.1.1.w.w.w.n.n.n.n.n.M.M.Z.M.Z.M.Z.M.J.J.H.H.H.H.H.H.'.[.].]. X].>X>X<X<X<X<X<X<X<X<X>X>X>X>X<X<X<X<X<X<X<X1X<X<X2X2X,X+X*X6X=X=X=X=X=X6X8XOX:.9.B.S.gXSXZX;Xj.y.A.D.w.n.n.Z.Z.G.J.J.Z.Z.Z.Z.Z.Z.Z.Z.Z.Z.Z.Z.Z.Z.Z.Z.Z.Z.Z.Z.Z.Z.Z.Z.Z.Z.Z.Z.Z.Z.Z.Z.J.Z.Z.Z.Z.u.D.+X*X=X=X=X6X6X6X,X1.` ) ` ` ` / / ` ` ` ` ` ` ` ` ` ` / / / 1.1.1.M q 1 0 4 0 4 0 4 4 4 4 4 4 4 4 4 4 4 4 4 4 4 4 4 4 9 4 ; & + + + + + + @ @ @ @ @ @ @ @ @ @ @ @ @ @ @ @ @ @ @ @ @ @ @ @ @ @ @ @ @ @ @ @ @ @ @ @ @ @ @ @ @ @ @ @ @ @ @ @ @ @ @ @ @ @ @ @ @ @ @ @ @ @ @ @ @ @ @ + + + + + + + + + + ; 4 9 4 4 4 4 4 4 4 4 4 4 4 4 4 4 4 4 4 4 4 4 9 4 9 q q = h 1.3.` ` ` ` ` ` ` ` ` ` ` ` ` / / / ` / / ,.,.Z.4X1X*X*X=X=X=X6X,X1X].w.a.i.7.9XbXvXT.6.Z.Z.A.H.H.Z.Z.Z.Z.Z.Z.Z.Z.Z.Z.Z.Z.Z.Z.Z.Z.Z.Z.Z.Z.Z.Z.Z.Z.Z.Z.Z.Z.Z.Z.S.S.Z.S.S.Z.H.H.H.H.n.M.Z.J.6X6X6XgX!.=X=XQ.*X-X+XOX~ ) ^ ) ` ` ) ^ ! ! ! ! ! ! ! ! _ _ _ _ _ _ _ _ _ _ _ _ _ _ _ _ ^ ^ ^ ^ ^ ^ _ ^ ^ ^ ^ ^ ^ ^ ^ ^ ^ ) ) ) ) ) ) ) ^ ! ^ ) ) ) ) ) / / / / ) ) ) ) ! ! ^ ! ! ! ! ! ",
"H.J.J.J.J.J.J.].J.J.OXOXOXOXOXOXOXOXOXOX@X@X>X@X1X1X1X1X2X2X2X2X1X4X4X4X4X4X4X4XqX4XqX4XqX4XqXqXqXqXqX4X1X1X1X1X1X1X1X1X1X1X1X1X1X1X1X1X1X1X1X1X#X,X,X1X1X1X1X1X6X6X6X*X=X=X=X=X*X6X8X[.,.1.C.D.xXSXZXgXY.i.i.u.D.D.A.A.A.A.7.A.Z.Z.Z.Z.Z.Z.Z.Z.Z.Z.Z.Z.Z.Z.Z.Z.Z.Z.Z.Z.Z.Z.Z.Z.Z.Z.Z.Z.Z.Z.Z.Z.G.Z.Z.Z.Z.A.D.+X*X=X=X=X6X6X6X@X3./ ) ` ` ` ` / ` ` ` ` ` ` ` ` ` ` / / / ` 1.1.h 8 4 9 4 0 4 0 4 4 4 4 4 4 4 4 4 4 4 4 4 4 4 4 4 9 0 4 = + + + + + + + @ @ @ @ @ @ @ @ @ @ @ @ @ @ @ @ @ @ @ @ @ @ @ @ @ @ @ @ @ @ @ @ @ @ @ @ @ @ @ @ @ @ @ @ @ @ @ @ @ @ @ @ @ @ @ @ @ @ @ @ @ @ @ @ @ @ @ + + + + + + + + + + = 4 9 4 5 4 4 4 4 4 4 4 4 4 4 4 4 4 4 4 4 4 4 9 4 4 q 9 = u 1.3.` ` ` ` ` ` ` ` ` ` ` ` ` / / / ` / / ,.,.w.<X,X*X*X=X=X=X6X6X1XOXu.u.i.7.Q.mXvX+Xi.i.A.A.A.u.H.S.S.H.Z.Z.Z.H.Z.A.Z.A.Z.A.Z.A.A.A.A.A.Z.Z.Z.S.S.M.S.S.S.S.S.H.Z.Z.Z.Z.Z.S.S.S.M.M.2.Z.,X6X7X9X=X=X=X=X*X*X8X1XH.n.) K ! ! ! ! ~ ~ ) ) ) ) ) ) H H H H H H Y Y H H H H Y Y ^ ^ H H H T T ^ ^ ^ ^ ^ ^ ^ ^ ^ ^ ^ ) ~ ~ ~ ~ ~ ~ ~ ~ ~ ~ ~ ,.,.3.3.,.,.,.,.<.,.,.,.n.n.n.n.M.M.M.M.",
",X,X,X,X1X8X8X8X,X,X,X,X6X6X6X8X*X*X-X-X8X9X8X8X-X-X8X-X8X-X9X8X6X6X6X6X6X6X6X6X6X6X6X6X6X6X6X6X6X6X6X6X*X+XR.R.6X6X6X6X6X6X6X*X+X+X+X+X+X+X+X+X+X+X6X6X6X6X6X6X6X6X*X=X=X=X=X=X*X6X4XZ./ ` `.H.mXAXZXMX;XY.g.i.4.6.A.U.U.I.7.7.A.Z.Z.Z.Z.Z.Z.A.A.A.A.Z.A.Z.Z.Z.Z.Z.Z.Z.Z.Z.Z.Z.Z.Z.Z.Z.Z.Z.Z.Z.Z.Z.Z.H.Z.S.OX1X+X*X=X=X6X9X,XOX/ / / ` ` ` ` ) ` ` ` ` ` ` ` ` ` ` ` / / ` 3.3.u 8 4 4 4 0 5 0 4 4 4 4 4 4 4 4 4 4 4 4 4 4 4 4 4 9 9 3 : + + + + + + + @ @ @ @ @ @ @ @ @ @ @ @ @ @ @ @ @ @ @ @ @ @ @ @ @ @ @ @ @ @ @ @ @ @ @ @ @ @ @ @ @ @ @ @ @ @ @ @ @ @ @ @ @ @ @ @ @ @ @ @ @ @ @ @ @ @ @ + + + + + + + + + X & 5 9 4 4 4 4 4 4 4 4 4 4 4 4 4 4 4 4 4 4 4 4 9 4 1 q 9 = r 3.3.` ` ` ` ` ` ` ` ` ` ` ` ) / / / ` ~ / ,.,.w.@X6X*X=X=X=X=X*X*X1XOXS.0.i.i.R.mXmXqXa.t.i.D.S.S.M.M.M.M.M.M.C.C.S.p.A.p.Z.Z.Z.Z.Z.u.Z.u.Z.Z.Z.S.n.B.B.B.M.M.M.S.M.M.Z.Z.Z.Z.Z.Z. XH.2.6.+XwX6X=X!.=X=X=X*X*X*X1X<XJ.w.~ ~ ,.1.1.~ ~ ~ ~ :.:.,.,.w.w.9.9.9.9.w.w.w.w.w.w.w.n.n.n.M.M.S.S.S.S.D.D.D.D.D.D.H.H.H.H.<X2X2X2X2X2X2X2X>X>X,X2X2X2X1X1X2X1X1X1X1X4X4X4X2X2X2X2X2X2X2X2X",
"=X*X*X6X6X6X6X6X6X,X6X6X6X6X6X6X*X%X%X*X-X*X-X-X%X%X*X*X*X*X*X*X=X=X=X=X=X=X=X=X=X=X=X=X=X=X=X=X7X7X7X7X7X7X7X7X7X7X7X7X7X7X7X7X7X6X6X6X6X6X6X9X*X*X*X*X*X*X*X*X6X6X*X=X=X=X=X6X6X,X2X2.) ` }.C.xXcXbXmXmXnXuXwXU.A.i.7.7.g.E.T.Z.Z.Z.Z.Z.Z.Z.Z.Z.Z.Z.Z.Z.Z.Z.Z.Z.Z.Z.Z.Z.Z.Z.Z.Z.Z.Z.Z.Z.Z.Z.Z.Z.Z.F.H.H.D.OX8X*X=X7X=X6X8X#XD.~ / ` / / ` ` ) ` ` ` ` ` ` ` ` / / / / ` / ~ ~ t 7 9 1 4 0 1 w 4 4 4 4 4 4 4 4 4 4 4 4 4 4 4 4 4 9 4 = & + + + + + + + @ @ @ @ @ @ @ @ @ @ @ @ @ @ @ @ @ @ @ @ @ @ @ @ @ @ @ @ @ @ @ @ @ @ @ @ @ @ @ @ @ @ @ @ @ @ @ @ @ @ @ @ @ @ @ @ @ @ @ @ @ @ @ @ @ @ @ + + + + + + + + + + + ; 4 9 4 4 4 4 4 4 4 4 4 4 4 4 4 4 4 4 4 4 4 9 9 ; q 9 7 q ~ 3.` ` ` ` ` ` ` ` ` ` ` ` ) / / / ` ~ / ,.~ 1.J.6X*X=X=X=X=X*X*X#X@XD.,.t.A.A.nXmXvXh.;.t.u.u.D.S.M.M.M.M.M.C.M.M.p.S.p.S.S.S.S.S.p.S.p.S.S.S.S.M.C.C.C.M.M.S.S.H.H.H.Z.Z.Z.Z.Z.n.w.~ :.T.9X6X=X=X=X=X=X=X*X*X+X4X<XOX[.[.[.[.[.>X<X<X<X<X<X<X1X1X1X,X,X,X,X1X,X1X1X1X1X1X1XqX8XqX8X8XqXqXqXqXqXqXqXqXqXqXqXqXqX,X,X,X+X,X,X+X,X+X+X+X+X+X+X+X+X+X+X,X+X+X+X,X,X8X8X,X,X8X6X6X6X",
"=X=X=X=X=X*X6X*X6X6X*X*X*X*X*X*X=X*X=X*X=X-X-X-X-X-X-X-X-X-X-X-X=X7X7X7X7X7X7X7X7X7X7X=X=X=X=X=XQ.Q.Q.Q.!.=X!.=X=X!.=X=X=X=X=X=X=X=X=X=X=X=X=X=X=X=X=X=X=X=X=X=X6X6X*X=X=X=X7X6X6X+X5X,.) ` {.n.T.Y.*X9XpXuXiXnXnXuX1XT.i.7.7.6.Z.Z.Z.Z.Z.Z.Z.Z.Z.Z.Z.Z.Z.Z.Z.Z.Z.Z.Z.Z.Z.Z.Z.Z.Z.Z.Z.Z.Z.Z.Z.Z.Z.Z.H.Z.H.D.#X8X*X7X7X=X6X8X+XZ.~ ` ` ) ) ` ` ) ` ` ` ` ` ` ` ` ) / ` ` ` / ~ ~ q 8 0 1 4 0 ; 0 4 4 4 4 4 4 4 4 4 4 4 4 4 4 4 4 4 4 4 : & & & + + + + + @ @ @ @ @ @ @ @ @ @ @ @ @ @ @ @ @ @ @ @ @ @ @ @ @ @ @ @ @ @ @ @ @ @ @ @ @ @ @ @ @ @ @ @ @ @ @ @ @ @ @ @ @ @ @ @ @ @ @ @ @ @ @ @ @ @ @ + + + + + + + + + + + & 5 9 4 4 4 4 4 4 4 4 4 4 4 4 4 4 4 4 4 4 4 9 q 4 9 7 q ; B 3.` ` ` ` ` ` ` ` ` ` ` ` ` / / / ` ~ / 1.~ <.D.6X=X=X=X=X=X*X*X+X1XD.=.<.D.u.uXmXVX&Xf.j.g.t.i.u.u.u.Z.n.M.M.M.M.M.M.M.M.M.M.M.M.M.M.M.M.M.M.M.C.M.C.M.B.B.n.n.M.n.n.n.n.2.2.2.L :.=.>.T.8X7X=X=X&X=X=X=X=X*X*X8X8X8XqXqXqX8X8X,X,X,X,X,X,X,X6X6X6X6X6X6X6X6X6X6X6X6X6X6X6X6X6XQ.Q.Q.Q.=X=X=X=XQ.Q.Q.Q.Q.Q.Q.Q.7X8X9X9X9X9X9X9X6X6X6X6X6X6X6X6X7X7X7X7X7X6X6X6X*X*X6X6X*X*X*X*X",
"=X=X=X=X=X*X*X*X8X8X6X6X6X*X*X*X6X*X*X*X*X*X*X*X*X*X*X*X*X*X*X*X=X=X=X=X=X*X=X*X=X=X=X=X=X=X=X=X7X7X9X=X=X=XQ.Q.7X=X=X=X=X=X=X=X=X=X=X=X=X=X=X=X=X=X=X=X=X=X=X=X=X6X=X7X7X7X6X6X6XOX>X~ ) ) {.b.6.6.i.u.u.u.D.OXOX2XyXiXiXqXT.A.S.M.S.S.S.S.S.S.Z.Z.Z.Z.Z.Z.Z.Z.Z.Z.Z.Z.Z.Z.Z.Z.Z.Z.Z.Z.Z.Z.Z.Z.Z.H.H.S.H.D.#X8X*X7X7X=X6X8XOXu./ 1.` ) ~ / ` ) ` ` ` ` ` ` ` ` ) / ` 1.` ) ~ M 8 8 q 1 4 0 = 0 4 4 4 4 4 4 4 4 4 4 4 4 4 4 4 4 4 4 ; & & : : + + + + + @ @ @ @ @ @ @ @ @ @ @ @ @ @ @ @ @ @ @ @ @ @ @ @ @ @ @ @ @ @ @ @ @ @ @ @ @ @ @ @ @ @ @ @ @ @ @ @ @ @ @ @ @ @ @ @ @ @ @ @ @ @ @ @ @ @ @ + + + + + + + + + & + + ; 9 9 4 4 4 4 4 4 4 4 4 4 4 4 4 4 4 4 4 4 9 0 4 9 7 r = n 3.` ` ` ` ` ` ` ` ` ` ` ` ` / / ` ` ~ / 1.~ ,.D.6X=X=X=X=X=X*X*XY.8XOXB :.H.2.1XbXGXNX&XfX%Xf.g.7.i.i.u.Z.Z.Z.n.M.M.B.B.B.B.B.B.B.B.M.M.M.M.M.M.b.b.q.q.1.1.1.3.,.:.:.:.~ N N N <.Z.A.D.#X9X*X=X=X=XQ.=X7X=X6X6X*X*X*X*X*X*X*X*X*X*X*X*X*X*X6X*X6X7X7X=X7X*X7X7X6X=X=X=X=X=X=X=X=X=X=X=X=X=X=X=X=X=X=X=X=X=X=X=X=X=X=X=X=X=X=X=X=X=X=X=X=X=X=X=X=X=X=X=X=X=X=X=X=X=X=X=X6X=X7X=X",
"=X=X-X=X*X*X8X8X+X#X8X8XqX8X8X8X,X,X,X,X6X1X6X,X,X#X,X#X,X+X,X+X*X*X*X*X*X*X*X*X*X*X*X*X*X*X*X*X*X*X*X*X=X*X=X*X*X*X*X*X*X*X*X*X=X=X=X=X=X=X=X=X=X=X=X=X=X=X=X=X=X*X=X6X=X6X6X8X6X,XD.:.M ) ) ^ 1.<.2.w.w.n.M.M.n.n.S.H.'.<X3X3X.X X'.H.C.M.M.M.M.C.C.C.H.H.M.M.Z.Z.Z.Z.S.S.Z.Z.Z.Z.Z.Z.M.Z.Z.Z.H.n.H.H.n.D.qX+X*XQ.=X7X+X8X@X:.,.` ` ` ` ` ` ` ` ` ` ` ` ` ` ` 9./ ` 1.1.K M.g 8 8 9 9 4 4 4 4 4 4 4 4 4 4 4 4 4 4 4 4 4 4 4 4 0 4 : + + & & + + + + + @ @ @ @ @ @ @ @ @ @ @ @ @ @ @ @ @ @ @ @ @ @ @ @ @ @ @ @ @ @ @ @ @ @ @ @ @ @ @ @ @ @ @ @ @ @ @ @ @ @ @ @ @ @ @ @ @ @ @ @ @ @ @ @ @ @ @ + + + + + + + + + + + + & 5 w w 5 4 4 4 4 4 4 4 4 4 4 4 4 4 4 4 4 q 4 7 q 9 ; q u 1./ ! 1.` ) q.! ` ` ` ` ` ` / / ) ) / / ~ ,.<.2.6X7X=X=X=X=X*X*XR.6X1X:.N 1./ 2XZXCXCXCXCXCXVXkXlX7X).).0X6X/.J.C.V.V.m.m.b.b.b.{ ` ` ` ) ) ) ) ! K K K K K M N :.>.<.6.A.J.OX>X<X<X1X1X,X*X*X=X=X=X=X=XQ.Q.=X7X=X=X=X=X=X=X=X=X=X=X=X=X=X=X=X=X*X*X*X*X*X*X*X*X*X*X*X-X*X*X*X*X*X*X*X*X*X*X*X*X*X*X*X6X6X6X*X*X=X=X=X=X=X=X=X=X=X=X=X=X=X=X=X=X=X=X=X=X=X=X=X=X9X=X=X=X7X=X7X=X",
"=X=X-X*X*X#X#X1X1X@XD.S.A.D.D.T.>X>X>X5X2X2X2X2X4X4X4X4X4X4X4XqX,X+X+X+X#X#X#X#X8X8X8X8X8X8X8X8X+X+X+X+X+X*X*X6X6X6X6X6X,X,X,X+X*X*X*X*X*X*X*X*X*X*X=X=X*X*X*X*X=X=X*X*X*X*X6X6X6X8XOXw.1.1.1.) M ! ! ! ~ ~ / / / ` 1.1.b.n.B.C.'.'.'.C.C.M.B.B.m.m.B.B.M.B.M.B.M.S.S.S.H.S.H.H.Z.S.Z.S.H.H.H.H.F.n.H.H.Z.[.qX+X*XQ.=X7X+X1XOX,./ ` ` ` ` ` ` ` ` ` ` ` ` ` ` ` { ) 1./ / ~ n.u 8 8 9 9 4 4 4 4 4 4 4 4 4 4 4 4 4 4 4 4 4 4 4 4 0 3 : + + + + + + + + + @ @ @ @ @ @ @ @ @ @ @ @ @ @ @ @ @ @ @ @ @ @ @ @ @ @ @ @ @ @ @ @ @ @ @ @ @ @ @ @ @ @ @ @ @ @ @ @ @ @ @ @ @ @ @ @ @ @ @ @ @ @ @ @ @ @ @ + + + + + + + + + + + + + ; w w 4 4 4 4 4 4 4 4 4 4 4 4 4 4 4 4 4 9 4 7 q 9 ; q y 1.` ~ 1.` ) q.) ` ` ` ` ` ` / / / / / ~ ,.,.1.2.+X6X=X*X=X*X*X*X*X*X6X<.N ~ ! Z.cXNXNXNXNXVXVXZXAXZXZXbXvX0XG.3.^ ^ ^ ^ _ ) ) ) ` ) ) ^ ! ! ! M M K I ,.1.w.H.D.J.J.T.OX,X,X2X1X1X1X1X1X*X*X-X-X%X!.=X=X=X=X7X7X=X=X!.=X=X=X=X=X=X=X=X=X!.=X=X=X*X+X+X+X+X+X+X+X+X+X+X+X+X+X+X+X9X9X9X9X6X6X6X6X*X*X*X*X*X*X*X*X*X=X=X=X=X=X=X=X=X=X6X6X=X=X=X=X6X6X6X6X7X7X7X7X7X=X=X!.=X=X=X=X",
"*X*X*X8X1X1X@X].[.S.w.,.,.,.0.Z.1.1.1.2.w.n.n.n.M.M.n.M.n.M.M.Z.D.D.D.D.D.D.D.D.OXOXOXOX@XOX@X@X1X1X1X2X1X4X4X4X1X1X1X1X1X1X1X1X,X*X*X*X6X6X6X6X8X8X6X6X*X*X*X6X6X6X*X*X*X*X*X*X+X6X6XOXOXOX XH.n.b.b.1./ ) ! K ! ! ! ! ! ! ! ! ) ` q.b.B.M.M.M.M.M.M.C.C.M.M.B.M.M.M.M.M.M.M.M.n.M.M.M.M.M.S.M.B.M.H.n.n.>XqX+X*XQ.=X6X*X1X[.P / ` ` ` ` ` ` ` ` ` ` ` ` ` ` ` / / 1./ ` / ,.y 8 8 9 9 4 4 4 4 4 4 4 4 4 4 4 4 4 4 4 4 4 4 4 4 9 ; & + + + + + + + + + @ @ @ @ @ @ @ @ @ @ @ @ @ @ @ @ @ @ @ @ @ @ @ @ @ @ @ @ @ @ @ @ @ @ @ @ @ @ @ @ @ @ @ @ @ @ @ @ @ @ @ @ @ @ @ @ @ @ @ @ @ @ @ @ @ @ @ + + + + + + + + + + + + + = 9 9 4 4 4 4 4 4 4 4 4 4 4 4 4 4 4 4 4 9 4 9 q 9 ; 7 r ~ 1.) ` ` ~ q.) ` ` ` ` ` ` / / ` / ~ ~ ,.1.1.<.R.=X6X*X*X*X-X*X7XR.6XA.:.) ! ! a.-XnXmXmXnXuXuX1XT.2.:.L L ~ ~ ` _ _ ) ) ^ ^ ^ M Y ! ^ ) ` ` 1.w.u.S.D.OX>X2X1X4X1X1X1X8X8X8X8X,X1X,X+X*X-X-X-XW.%X=X=X=X*X=X=X=X=X=X=X=X=X=X=X=X=X=X=X=X=X!.Q.9X9X9X9X9X9X9X9X6X6X9X9X6X6X6X6X*X6X6X*X*X*X*X*X*X*X*X*X*X*X*X*X*X*X*X*X*X*X*X*X6X6X6X6X6X6X6X6X+X+X+X+X+X+X*XQ.6X7X7X=X=X=X=X=X",
"*X*X+X1X1X@X[.M.9.9.9.9.1.1.1.1.1.1.1.1.1.w.b.b.1.1.1.1.1.1.1.1.w.9.w.w.w.w.w.w.w.w.w.w.w.w.w.w.w.w.u.u.Z.S.S.S.J.J.J.[.[.[.].].OXOXOXOXOX#X,X,X#XOXOXOXOX,X1X8X6X6X6X*X*X*X*X*XY.*X9X8X8XqXqX2X4X3X3X.X'.H.S.M.w.w.1.` ) ! S M M M K ~ / ` ` 1.q.q.q.m.m.m.m.B.M.M.M.M.n.n.n.n.M.M.M.M.n.n.n.n.C.H.M.1.w.<XqX+X*X=X=X*X6X+XS.P / ` ` ` ` ` ` ` ` ` ` ` ` ` ` ` ) / 1./ / w.M e 8 8 9 9 4 4 4 4 4 4 4 4 4 4 4 4 4 4 4 4 4 4 4 4 4 = + + + + + + + + + + @ @ @ @ @ @ @ @ @ @ @ @ @ @ @ @ @ @ @ @ @ @ @ @ @ @ @ @ @ @ @ @ @ @ @ @ @ @ @ @ @ @ @ @ @ @ @ @ @ @ @ @ @ @ @ @ @ @ @ @ @ @ @ @ @ @ @ + + + + + + + + + & + + + = 4 9 9 4 4 4 4 4 4 4 4 4 4 4 4 4 4 4 4 4 4 9 q 9 ; 1 7 M w./ ` ` ) { ` ` ` ` ` ` ` / / ` / / / ,.,.,.:.U.*X9X*X+XoX*X=X=XY.6XT.>.) _ Y H P [. X X[.e.9.P P K ^ ^ ^ ^ Y Y ! ! ! ! ! ! ! ) ` 1.n.H.P. X<X4X4X4X4X1X1X1X1X,X,X,X,X6X6X6X,X,X,X+X*X*X-X-X-X=X=X=X=X=X*XQ.Q.7X7X7X7X7X7X7X7X=X=X6X6X=X=X=X=X=X*X=X*X*X*X*X*X=X*X=X*X=X*X=X*X6X6X6X6X6X6X6X6X6X6X6X6X6X6X6X6X6X1X1X1X1X1X1X1X1X1X1X1X1X1X1X1X4X4X4XqX8X8X8X8X6X6X6X7X7X=X7X7X",
"*X*X+X,XOXD.w.9./ { q.b.b.b.b.b.b.b.b.b.b.b.b.b.b.b.b.b.b.b.b.b.b.q.b.q.b.w.b.b.1.q.1.q.b.q.b.w.` ` 1.1.1.1.1.w.w.w.w.w.w.b.n.n.w.w.w.w.w.n.n.n.n.n.n.n.Z.H.J.J.#X#X,X*X*X*X*X*X-X-X;X*X*X*X+X+X4X4X4X4X4X4X4X4X>X@XOXJ.J.F.F.Z.2.<.>.:.N M M M M M K ! ^ / ` ` b.b.b.n.n.n.B.B.B.B.M.C.C.C.C.C.C.'.n.~ w.<XqX+X*X=X=X=X8X#Xu.P / ` ` ` ` ` ` ` ` ` ` ` ` ` ` ` ) / / ) / w.h 7 8 8 4 4 4 4 4 4 4 4 4 4 4 4 4 4 4 4 4 4 4 4 4 4 4 : + + + + + + + + + + @ @ @ @ @ @ @ @ @ @ @ @ @ @ @ @ @ @ @ @ @ @ @ @ @ @ @ @ @ @ @ @ @ @ @ @ @ @ @ @ @ @ @ @ @ @ @ @ @ @ @ @ @ @ @ @ @ @ @ @ @ @ @ @ @ @ @ + + + + + + + + + & + + + = 4 9 9 4 4 4 4 4 4 4 4 4 4 4 4 4 4 4 4 4 4 9 9 9 ; ; 7 n w.` ) ` ) { ` ` ` ` ` ` ` / / ) / / ,.,.,.~ =.U.*X9X#X+X+X*X*X=XQ.7X,X3.S X.W J J J J J J J H T T ^ [ [ ' Q J H K I ~ 1.w.Z.S.<X<X5X2X2X4X4X4X1X6X6X6X6X6X6X6X*X6X*X*X6X6X6X6X*X*X*X*X-X=X=X=X;X;X=X*X*X6X6X6X6X6X6X6X6X6X6X6X8X8X8X8X6X6X6X6X6X7X7X7X7X7X7X7X7X7X7X7X7X6X7X6X6X6X6X6X6X6X6X6X6X6X6X6X6X6X6X6X,X,X,X,X,X,X,X,XOXOXOXOXOXOXOX>X X X X X XOXOXOXR.,X6X6X6X6X7X7X",
"6X6X,XOXD.w.9.` b.@.@.+.+.b.b.b.b.b.b.{ X.` ` ` X.` X.{ ` { +.X.b.b.b.N.N.N.N.N.b.b.b.b.b.N.b.b.b.b.b.b.b.b.n.B.1.1.1.1.1.q.1.q.1.1.1.1.1.9.w.q.1.q.1.1.1.q.b.w.D.U.+X+X8X-X-X-X-X-X%X%X=X=X=X=X*X*X*X*X*X*X*X-X-X8X*X,X,X,X2X2X2X>XT.G.Z.c.n.n.<.,./ ) ! K K M K K ! ! ) ) ) ` ` q.q.b.b.b.B.B.n.C.1.I n.<X1X+X=X7XQ.*X9X@X<.P / ` ` ` ` ` ` ` ` ` ` ` ` ` ` ` ) / / / / w.g 7 8 8 4 4 4 4 4 4 4 4 4 4 4 4 4 4 4 4 4 4 4 4 4 4 3 & X + & + + & + + + + @ @ @ @ @ @ @ @ @ @ @ @ @ @ @ @ @ @ @ @ @ @ @ @ @ @ @ @ @ @ @ @ @ @ @ @ @ @ @ @ @ @ @ @ @ @ @ @ @ @ @ @ @ @ @ @ @ @ @ @ @ @ @ @ @ @ @ + + + + + + + + + + + + + = 5 9 4 4 4 4 4 4 4 4 4 4 4 4 4 4 4 4 4 4 4 9 9 7 7 ; 6 f 1.1.) ` ) ` ` ` ` ` ` ` ` / / ) / ,.,.,.,.,.:.T.*X8X#X#X+X*X*XQ.7X6X0Xz.S _ W ' J J J J T T T T H J H Y ^ } @.S.D.J.OX>X1X4XyX8X8X1X8X6X6X6X6X*X=X*X*X*X*X*X*X6X6X*X*X*X*X*X*X*X*X*X-X-X-X=X=X=X-X*X*X6X8X8X8X1X1X1X1X1X1X1X1X,X1X,X,X,X,X,X,X6X,X6X,X6X6X6X6X,X,X,X,X,X,X,X,XT.T.T.T.T.T.T.T.J.D.J.D.J.D.J.D.H.H.H.H.H.H.H.H.Z.Z.Z.Z.Z.u.Z.n.q.{ q.q.1.1.2.2.D.T.,X6X6X6X6X7X",
"6X6X6XT.Z.1.1.q.m.m.@.+.+.#.b.N.b.b.b.b.b.b.b.b.b.b.b.b.b.q.b.b.b.b.b.N.N.N.N.N.b.#.b.b.b.N.N.N.b.q.b.{ b.{ b.+.b.b.b.b.b.b.b.b.b.b.b.b.b.b.b.b.b.q.b.{ b.{ b.q.2.u.U.#X8X-X-X-X%X%X%X;X=X=XlXgX&X=X=X=X&X~.W.W.&X%X=X*X6X6X6X0XwXwX0X0X2X2X2X2X>X X'.H.M.w.1./ ! ^ ^ ^ ! ! ! ! ^ ^ ^ ^ ) ) ) ` 1.w.~ ~ '.<X,X6X=X9XQ.*XwXOX,.P / ` ` ` ` ` ` ` ` ` ` ` ` ` ` ` ` ) ) 1./ 1.y 7 8 9 4 4 4 4 4 4 4 4 4 4 4 4 4 4 4 4 4 4 4 4 4 4 3 + X + & + + & + + + + @ @ @ @ @ @ @ @ @ @ @ @ @ @ @ @ @ @ @ @ @ @ @ @ @ @ @ @ @ @ @ @ @ @ @ @ @ @ @ @ @ @ @ @ @ @ @ @ @ @ @ @ @ @ @ @ @ @ @ @ @ @ @ @ @ @ @ + + + + + + + + + + + + + = 5 4 4 4 4 4 4 4 4 4 4 4 4 4 4 4 4 4 4 4 4 9 9 9 7 7 6 y 1.1.~ q.` ` ` ` ` ` ` ` ` / / ) ` 1./ ~ ~ 2.A.+X6X,X#X#X$X*X=XW.jXQ.0XJ.) ( E Y Y ^ ` 1.3.:.:.3.z.J.3X4X4X3X5X1X#X#X#X+X+X+X+X+XoXQ.*X*X*X*X*X=X=X=X=X=X*X=X=X*X*X*X*X*X*X*X*X*X=X-X=X-X-X=X=X-X-X*X*X9X6X+XT.J.J.J.J.J.J.J.J.J.D.H.H.H.H.S.S.w.q.w.q.w.q.w.q.w.9.w.9.w.w.w.w.9.{ q.q.q.q.q.9.q.9.q.{ q.9.q.9.1.1.1.1.1.1.1.1.1.1.1.1.1.1.1.1.@.@.@.@.b.b.n.w.2.A.>X,X6X6X6X6X",
"*X6X,XT.n.1.q.m.+.@.b.N.N.b.b.b.X.{ { { q.b.b.b.b.b.b.b.b.b.b.b.#.#.N.b.N.N.N.N.#.#.#.#.#.b.N.b.b.N.N.b.b.b.b.b.b.b.b.b.b.b.+.+.b.q.b.{ { { +.+.@.@.@.b.b.q.b.q.~ 2.A.OX8X-X-X%X-X-X-X-X-X*X=X*X=XQ.=X=X=X;X;X;X;X-X=X=X*X6X0X6X0X0X0X0X0X0X,X2X,X1X2X2X2X2X<X<X X XJ.H.n.w.1.1.~ ~ ~ ~ L K M K ~ / M ,.>X4X+X6X=X9XQ.*XpXOX,.P / / ` / ` ` ` ` ` ` ` ` ` ` ` ` ` ^ ) q./ / e q 8 9 4 4 9 4 4 4 4 4 4 4 4 4 4 4 4 4 4 4 4 4 4 4 3 + X + & + + & + + + + @ @ @ @ @ @ @ @ @ @ @ @ @ @ @ @ @ @ @ @ @ @ @ @ @ @ @ @ @ @ @ @ @ @ @ @ @ @ @ @ @ @ @ @ @ @ @ @ @ @ @ @ @ @ @ @ @ @ @ @ @ @ @ @ @ @ @ + + + + + + + + + + + + + = 5 4 4 4 4 4 4 4 4 4 4 4 4 4 4 4 4 4 4 4 9 9 1 9 9 7 7 r 3.1.~ q.` ` ` ` ` ` ` ` ` / / / ` ,.~ L ,.Z.OX6X6X,X#X+X-X-X%X~.kX!.6X4X2.) ) n.Z.H.G.A.J.2XwXwX0X0X0X2X0X0XwX6X-X*X*X*X*X*X*X*X*X=X=X=X=X=X=X=X*X*X*X*X*X*X*X*X*X6X6X6X8X8X8X6X6X*X*X*X*X=X=X;X=X=X*X6X+XD.u.1.1.1.1.1.1.1.1.w.1.1.1.1.1.3.` ` { { { { { ` { { { { { { { { { { { { { { { { { { { { { { { { { q.w.w.w.q.q.q.w.b.b.b.b.w.w.w.q.@.#.@.@.@.b.b.b.~ n.T.,X6X6X6X6X",
"*XoX1X@Xw.q.b.q.b.B.) 1.n.l.b.b.b.b.b.b.b.b.b.b.b.b.b.b.b.b.b.b.b.b.b.b.b.b.b.b.b.b.b.b.b.b.N.b.b.b.b.b.b.b.b.b.b.b.b.b.b.b.b.b.q.q.q.q.q.q.+.b.b.b.q.q.q.q.q.q.q.,.S.1X6X*X*X-X*X8X1X@X>X].J.<X,X+X,X,X1X8X8X8X8X8X,X,X,X,X,X,X,X+X6X6X6X6X6X6X6X6X6X6X6X6X6X6X6X6X8X8X0X8X8X8X+XOXT.D.i.t.6.<.2.:.>.A.1X8X*X*XR.7X6XR.,X8XA.B 9.1./ / / ` ` ` / / ` ` ` ` ` ` ^ ` ^ ` ` M ; q 9 9 4 4 4 4 4 4 4 4 4 4 4 4 4 4 4 4 4 9 9 4 4 w = & + + + + + @ @ @ @ @ @ @ @ @ @ @ @ @ @ @ @ @ @ @ @ @ @ @ @ @ @ @ @ @ @ @ @ @ @ @ @ @ @ @ @ @ @ @ @ @ @ @ @ @ @ @ @ @ @ @ @ @ @ @ @ @ @ @ @ @ @ @ @ @ @ @ @ + + + + + + + + + + & + + + ; 4 4 4 4 4 4 4 4 4 4 4 4 4 4 4 4 4 4 9 9 9 9 9 9 9 9 q N 3.~ ` ` ` ) ` ` ` ` ` ` / / q./ ~ ,.<.>.D.qXU.+X9X6X*X*X*X*XQ.=X7X6X6X,X,X1X6X*X6X6X6X6X6X6X6X6X6X6X6X6X6X6X6X*X=X=X*X*X*X*X=X*X=X=X=X=X=X*X1X2X2X2X1X1X1X1X2X<X>XOXOXJ.J.J.Z.Z.].2X2XqX9X+X=X=X7XQ.6X2X2.w.w.b.q.q.b.b.b.b.b.b.b.b.q.q.q.b.b.b.b.b.b.b.b.b.b.b.b.b.b.b.b.b.b.@.b.@.b.@.b.@.b.@.b.@.b.@.b.b.b.b.b.b.b.b.b.b.X.b.b.b.b.{ { +.b.b.b.b.@.@.b.b.b.1.H.1X6X*X6X=X",
"%XoX#X@Xn.q.b.q.b.M.,.1.n.1.b.b.b.b.b.b.b.b.b.b.b.b.b.b.b.b.b.b.b.b.b.b.b.b.b.b.b.b.b.b.b.b.b.b.b.b.b.b.b.b.b.b.b.b.b.b.b.b.b.b.q.q.q.q.q.q.+.+.b.b.q.q.q.q.q.q.q.,.H.1X6X*X=X-X6XqX@XH.H.B.b.C.M.Z.Z.Z.Z.Z.H.H.>X>X5X5X2X4X4XqX,X1X1X8X8X8X8X8X*X*X=X=X6X7X6X6X=X*X*X*X*X*X+XR.*X+X+X+X,X,X8X8X#XT.T.6X8X9X*X*X*X*X6X+X,X1XT.<.,./ ~ / ,.,.` / / / ` ` ` ` ` ` _ _ ^ ) ` n = q 9 9 4 4 4 4 4 4 4 4 4 4 4 4 4 4 4 4 4 9 4 4 4 w & @ @ @ + @ @ @ @ @ @ @ @ @ @ @ @ @ @ @ @ @ @ @ @ @ @ @ @ @ @ @ @ @ @ @ @ @ @ @ @ @ @ @ @ @ @ @ @ @ @ @ @ @ @ @ @ @ @ @ @ @ @ @ @ @ @ @ @ @ @ @ @ @ @ @ @ @ @ + + + + + + + + + + + + + + ; 4 4 4 4 4 4 4 4 4 4 4 4 4 4 4 4 4 4 9 9 9 9 4 4 9 9 q B 1.~ 3.` ) ) ` ` / ` ` ` / / ~ ` ,.~ 2.J.>XT.4.E.6X6X*X*X6X6X*X6X6X*X*X*X*X*X*X*X*X*X*X*X*X*X6X*X6X=X*XQ.Q.Q.*X*X*X*X6X6X6X6X6X6X6X6X6X6X6X,X@X X'.'.[.[.J.H.S.M.M.n.n.n.n.1.b.1.n.'.[.@X8X*X=X!.7XQ.6X2X2.w.b.b.+.+.@.@.#.#.#.#.@.@.b.b.b.b.b.b.b.b.b.b.b.b.b.b.b.b.b.b.b.b.b.b.b.b.b.b.b.b.b.b.b.b.b.b.b.b.b.b.b.b.b.N.N.N.X.#.+.b.b.+.+.{ b.b.b.b.b.#.@.b.b.1.H.1X6X*X=X=X",
"%XoX#X@Xn.q.b.b.b.M.1.1.n.1.b.b.b.b.b.b.b.b.b.b.b.b.b.b.b.b.b.b.b.b.b.b.b.b.b.b.b.b.b.b.b.b.b.b.b.b.b.b.b.b.b.b.b.b.b.b.b.b.b.b.b.q.q.b.b.+.+.+.b.b.b.b.b.q.q.q.q.] H.1X*X*X=X-X+X1X[.n.n.l.` b.1.1.1.1.1.1.1.1.1.1.2.w.n.Z.Z.Z.D.D.D.[.OXOXOXOX+X+X+X+X,X,X6X6X6X6X6X6X6X6X,X6X+X+X+X+X,X,X,X,XqX8X8X8X*X+X*X*X*X*X6X,X,X,XT.J.~ / / / 1.1.` ) / / ` ` ` ` ` ` { ^ ` ) 1.g * 7 9 9 4 4 4 4 4 4 4 4 4 4 4 4 4 4 4 4 4 9 4 4 4 9 @ @ @ @ @ @ @ @ @ @ @ @ @ @ @ @ @ @ @ @ @ @ @ @ @ @ @ @ @ @ @ @ @ @ @ @ @ @ @ @ @ @ @ @ @ @ @ @ @ @ @ @ @ @ @ @ @ @ @ @ @ @ @ @ @ @ @ @ @ @ @ @ @ @ @ @ @ @ @ + + + + + + + + + + + + + + = 4 9 4 4 4 4 4 4 4 4 4 4 4 4 4 4 4 4 9 9 9 9 4 4 9 9 9 k 1.3.` ` ) ` ` ` / ` ` ` / / ~ / / ,.H.<X].2.&.i.*X6X*X*X6X7X6X6X*X=X*X*X*X*X*X*X*X*X*X*X*X*X*X*X6X6X6X6X6X6X6X,X,X,X,X,X1X1X+X+X+XT.T.U.U.D.Z.n.n.w.w.w.w.1.1.1.1.1.1.1.1.1.l.) 1.n.w.D.1X6X=X!.7XQ.6X2X2.w.b.b.+.+.b.b.b.b.b.b.b.b.b.b.b.b.b.b.b.b.b.b.b.b.b.b.b.b.b.b.b.b.b.b.b.b.b.b.b.b.b.b.b.b.b.b.b.b.b.b.b.b.b.b.N.N.N.b.X.+.b.b.b.{ b.b.b.b.b.#.+.b.b.1.H.1X6X*X=X=X",
"%XoX#X@Xn.q.b.q.w.H.1.1.n.1.b.b.b.b.b.b.b.b.b.b.b.b.b.b.b.b.b.b.b.b.b.b.b.b.b.b.b.b.b.b.b.b.b.b.b.b.b.b.b.b.b.b.b.b.b.b.b.b.b.b.b.b.b.b.+.+.+.+.+.b.b.b.b.b.b.q.b.,.H.1X6X*X=X-X+X,XD.w.w.b.X.b.b.q.q.q.q.q.q.w.w.w.w.w.1.w.w.w.,.9.9.9.w.w.w.0.S.S.D.D.D.D.D.U.T.OX+X,X,X1X1X1X8X8X1X1X1X1X1X1X1X,X+X+X+XR.*X*X6X*X+X6X,XA.J.>X/ ) / / / / ` / / / ` ` ` ` ` ` { ! ` ` 1.y = 9 9 4 4 4 4 4 4 4 4 4 4 4 4 4 4 4 4 4 4 4 4 4 4 4 @ @ @ @ @ @ @ @ @ @ @ @ @ @ @ @ @ @ @ @ @ @ @ @ @ @ @ @ @ @ @ @ @ @ @ @ @ @ @ @ @ @ @ @ @ @ @ @ @ @ @ @ @ @ @ @ @ @ @ @ @ @ @ @ @ @ @ @ @ @ @ @ @ @ @ @ @ @ @ + + + + + + + + + + + + + + = 5 9 4 4 4 4 4 4 4 4 4 4 4 4 4 4 4 4 9 9 9 9 4 4 9 9 ; g 1.1./ ` ! ` ` ` ` ` ` ` / / q.~ ~ S.'.S.1.<.&.i.+X8X*X*X=X6X6X6X*X*X*X*X*X*X+X+X+X+X6X8X6X8X,X,X6X6X6X6X6X8XOX@XOX[.J.D.D.D.u.u.u.u.t.0.<.<.1.1.1.1.1.1.1.1.1.w.b.b.n.b.n.b.n.1.1.w.1.D.+X*X=X=X7XQ.6X2X2.w.b.b.+.b.b.b.b.N.b.b.b.b.b.b.b.b.b.b.b.b.b.b.b.b.b.b.b.b.b.b.b.b.b.b.b.b.b.b.b.b.b.b.b.b.b.b.b.b.b.b.b.b.b.b.N.N.N.N.b.b.b.b.q.q.b.b.b.b.b.#.@.b.b.1.H.1X6X*X=X=X",
"%XoX#X@Xn.q.b.q.b.'.w.9.n.1.N.b.b.b.b.b.b.b.b.b.b.b.b.b.b.b.b.b.b.b.b.b.b.b.b.b.b.b.b.b.b.b.b.b.b.b.b.b.b.b.b.b.b.b.b.b.b.b.b.b.b.b.b.b.b.b.b.b.+.+.b.b.b.b.b.b.b.,.H.1X6X*X=X*X+X,XD.1.w.b.b.N.b.{ b.{ { { { q.b.b.b.b.b.b.b.q.{ { { { { 9.9.9.,.,.,.1.9.w.w.w.2.2.u.u.A.A.A.A.J.J.J.OXOX,X2X1X1X1X+X+X*X6X=X*X6X*X,X8XT.2.2.H.w.9./ / / / ` / / / ` ` ` ` ` ` { ! ` ` ~ q ; 9 9 4 4 4 4 4 4 4 4 4 4 4 4 4 4 4 4 4 4 4 4 9 4 ; + @ @ @ @ @ @ @ @ @ @ @ @ @ @ @ @ @ @ @ @ @ @ @ @ @ @ @ @ @ @ @ @ @ @ @ @ @ @ @ @ @ @ @ @ @ @ @ @ @ @ @ @ @ @ @ @ @ @ @ @ @ @ @ @ @ @ @ @ @ @ @ @ @ @ @ @ @ @ + + + + + + + + + + + + + + + ; 9 4 4 4 4 4 4 4 4 4 4 4 4 4 4 4 4 9 9 9 9 4 4 9 9 ; y :.1.) ` ! ` ` ` ` ` ` ` / / { / 9.M.n./ ~ <.=.7.R.6X6X6X*X*X*X*X*X*X6X6X8X8X8X1X8X1X1X1X1X1X,X,X,XOXT.J.G.J.Z.n.w.q.w.9.1.,.9.9.9.9.9.9.1.9.w.q.w.q.b.b.n.n.b.b.b.b.b.b.b.b.B.b.b.b.2.u.+X*X=X=X7XQ.6X2X2.w.b.b.b.b.b.b.b.b.b.b.b.b.b.b.b.b.b.b.b.b.b.b.b.b.b.b.b.b.b.b.b.b.b.b.b.b.b.b.b.b.b.b.b.b.b.b.b.b.b.b.b.b.b.b.N.N.N.N.b.b.1.1.1.1.b.b.b.b.b.#.@.b.b.1.H.1X6X*X=X=X",
"%XoX#XOXn.q.b.w.b.'.w.9.n.l.N.b.b.b.b.b.b.b.b.b.b.b.b.b.b.b.b.b.b.b.b.b.b.b.b.b.b.b.b.b.b.b.b.b.b.b.b.b.b.b.b.b.b.b.b.b.b.b.b.b.b.b.b.b.+.b.b.b.+.+.b.b.b.b.b.b.b.,.H.1X6X*X=X*X+X1XD.1.1.b.l.b.#.@.@.@.@.@.@.@.+.{ +.{ X.{ X.{ m.@.@.{ { { { { { { { q.q.q.w.w.1.1.1.1.1.2.1.1.1.1.<.2.2.Z.Z.Z.1X8X8X6X*X6X*X*X6X*X6X8XJ.:.~ w.n.w./ / ~ / ` ` / / ` ` ` ` ` ` ` ^ ) 1.M q 9 q 9 4 4 4 4 4 4 4 4 4 4 4 4 4 4 4 4 4 4 4 4 9 4 = @ @ @ @ @ @ @ + @ @ @ @ @ @ @ @ @ @ @ @ @ @ @ @ @ @ @ @ @ @ @ @ @ @ @ @ @ @ @ @ @ @ @ @ @ @ @ @ @ @ @ @ @ @ @ @ @ @ @ @ @ @ @ @ @ @ @ @ @ @ @ @ @ @ @ @ @ @ @ + + + + + + + + + + + + + + + ; w 4 4 4 4 4 4 4 4 4 4 4 4 4 4 4 4 9 9 9 9 4 4 9 9 ; q ~ 1.) q.! ` ` 3.` ` ` ` / / H q.B.9.~ / ,.,.&.4.U.+X6X6X*X*X=X=X*X6X6X8X1X,X>X>X>XOXOXJ.J.J.A.Z.Z.Z.Z.z.2.2.q.{ { { { { { { q.q.q.q.q.q.q.q.b.b.b.q.b.b.b.b.b.b.b.b.b.b.b.l.b.` b.w.2.u.#X*X=X=X7XQ.6X2X2.b.b.b.b.b.b.b.b.b.b.b.b.b.b.b.b.b.b.b.b.b.b.b.b.b.b.b.b.b.b.b.b.b.b.b.b.b.b.b.b.b.b.b.b.b.b.b.b.b.b.b.b.b.b.b.N.N.l.l.l.b.w.w.1.1.b.b.b.b.b.#.@.b.b.1.H.1X6X*X=X=X",
"%X%X#XOXn.q.b.b.b. XM.w.w.l.B.l.b.b.b.b.b.b.b.b.b.b.b.b.b.b.b.b.b.b.b.b.b.b.b.b.b.b.b.b.b.b.b.b.b.b.b.b.b.b.b.b.b.b.b.b.b.b.b.b.b.#.#.#.+.+.b.b.b.b.b.b.#.#.#.b.q./ H.1X6X*X=X*X*X1XD.1.w.b.b.X.#.@.#.#.#.#.N.N.#.#.N.N.N.N.N.N.@.} @.@.+.{ { { @.@.m.m.m.m.b.b.b.n.b.b.b.b.w.w.n.n.n.w.2.2.2.2.D.OX1X6X*X*X*XW.=X*X6X,XD.:.L 1.w.1./ ~ / / / / / / ` ` ` ` ` ` ) q.) w.j 7 9 9 9 4 4 4 4 4 4 4 4 4 4 4 4 4 4 4 4 9 4 4 4 9 5 = @ @ @ @ @ @ @ + @ @ @ @ @ @ @ @ @ @ @ @ @ @ @ @ @ @ @ @ @ @ @ @ @ @ @ @ @ @ @ @ @ @ @ @ @ @ @ @ @ @ @ @ @ @ @ @ @ @ @ @ @ @ @ @ @ @ @ @ @ @ @ @ @ @ @ @ @ @ @ + + + + + + + + + + + + & + + = w 4 4 4 4 4 4 4 4 4 4 4 4 4 4 4 4 9 9 9 9 4 4 9 9 ; 7 N 3.~ b.! ` ` 3.` ` ` ` / / K { q./ K / 1.,.=.i.R.+X*X*X*X*X=X*X*X6X1X,XOXOXH.M.Z.n.w.w.2.1.1.1.1.1.2.l.z.b.b.{ { { @.@.b.b.{ { { { { @.{ q.b.b.q.q.b.X.l.X.b.b.b.N.N.N.N.N.b.` b.w.,.u.#X9X=X=X7XQ.1X<Xw.b.b.b.b.b.b.b.b.m.q.q.q.q.+.+.b.b.b.b.b.b.b.b.b.b.b.b.b.b.b.b.b.b.b.b.b.b.b.b.b.b.b.b.b.b.b.b.b.b.b.b.b.b.b.b.b.b.N.l.1.n.H.J.Z.1.n.b.b.b.b.#.@.b.b.1.H.1X6X*X=X=X",
"%X%X#XOXn.q.b.b.b. XS.w.n.1.B.l.b.b.b.b.b.b.b.b.b.b.b.b.b.b.b.b.b.b.b.b.b.b.b.b.b.b.b.b.b.b.b.b.b.b.b.b.b.b.b.b.b.b.b.b.b.b.b.b.b.#.#.b.b.b.b.q.b.b.b.b.b.#.#.@.b./ S.1X6X*X*X*X+X1XD.1.b.C.b.b.+.+.+.+.#.#.b.N.#.#.b.b.b.b.b.+.O.{ +.+.+.+.@.@.+.@.@.@.O.+.+.{ +.b.b.b.b.b.b.b.b.b.b.b.l.l.b.2.:.A.+X6X+X*X*X7X*X*X6X#XA.,.~ 9.,./ / / / / / ) / / ` ` ` ` ` ` ! b.! 1.u 7 9 4 4 4 4 4 4 4 4 4 4 4 4 4 4 4 4 4 4 9 4 4 4 w 4 & @ @ @ @ @ @ @ + @ @ @ @ @ @ @ @ @ @ @ @ @ @ @ @ @ @ @ @ @ @ @ @ @ @ @ @ @ @ @ @ @ @ @ @ @ @ @ @ @ @ @ @ @ @ @ @ @ @ @ @ @ @ @ @ @ @ @ @ @ @ @ @ @ @ @ @ @ @ @ + + + + + + + + + + + + & + + = w 4 4 4 4 4 4 4 4 4 4 4 4 4 4 4 4 9 9 9 9 4 4 9 9 9 ; M / ~ b.! ` ` ` ` ` ` ` / / { ^ K ` 1.~ ~ ,.<.U.8X8X+XR.*X6X*X*X*X6X,X,XJ.H.1.q.w.w.w.b.b.b.n.b.b.b.b.l.l.b.b.@.+.@.+.{ O.{ #.@.#.@.+.@.+.@.+.b.b.b.b.b.N.N.X.b.#.b.N.N.N.N.N.1.b.w.,.u.#X9X=X=X7XQ.1X<Xw.w.b.b.b.b.b.b.m.n.w.q.q.q.b.+.+.b.b.b.b.b.b.b.b.b.b.b.b.b.b.b.b.b.b.b.b.b.b.b.b.b.b.b.b.b.b.b.b.b.b.b.#.b.b.b.b.b.V.l.` M.<X4X].w.n.b.b.b.b.#.@.b.b.1.H.1X6X*X=X=X",
":X%X#X<XM.q.b.b./ 3X X:.S.1.b.b.b.b.b.b.b.b.b.b.b.b.b.b.b.b.b.b.b.b.b.b.b.b.b.b.b.b.b.b.b.b.b.b.b.b.b.b.b.b.b.b.b.b.b.b.b.b.b.b.#.#.N.N.b.q.1.q.w.1.1.b.b.b.#.+.b.9.D.1X6X*X=X*X6X1XS.1.b.b.l.b.b.b.b.b.N.b.b.b.b.b.b.b.N.N.x.b.#.@.#.@.#.@.#.@.#.#.#.#.#.b.b.@.#.@.#.@.b.b.b.b.b.b.b.b.l.b.b.b.w.>.i.,X*X*X*X=X*X*X8X1Xu.=.,./ ,./ / / 1.1./ / / / ` ` ` ` ` ` q.K ` 1.r q ; 9 4 4 9 9 4 4 4 4 4 4 4 4 4 4 4 4 4 4 9 4 4 9 ; + @ @ @ @ @ @ @ @ @ @ @ @ @ @ @ @ @ @ @ @ @ @ @ @ @ @ @ @ @ @ @ @ @ @ @ @ @ @ @ @ @ @ @ @ @ @ @ @ @ @ @ @ @ @ @ @ @ @ @ @ @ @ @ @ @ @ @ @ @ @ @ @ @ @ @ @ @ @ @ + + + + + + + + + & + + = + X & 4 4 4 4 9 9 9 9 4 4 4 4 4 4 4 4 4 9 9 9 9 4 4 9 9 4 q y w.) ` q.` ` ` ` ` ` ` / / ! { 9.~ K ,.1.:.>X,X8X*X+X*X*X*X9X*X*X8X1XT.Z.2.w.q.q.q.b.b.b.b.b.b.b.b.b.b.b.b.b.@.b.@.b.#.b.#.b.#.b.#.b.#.b.b.b.b.b.b.b.b.b.b.b.b.N.N.N.N.#.#.b.{ b.w.,.S.1X*X7X=X7X6X8X>X9.w.b.` b.{ q.q..X9.9.9.w.b.b.b.#.#.b.b.b.b.b.b.b.b.b.b.b.b.b.b.b.b.b.b.b.b.b.b.b.b.b.b.b.b.b.b.b.b.b.b.b.b.b.b.b.N.b.b.1.1.].2XOXJ.2.b.b.+.b.#.@.b.b.1.H.1X,X*X=X=X",
"%X%X#X@XM.1.b.b.` 3X5X:.M.1.b.b.b.b.b.b.b.b.b.b.b.b.b.b.b.b.b.b.b.b.b.b.b.b.b.b.b.b.b.b.b.b.b.b.b.b.b.b.b.b.b.b.b.b.b.b.b.b.b.b.N.N.b.+.1.1.w.w.M.w.q.q.b.N.b.+.b.9.D.1X6X*X=X*X6X1XS.1.b.b.l.b.b.b.b.b.N.b.b.b.b.b.b.b.N.N.x.x.b.#.#.#.#.#.b.b.b.b.b.b.b.b.b.b.#.#.#.#.#.#.b.b.b.b.b.b.b.b.b.b.w.>.a.1X*X*X*X=X9X*X6X+X6.=.,.1./ / / / / / / / / / ` ` ` ` ` ` 1.! 1.~ q q 1 9 4 4 4 9 4 4 4 4 4 4 4 4 4 4 4 4 4 4 9 4 4 9 ; + @ @ @ + @ @ @ @ @ @ @ @ @ @ @ @ @ @ @ @ @ @ @ @ @ @ @ @ @ @ @ @ @ @ @ @ @ @ @ @ @ @ @ @ @ @ @ @ @ @ @ @ @ @ @ @ @ @ @ @ @ @ @ @ @ @ @ @ @ @ @ @ @ @ @ @ @ @ @ + + + + + + + + + & + + = + + & 4 4 4 4 9 9 9 9 4 4 4 4 4 4 4 4 4 9 9 9 9 4 4 9 9 9 q y 1.` ` ` ` ` ` ` ` ` ` / / ) ! / 1.,.I 1.D.@X,X1X6X*X*X*X*X6X*X6X8X2XJ.n.1.q.q.b.b.b.b.b.b.b.b.b.b.b.b.b.b.b.b.b.b.b.b.b.b.b.b.b.b.b.b.b.b.b.b.b.b.b.b.b.b.b.b.N.N.N.N.#.#.b.{ b.w.,.S.#X*X6X=X7X6X8X>Xw.q.b.{ b.q.w.9..X9.9.9.w.w.b.b.b.#.b.b.b.b.b.b.b.b.b.b.b.b.b.b.b.b.b.b.b.b.b.b.b.b.b.b.b.b.b.b.b.b.b.b.b.b.b.b.N.b.b.n.1.2.>X1X#X>Xw.b.b.+.b.#.@.b.b.1.H.1X,X*X=X=X",
"&X%X-X1XZ.1.b.b.1.5X3X,.n.1.b.N.b.b.b.b.b.b.b.b.b.b.b.b.b.b.b.b.b.b.b.b.b.b.b.b.b.b.b.b.b.b.b.b.b.b.b.b.b.b.b.b.b.b.b.b.b.b.b.b.B.N.b.l.w.n.H.[.H.S.w.1.b.N.N.+.b.9.D.1X6X*X*X*X6X1XS.1.b.b.l.b.b.b.b.b.b.b.b.b.l.l.l.l.z.z.z.l.b.b.b.b.b.b.b.b.b.b.b.b.b.b.b.b.#.#.#.#.#.#.b.b.b.b.b.b.b.b.b.b.w.,.p.1X-X*X*X=X9X*X6X,XA.<.<.~ / / / / / / / ` / / ` ` ` ` ` ` / ~ 1.n ; 9 4 4 4 4 4 9 4 4 9 9 4 4 4 4 4 4 4 4 4 4 4 4 9 4 ; + @ @ @ @ @ @ @ @ @ @ @ @ @ @ @ @ @ @ @ @ @ @ @ @ @ @ @ @ @ @ @ @ @ @ @ @ @ @ @ @ @ @ @ @ @ @ @ @ @ @ @ @ @ @ @ @ @ @ @ @ @ @ @ @ @ @ @ @ @ @ @ @ @ @ @ @ @ @ @ + + + + + + + + + & + + & + + & 3 4 4 4 9 9 9 9 4 4 4 4 4 4 4 4 4 9 4 9 9 4 4 9 9 9 7 r 3.q.) ` ` ` ` ` ` ` ` / / / ~ ~ 1.<.,.Z.2X,X1X1X8X9X*X*X=X*X*X6X1X>XF.n.b.b.b.b.b.b.b.b.b.b.b.b.b.b.b.N.N.b.b.b.b.b.b.N.N.b.b.b.b.N.b.b.b.b.b.b.b.b.b.b.b.b.b.b.b.b.b.N.b.b.{ b.q.,.S.1X-X6XQ.7X6XqX>X1.b.N.{ b.q.q.9.5X9.0.9.9.w.q.+.+.#.b.b.b.b.b.b.b.b.b.b.b.b.b.b.b.b.b.b.b.b.b.b.b.b.b.b.b.b.b.b.b.b.b.b.b.b.#.#.#.b.l.b.1.w.>XqX8X,Xn.b.b.+.b.#.+.b.b.1.H.1X,X*X=X=X",
"&X%X-X<XZ.1.b.b.1. XrX1.2.l.n.N.b.b.b.b.b.b.b.b.b.b.b.b.b.b.b.b.b.b.b.b.b.b.b.b.b.b.b.b.b.b.b.b.b.b.b.b.b.b.b.b.b.b.b.b.b.b.b.b.N.b.b.b.M.'.3X<X@XJ.n.1.1.b.N.+.q.9.D.1X6X*X*X*X6X1XS.1.b.b.l.b.b.b.b.b.b.b.b.b.b.l.l.b.b.z.z.l.b.b.b.b.b.b.b.b.b.b.b.b.b.b.b.b.b.b.b.b.b.N.N.b.b.b.b.b.b.b.b.b.q.,.p.1X#X*X*X=X7X*X6XqX,XJ.w.L / ~ / / / / ` 1./ / ` ` ` ` ` ` ~ 3.2.j = 9 9 4 4 4 4 9 4 4 9 9 4 4 4 4 4 4 4 4 4 4 4 4 9 4 = + @ @ @ @ @ @ @ @ @ @ @ @ @ @ @ @ @ @ @ @ @ @ @ @ @ @ @ @ @ @ @ @ @ @ @ @ @ @ @ @ @ @ @ @ @ @ @ @ @ @ @ @ @ @ @ @ @ @ @ @ @ @ @ @ @ @ @ @ @ @ @ @ @ @ @ @ @ @ @ + + + + + + + + + + + + & + + & ; 4 4 4 9 9 9 9 4 4 4 4 4 4 4 4 4 9 4 4 4 4 4 9 9 9 ; e L b.! ) ` ` ` ` ` ` ` / / / w.1.:.:.Z.>X2XqX2X,X1X9X*X=X-X*X*X8X,XJ.n.l.b.b.b.b.b.b.b.b.b.b.b.b.b.b.b.b.N.b.b.b.l.l.b.b.N.b.b.b.b.N.b.b.b.b.b.b.b.b.b.b.b.b.b.b.b.b.b.N.b.b.{ b.q.,.D.1X-X6X=X7X6XqX>X1.b.N.{ N.q.q.9.3Xw.0.0.9.w.q.+.#.#.b.b.b.b.b.b.b.b.b.b.b.b.b.b.b.b.b.b.b.b.b.b.b.b.b.b.b.b.b.b.b.b.b.b.b.b.N.#.#.b.l.n.2.6.,XwX9X,XH.b.b.+.N.#.@.b.b.1.H.1X,X*X=X=X",
"&X%X-X#XZ.1.b.n.1.'.iX2.2.z.l.N.b.b.b.b.b.b.b.b.b.b.b.b.b.b.b.b.b.b.b.b.b.b.b.b.b.b.b.b.b.b.b.b.b.b.b.b.b.b.b.b.b.b.b.b.b.b.b.b.+.b.b.b.S.<XtXtX<X@XS.1.1.b.N.+.q.] H.1X6X*X*X*X6X1XS.1.w.b.l.b.b.b.b.b.b.b.b.b.b.b.b.b.b.b.b.b.b.b.b.b.b.b.b.b.b.b.b.b.b.b.b.b.b.b.b.b.b.b.b.b.b.b.b.b.b.b.#.b.q.,.p.<X#X*X*X=X7XW.*X8XqX4X].1.~ / / / / / / / / / ` ` ` ` ` ` ~ 1.1.u = 9 9 4 4 4 4 4 4 4 9 9 4 4 4 4 4 4 4 4 0 4 4 9 9 5 = + @ @ @ @ @ @ @ @ @ @ @ @ @ @ @ @ @ @ @ @ @ @ @ @ @ @ @ @ @ @ @ @ @ @ @ @ @ @ @ @ @ @ @ @ @ @ @ @ @ @ @ @ @ @ @ @ @ @ @ @ @ @ @ @ @ @ @ @ @ @ @ @ @ @ @ @ @ @ @ + + + + + + + + + + + + + + + & = 4 4 4 9 9 9 9 4 4 4 4 4 4 4 4 4 9 9 4 4 4 4 9 9 9 ; 7 n n.! ) ` ` ` ` ` ` ` / / ,.1.1.:.6.,XqX2XyX1XOX#X*X*X=X-X*X*X1X2XJ.n.l.b.b.b.b.b.b.b.b.b.b.b.b.b.b.b.N.N.b.b.b.b.b.b.b.b.b.b.b.b.b.b.b.b.b.b.b.b.b.b.b.b.b.b.b.b.b.b.b.b.b.{ b.q.,.D.1X-X*X=X7X6X8X>X1.b.N.{ N.q.w.w.3Xw.0.0.9.9.q.b.#.#.b.b.b.b.b.b.b.b.b.b.b.b.b.b.b.b.b.b.b.b.b.b.b.b.b.b.b.b.b.b.b.b.b.b.b.b.#.#.b.b.b.n.2.6.+X0X6X,XJ.n.` +.N.N.@.b.b.1.H.1X,X*X=X=X",
"&X%X-X#XZ.1.b.n.1.H.iXZ.1.n.l.N.b.b.b.b.b.b.b.b.b.b.b.b.b.b.b.b.b.b.b.b.b.b.b.b.b.b.b.b.b.b.b.b.b.b.b.b.b.b.b.b.b.b.b.b.b.b.b.b.l.b.b.w.S.@X1X@X1X@XD.w.1.b.b.b.q./ H.1X6X*X=X*X6X1XS.1.w.b.l.b.b.+.+.+.b.b.b.b.b.b.b.b.b.b.b.b.b.b.b.b.b.b.b.b.b.b.b.b.b.b.b.b.b.b.b.b.b.b.b.b.b.b.b.b.b.b.#.+.r.] e.<X#X*X*X=X7XQ.R.R.T.2X4X X1./ / / / / ) ~ / / ` ` ` ` ` ` ~ 1.:.r ; 9 0 9 4 4 4 4 4 4 9 9 4 4 4 4 4 4 4 4 w 4 4 9 9 ; & + @ @ @ @ @ @ @ @ @ @ @ @ @ @ @ @ @ @ @ @ @ @ @ @ @ @ @ @ @ @ @ @ @ @ @ @ @ @ @ @ @ @ @ @ @ @ @ @ @ @ @ @ @ @ @ @ @ @ @ @ @ @ @ @ @ @ @ @ @ @ @ @ @ @ @ @ @ @ @ + + + + + + + + + + + + + + + & & 4 4 4 9 9 9 9 4 4 4 4 4 4 4 4 4 9 9 9 9 4 4 9 9 9 1 7 f b.~ ` / ` ` ` ` ` ` / ,.1.~ :.A.,X,X,XqX2XD.A.U.*X*X=X*X*X*X8X2XJ.n.l.b.b.b.b.b.b.b.b.b.b.b.b.b.b.b.N.b.b.b.b.b.b.b.b.b.b.b.b.b.b.b.b.b.b.q.b.b.b.b.b.b.b.b.b.b.b.b.b.b.b.{ b.q.,.D.1X-X6XQ.6X6X8X>X1.b.N.O.N.q.q.w.tXp.0.0.0.9.q.b.#.#.b.b.b.b.b.b.b.b.b.b.b.b.b.b.b.b.b.b.b.b.b.b.b.b.b.b.b.b.b.b.b.b.b.b.b.b.#.#.b.b.b.n.2.6.R.8X=X+X<XB.` +.N.N.@.b.b.3.H.1X,X*X=X=X",
"&X%X-X#XZ.1.b.n.1.S.nXH.1.n.l.b.b.b.b.b.b.b.b.b.b.b.b.b.b.b.b.b.b.b.b.b.b.b.b.b.b.b.b.b.b.b.b.b.b.b.b.b.b.b.b.b.b.b.b.b.b.b.b.b.b.b.1.1.u.@X#XXX#X#XOX0.,.w.n.b.q./ S.1X6X*X=X*X6X1XD.1.w.b.l.b.@.@.@.@.@.@.+.+.@.@.b.b.b.b.b.b.b.b.b.b.b.b.b.b.b.b.b.#.b.#.b.b.b.b.b.b.l.b.b.b.b.b.b.b.b.#.#.@.r.] e.<X#X*X*X=X7XQ.Q.I.4.Z.>X5X'.M./ ~ / / / ) / / ` ` ` ` ` ` ,.~ N q 1 9 9 9 4 4 4 4 4 4 9 9 4 4 4 4 4 4 4 4 w 4 4 9 9 ; + + @ @ @ @ @ @ @ @ @ @ @ @ @ @ @ @ @ @ @ @ @ @ @ @ @ @ @ @ @ @ @ @ @ @ @ @ @ @ @ @ @ @ @ @ @ @ @ @ @ @ @ @ @ @ @ @ @ @ @ @ @ @ @ @ @ @ @ @ @ @ @ @ @ @ @ @ @ @ @ + + + + + + + + + + + + + + & & + 4 4 4 9 9 9 9 4 4 4 4 4 4 4 4 4 9 9 9 9 4 4 9 9 4 7 7 u w.) 1.) ` ` ` ` ` ` / ,.1.:.2.T.qX,XR./.A.<.<.A.*X*X=X-X*X*X,X5XP.n.l.b.b.q.b.b.b.b.b.b.b.b.b.b.b.b.b.b.b.b.b.b.b.b.b.b.b.b.b.b.b.b.b.b.q.q.w.w.w.w.b.b.b.b.b.b.b.b.b.b.b.{ b.q.,.D.1X-X6X=X6X6XqX>X1.b.#.O.N.q.q.w.tXp.0.0.0.9.q.b.#.#.b.b.b.b.b.b.b.b.b.b.b.b.b.b.b.b.b.b.b.b.b.b.b.b.b.b.b.b.b.b.b.b.b.b.b.b.#.#.b.b.b.n.2.6.+X9X=X6X3XB.` +.V.N.@.b.b.3.Z.,X,X*X=X=X",
";X%X*X,XZ.1.b.b.1.Z.nXJ.<.M.l.b.b.b.b.b.b.b.b.b.b.b.b.b.b.b.b.b.b.b.b.b.b.b.b.b.b.b.b.b.b.b.b.b.b.b.b.b.b.b.b.b.b.b.b.b.b.b.b.b.b.b.1.1.u.@X8X#X+X#X@Xw.<.1.n.b.q./ S.1X*X*X=X*X6X1XH.1.w.b.b.b.@.@.@.@.@.@.@.@.@.@.b.b.b.@.b.b.b.b.b.b.b.b.b.b.b.b.b.b.b.b.b.b.b.b.b.b.b.b.b.b.b.b.b.b.b.b.#.@.r.] M.<X#X*X*X=X=X7X9XU.&.*.Z.H.rX.Xq./ / 1.q.1./ / ` ` ` ` ` ` ~ ~ M 1 9 1 4 4 4 4 4 4 4 4 9 9 4 4 4 4 4 4 4 4 w 4 4 w 9 ; + + @ @ @ @ @ @ @ @ @ @ @ @ @ @ @ @ @ @ @ @ @ @ @ @ @ @ @ @ @ @ @ @ @ @ @ @ @ @ @ @ @ @ @ @ @ @ @ @ @ @ @ @ @ @ @ @ @ @ @ @ @ @ @ @ @ @ @ @ @ @ @ @ @ @ @ @ @ @ @ @ + + + + + + + + + + + + + & + + 4 4 4 9 9 9 9 4 4 4 4 4 4 4 4 4 9 9 9 9 9 9 9 9 1 q 7 y 1.) q.~ ` ` ` / ` / ,.,.:.Z.J.OX2XqX/.6.,.L =.i.+X*X*X=X=X*X,X2X XB.b.+.b.q.q.b.b.b.b.b.b.b.b.b.b.b.b.b.b.b.b.b.b.b.b.b.b.b.b.b.b.b.b.b.q.q.w.q.w.w.b.b.b.b.b.b.b.b.b.b.b.{ b.q.,.D.1X-X6X=X7X6X8X>X1.b.N.O.b.9.q.w.yXD.0.9.9.w.b.b.#.#.b.b.b.b.b.b.b.b.b.b.b.b.b.b.b.b.b.b.b.b.b.b.b.b.b.b.b.b.b.b.b.b.b.b.b.b.b.b.b.b.q.b.1.t.+X9X7X6X2XM.` { m.N.@.b.b.3.Z.,X,X*X=X=X",
"*X+X6X,XG.l.b.b.1.H.nX0X>.1.#.+.#.#.#.#.#.b.b.b.b.b.b.b.N.N.N.N.b.b.b.b.N.N.N.N.b.b.N.N.b.b.b.b.b.b.b.b.b.b.b.b.b.b.b.b.b.b.b.b.N.l.B.3.Z.2X,X6X,X,X1XZ.1.b.` b.q.,.S.#X*X%X=X=X6X,XH.w.b.q.{ { m._ m.b.` N.b.N.b.b.b.b.b.b.b.b.b.b.b.b.b.b.b.b.b.b.b.b.b.b.b.b.b.b.b.b.+.+.b.b.b.b.b.b.b.b.b.b.q./ e.#X+X*X;X=X;XW.8XA.:.,./ / B.'. X'.w.) ~ / ` ` ` ` / ` ` ` / w.g 7 q ; q 4 4 4 4 4 4 4 4 9 4 4 4 4 4 4 4 4 9 4 4 9 4 = + + @ @ @ @ @ @ @ @ @ @ @ @ @ @ @ @ @ @ @ @ @ @ @ @ @ @ @ @ @ @ @ @ @ @ @ @ @ @ @ @ @ @ @ @ @ @ @ @ @ @ @ @ @ @ @ @ @ @ @ @ @ @ @ @ @ @ @ @ @ @ @ @ @ @ @ @ @ @ @ @ @ + @ + @ + @ + @ + @ + @ + @ + ; 4 w 4 4 4 4 4 4 4 4 4 4 4 4 9 9 9 9 9 9 9 9 9 7 7 e 7 L q.) ` 1.,.~ ,.1.1.,.:.~ H.rXrX>Xw.>.<.,.,.=.D.8X*X9X=X*X6X+X1X X1.b.` 9.H.q.q.b.+.N.+.b.b.b.b.b.b.b.b.b.b.b.b.b.b.b.b.b.b.b.b.b.b.b.b.b.b.b.b.b.b.b.b.b.b.b.b.b.b.b.b.N.{ b.q.9.D.1X+X=X7X=X6X8XJ.w.q.+.N.@.{ 9.<.vXI.9.] b.n.b.b.@.#.b.b.b.b.b.b.b.b.b.b.b.b.b.b.b.b.b.b.b.b.N.N.N.N.b.N.N.N.b.b.b.b.#.#.b.b.b.b.b.b.b.b.1.0.@X-X*X*XqXD.1.w.b.{ { b.b.1.A.,X6X*X=X=X",
"-X+X6X,XG.l.b.+.` H.nXwX>.1.+.$.+.#.#.#.#.#.b.b.b.b.b.b.N.N.N.N.b.b.b.b.N.b.N.N.b.b.N.N.b.b.b.b.b.b.b.b.b.b.b.b.b.b.b.b.b.b.b.b.N.l.B.l.Z.,X,X6X,X,X1XZ.1.b.+.b.b./ S.#X*X%X=X=X6X,XH.w.b.q.] r.m.^ b.b.X.N.b.N.N.N.N.b.b.b.b.b.b.b.b.b.b.b.b.b.b.b.b.b.b.b.l.b.b.b.b.b.+.+.b.b.b.b.b.b.b.b.b.b.q./ u.#X+X*X=X=X;X%X9XA.:.1.` ) / w.M.H.M.b.1./ ` ` ` ` ` ` ` ` ) / y 7 q 7 q 9 4 4 4 4 4 4 4 4 4 4 4 4 4 4 4 4 9 4 4 9 4 = + + @ @ @ @ @ @ @ @ @ @ @ @ @ @ @ @ @ @ @ @ @ @ @ @ @ @ @ @ @ @ @ @ @ @ @ @ @ @ @ @ @ @ @ @ @ @ @ @ @ @ @ @ @ @ @ @ @ @ @ @ @ @ @ @ @ @ @ @ @ @ @ @ @ @ @ @ @ @ @ @ @ @ @ @ @ @ @ @ @ @ @ @ @ @ @ + ; 4 w 9 4 4 4 4 4 4 4 4 4 4 4 9 9 7 9 9 9 9 9 9 9 7 q 6 M w.) ` ~ ,.1.1.<.,.:.:.J.]. XJ.w.,.,.1./ / ~ D.8X*X9X=X=X7X+X,X].2.b.` q.S.q.q.b.+.#.+.#.#.b.b.b.b.b.b.b.b.b.b.b.b.b.b.b.b.b.b.b.b.b.b.b.b.b.b.b.b.b.b.b.b.b.b.b.b.b.b.N.{ b.q.9.D.1X+X=X7X=X6X8XJ.w.q.X.N.@.] 9.<.bXI.] } b.n.b.b.@.@.b.b.b.b.b.b.b.b.b.b.b.b.b.b.b.b.b.b.b.b.N.N.N.b.b.N.N.N.b.b.b.b.#.#.b.b.b.b.b.b.b.b.9.w.@X#X*X*X8XA.2.9.b.{ { b.b.1.A.6X6X*X=X=X",
"*X+X6X6XG.l.b.@.1.A.nXwX6.1.{ $.#.#.#.#.#.#.#.b.#.#.b.N.b.N.b.b.b.b.b.b.N.N.b.b.b.b.N.N.N.N.b.b.b.b.b.b.b.b.b.b.b.b.b.b.b.b.b.b.N.l.B.3.Z.,X,X6X,X,X1XZ.3.b.+.b.b.,.S.#X*X-X;X*X6X,XH.w.q.q.{ r.`.` N.b.X.N.b.N.N.N.b.b.b.b.b.b.b.b.b.b.b.b.b.b.b.b.b.b.b.b.b.b.b.b.b.b.b.b.b.b.b.b.b.b.b.b.b.b.q./ u.#X+X*X;X&X;X%X9XA.:.1./ ) ~ ) ` b.M.M.b.` ` ` ` ` ` ` ` ` / K t 6 7 7 q 9 4 4 4 4 4 4 4 4 4 4 4 4 4 4 4 4 9 4 4 4 4 = + + @ @ @ @ @ @ @ @ @ @ @ @ @ @ @ @ @ @ @ @ @ @ @ @ @ @ @ @ @ @ @ @ @ @ @ @ @ @ @ @ @ @ @ @ @ @ @ @ @ @ @ @ @ @ @ @ @ @ @ @ @ @ @ @ @ @ @ @ @ @ @ @ @ @ @ @ @ @ @ @ @ @ @ @ @ @ @ @ @ @ @ @ @ @ @ + ; 4 9 9 4 4 4 4 4 4 4 4 4 4 4 9 9 7 9 9 9 9 9 9 9 7 7 6 n w.) / ~ ,.1.,.~ ~ 1.n.5X'.n.,.~ ~ ,.,./ / P D.8X*X;X=X=X7X+X,X].2.b.1.q.H.q.{ b.+.#.+.#.#.b.b.b.b.b.b.b.b.b.b.b.b.b.b.b.b.b.b.b.b.b.b.b.b.b.b.b.b.b.b.b.b.b.b.b.b.b.b.N.{ b.q.9.D.1X+X=X=X=X6X8XJ.w.q.X.N.@.] 9.<.bXE.] { b.n.b.b.@.@.b.b.b.b.b.b.b.b.b.b.b.b.b.b.b.b.b.b.b.b.N.N.b.b.b.b.N.N.b.b.b.b.#.@.b.b.b.b.b.b.b.b.9.w.@X#X*X*X8XD.2.9.b.{ { b.b.1.A.6X6X*X=X=X",
"*X+X6X6XG.l.b.@.q.Z.vXuXi.2.{ $.#.#.#.#.#.#.#.b.N.#.N.N.b.b.b.b.N.b.b.N.N.N.b.b.b.b.N.N.N.N.b.b.b.b.b.b.b.b.b.b.b.b.b.b.b.b.b.b.N.l.B.3.Z.,X,X6X6X,X1XZ.1.b.{ b.q.,.A.#X-X-X;X*X6X2XH.w.q.q.{ m.`.` b.b.b.N.l.N.N.N.N.N.b.b.b.b.b.b.b.+.b.b.b.b.b.b.b.b.b.b.b.b.b.+.b.b.b.b.b.b.b.b.b.b.b.b.b.b.q./ u.#X+X*X;X&X;X%X9XA.=.,./ ) 1./ ~ ) 1.w.w.1.` ` ` ` ` ` ` ` 9.k e - 9 9 9 9 4 4 4 4 4 4 4 4 4 4 4 4 4 4 4 4 9 4 4 4 5 = + + @ @ @ @ @ @ @ @ @ @ @ @ @ @ @ @ @ @ @ @ @ @ @ @ @ @ @ @ @ @ @ @ @ @ @ @ @ @ @ @ @ @ @ @ @ @ @ @ @ @ @ @ @ @ @ @ @ @ @ @ @ @ @ @ @ @ @ @ @ @ @ @ @ @ @ @ @ @ @ @ @ @ @ @ @ @ @ @ @ @ @ @ @ @ @ + = 5 9 9 4 4 4 4 4 4 4 4 4 4 4 9 9 7 9 9 9 9 9 9 q 7 7 - j 1.) / 3.,.,.~ ~ ,.S. XS.n.1.~ ~ ,.,./ / / P D.8X*X7X=X=X7X+X,XJ.2.b.1.w.'.q.{ b.{ #.#.#.#.b.b.b.b.b.b.b.b.b.b.b.b.b.b.b.b.b.b.b.b.b.b.b.b.b.b.b.b.b.b.b.b.b.b.b.b.b.b.N.{ b.q.9.D.1X*X*X=X=X6X8XJ.w.q.X.N.@.] 9.t.bXY.] { b.n.l.b.@.@.b.b.b.b.b.b.b.b.b.b.b.b.b.b.b.b.N.b.b.N.N.N.b.b.b.b.N.N.N.N.b.b.@.@.b.b.b.b.b.b.b.b.9.w.@X#X*X*X9XU.w.9.q.{ { b.w.1.A.6X6X*X=X=X",
"*X+X6X6XF.l.@.@.q.w.vXvXA.2.{ $.+.#.#.#.b.b.b.b.b.b.b.b.b.b.b.b.b.b.b.b.b.b.b.b.b.b.b.b.b.b.b.b.b.b.b.b.b.b.b.b.b.b.b.b.b.b.b.b.b.X.B.3.Z.,X,X6X6X6X8XA.1.b.` b.w.1.S.#X-X%X;X*X6X2XH.1.w.9.q.M.'.` b.b.b.b.#.N.N.N.b.b.b.b.b.b.b.@.b.+.b.b.b.b.b.b.b.b.b.b.w.b.q.q.q.q.1.1.q.q.b.b.b.b.b.b.b.q.q./ u.#X#X*X;X&X;X*X9XA.=.1.` / 1.` ) ) ~ ` 3.3.` ` ` ` ` ` ` ` b.f 8 6 9 q 9 9 4 4 4 4 4 4 4 4 4 4 4 4 4 4 4 4 4 4 4 4 ; & + + @ @ @ @ @ @ @ @ @ @ @ @ @ @ @ @ @ @ @ @ @ @ @ @ @ @ @ @ @ @ @ @ @ @ @ @ @ @ @ @ @ @ @ @ @ @ @ @ @ @ @ @ @ @ @ @ @ @ @ @ @ @ @ @ @ @ @ @ @ @ @ @ @ @ @ @ @ @ @ @ @ @ @ @ @ @ @ @ @ @ @ @ @ @ @ + & ; 9 9 4 9 9 4 4 4 4 4 4 4 4 9 9 9 9 9 9 9 9 9 q 9 7 6 u / ) ) 1./ ~ / ,.w.S.'.~ ~ ,.,.1.,./ ~ / / ~ D.8X*X7X=X=X7X+X,XJ.1.b.q.b.'.q.{ b.{ N.+.#.#.#.b.b.b.b.b.b.b.b.b.b.b.b.b.b.b.b.b.b.b.b.+.#.b.b.b.b.b.b.b.b.b.b.b.b.b.b.b.#.{ b.q.9.D.1X*X*X=X=X6X8XJ.w.q.#.N.b.] 9.t.bXR.] { b.z.b.b.@.@.b.b.b.b.b.b.b.b.b.b.b.b.b.b.b.b.b.b.b.b.b.b.b.b.b.b.b.b.b.b.b.b.@.@.b.b.b.b.b.b.b.b.9.w.OX#X*X*X9XT.u.9.q.{ @.b.b.1.A.6X6X*X=X=X",
"*X*X6X6XZ.l.@.@.q.w.vXmXT.w.{ @.@.#.#.#.b.b.b.b.b.b.b.b.b.b.b.b.b.b.b.b.b.b.b.b.b.b.b.b.b.b.b.b.b.b.b.b.b.b.b.b.b.b.b.b.b.b.b.b.b.X.n.3.Z.,X,X6X6X6X8XA.1.n.1.b.b.1.S.#X-X-X;X-X6X2XH.w.w.9.q.M..X` w.b.b.b.X.N.N.b.b.b.b.b.b.b.b.@.b.b.b.b.b.b.b.b.b.b.b.b.b.w.q.q.q.q.w.q.w.q.b.b.b.b.b.b.b.w.q./ u.#X#X*X;X=X;X*X9XA.:.1.` / ~ / ` 1.1./ ~ ~ ` ` ` ` ` ` ` ` w.u 7 7 9 q 4 9 4 4 4 4 4 4 4 4 4 4 4 4 4 4 4 4 4 4 4 4 ; + + & @ @ @ @ @ @ @ @ @ @ @ @ @ @ @ @ @ @ @ @ @ @ @ @ @ @ @ @ @ @ @ @ @ @ @ @ @ @ @ @ @ @ @ @ @ @ @ @ @ @ @ @ @ @ @ @ @ @ @ @ @ @ @ @ @ @ @ @ @ @ @ @ @ @ @ @ @ @ @ @ @ @ @ @ @ @ @ @ @ @ @ @ @ @ @ + + ; 4 4 4 9 9 4 4 4 4 4 4 4 4 9 9 9 9 9 9 9 9 9 9 9 7 7 t ~ ) / / / / / 9.q.1./ ~ / / / / / / / / / ~ D.8X*X7X=X=X7X+X,XJ.1.b.q.b.'.q.{ b.{ m.#.#.#.#.@.b.b.b.b.b.b.b.b.b.b.b.+.b.b.b.b.b.b.+.+.#.#.b.b.b.b.b.b.b.b.b.b.b.#.b.#.@.{ b.q.9.D.1X*X*X=X=X6X8XJ.w.q.#.N.b.] 0.t.VXQ.] { b.z.b.b.+.@.b.b.b.b.b.b.b.b.b.b.b.b.b.b.b.b.b.b.b.b.b.b.b.b.b.b.b.b.b.b.b.b.@.@.b.b.b.b.b.b.b.b.9.w.@X#X*X*X8XOXZ.9.{ { @.b.b.1.A.6X6X*X=X=X",
"-X*X6X6XZ.1.@.@.q.w.vXmXR.w.{ @.@.#.b.b.b.b.b.b.b.b.b.b.b.b.b.b.b.b.b.b.b.b.b.b.b.b.b.b.b.b.b.b.b.b.b.b.b.b.b.b.b.b.b.b.b.b.b.b.b.X.n.1.Z.,X,X6X*X6X8XA.2.n.b.b.n.1.D.8X-X%X-X*X,X2XH.w.w.9.q.'..X1.w.n.b.b.X.N.b.b.b.b.b.b.b.b.b.@.b.b.+.+.b.b.b.b.b.b.b.b.b.b.b.b.b.b.b.b.b.b.b.b.b.b.b.b.b.w.q./ u.#X#X*X;X=X;X%X9XA.:.,.` / ) / ` 1.1.` / ) ` ` ` ` ` ` ` ` 1.r 7 7 9 9 ; 0 4 4 4 4 4 4 9 4 4 4 4 4 4 4 4 4 4 4 4 4 ; + + & @ @ @ @ @ @ @ @ @ @ @ @ @ @ @ @ @ @ @ @ @ @ @ @ @ @ @ @ @ @ @ @ @ @ @ @ @ @ @ @ @ @ @ @ @ @ @ @ @ @ @ @ @ @ @ @ @ @ @ @ @ @ @ @ @ @ @ @ @ @ @ @ @ @ @ @ @ @ @ @ @ @ @ @ @ @ @ @ @ @ @ @ @ @ @ + + ; 4 4 4 9 9 4 4 4 4 4 4 4 4 9 9 9 9 9 4 4 4 9 9 9 7 7 7 M ) ` ` ) ) ` 9.9./ ! ` / ) ) ) / / / / / ~ D.8X*X=X=X=X9X+X,XJ.1.b.q.n.'.q.{ b.{ m.@.#.#.@.@.b.b.b.b.b.b.b.b.b.b.b.b.b.b.b.b.b.b.b.b.#.#.b.b.b.b.#.#.#.#.#.#.#.#.#.#.#.{ b.q.9.D.1X+X*X7X=X6X8XJ.w.q.X.N.b.] 0.t.ZX*X] { b.z.z.b.+.@.b.b.b.b.b.b.b.b.b.b.b.b.b.b.b.b.b.b.b.b.b.b.b.b.b.b.b.b.b.b.b.b.@.@.b.b.b.b.b.b.b.b.9.w.OX+X*X*X6XOXS.9.{ { @.+.b.1.A.6X6X*X=X=X",
"-X*X6X6XZ.1.@.@.q.<.uXmXR.6.` @.@.#.b.b.b.b.b.b.b.b.b.b.b.b.b.b.b.b.b.b.b.b.b.b.b.b.b.b.b.b.b.b.b.b.b.b.b.b.b.b.b.b.b.b.b.b.b.b.b.X.n.1.Z.,X,X6X+X+X,Xi.2.M.n.B.M.w.D.8X-X%X-X*X,X2XH.w.w.9.q.'.<X,.w.n.b.b.X.N.b.b.b.b.b.b.b.b.b.b.b.b.b.+.b.b.b.b.b.b.b.b.b.w.n.n.n.n.n.n.n.n.b.b.b.b.b.b.b.w.q./ u.#X#X*X;X=X;X%X9XA.:.1.) / q.` ) ) / ` 3./ ` ` ` ` ` ` ` 3.~ 7 6 q 4 9 ; 0 4 4 4 4 4 4 9 9 4 4 4 4 4 4 4 4 4 4 4 4 = + + & @ @ @ @ @ @ @ @ @ @ @ @ @ @ @ @ @ @ @ @ @ @ @ @ @ @ @ @ @ @ @ @ @ @ @ @ @ @ @ @ @ @ @ @ @ @ @ @ @ @ @ @ @ @ @ @ @ @ @ @ @ @ @ @ @ @ @ @ @ @ @ @ @ @ @ @ @ @ @ @ @ @ @ @ @ @ @ @ @ @ @ @ @ @ @ + + ; 4 4 4 9 9 4 4 4 4 4 4 4 4 4 9 9 9 9 4 4 4 4 4 9 9 7 6 M ) 1.q.` ) / / ` ` ` { / / ) ` 9.` ) / / P D.8X*X=X=X=X9X+X,XJ.1.b.q.n.'.q.{ b.{ N.@.#.#.@.b.b.b.q.q.b.b.b.b.b.b.b.b.b.b.b.b.b.b.b.b.b.#.b.b.b.b.b.#.#.#.#.#.#.#.#.#.@.{ b.q.9.D.1X+X*X7X=X6X8XJ.w.q.#.N.+.9.0.t.ZX=X{ { b.z.z.b.+.@.b.b.b.b.b.b.b.b.b.b.b.b.b.b.b.b.b.b.b.b.b.b.b.b.b.b.b.b.b.b.b.b.@.@.b.b.b.b.b.b.b.b.9.w.OX+X*X*X6XOXS.9.{ { @.+.b.1.A.6X6X*X=X=X",
"-X*X6X6XJ.b.{ @.q.,.8XAX6X<.q.@.@.b.b.b.b.b.b.b.b.b.b.b.b.b.l.b.b.+.b.b.b.b.b.b.b.b.b.b.b.b.b.b.b.b.b.b.b.b.b.b.b.b.b.b.b.b.b.b.N.+.B.1.Z.1X6X6X6X9X,XD.Z.Z.M.C.M.w.D.*X*X=X=X*X,X4XJ.1.b.9.9.'.rX1.w.M.1.b.b.b.+.+.+.b.b.b.b.b.b.b.q.{ { { 1.1.q.q.w.b.n.n.n.M.M.M.S.M.S.M.M.M.M.M.M.n.n.w.1.w.9.,.u.@X8X*X%X=X=X*X*XU.,.~ ` ) ` ` ` ` ` ` ` ` ` ` ` ` ` ` ` 3.k q ; 7 9 0 4 9 4 4 4 4 4 4 9 9 4 4 4 4 4 4 4 4 4 9 4 ; + + + + @ @ @ @ @ @ @ @ @ @ @ @ @ @ @ @ @ @ @ @ @ @ @ @ @ @ @ @ @ @ @ @ @ @ @ @ @ @ @ @ @ @ @ @ @ @ @ @ @ @ @ @ @ @ @ @ @ @ @ @ @ @ @ @ @ @ @ @ @ @ @ @ @ @ @ @ @ @ @ @ @ @ @ @ @ @ @ @ @ @ @ @ @ @ @ + + & ; 9 w 4 4 w 4 4 4 4 4 4 4 4 9 9 9 9 4 4 4 4 9 4 q 7 q u b./ / / / / / / / / / / / / / / / / / / ,.OXqX*X=X=X=X7X+X,XJ.3.b.q.9..X9.q.{ m.O.#.b.+.b.b.b.q.q.q.b.b.b.b.b.b.1.q.b.b.b.b.b.b.1.b.b.b.b.b.b.b.b.N.#.#.#.#.#.#.#.#.#.+.b.q.9.[.4X+X=X7X=X6X,XD.1.q.b.N.b.q.,.a.bX9X] { b.z.n.b.#.@.b.b.b.b.b.b.b.b.b.b.b.b.b.b.b.b.b.b.b.b.b.b.b.b.b.b.b.b.b.b.b.b.@.@.b.b.b.b.b.b.b.q.] w.@X-X*X6X6X1XH.,.q.{ { b.b.1.G.6X6X*X=X-X",
"-X*X6X6XJ.b.{ @.q.,.8XAX6X4.q.@.b.b.b.b.b.b.b.b.b.b.b.b.b.b.b.b.b.b.b.b.b.b.b.b.b.b.b.b.b.b.b.b.b.b.b.b.b.b.b.b.b.b.b.b.b.b.b.b.N.+.n.1.Z.1X6X6X*X9X+XU.A.n.M.H.Z.w.U.*X*X=X=X*X,X4XJ.1.n.9.9.'.rX2.w.n.1.b.b.b.#.#.b.b.b.b.b.w.q.q.q.q.q.q.q.q.b.b.n.n.n.M.M.S.Z.Z.S.S.M.M.S.S.S.M.M.M.n.n.n.n.9.9.u.@X8X*X%X=X=X=X*XU.,.~ ` ) ` ` ` ` ` ` ` ` ` ` ` ` ` ` ` 3.j 7 ; 9 9 q 3 9 4 4 4 4 4 9 9 9 9 4 4 4 4 4 4 4 4 9 4 ; + + + + @ @ @ @ @ @ @ @ @ @ @ @ @ @ @ @ @ @ @ @ @ @ @ @ @ @ @ @ @ @ @ @ @ @ @ @ @ @ @ @ @ @ @ @ @ @ @ @ @ @ @ @ @ @ @ @ @ @ @ @ @ @ @ @ @ @ @ @ @ @ @ @ @ @ @ @ @ @ @ @ @ @ @ @ @ @ @ @ @ @ @ @ @ @ @ + + & ; 9 w 4 4 0 4 4 4 4 4 4 4 4 9 9 9 9 4 4 4 4 9 9 q 7 e u 1./ / / / / / / / / / / / / / / / / / / ,.OXqX*X=X=X=X7X+X,XJ.1.b.q.9..X9.q.q.m.{ N.b.b.b.b.q.w.w.w.1.b.b.b.n.n.C.B.n.n.n.b.b.b.b.b.b.b.b.b.b.b.b.b.N.@.#.@.#.#.#.@.#.+.b.q.9.[.4X+X*X7X=X6X,XD.1.q.b.b.q.q.,.a.bXeX9.{ b.z.n.b.b.@.b.b.b.b.b.b.b.b.b.b.b.b.b.b.b.b.b.b.b.b.b.b.b.b.b.b.b.b.b.b.b.b.@.@.b.b.b.b.b.b.b.q.] w.@X8X*X6X6X1XH.,.q.{ { b.b.1.G.6X6X*X=X-X",
"-X*X6X6XJ.w.[ @.{ ,.6XAXwX6.9.q.b.b.b.b.b.b.b.b.l.b.b.b.b.b.b.b.b.b.b.b.b.b.b.b.b.b.b.b.b.b.b.b.b.b.b.b.b.b.b.b.b.b.b.b.b.b.b.b.N.+.n.1.u.1X6X6X*X6X,XU.A.Z.S.H.Z.w.U.*X*X=X-X*X,X4XJ.1.n.1.,.[.yX2.w.n.1.b.b.b.N.#.b.b.b.b.b.w.w.q.q.q.w.w.w.b.n.n.M.M.M.M.S.S.Z.Z.Z.Z.Z.Z.Z.Z.S.S.Z.Z.Z.Z.Z.M.w.9.u.@X8X*X=X;X=X*X*XU.,.~ ` ) ` ` ` ` ` ` ` ` ` ` ` ` ` ` ` 3.u 7 9 9 4 9 3 0 4 4 4 4 4 9 9 9 9 4 4 4 4 4 4 4 4 9 4 ; + + + + @ @ @ @ @ @ @ @ @ @ @ @ @ @ @ @ @ @ @ @ @ @ @ @ @ @ @ @ @ @ @ @ @ @ @ @ @ @ @ @ @ @ @ @ @ @ @ @ @ @ @ @ @ @ @ @ @ @ @ @ @ @ @ @ @ @ @ @ @ @ @ @ @ @ @ @ @ @ @ @ @ @ @ @ @ @ @ @ @ @ @ @ @ @ @ + + & ; 4 w 4 4 0 4 4 4 4 4 4 4 4 9 9 4 4 4 4 4 4 9 9 w 7 7 y 3./ ` ` ` ` ` ` ` ` ` / / ` ` ` ` / / / ,.[.qX*X=X=X=X7X+X,XJ.1.b.w.9..X9.q.q.b.q.b.b.b.b.b.w.w.w.b.b.b.n.n.C.C.H.H.M.M.B.C.M.n.M.n.b.b.b.b.b.b.b.{ b.b.N.@.#.@.@.@.@.{ b.q.9.[.1X+X*X7X=X6X,XD.1.q.b.b.b.w.,.a.bXeX9.{ b.z.z.b.b.@.b.b.b.b.b.b.b.b.b.b.b.b.b.b.b.b.b.b.b.b.b.b.b.b.b.b.b.b.b.b.b.b.@.@.b.b.b.b.b.b.b.q.] w.OX8X*X6X6X1XH.,.q.{ { b.b.1.G.6X6X*X=X-X",
"-X*X*X6XJ.w.[ @.{ ,.6XAXvXA.1.q.b.b.b.b.b.b.b.b.b.b.b.b.b.l.l.b.b.b.b.b.b.b.b.+.b.b.b.b.b.b.b.b.b.b.b.b.b.b.b.b.b.b.b.b.b.b.b.b.N.+.n.1.u.1X*X*X*X6X+XU.u.Z.S.S.Z.u.U.*X*X-X-X*X#X4XJ.1.n.1.,.D.yX2.w.w.1.b.b.b.#.#.b.b.q.b.w.w.w.w.w.b.b.n.n.n.S.S.S.S.S.Z.Z.Z.Z.Z.Z.Z.Z.Z.Z.Z.Z.Z.Z.Z.Z.Z.Z.S.w.9.u.@X8X*X=X=X=X*X*XU.,.~ ` ) ` ` ` ` ` ` ` ` ` ` ` ` ` ` ` 3.y ; 9 9 3 9 3 0 4 4 4 9 4 9 9 9 9 4 4 4 4 4 4 4 4 9 4 = + + + + @ @ @ @ @ @ @ @ @ @ @ @ @ @ @ @ @ @ @ @ @ @ @ @ @ @ @ @ @ @ @ @ @ @ @ @ @ @ @ @ @ @ @ @ @ @ @ @ @ @ @ @ @ @ @ @ @ @ @ @ @ @ @ @ @ @ @ @ @ @ @ @ @ @ @ @ @ @ @ @ @ @ @ @ @ @ @ @ @ @ @ @ @ @ @ + + + ; 4 w 4 4 9 4 4 4 4 4 4 4 4 9 9 4 4 4 4 4 4 4 4 r 9 7 e ~ / ` ` ` ` ` ` ` ` ` / ` ` ` ` ` / / / ,.[.qX*X=X=X=X7X*X,XJ.1.b.q.w.<X9.q.1.b.1.b.l.b.b.b.b.n.n.n.S.F.F.F.B.H.H.H.H.H.H.F.F.F.F.F.n.n.n.b.b.w.b.q.b.q.b.q.b.@.@.@.#.{ b.q.9.[.4X+X*X7X=X6X,XD.1.q.b.b.q.q.,.a.VXjX9.{ b.z.z.b.b.@.b.b.b.b.b.b.b.b.b.b.b.b.b.b.b.b.b.b.b.b.b.b.b.b.b.b.b.b.b.b.b.b.@.@.b.b.b.b.b.b.b.q.] w.OX8X*X6X6X1XH.,.q.{ { b.b.1.G.6X6X*X=X=X",
"-X*X*X6XJ.w.{ @.] ,.*XZXbXU.1.q.b.b.b.b.b.b.b.b.b.b.b.b.b.b.b.b.b.b.b.b.b.q.{ { b.b.b.b.b.b.b.b.b.b.b.b.b.b.b.b.b.b.b.b.b.b.b.b.b.+.n.1.A.1X6X6X*X6X*XU.A.Z.Z.Z.Z.u.U.*X*X%X=X*X+X4XJ.1.n.9.,.D.iX6.2.w.1.b.b.b.+.+.+.+.q.q.1.1.w.w.n.n.n.n.M.M.S.S.Z.Z.Z.Z.Z.Z.Z.Z.Z.Z.Z.Z.Z.Z.Z.Z.Z.Z.Z.Z.Z.H.n.w.S.@X8X*X=X=X=X=X*XU.,./ ` / ` ` ` ` ` ` ` ` ` ` ` ` / ` ` 3.y ; 9 9 3 0 5 0 4 4 4 9 4 9 9 9 9 4 4 4 4 4 4 4 4 9 5 = + + + + @ @ @ @ @ @ @ @ @ @ @ @ @ @ @ @ @ @ @ @ @ @ @ @ @ @ @ @ @ @ @ @ @ @ @ @ @ @ @ @ @ @ @ @ @ @ @ @ @ @ @ @ @ @ @ @ @ @ @ @ @ @ @ @ @ @ @ @ @ @ @ @ @ @ @ @ @ @ @ @ @ @ @ @ @ @ @ @ @ @ @ @ @ @ @ + + + = 4 w 9 4 9 4 4 4 4 4 4 4 4 4 4 4 4 4 4 4 4 4 4 r 7 1 e ~ ` ` ` ` ` ` ` ` ` ` ` ` ` ` ` ` / / / ,.[.qX*X=X=X=X7X*X,XJ.1.b.q.w.3Xw.w.1.w.1.b.b.b.b.n.n.n.n.n.H.H.H.H.Z.Z.Z.Z.Z.Z.Z.Z.Z.Z.Z.H.n.n.n.n.n.w.w.w.q.q.q.{ { q.q.{ @.+.b.q.9.[.1X*X=X7X6X6X6XD.1.q.b.b.q.q.,.h.VXjXq.{ b.z.z.b.b.+.b.b.b.b.b.b.b.b.b.b.b.b.b.b.b.b.b.b.b.b.b.b.b.b.b.b.b.b.b.b.b.b.@.@.b.b.b.b.b.b.b.q.` w.OX8X*X6X6X1XH.9.q.@.O.b.b.1.G.6X6X*X=X=X",
"-X*X*X6XJ.w.[ @.] 0.R.ZXZXT.1.w.q.b.b.b.b.b.b.b.1.1.b.b.b.n.n.n.b.b.m.b.b.b.b.b.b.b.b.b.b.b.b.b.b.b.b.b.b.b.b.b.b.b.b.b.b.b.b.b.b.{ n.1.A.1X6X6X=X*X*XU.A.A.Z.Z.Z.u.U.*X*X%X=X*X+X4XJ.n.M.w.w.[.iXu.2.w.1.n.b.b.+.+.+.+.q.w.w.w.n.n.n.n.M.Z.Z.Z.Z.Z.Z.Z.Z.Z.Z.Z.Z.Z.Z.Z.Z.Z.Z.Z.Z.Z.Z.Z.Z.Z.Z.S.M.w.S.@X8X*X=X=X=X-X*XU.,./ ` / ` ` ` ` ` ` ` ` ` ` ` ` / / ` 3.i ; 9 9 3 0 4 4 4 4 4 9 4 9 9 9 9 4 4 4 4 4 4 4 9 4 5 & + + + + @ @ @ @ @ @ @ @ @ @ @ @ @ @ @ @ @ @ @ @ @ @ @ @ @ @ @ @ @ @ @ @ @ @ @ @ @ @ @ @ @ @ @ @ @ @ @ @ @ @ @ @ @ @ @ @ @ @ @ @ @ @ @ @ @ @ @ @ @ @ @ @ @ @ @ @ @ @ @ @ @ @ @ @ @ @ @ @ @ @ @ @ @ @ @ + + + = 4 w 9 4 4 4 4 4 4 4 4 4 4 4 4 4 4 4 4 4 4 9 ; q 7 7 q ~ 3.` ` ` ` ` ` ` ` ` ` ` ` ` ` ` ` / ,.,.[.8X+X=X=X=X9X*X8X].1.b.w.u.<X0.w.1.w.1.n.n.n.n.M.Z.Z.Z.Z.Z.Z.Z.Z.Z.Z.Z.Z.Z.Z.Z.Z.Z.Z.Z.Z.Z.Z.Z.n.n.n.n.n.w.w.q.q.q.{ { { @.@.b.q.9.[.4X*X=X7X6X6X,XD.1.q.b.b.q.q.,.U.VXbXq.{ b.z.l.b.b.+.b.b.b.b.b.b.b.b.b.b.b.b.b.b.b.b.b.b.b.b.b.b.b.b.b.b.b.b.b.b.b.b.@.@.b.b.b.b.b.b.b.q.` w.OX8X*X6X6X1XH.9.q.@.O.b.b.1.A.6X6X*X=X=X",
"%X%X*X6XJ.w.[ } q.0.Y.ZXZXR.<.b.q.b.b.b.b.b.b.b.b.b.n.n.B.C.C.C.B.C.B.B.B.m.b.b.b.b.b.b.b.b.b.b.b.b.b.b.b.b.b.b.b.b.b.b.b.b.b.b.b.{ n.1.A.1X*X*X=X*X*XU.A.A.Z.Z.Z.u.U.*X=X%X=X*X+X4XJ.M.H.n.Z.@XnXZ.6.w.1.n.b.b.+.+.+.b.b.b.n.n.n.n.Z.Z.Z.Z.Z.Z.Z.Z.Z.Z.Z.Z.Z.Z.Z.Z.Z.Z.Z.Z.Z.Z.Z.Z.Z.Z.Z.Z.Z.S.S.e.H.@X8X*X=X=X=X=X*XU.,.~ ` / ` ` ` ` ` ` ` ` ` ` ` ` ` ` / ,.y 3 0 9 4 w 4 4 4 4 4 9 4 9 9 9 9 4 4 4 4 4 4 4 9 4 ; & + + + + @ @ @ @ @ @ @ @ @ @ @ @ @ @ @ @ @ @ @ @ @ @ @ @ @ @ @ @ @ @ @ @ @ @ @ @ @ @ @ @ @ @ @ @ @ @ @ @ @ @ @ @ @ @ @ @ @ @ @ @ @ @ @ @ @ @ @ @ @ @ @ @ @ @ @ @ @ @ @ @ @ @ @ @ @ @ @ @ @ @ @ @ @ @ @ + + + = 4 w w 4 4 4 4 4 4 4 4 4 4 4 4 4 4 4 4 4 4 0 ; 9 1 7 q ~ 1.` ` ` ` ` ` ` ` ` ` ` ` ` ` ` ` ` ,.,.[.8X+X=X=X=X9X*X8X].1.b.1.Z.<X0.w.1.n.1.n.B.B.M.Z.Z.Z.Z.Z.Z.Z.Z.Z.Z.Z.F.F.Z.Z.Z.Z.Z.Z.Z.F.Z.Z.Z.Z.Z.n.n.M.n.n.w.q.q.q.q.{ @.+.b.q.9.[.4X+X=X7X=X6X,XD.1.q.b.b.q.q.<.U.AXbXw.m.b.z.l.b.b.+.b.b.b.b.b.b.b.b.b.b.b.b.b.b.b.b.b.b.b.b.b.b.b.b.b.b.b.b.b.b.b.b.@.@.b.b.b.b.b.b.b.q./ w.OX-X*X6X6X1XH.,.q.m.{ b.b.1.A.6X6X*X*X-X",
"%X%X-X6XJ.w.{ } q.w.U.bXZXR.<.w.w.q.b.q.b.w.b.w.C.M.H.S.H.H.H.H.H.C.C.C.C.M.B.B.b.q.b.q.b.q.b.b.b.b.b.b.b.b.b.b.b.b.b.b.b.b.b.b.b.{ n.1.A.1X*X*X*X*X*XT.A.A.Z.Z.Z.c.U.*X=X%X=X*X#XqX>XZ.J.H.S.1XmXi.6.2.1.n.b.b.b.b.b.b.n.M.M.M.Z.Z.Z.Z.Z.Z.Z.Z.Z.Z.Z.Z.Z.H.G.H.Z.Z.Z.Z.Z.Z.Z.Z.H.H.H.Z.Z.Z.Z.Z.S.e.H.#X8X*X=X=X=X=X*XU.,.~ ` ) ` ` ` ` ` ` ` ` ` ` ` ` ` / / ,.u 3 9 4 4 w 0 4 4 4 4 4 9 9 9 9 4 4 4 4 4 4 4 4 9 4 ; & + + + + @ @ @ @ @ @ @ @ @ @ @ @ @ @ @ @ @ @ @ @ @ @ @ @ @ @ @ @ @ @ @ @ @ @ @ @ @ @ @ @ @ @ @ @ @ @ @ @ @ @ @ @ @ @ @ @ @ @ @ @ @ @ @ @ @ @ @ @ @ @ @ @ @ @ @ @ @ @ @ @ @ @ @ @ @ @ @ @ @ @ @ @ @ @ @ + + + & 4 w w 4 4 4 4 4 4 4 4 4 4 4 4 4 4 4 4 4 4 0 ; 9 1 9 r ~ 1.` ` ` ` ` ` ` ` ` ` ` ` ` ` ` ` ` 1.,.[.8X+X7X=XQ.9X*X8XT.2.b.1.u.4X0.0.1.n.1.n.F.F.F.Z.Z.Z.Z.Z.Z.Z.Z.Z.Z.Z.Z.Z.Z.Z.Z.Z.Z.F.F.Z.Z.Z.Z.Z.S.S.S.S.M.M.M.n.q.q.w.q.b.b.b.q.9.[.qX*X=X7X=X*X,XD.1.q.b.b.{ q.,.U.ZXbX0.b.b.l.l.b.b.b.b.b.b.b.b.b.b.b.b.b.b.b.b.b.b.b.b.w.b.w.b.w.b.w.b.w.b.w.b.w.b.b.b.+.b.b.b.b.b.b.q.q.,.w.OX1X*X9X6X,XH.1.q.b.{ @.b.1.A.6X6X*X*X-X",
"*X%X-X9XOXw.] } q.~ R.mXvXvX4.<.q.q.1.1.w.n.M.H.S.S.Z.Z.Z.Z.Z.Z.Z.Z.Z.Z.S.S.M.M.M.n.b.q.q.q.b.b.b.@.b.b.b.b.b.b.b.b.N.N.N.N.l.b.b.+.n.1.A.1X6X*X*X6X6XT.A.Z.S.S.Z.Z.U.6X*X=X;X%X*X1X>XA.D.D.6.1XvXQ.i.u.S.S.n.n.H.F.F.F.Z.Z.S.S.Z.Z.Z.Z.Z.Z.Z.Z.Z.Z.Z.Z.Z.Z.Z.Z.Z.Z.Z.Z.Z.Z.Z.Z.Z.Z.Z.Z.Z.Z.Z.Z.S.Z.D.#X*X*X=X=X%X*X8XT.<.~ ` ) ` ` ` ` ` ` ` ` ` ` ` ` ` ` ` 3.u 4 9 9 4 0 4 9 4 4 4 4 4 4 4 4 4 4 4 4 4 4 4 4 4 4 ; + + & & + @ @ @ @ @ @ @ @ @ @ @ @ @ @ @ @ @ @ @ @ @ @ @ @ @ @ @ @ @ @ @ @ @ @ @ @ @ @ @ @ @ @ @ @ @ @ @ @ @ @ @ @ @ @ @ @ @ @ @ @ @ @ @ @ @ @ @ @ @ @ @ @ @ @ @ @ @ @ @ @ @ @ @ @ @ @ @ @ @ @ @ @ @ @ @ + & + + ; 9 4 4 9 4 4 4 4 4 4 4 4 4 4 4 4 4 4 4 4 9 4 q ; ; q ~ / ` ` ` ` ` ` ` ` ` ` ` ` ` ` ` ` 1.K 2.@X1X*X6X=X7X7X6X,XT.Z.1.9.<.aXD.<.S.Z.M.H.F.F.F.Z.Z.Z.Z.Z.Z.Z.Z.Z.Z.Z.Z.Z.Z.Z.Z.Z.Z.Z.Z.Z.Z.Z.Z.Z.Z.Z.Z.Z.Z.Z.Z.Z.S.S.S.S.M.b.b.w.<.D.-X*X*X=X=X6X1XH.9.b.b.+.m.r.P XXmXnXi.1.b.m.+.{ b.q.q.{ { q.q.q.q.{ q.q.q.q.q.q.q.w.M.M.M.M.S.S.H.S.S.S.S.S.S.S.S.M.w.q.q.b.b.+.{ { q.q.,.w.OX1X+X9X6X8XJ.1.{ @.+.#.+.` Z.,X6X*X7X=X",
"*X%X*X6XOXw.{ } { ~ T.mXbXvXt.0.9.q.q.w.b.n.S.H.Z.Z.Z.Z.Z.Z.Z.Z.Z.Z.Z.Z.Z.Z.Z.S.M.M.n.w.q.q.q.q.@.@.@.@.b.b.b.b.b.b.N.N.b.N.l.b.b.+.n.1.A.1X6X*X*X6X6XT.A.Z.S.S.S.n.D.,X*X=X;X*X*X,X>XA.D.D.4.8XbXQ.7.u.A.S.n.M.F.F.G.G.Z.Z.Z.S.Z.Z.Z.Z.Z.Z.Z.Z.Z.Z.Z.Z.Z.Z.Z.Z.Z.Z.Z.Z.Z.Z.Z.Z.Z.Z.Z.Z.Z.Z.Z.Z.Z.A.D.#X*X-X=X=X%X*X8XT.<.~ ` ) ` ` ` ` ` ` ` ` ` ` ` ` ` ` ` 3.u 4 9 9 4 q 4 9 4 4 4 4 4 4 4 4 4 4 4 4 4 4 4 4 4 4 ; + + + & + @ @ @ @ @ @ @ @ @ @ @ @ @ @ @ @ @ @ @ @ @ @ @ @ @ @ @ @ @ @ @ @ @ @ @ @ @ @ @ @ @ @ @ @ @ @ @ @ @ @ @ @ @ @ @ @ @ @ @ @ @ @ @ @ @ @ @ @ @ @ @ @ @ @ @ @ @ @ @ @ @ @ @ @ @ @ @ @ @ @ @ @ @ @ @ + & + + ; 9 9 4 9 4 4 4 4 4 4 4 4 4 4 4 4 4 4 4 4 9 4 q ; ; e ~ / ` ` ` ` ` ` ` ` ` ` ` ` ` ` ` / 1.K 2.@X1X6X6X6X7X6X6X6XT.u.w.w.<.yXD.<.H.Z.S.H.F.F.F.F.Z.Z.Z.Z.Z.Z.Z.Z.Z.Z.Z.Z.Z.Z.Z.Z.Z.Z.Z.Z.Z.Z.Z.Z.Z.Z.Z.Z.Z.Z.Z.Z.Z.Z.Z.Z.F.n.n.w.0.U.9X-X=X=X=X6X1XH.9.b.N.{ m.r.-.XXmXmXg.2.b.@.O.{ b.w.q.{ q.q.q.{ { { { q.q.q.b.b.n.n.Z.Z.Z.Z.Z.Z.Z.Z.Z.Z.Z.Z.Z.Z.Z.Z.n.b.b.b.b.+.q.{ q.q.,.0.OX1X1X8X6X6XJ.1.{ @.+.+.b.1.F.,X6X*X7X=X",
"*X*X*X6XT.w.{ { { ~ U.mXbXbXi.0.9.w.b.n.n.M.S.H.Z.Z.Z.Z.Z.Z.Z.Z.Z.Z.Z.Z.Z.Z.Z.S.M.M.n.n.b.q.q.q.@.@.@.@.@.@.b.b.b.b.b.b.b.l.l.b.N.+.n.1.A.1X*X*X*X6X6XT.A.Z.S.S.S.n.D.6X*X=X;X%X6X,X>Xu.D.D.4.8XbXQ.7.u.A.S.M.Z.F.F.F.F.Z.Z.Z.S.Z.Z.Z.Z.Z.Z.Z.Z.Z.Z.Z.Z.Z.Z.Z.Z.Z.Z.Z.Z.Z.Z.Z.Z.Z.Z.Z.Z.Z.Z.Z.Z.Z.A.D.#X*X-X=X=X%X*X8XT.<.~ ` ) ` ` ` / ` ` ` ` ` ` ` ` ` ` ` 3.u 4 9 9 4 q 4 9 4 4 4 4 4 4 4 4 4 4 4 4 4 4 4 4 4 5 = + + & + + @ @ @ @ @ @ @ @ @ @ @ @ @ @ @ @ @ @ @ @ @ @ @ @ @ @ @ @ @ @ @ @ @ @ @ @ @ @ @ @ @ @ @ @ @ @ @ @ @ @ @ @ @ @ @ @ @ @ @ @ @ @ @ @ @ @ @ @ @ @ @ @ @ @ @ @ @ @ @ @ @ @ @ @ @ @ @ @ @ @ @ @ @ @ @ + + + + ; 4 9 4 4 4 4 4 4 4 4 4 4 4 4 4 4 4 4 4 4 9 4 q ; 7 e ~ / ` ` ` ` ` ` ` ` ` ` ` ` ` ` ` / 1.K 2.@X1X6X6X6X6X6X6X6XT.A.w.w.u.iXOX0.H.S.S.H.F.F.F.F.Z.Z.Z.Z.Z.Z.Z.Z.Z.Z.Z.Z.Z.Z.Z.Z.Z.Z.Z.Z.Z.Z.Z.Z.Z.Z.Z.Z.Z.Z.Z.Z.Z.Z.Z.Z.F.M.M.S.u.OX8X*X=X=X=X9X8XH.1.q.b.` b.9.-.XXmXmXI.6.q.@.+.{ b.w.q.q.q.q.q.q.q.q.9.q.w.b.b.B.M.S.Z.Z.Z.Z.Z.Z.Z.Z.Z.Z.Z.Z.Z.Z.Z.Z.M.M.n.b.b.b.b.q.q.w.1.0.OX1X+X8X6X6XJ.1.{ @.+.+.b.1.F.2X6X*X7X=X",
"*X*X*X6XT.w.{ { { ,.I.mXbXbXU.0.w.b.n.M.S.S.S.S.Z.Z.Z.Z.Z.Z.Z.Z.Z.Z.Z.Z.Z.Z.Z.S.S.M.M.M.n.b.q.{ @.@.@.@.@.+.b.b.b.b.b.b.b.b.l.b.N.+.n.1.A.1X*X*X*X6X6XT.A.Z.S.S.S.n.D.6X*X=X;X*X6X,X>Xu.D.D.4.9XbX=X7.u.A.S.M.S.F.F.F.F.Z.Z.Z.M.Z.Z.Z.Z.Z.Z.Z.Z.Z.Z.Z.Z.Z.Z.Z.Z.Z.Z.Z.Z.Z.Z.Z.Z.Z.Z.Z.Z.Z.Z.Z.Z.Z.A.D.#X*X-X=X=X%X*X8XT.<.~ ` ) ` ` / / ` ` ` ` ` ` ` ` / ` ` 3.u 4 9 9 4 q 4 9 4 4 4 4 4 4 4 4 4 4 4 4 4 4 4 4 4 ; = + + & + + @ @ @ @ @ @ @ @ @ @ @ @ @ @ @ @ @ @ @ @ @ @ @ @ @ @ @ @ @ @ @ @ @ @ @ @ @ @ @ @ @ @ @ @ @ @ @ @ @ @ @ @ @ @ @ @ @ @ @ @ @ @ @ @ @ @ @ @ @ @ @ @ @ @ @ @ @ @ @ @ @ @ @ @ @ @ @ @ @ @ @ @ @ @ @ + + + + = 4 9 4 4 4 4 4 4 4 4 4 4 4 4 4 4 4 4 4 4 9 4 q ; 7 e ~ / ` ` ` ` ` ` ` ` ` ` ` ` ` ` ` / 1.K 2.@X,X6X6X6X6X6X6X6XT.A.Z.S.u.iX@X0.D.Z.Z.H.F.F.F.F.Z.Z.Z.Z.Z.Z.Z.Z.Z.Z.Z.Z.Z.Z.Z.Z.Z.Z.Z.Z.Z.Z.Z.Z.Z.Z.Z.Z.Z.Z.Z.Z.Z.Z.Z.Z.F.M.H.H.S.OX8X*X=X=X=X8X8XH.1.q.b.` q.9.-.oXmXmXE.6.q.@.{ { b.1.q.q.q.q.q.b.b.b.w.w.b.n.n.M.H.H.Z.Z.Z.Z.Z.Z.Z.Z.Z.Z.Z.Z.Z.Z.Z.Z.S.M.M.B.n.b.b.b.b.q.1.0.OX1X+X6X6X6XD.1.{ @.+.+.b.1.F.2X6X*X=X=X",
"-X*X-X6XT.w.{ { q.w.A.VXVXbXoX<.w.n.M.S.H.H.S.Z.Z.Z.Z.Z.Z.Z.Z.Z.Z.Z.Z.Z.Z.Z.Z.S.S.S.M.M.B.b.w.q.@.@.@.@.@.+.b.b.b.#.b.b.b.b.b.b.N.{ n.1.A.1X*X*X*X6X6XT.A.Z.S.S.S.n.D.6X*X%X;X%X6X,XOXu.A.D.t.8XmX=Xi.i.A.S.M.S.F.F.F.F.Z.Z.Z.S.Z.Z.Z.Z.Z.Z.Z.Z.Z.Z.Z.Z.Z.Z.Z.Z.Z.Z.Z.Z.Z.Z.Z.Z.Z.Z.Z.Z.Z.Z.Z.Z.Z.u.D.#X*X-X=X=X=X*X9XT.<.~ ` ) ` ` ` ` ` ` ` ` ` ` ` ` / ` / / u 1 9 9 4 q 4 9 4 4 4 4 4 4 4 4 4 4 4 4 4 4 4 4 4 ; & + + & + + @ @ @ @ @ @ @ @ @ @ @ @ @ @ @ @ @ @ @ @ @ @ @ @ @ @ @ @ @ @ @ @ @ @ @ @ @ @ @ @ @ @ @ @ @ @ @ @ @ @ @ @ @ @ @ @ @ @ @ @ @ @ @ @ @ @ @ @ @ @ @ @ @ @ @ @ @ @ @ @ @ @ @ @ @ @ @ @ @ @ @ @ @ @ @ + + + + = 5 9 9 4 4 4 4 4 4 4 4 4 4 4 4 4 4 4 4 4 9 4 q 1 7 q ~ / ` ` ` ` ` ` ` ` ` ` ` ` ` ` ` / 1.K 2.@X1X6X6X6X7X=X6X6XT.D.S.H.p.iX@Xt.D.Z.Z.S.F.F.F.F.Z.Z.Z.Z.Z.Z.Z.Z.Z.Z.Z.Z.Z.Z.Z.Z.Z.Z.Z.Z.Z.Z.Z.Z.Z.Z.Z.Z.Z.Z.Z.Z.Z.Z.Z.Z.F.M.H.H.A.OX8X*X=X=X=X9X8XD.1.q.b.` 9.9.-.oXmXbXE.4.1.@.{ { n.1.w.q.w.b.n.n.B.M.n.n.M.M.M.S.S.S.Z.Z.Z.Z.Z.Z.Z.Z.Z.Z.Z.Z.Z.Z.Z.Z.Z.Z.M.M.C.B.B.B.n.n.2.u.#X8X+X6X6X8XD.1.q.@.+.@.N.1.J.,X6X*X=X=X",
"-X*X-X6XT.w.{ { q.w.7.VXVXZX*X<.w.M.M.H.H.H.S.Z.Z.Z.Z.Z.Z.Z.Z.Z.Z.Z.Z.Z.Z.Z.Z.Z.S.S.S.M.M.n.n.b.q.@.@.@.@.@.b.b.b.b.b.b.b.b.b.b.#.{ n.1.A.1X*X*X*X6X6XT.A.Z.S.S.S.n.D.6X*X=X;X%X6X,XOXu.A.D.t.qXZX=Xg.i.H.S.M.S.F.F.F.F.Z.Z.Z.S.Z.Z.Z.Z.Z.Z.Z.Z.Z.Z.Z.Z.Z.Z.Z.Z.Z.Z.Z.Z.Z.Z.Z.Z.Z.Z.Z.Z.Z.Z.Z.Z.Z.u.D.#X*X-X=X=X=X*X9XT.<.:.` ) ` ` ` ` ` ` ` ` ` ` ` ` / / ` 3.u 4 9 9 4 q 4 9 4 4 4 4 4 4 4 4 4 4 4 4 4 4 4 4 9 ; + + & + + + @ @ @ @ @ @ @ @ @ @ @ @ @ @ @ @ @ @ @ @ @ @ @ @ @ @ @ @ @ @ @ @ @ @ @ @ @ @ @ @ @ @ @ @ @ @ @ @ @ @ @ @ @ @ @ @ @ @ @ @ @ @ @ @ @ @ @ @ @ @ @ @ @ @ @ @ @ @ @ @ @ @ @ @ @ @ @ @ @ @ @ @ @ @ @ + + + + & ; 9 9 4 4 4 4 4 4 4 4 4 4 4 4 4 4 4 4 4 9 4 q 1 1 e ~ / ` ` ` ` ` ` ` ` ` ` ` ` ` ` ` / 1.K 2.@X1X6X6X7X7X=X6X,XT.D.S.H.u.iXOXt.H.Z.n.Z.F.F.F.F.Z.Z.Z.Z.Z.Z.Z.Z.Z.Z.Z.Z.Z.Z.Z.Z.Z.Z.Z.Z.Z.Z.Z.Z.Z.Z.Z.Z.Z.Z.Z.Z.Z.Z.Z.Z.F.M.H.H.A.OX8X*X=X=X=X6X8XD.9.n.M.1.w.9.<.*XZXbXW.7.1.b.{ b.n.2.w.w.b.n.M.M.S.H.S.S.S.Z.Z.Z.Z.Z.Z.Z.Z.Z.Z.Z.Z.Z.Z.Z.Z.Z.Z.Z.Z.Z.Z.Z.Z.M.C.C.C.C.M.S.w.A.,X8X*X*X6X8XJ.2.q.m.@.#.b.1.G.,X6X*X=X=X",
"-X*X-X6XOX0.{ { { w.5.VXAXZX;X4.Z.M.S.S.S.S.S.Z.Z.Z.Z.Z.Z.Z.Z.Z.Z.Z.Z.Z.Z.Z.Z.Z.S.S.S.S.M.M.M.B.q.{ { { b.b.b.b.b.b.b.b.b.b.b.b.#.{ n.1.A.1X*X*X*X6X6XT.A.Z.S.S.Z.n.D.*X*X=X;X%X6X,XOXu.A.A.t.qXZX7XI.i.H.S.M.H.F.F.F.F.Z.Z.Z.S.Z.Z.Z.Z.Z.Z.Z.Z.Z.Z.Z.Z.Z.Z.Z.Z.Z.Z.Z.Z.Z.Z.Z.Z.Z.Z.Z.Z.Z.Z.Z.Z.Z.A.D.#X*X-X=X=X=X*X9XOX<.~ ` ) ` ` ` ` ` ` ` ` ` ` ` ` ` ` ` 3.u 4 9 9 4 q 4 9 4 4 4 4 4 4 4 4 4 4 4 4 4 4 4 4 9 = + + & + + + @ @ @ @ @ @ @ @ @ @ @ @ @ @ @ @ @ @ @ @ @ @ @ @ @ @ @ @ @ @ @ @ @ @ @ @ @ @ @ @ @ @ @ @ @ @ @ @ @ @ @ @ @ @ @ @ @ @ @ @ @ @ @ @ @ @ @ @ @ @ @ @ @ @ @ @ @ @ @ @ @ @ @ @ @ @ @ @ @ @ @ @ @ @ @ + + + + + ; 4 w 4 4 4 4 4 4 4 4 4 4 4 4 4 4 4 4 4 9 4 q 1 1 e ~ / ` ` ` ` ` ` ` ` ` ` ` ` ` ` ` / 1.K 2.@X1X6X6X6X7X=X6X+XT.A.Z.H.u.iXOXt.D.A.Z.S.F.F.F.F.Z.Z.Z.Z.Z.Z.Z.Z.Z.Z.Z.Z.Z.Z.Z.Z.Z.Z.Z.Z.Z.Z.Z.Z.Z.Z.Z.Z.Z.Z.Z.Z.Z.Z.Z.Z.H.M.H.S.A.OX9X-X=X=X=X*X,XH.w.M.H.n.n.w.t.-XAXVXW.7.w.b.b.n.Z.2.n.n.M.M.M.M.S.S.Z.Z.Z.Z.Z.Z.Z.Z.Z.Z.Z.Z.Z.Z.Z.Z.Z.Z.Z.Z.Z.Z.Z.Z.Z.Z.Z.Z.F.C.H.H.Z.H.Z.A.,X8X*X*X6X8XT.2.w.m.@.b.n.2.J.6X6X*X=X=X",
"*X%X=X7XOX0.{ { 9.w.8.VXAXZX9Xt.A.S.S.Z.Z.Z.Z.Z.Z.Z.Z.Z.Z.Z.Z.Z.Z.Z.Z.Z.Z.Z.Z.Z.Z.M.S.S.S.M.M.M.q.q.q.q.b.b.b.b.b.b.b.b.b.b.b.b.#.{ n.1.A.1X*X*X*X6X6XT.A.Z.S.S.S.n.D.*X*X=X;X%X6X,XOXu.A.D.t.9XZX7Xg.i.S.S.M.H.F.F.F.F.Z.Z.Z.S.Z.Z.Z.Z.Z.Z.Z.Z.Z.Z.Z.Z.Z.Z.Z.Z.Z.Z.Z.Z.Z.Z.Z.Z.Z.Z.Z.Z.Z.Z.Z.Z.Z.A.D.#X*X-X=X=X=X*X9XOX<.~ ` ) ` ` ` ` ` ` ` ` ` ` ` ` ` ` ` 3.u 4 9 9 4 q 4 9 4 4 4 4 4 4 4 4 4 4 4 4 4 4 4 4 9 = + + & + + + @ @ @ @ @ @ @ @ @ @ @ @ @ @ @ @ @ @ @ @ @ @ @ @ @ @ @ @ @ @ @ @ @ @ @ @ @ @ @ @ @ @ @ @ @ @ @ @ @ @ @ @ @ @ @ @ @ @ @ @ @ @ @ @ @ @ @ @ @ @ @ @ @ @ @ @ @ @ @ @ @ @ @ @ @ @ @ @ @ @ @ @ @ @ @ + + + + + ; 9 w 4 4 4 4 4 4 4 4 4 4 4 4 4 4 4 4 4 9 4 q 1 1 e ~ / ` ` ` ` ` ` ` ` ` ` ` ` ` ` ` / 1.K 2.@X1X6X6X6X7X=X6X+XT.A.Z.S.i.iX+Xt.D.A.Z.H.F.F.F.F.Z.Z.Z.Z.Z.Z.Z.Z.Z.Z.Z.Z.Z.Z.Z.Z.Z.Z.Z.Z.Z.Z.Z.Z.Z.Z.Z.Z.Z.Z.Z.Z.Z.Z.Z.Z.H.S.H.H.A.OX8X*X=X=XQ.*X,XS.q.M.P.M.S.p.t.;XAXCX!.I.Z.M.m.M.A.Z.Z.S.S.S.S.S.S.Z.Z.Z.Z.Z.Z.Z.Z.Z.Z.Z.Z.Z.Z.Z.Z.Z.Z.Z.Z.Z.Z.Z.Z.Z.Z.Z.F.Z.F.B.B.Z.F.H.Z.A.6X9X6X*X6X8XT.2.b.m.N.b.n.2.G.6X6X*X=X=X",
"-X%X=X6X#XS.q.m.M.,.f.kXVXNXMXy.u.Z.Z.Z.Z.Z.Z.Z.Z.Z.Z.Z.Z.Z.Z.Z.Z.Z.Z.Z.Z.Z.Z.Z.Z.Z.Z.S.S.S.S.M.B.b.q.{ { { b.b.+.b.b.b.b.b.b.#.N.b.1.1.D.#X6X*X*X*X6X+Xu.Z.H.M.M.Z.D.+X-X=X%X=X9X,XT.u.A.D.t.pXZXjX7.t.J.n.S.S.F.F.F.F.Z.Z.Z.S.Z.Z.Z.Z.Z.Z.Z.Z.Z.Z.Z.Z.Z.Z.Z.Z.Z.Z.Z.Z.Z.Z.Z.Z.Z.Z.Z.Z.Z.Z.Z.Z.Z.u.D.#X*X-X=X=X-X*X-XOX2.~ ` ` ` ` ` ` ` ` ` ` ` ` ` / / ` ` 3.g = q 1 9 4 9 4 4 4 4 4 4 4 4 4 4 4 4 4 4 4 4 4 4 = + + + + + + @ @ @ @ @ @ @ @ @ @ @ @ @ @ @ @ @ @ @ @ @ @ @ @ @ @ @ @ @ @ @ @ @ @ @ @ @ @ @ @ @ @ @ @ @ @ @ @ @ @ @ @ @ @ @ @ @ @ @ @ @ @ @ @ @ @ @ @ @ @ @ @ @ @ @ @ @ @ @ @ @ @ @ @ @ @ @ @ @ @ @ @ @ @ @ + + = + + 5 w 4 4 4 4 4 4 4 4 4 4 4 4 4 4 4 4 4 4 9 4 q ; ; e ~ / ` ` ` ` ` ` ` ` ` ` ` ` ` ` ` / ` ~ w.>X1X6X6X=X7X=X6X+XT.A.Z.Z.i.uXqXt.u.D.Z.Z.F.F.F.F.Z.Z.Z.Z.Z.Z.Z.Z.Z.Z.Z.Z.Z.Z.Z.Z.Z.Z.Z.Z.Z.Z.Z.Z.Z.Z.Z.Z.Z.Z.Z.Z.Z.Z.Z.Z.F.S.M.Z.S.+X-X*X=X=X7X+XqXw.w.H.Z.Z.S.u.a.;XAXVXlX7.A.M.B.M.Z.A.Z.Z.Z.Z.Z.Z.Z.Z.Z.Z.Z.Z.Z.Z.Z.Z.Z.Z.Z.Z.Z.Z.Z.Z.Z.Z.Z.Z.Z.Z.Z.Z.Z.Z.F.Z.F.F.F.Z.Z.Z.Z.U.6X6X*X6X6X6XD.u.H.C.m.C.H.Z.T.6X6X=X=X=X",
":X*X=X6X#XS.q.m.M.<.g.VXCXNXMXh.u.Z.Z.Z.Z.Z.Z.Z.Z.Z.Z.Z.Z.Z.Z.Z.Z.Z.Z.Z.Z.Z.Z.Z.Z.Z.Z.Z.Z.S.Z.S.C.B.n.b.q.q.b.b.b.b.b.b.b.b.b.b.N.b.1.w.D.,X6X*X*X*X6X+Xu.Z.H.M.M.Z.D.+X-X=X%X-X9X,XT.u.A.D.t.pXZXjX7.t.D.n.S.M.F.F.F.F.Z.Z.Z.S.Z.Z.Z.Z.Z.Z.Z.Z.Z.Z.Z.Z.Z.Z.Z.Z.Z.Z.Z.Z.Z.Z.Z.Z.Z.Z.Z.Z.Z.Z.Z.Z.Z.u.D.#X*X-X=X=X-X*X*XOX2.~ ` ` ` ` ` ` ` ` ` ` ` ` ` / / ` ` 3.g - q 1 9 4 9 4 4 4 4 4 4 4 4 4 4 4 4 4 4 4 4 4 4 = + + + + + + @ @ @ @ @ @ @ @ @ @ @ @ @ @ @ @ @ @ @ @ @ @ @ @ @ @ @ @ @ @ @ @ @ @ @ @ @ @ @ @ @ @ @ @ @ @ @ @ @ @ @ @ @ @ @ @ @ @ @ @ @ @ @ @ @ @ @ @ @ @ @ @ @ @ @ @ @ @ @ @ @ @ @ @ @ @ @ @ @ @ @ @ @ @ @ + + = + + 5 w 4 4 4 4 4 4 4 4 4 4 4 4 4 4 4 4 4 4 9 4 q ; ; e ~ / ` ` ` ` ` ` ` ` ` ` ` ` ` ` ` / ` ~ w.>X1X6X6X=X7X=X6X+XT.A.Z.Z.i.uXqXt.u.D.Z.Z.F.F.F.F.Z.Z.Z.Z.Z.Z.Z.Z.Z.Z.Z.Z.Z.Z.Z.Z.Z.Z.Z.Z.Z.Z.Z.Z.Z.Z.Z.Z.Z.Z.Z.Z.Z.Z.Z.Z.F.S.M.Z.S.+X-X*X=X=X7X+XqXw.w.H.Z.Z.S.w.a.;XAXVXgXf.A.C.B.S.Z.A.Z.Z.Z.Z.Z.Z.Z.Z.Z.Z.Z.Z.Z.Z.Z.Z.Z.Z.Z.Z.Z.Z.Z.Z.Z.Z.Z.Z.Z.Z.Z.Z.Z.Z.Z.Z.F.F.F.Z.Z.Z.Z.U.6X6X*X7X6X*XD.u.S.C.B.H.H.Z.T.6X6X=X=X=X",
"*X*X=X6X+XS.q.m.S.t.g.VXCXCXZXh.u.Z.Z.Z.Z.Z.Z.Z.Z.Z.Z.Z.Z.Z.Z.Z.Z.Z.Z.Z.Z.Z.Z.Z.Z.Z.Z.Z.Z.Z.Z.Z.H.M.M.n.b.w.q.q.b.b.b.b.b.b.b.b.b.+.b.n.D.,X6X*X*X*X6X+Xu.Z.H.M.M.Z.D.+X-X=X%X-X6X,XT.u.A.A.t.pXZXvXi.t.D.n.S.M.F.F.F.F.Z.Z.Z.S.Z.Z.Z.Z.Z.Z.Z.Z.Z.Z.Z.Z.Z.Z.Z.Z.Z.Z.Z.Z.Z.Z.Z.Z.Z.Z.Z.Z.Z.Z.Z.Z.Z.u.D.#X*X-X=X=X-X*X-XOX2.:.` / ` ` ` ` ` ` ` ` ` ` ` / / ` ` 3.j - q 4 9 4 9 4 4 4 4 4 4 4 4 4 4 4 4 4 4 4 4 4 4 = + + + + + + @ @ @ @ @ @ @ @ @ @ @ @ @ @ @ @ @ @ @ @ @ @ @ @ @ @ @ @ @ @ @ @ @ @ @ @ @ @ @ @ @ @ @ @ @ @ @ @ @ @ @ @ @ @ @ @ @ @ @ @ @ @ @ @ @ @ @ @ @ @ @ @ @ @ @ @ @ @ @ @ @ @ @ @ @ @ @ @ @ @ @ @ @ @ @ + + = + + 5 w 4 4 4 4 4 4 4 4 4 4 4 4 4 4 4 4 4 4 9 4 q ; 1 e ~ / ` ` ` ` ` ` ` ` ` ` ` ` ` ` ` / ` ~ w.>X1X6X6X=X7X=X6X+XT.A.n.Z.i.vXwXi.u.D.Z.Z.F.F.F.F.Z.Z.Z.Z.Z.Z.Z.Z.Z.Z.Z.Z.Z.Z.Z.Z.Z.Z.Z.Z.Z.Z.Z.Z.Z.Z.Z.Z.Z.Z.Z.Z.Z.Z.Z.Z.F.S.M.Z.S.OX-X*X=X=X7X+XqXw.w.H.Z.Z.S.s.a.;XAXVXhXf.A.S.B.S.Z.A.Z.Z.Z.Z.Z.Z.Z.Z.Z.Z.Z.Z.Z.Z.Z.Z.Z.Z.Z.Z.Z.Z.Z.Z.Z.Z.Z.Z.Z.Z.Z.Z.Z.Z.Z.Z.F.F.F.Z.Z.Z.Z.U.6X6X*X7X6X*XD.u.S.C.n.H.F.Z.T.6X6X=X=X=X",
"*X*X=X6X+XD.w.n.S.u.g.kXCXCXZX%Xi.Z.Z.Z.Z.Z.Z.Z.Z.Z.Z.Z.Z.Z.Z.Z.Z.Z.Z.Z.Z.Z.Z.Z.Z.Z.Z.Z.Z.Z.Z.Z.S.S.M.M.M.n.n.w.b.b.b.b.b.b.b.b.+.b.b.n.J.,X9X*X*X*X6X+Xu.Z.H.M.M.Z.D.+X-X=X%X-X6X,XT.u.A.A.t.uXmXbXI.t.H.n.H.M.F.F.F.F.Z.Z.Z.S.Z.Z.Z.Z.Z.Z.Z.Z.Z.Z.Z.Z.Z.Z.Z.Z.Z.Z.Z.Z.Z.Z.Z.Z.Z.Z.Z.Z.Z.Z.Z.Z.Z.u.D.#X*X-X=X=X-X*X*XOX2.:.` / ` ` ` ` ` ` ` ` ` ` ` / / ` ` 3.j ; q 4 9 4 9 4 4 4 4 4 4 4 4 4 4 4 4 4 4 4 4 4 4 = + + + + + + @ @ @ @ @ @ @ @ @ @ @ @ @ @ @ @ @ @ @ @ @ @ @ @ @ @ @ @ @ @ @ @ @ @ @ @ @ @ @ @ @ @ @ @ @ @ @ @ @ @ @ @ @ @ @ @ @ @ @ @ @ @ @ @ @ @ @ @ @ @ @ @ @ @ @ @ @ @ @ @ @ @ @ @ @ @ @ @ @ @ @ @ @ @ @ + + = + + 5 0 4 4 4 4 4 4 4 4 4 4 4 4 4 4 4 4 4 4 9 4 q ; 7 e ~ / ` ` ` ` ` ` ` ` ` ` ` ` ` ` ` / ` ~ w.>X1X6X6X=X7X=X6X+XT.A.Z.Z.i.vXwXi.u.D.Z.Z.F.F.F.F.Z.Z.Z.Z.Z.Z.Z.Z.Z.Z.Z.Z.Z.Z.Z.Z.Z.Z.Z.Z.Z.Z.Z.Z.Z.Z.Z.Z.Z.Z.Z.Z.Z.Z.Z.Z.F.S.M.Z.S.@X-X*X=X=X7X+XqX0.q.H.Z.Z.S.s.i.gXAXNXhXf.A.S.M.S.u.A.Z.Z.Z.Z.Z.Z.Z.Z.Z.Z.Z.Z.Z.Z.Z.Z.Z.Z.Z.Z.Z.Z.Z.Z.Z.Z.Z.Z.Z.Z.Z.Z.Z.Z.Z.Z.F.F.F.Z.Z.Z.Z.U.6X6X*X7X6X*XA.u.S.C.n.H.F.Z.T.6X6X=X=X=X",
"*X*X=X7X+XS.e.M.e.i.g.hXCXCXMX:Xi.Z.Z.Z.Z.Z.Z.Z.Z.Z.Z.Z.Z.Z.Z.Z.Z.Z.Z.Z.Z.Z.Z.Z.Z.Z.Z.Z.Z.Z.Z.Z.Z.Z.Z.Z.Z.M.M.n.w.w.l.b.b.b.b.b.b.b.b.M.J.,X6X*X*X*X6X+Xu.Z.H.M.M.Z.D.+X-X=X%X=X6X,XOXZ.A.i.i.uXmXbXE.u.H.n.H.M.F.F.F.F.Z.Z.Z.S.Z.Z.Z.Z.Z.Z.Z.Z.Z.Z.Z.Z.Z.Z.Z.Z.Z.Z.Z.Z.Z.Z.Z.Z.Z.Z.Z.Z.Z.Z.Z.Z.Z.A.D.#X*X-X=X=X=X*X*XOX2.~ ` / ` ` ` ` ` ` ` ` ` ` ` / / ` ` 3.j ; q 4 9 3 q 9 4 4 4 4 4 4 4 4 4 4 4 4 4 4 4 4 4 = + + + + + + @ @ @ @ @ @ @ @ @ @ @ @ @ @ @ @ @ @ @ @ @ @ @ @ @ @ @ @ @ @ @ @ @ @ @ @ @ @ @ @ @ @ @ @ @ @ @ @ @ @ @ @ @ @ @ @ @ @ @ @ @ @ @ @ @ @ @ @ @ @ @ @ @ @ @ @ @ @ @ @ @ @ @ @ @ @ @ @ @ @ @ @ @ @ @ + + = + + 5 w 4 4 4 4 4 4 4 4 4 4 4 4 4 4 4 4 4 4 9 4 q 1 1 e ~ / ` ` ` ` ` ` ` ` ` ` ` ` ` / ` / ` / w.>X1X6X6X=X7X=X6X+XT.A.n.Z.i.vXuXi.6.A.Z.Z.F.F.F.F.Z.Z.Z.Z.Z.Z.Z.Z.Z.Z.Z.Z.Z.Z.Z.Z.Z.Z.Z.Z.Z.Z.Z.Z.Z.Z.Z.Z.Z.Z.Z.Z.Z.Z.Z.Z.F.H.M.Z.S.OX-X*X=X=X7X+XqX0.q.C.Z.Z.S.s.i.gXAXNXkXg.A.M.M.S.u.A.Z.S.S.S.Z.Z.Z.Z.Z.Z.Z.Z.Z.Z.Z.Z.Z.Z.Z.Z.Z.Z.Z.Z.Z.Z.Z.Z.Z.Z.Z.Z.Z.Z.Z.Z.F.F.F.Z.Z.Z.Z.D.6X6X*X7X*X+XA.u.H.S.M.H.Z.c.R.6X6X=X=X=X",
"*X*X=X7X+XS.e.M.w.i.f.fXCXSXMX;Xi.Z.Z.Z.Z.Z.Z.Z.Z.Z.Z.Z.Z.Z.Z.Z.Z.Z.Z.Z.Z.Z.Z.Z.Z.Z.Z.Z.Z.Z.Z.Z.Z.Z.Z.Z.Z.Z.Z.M.n.n.n.n.n.b.b.b.N.m.n.M.J.#X6X*X*X*X6X+Xu.u.H.M.M.Z.D.+X-X%X%X=X*X,XOXA.A.i.i.vXbXbXU.t.Z.n.H.M.F.F.F.F.Z.Z.Z.S.Z.Z.Z.Z.Z.Z.Z.Z.Z.Z.Z.Z.Z.Z.Z.Z.Z.Z.Z.Z.Z.Z.Z.Z.Z.Z.Z.Z.Z.Z.Z.Z.Z.A.D.#X*X-X=X=X-X*X*XOX2.~ ` ` ` ` ` ` ` ` ` ` ` ` ` / / ` ` 3.h ; w 4 9 3 q 9 4 4 4 4 4 4 4 4 4 4 4 4 4 4 4 4 4 = + + + + + + @ @ @ @ @ @ @ @ @ @ @ @ @ @ @ @ @ @ @ @ @ @ @ @ @ @ @ @ @ @ @ @ @ @ @ @ @ @ @ @ @ @ @ @ @ @ @ @ @ @ @ @ @ @ @ @ @ @ @ @ @ @ @ @ @ @ @ @ @ @ @ @ @ @ @ @ @ @ @ @ @ @ @ @ @ @ @ @ @ @ @ @ @ @ @ + + & + + 5 w 4 4 4 4 4 4 4 4 4 4 4 4 4 4 4 4 4 4 9 4 q 1 1 e ~ / ` ` ` ` ` ` ` ` ` ` ` ` ` / ` / ` / w.>X1X6X6X=X7X=X6X,XT.A.n.Z.i.vXvXi.6.A.Z.Z.F.F.F.F.Z.Z.Z.Z.Z.Z.Z.Z.Z.Z.Z.Z.Z.Z.Z.Z.Z.Z.Z.Z.Z.Z.Z.Z.Z.Z.Z.Z.Z.Z.Z.Z.Z.Z.Z.Z.F.H.M.Z.S.OX-X*X=X=X7X+XqX0.w.M.Z.Z.S.s.i.;XAXNXkXg.A.M.M.S.u.A.Z.M.S.S.Z.Z.Z.Z.Z.Z.Z.Z.Z.Z.Z.Z.Z.Z.Z.Z.Z.Z.Z.Z.Z.Z.Z.Z.Z.Z.Z.Z.Z.Z.Z.Z.F.F.F.Z.Z.Z.Z.U.6X6X*X7X*X+XA.u.H.S.M.F.A.v.R.6X7X=X=X=X",
"*X*X=X7X+XD.e.M.w.A.f.fXFXCXNXxXi.Z.Z.G.Z.Z.Z.Z.Z.Z.Z.Z.Z.Z.Z.Z.Z.Z.Z.Z.Z.Z.Z.Z.Z.Z.Z.Z.Z.Z.Z.Z.Z.Z.A.Z.Z.Z.Z.Z.Z.M.M.M.M.M.M.n.V.B.B.M.D.+X6X*X*X*X6X+Xu.Z.H.M.M.Z.D.+X-X=X%X=X*X,X>XA.A.A.i.nXbXbXR.u.A.n.H.M.F.F.F.F.Z.Z.Z.Z.Z.Z.Z.Z.Z.Z.Z.Z.Z.Z.Z.Z.Z.Z.Z.Z.Z.Z.Z.Z.Z.Z.Z.Z.Z.Z.Z.Z.Z.Z.Z.Z.Z.A.D.#X*X-X=X=X-X*X8XOX2.~ ` ` ` ` ` ` ` ` ` ` ` ` ` / / ` ` 3.h ; q ; 9 3 q 9 4 4 4 4 4 4 4 4 4 4 4 4 4 4 4 4 4 = + + + + + + @ @ @ @ @ @ @ @ @ @ @ @ @ @ @ @ @ @ @ @ @ @ @ @ @ @ @ @ @ @ @ @ @ @ @ @ @ @ @ @ @ @ @ @ @ @ @ @ @ @ @ @ @ @ @ @ @ @ @ @ @ @ @ @ @ @ @ @ @ @ @ @ @ @ @ @ @ @ @ @ @ @ @ @ @ @ @ @ @ @ @ @ @ @ @ + + & + + 5 9 4 4 4 4 4 4 4 4 4 4 4 4 4 4 4 4 4 4 9 4 q 1 1 e ~ / ` ` ` ` ` ` ` ` ` ` ` ` ` ` ` / ` / w.>X1X6X6X=X7X=X6X+XT.A.n.A.g.vXvXA.6.A.Z.H.F.F.F.F.Z.Z.Z.Z.Z.Z.Z.Z.Z.Z.Z.Z.Z.Z.Z.Z.Z.Z.Z.Z.Z.Z.Z.Z.Z.Z.Z.Z.Z.Z.Z.Z.Z.Z.Z.Z.F.H.M.Z.S.OX-X*X=X=X7X+X8X0.9.M.Z.Z.S.s.i.;XAXNXVXg.A.M.n.S.u.A.S.M.S.S.S.M.Z.Z.Z.Z.Z.Z.Z.Z.Z.Z.Z.Z.Z.Z.Z.Z.Z.Z.Z.Z.Z.Z.Z.Z.Z.Z.Z.Z.Z.Z.F.F.F.Z.Z.Z.Z.D.6X6X*X7X*X+XA.u.S.S.M.F.A.v.R.6X=X=X=X=X",
"*X*X=X6X+XA.n.M.w.D.f.fXAXCXNXcXi.Z.A.F.Z.Z.Z.Z.Z.Z.Z.Z.Z.Z.Z.Z.Z.Z.Z.Z.Z.Z.Z.Z.Z.Z.Z.Z.Z.Z.Z.Z.Z.Z.Z.Z.Z.Z.Z.Z.S.S.Z.S.F.H.F.C.C.C.M.Z.D.+X6X*X*X*X6X+XZ.Z.H.M.M.Z.D.+X-X=X%X-X+X,X>XA.A.A.i.vXVXVXY.i.u.Z.H.M.F.F.F.F.Z.Z.Z.Z.Z.Z.Z.Z.Z.Z.Z.Z.Z.Z.Z.Z.Z.Z.Z.Z.Z.Z.Z.Z.Z.Z.Z.Z.Z.Z.Z.Z.Z.Z.Z.Z.Z.Z.D.#X*X-X=X=X-X=X-XOX2.~ ` ` ` ` ` ` ` ` ` ` ` ` ` ) / ` ` ` h ; q ; 9 3 q 9 4 4 4 4 4 4 4 4 4 4 4 4 4 4 4 4 4 = + + + + + + @ @ @ @ @ @ @ @ @ @ @ @ @ @ @ @ @ @ @ @ @ @ @ @ @ @ @ @ @ @ @ @ @ @ @ @ @ @ @ @ @ @ @ @ @ @ @ @ @ @ @ @ @ @ @ @ @ @ @ @ @ @ @ @ @ @ @ @ @ @ @ @ @ @ @ @ @ @ @ @ @ @ @ @ @ @ @ @ @ @ @ @ @ @ @ + + & + + 5 w 4 4 4 4 4 4 4 4 4 4 4 4 4 4 4 4 9 9 9 4 q 1 1 e ~ / ` ` ` ` ` ` ` ` ` ` ` ` ` ) ` / / P w.>X1X6X6X=X7X=X6X+XT.A.Z.A.I.mXvXA.u.A.A.H.Z.F.F.F.Z.F.Z.Z.Z.Z.Z.Z.Z.Z.Z.Z.Z.Z.Z.Z.Z.Z.Z.Z.Z.Z.Z.Z.Z.Z.Z.Z.Z.Z.Z.Z.Z.Z.Z.Z.F.H.Z.Z.D.OX*X*X=X=X7X*X8X0.9.M.F.Z.S.u.i.gXAXNXVXE.u.M.M.H.A.A.S.S.S.S.M.M.Z.Z.Z.Z.Z.Z.Z.Z.Z.Z.Z.Z.Z.Z.Z.Z.Z.Z.Z.Z.Z.Z.Z.Z.Z.Z.Z.Z.Z.Z.F.F.F.Z.Z.Z.Z.D.6X6X*X7X*X+XA.t.S.S.n.Z.A.v.T.6X=X=X=X=X",
"*X*X*X*X6XT.Z.n.n.H.4.*XZXCXCXNXR.6.A.Z.Z.J.Z.Z.Z.M.S.S.S.S.S.Z.Z.Z.Z.Z.Z.Z.Z.Z.Z.Z.Z.Z.Z.Z.Z.Z.Z.Z.Z.Z.Z.Z.Z.Z.Z.Z.Z.Z.Z.Z.Z.S.C.C.S.Z.D.#X6X*X*X9X6XT.A.Z.F.H.Z.Z.D.+X-X%X%X-X*X+X+Xi.A.i.i.vXVXNX&Xy.u.S.S.H.F.F.F.Z.Z.A.A.A.Z.Z.Z.Z.Z.Z.Z.Z.Z.Z.Z.Z.Z.Z.Z.Z.Z.Z.Z.Z.Z.Z.Z.Z.Z.Z.Z.Z.Z.Z.Z.Z.S.u.D.#X8X*X%X;X=X*X+X,X<.,.) ) ` ` ` ` ) ` ) ` ) ) ) ` ` ` ` ` n ; q 9 0 4 9 4 4 4 4 4 4 4 4 4 4 4 4 4 4 4 4 4 4 = + + + + + + @ @ @ @ @ @ @ @ @ @ @ @ @ @ @ @ @ @ @ @ @ @ @ @ @ @ @ @ @ @ @ @ @ @ @ @ @ @ @ @ @ @ @ @ @ @ @ @ @ @ @ @ @ @ @ @ @ @ @ @ @ @ @ @ @ @ @ @ @ @ @ @ @ @ @ @ @ @ @ @ @ @ @ @ @ @ @ @ @ @ @ @ @ @ @ + + & + + 4 9 4 4 4 4 4 4 4 4 4 4 4 4 4 4 4 4 4 4 9 4 q ; 1 e ~ / 3.3.1.` ` ` ` ` ) / ` ` { ` / / ~ P w.@XqX-X*X*X=X9X+X1XOXu.H.Z.U.vXnXU.t.A.A.Z.Z.Z.Z.Z.F.F.F.Z.Z.Z.Z.Z.Z.Z.Z.Z.Z.Z.Z.Z.Z.Z.Z.Z.Z.Z.Z.Z.Z.Z.Z.Z.Z.Z.Z.Z.Z.Z.Z.Z.F.F.Z.Z.D.+X*X=X=XQ.7X6X1X1.1.C.B.F.Z.i.g.VXcXVXbXQ.7.u.H.Z.Z.A.S.S.S.S.S.Z.S.S.Z.Z.Z.Z.Z.Z.Z.Z.Z.Z.Z.Z.Z.Z.Z.Z.Z.Z.Z.Z.Z.Z.Z.Z.Z.Z.F.Z.F.F.F.Z.F.Z.A.T.6X=X=X*X8X+XA.u.Z.H.H.Z.Z.u.T.6X6X=X=X=X",
"*X*X*X6X0XT.c.Z.Z.H.t.*XZXCXHXCXQ.t.A.A.Z.J.Z.M.Z.M.S.S.Z.S.Z.Z.Z.Z.Z.Z.Z.Z.Z.Z.Z.Z.Z.Z.Z.Z.Z.Z.Z.Z.Z.Z.Z.Z.Z.Z.Z.Z.Z.Z.Z.Z.Z.Z.B.H.Z.A.D.#X6X*X*X9X6XT.A.Z.F.H.Z.A.U.+X-X%X%X-X*X+X+Xi.A.i.i.bXSXDX&Xd.t.S.S.H.F.F.F.Z.A.A.u.u.Z.Z.Z.Z.Z.Z.Z.Z.Z.Z.Z.Z.Z.Z.Z.Z.Z.Z.Z.Z.Z.Z.Z.Z.Z.Z.Z.Z.Z.Z.Z.S.S.w.D.#X9X*X%X;X=X*X+X,X<.<.) ) ` ` ` ` ` ` ` ` / / ) ` ` ` ` ` n ; q 7 w 4 0 4 4 4 4 4 4 4 9 9 4 4 4 4 4 4 4 4 4 = + + + + + + @ @ @ @ @ @ @ @ @ @ @ @ @ @ @ @ @ @ @ @ @ @ @ @ @ @ @ @ @ @ @ @ @ @ @ @ @ @ @ @ @ @ @ @ @ @ @ @ @ @ @ @ @ @ @ @ @ @ @ @ @ @ @ @ @ @ @ @ @ @ @ @ @ @ @ @ @ @ @ @ @ @ @ @ @ @ @ @ @ @ @ @ @ @ @ + + & + + 4 9 4 4 4 4 4 4 4 4 4 4 4 4 4 4 4 4 4 4 9 4 q 1 ; e ~ / 1.1.` ` ` ` ` ` ` ` ) / / / / / ~ ,.p.1XqX+X*X*X*X9X+X1XOXu.H.Z.a.nXnXU.t.A.D.Z.Z.Z.Z.Z.F.F.Z.Z.Z.Z.Z.Z.Z.Z.Z.Z.Z.Z.Z.Z.Z.Z.Z.Z.Z.Z.Z.Z.Z.Z.Z.Z.Z.Z.Z.Z.Z.Z.Z.Z.F.F.Z.A.D.+X6X=X=XQ.7X6XqX1.3.C.B.F.Z.i.g.VXcXVXbXQ.7.u.A.Z.Z.S.Z.Z.Z.Z.Z.Z.Z.Z.Z.Z.Z.Z.Z.Z.Z.Z.Z.Z.Z.Z.Z.Z.Z.Z.Z.Z.Z.Z.Z.Z.Z.Z.Z.Z.F.S.F.F.F.Z.F.Z.A.T.6X=X=X*X1XOXD.u.A.S.H.Z.A.u.T.6X6X*X7X=X",
"%X*X*X6X0XT.Z.Z.Z.H.6.*XZXCXHXCX*Xu.A.A.Z.J.Z.F.F.Z.Z.Z.Z.Z.Z.Z.Z.Z.Z.Z.Z.Z.Z.Z.Z.Z.Z.Z.Z.Z.Z.Z.Z.Z.Z.Z.Z.Z.Z.Z.Z.Z.Z.Z.Z.Z.Z.Z.B.H.Z.A.D.#X6X*X*X9X6XT.A.Z.F.H.Z.A.U.+X%X%X%X-X*X+X+Xi.A.i.g.bXSXSX:Xy.t.D.M.H.F.F.F.Z.Z.A.A.A.Z.Z.Z.Z.Z.Z.Z.Z.Z.Z.Z.Z.Z.Z.Z.Z.Z.Z.Z.Z.Z.Z.Z.Z.Z.Z.Z.Z.Z.Z.Z.S.S.w.D.#X9X*X%X;X=X*X+X1X<.,.) ) ` ` ` ` ` ` ` ` / / / ` ` ` ` ` n ; q 1 q 4 0 4 4 4 4 4 4 4 9 9 4 4 4 4 4 4 4 4 4 = + + + + + + @ @ @ @ @ @ @ @ @ @ @ @ @ @ @ @ @ @ @ @ @ @ @ @ @ @ @ @ @ @ @ @ @ @ @ @ @ @ @ @ @ @ @ @ @ @ @ @ @ @ @ @ @ @ @ @ @ @ @ @ @ @ @ @ @ @ @ @ @ @ @ @ @ @ @ @ @ @ @ @ @ @ @ @ @ @ @ @ @ @ @ @ @ @ @ + + & + + 4 9 5 4 4 4 4 4 4 4 4 4 4 4 4 4 4 4 4 4 9 4 q ; ; e ~ / ` ` ` ` ` ` ` ` ` ` ` / / / { { L ,.p.#X8X+X*X*X=X9X+X1XOXu.H.Z.a.nXnXU.t.A.D.Z.Z.Z.Z.Z.Z.Z.Z.Z.Z.Z.Z.Z.Z.Z.Z.Z.Z.Z.Z.Z.Z.Z.Z.Z.Z.Z.Z.Z.Z.Z.Z.Z.Z.Z.Z.Z.Z.Z.Z.Z.F.F.Z.A.D.+X6X*X=XQ.7X6X8X1.1.C.V.H.Z.i.f.VXcXNXbX*Xi.u.A.H.Z.S.Z.Z.Z.Z.Z.Z.Z.Z.Z.Z.Z.Z.Z.Z.Z.Z.Z.Z.Z.Z.Z.Z.Z.Z.Z.Z.Z.Z.Z.Z.Z.Z.Z.Z.Z.Z.F.F.F.Z.G.Z.A.R.6X6X6X*X8XOXA.u.A.S.Z.Z.A.u.T.6X6X*X7X=X",
"%X=X*X6X0XG.Z.H.Z.H.2.+XZXNXBXCX9Xi.A.A.Z.J.Z.F.F.F.F.Z.Z.Z.Z.Z.Z.Z.Z.Z.Z.Z.Z.Z.Z.Z.Z.Z.Z.Z.Z.Z.Z.Z.Z.Z.Z.Z.Z.Z.Z.Z.Z.Z.Z.Z.Z.Z.B.H.Z.A.D.#X6X*X*X9X6XT.A.Z.F.H.Z.Z.U.+X-X%X%X-X*X,XOXi.A.i.g.bXSXSX:Xy.u.S.M.H.F.F.F.Z.Z.A.A.Z.Z.Z.Z.Z.Z.Z.Z.Z.Z.Z.Z.Z.Z.Z.Z.Z.Z.Z.Z.Z.Z.Z.Z.Z.Z.Z.Z.Z.Z.Z.Z.S.S.w.D.#X9X*X%X=X=X*X+X1X>.<.) ) ` ` ` ` / ` ` ` / / / ` ` ` ` ` n 7 q 1 q 4 0 4 4 4 4 4 4 4 9 9 4 4 4 4 4 4 4 4 4 = + + + + + + @ @ @ @ @ @ @ @ @ @ @ @ @ @ @ @ @ @ @ @ @ @ @ @ @ @ @ @ @ @ @ @ @ @ @ @ @ @ @ @ @ @ @ @ @ @ @ @ @ @ @ @ @ @ @ @ @ @ @ @ @ @ @ @ @ @ @ @ @ @ @ @ @ @ @ @ @ @ @ @ @ @ @ @ @ @ @ @ @ @ @ @ @ @ @ + + & + + 4 9 4 4 4 4 4 4 4 4 4 4 4 4 4 4 4 4 4 4 9 4 q ; ; e ~ / ) ` ` ` ` ) ) ` ` ` ` ` ` ` { 9.K ,.i.#X*X*X*X9X=X9X+X1XOXu.H.A.i.nXnXU.t.A.D.Z.Z.Z.Z.Z.Z.Z.Z.Z.Z.Z.Z.Z.Z.Z.Z.Z.Z.Z.Z.Z.Z.Z.Z.Z.Z.Z.Z.Z.Z.Z.Z.Z.Z.Z.Z.Z.Z.Z.Z.Z.F.F.Z.Z.D.OX6X*X=XQ.7X6X1X1.` B.C.H.A.i.f.VXNXNXbX*Xi.Z.H.S.M.S.Z.Z.Z.Z.Z.Z.Z.Z.Z.Z.A.A.A.A.Z.Z.Z.Z.Z.Z.Z.Z.Z.Z.Z.Z.Z.Z.Z.Z.Z.Z.Z.Z.Z.Z.F.F.F.Z.G.Z.A.R.6X6X6X*X1XOXu.u.A.A.Z.Z.A.u.T.6X6X*X7X=X",
"%X*X*X6X6XA.z.H.Z.H.<.+XZXNXBXCX9Xi.A.A.Z.J.Z.F.F.F.F.F.Z.A.A.Z.Z.Z.Z.Z.Z.Z.Z.Z.Z.Z.Z.Z.Z.Z.Z.Z.Z.Z.Z.Z.Z.Z.Z.Z.Z.Z.Z.Z.Z.Z.Z.Z.B.H.S.A.D.#X8X*X*X9X6XT.A.Z.F.H.Z.A.U.+X-X%X%X-X*X,XOXu.A.i.g.mXNXSX:Xy.u.S.M.H.F.F.F.F.Z.Z.Z.Z.Z.Z.Z.Z.Z.Z.Z.Z.Z.Z.Z.Z.Z.Z.Z.Z.Z.Z.Z.Z.Z.Z.Z.Z.Z.Z.Z.Z.Z.Z.Z.S.S.w.D.#X9X*X%X=X%X*X+X,X<.<./ ` ) ` ` ` / ` ` ` ) / / ` ` ` ` ` n 1 9 1 9 4 0 4 4 4 4 4 4 4 9 9 4 4 4 4 4 4 4 4 4 = + + + + + + @ @ @ @ @ @ @ @ @ @ @ @ @ @ @ @ @ @ @ @ @ @ @ @ @ @ @ @ @ @ @ @ @ @ @ @ @ @ @ @ @ @ @ @ @ @ @ @ @ @ @ @ @ @ @ @ @ @ @ @ @ @ @ @ @ @ @ @ @ @ @ @ @ @ @ @ @ @ @ @ @ @ @ @ @ @ @ @ @ @ @ @ @ @ @ + + & + + 4 9 4 4 4 4 4 4 4 4 4 4 4 4 4 4 4 4 4 4 9 4 q 7 1 e ~ / ` _ _ _ _ _ _ ` / ` ` ` ` ) / ~ ,.t.U.+X*X*X=X=X=X7X+X,XOXZ.D.A.i.nXnXU.t.A.D.Z.F.F.Z.Z.Z.Z.Z.F.Z.Z.Z.Z.Z.Z.Z.Z.Z.Z.Z.Z.Z.Z.Z.Z.Z.Z.Z.Z.Z.Z.Z.Z.Z.Z.Z.Z.Z.Z.Z.Z.F.F.Z.Z.D.+X6X*X7XQ.7X6X1X<.` B.C.H.u.i.f.VXcXNXZX*Xi.Z.Z.S.M.S.Z.Z.Z.Z.Z.Z.Z.Z.Z.A.Z.Z.Z.Z.Z.Z.Z.Z.Z.Z.Z.Z.Z.Z.Z.Z.Z.Z.Z.Z.Z.Z.Z.Z.Z.Z.F.F.F.Z.G.A.A.R.6X6X6X*X,XD.u.u.A.Z.Z.Z.A.u.T.1X6X*X7X=X",
"*X*X*X6X6XA.2.H.Z.S.<.#XmXNXBXCXvXA.A.A.A.J.c.F.F.F.F.G.F.Z.A.Z.Z.Z.Z.Z.Z.Z.Z.Z.Z.Z.Z.Z.Z.Z.Z.Z.Z.Z.Z.Z.Z.Z.Z.Z.Z.Z.Z.Z.Z.Z.Z.Z.B.H.Z.A.D.#X6X*X*X9X6XT.A.Z.F.F.Z.A.U.#X-X%X%X-X*X,XOXu.A.i.g.mXNXSX:Xi.u.S.M.H.F.F.F.F.Z.Z.S.S.Z.Z.Z.Z.Z.Z.Z.Z.Z.Z.Z.Z.Z.Z.Z.Z.Z.Z.Z.Z.Z.Z.Z.Z.Z.Z.Z.Z.Z.Z.Z.S.S.w.D.#X9X*X%X;X=X*X+X,X<.<.~ ` ) ` ` ` ` ` ` ` ) / / ` ` ` ` ` n 1 9 1 9 4 0 9 4 4 4 4 4 4 9 9 4 4 4 4 4 4 4 4 4 = + + + + + + @ @ @ @ @ @ @ @ @ @ @ @ @ @ @ @ @ @ @ @ @ @ @ @ @ @ @ @ @ @ @ @ @ @ @ @ @ @ @ @ @ @ @ @ @ @ @ @ @ @ @ @ @ @ @ @ @ @ @ @ @ @ @ @ @ @ @ @ @ @ @ @ @ @ @ @ @ @ @ @ @ @ @ @ @ @ @ @ @ @ @ @ @ @ @ + + & + + 4 9 4 4 4 4 4 4 4 4 4 4 4 4 4 4 4 4 4 4 9 4 q ; 1 e ~ / _ _ _ _ _ _ ` ` ) ` ` ` ) ~ / ,.J.OX+X9X6X=X=X=X=X7X+X,XOXu.H.S.i.vXmXoXi.A.A.Z.F.Z.Z.Z.Z.Z.F.F.Z.Z.Z.Z.Z.Z.Z.Z.Z.Z.Z.Z.Z.Z.Z.Z.Z.Z.Z.Z.Z.Z.Z.Z.Z.Z.Z.Z.Z.Z.Z.Z.F.F.Z.Z.D.OX6X*X7XQ.7X6X1X:./ m.C.S.u.i.j.SXcXVXZX*Xi.Z.F.H.M.H.Z.Z.Z.Z.Z.Z.Z.Z.Z.Z.Z.Z.Z.Z.Z.Z.Z.Z.Z.Z.Z.Z.Z.Z.Z.Z.Z.Z.Z.Z.Z.Z.Z.Z.Z.Z.F.F.F.Z.F.Z.A.R.6X6X6X*X,XD.t.u.S.Z.Z.H.A.u.T.1X6X*X7X=X",
"*X*X*X8X,XZ.<.H.S.S.<.oXmXNXBXCXvXA.A.A.Z.H.n.F.F.F.F.F.F.Z.A.Z.Z.Z.Z.Z.Z.Z.Z.Z.Z.Z.Z.Z.Z.Z.Z.Z.Z.Z.Z.Z.Z.Z.Z.Z.Z.Z.Z.Z.Z.Z.Z.Z.B.C.Z.A.U.#X6X*X*X9X6XT.A.Z.F.F.Z.A.U.#X-X%X%X*X6X,XT.u.A.A.g.mXVXVX;Xg.u.S.M.H.F.F.F.F.Z.Z.S.S.Z.Z.Z.Z.Z.Z.Z.Z.Z.Z.Z.Z.Z.Z.Z.Z.Z.Z.Z.Z.Z.Z.Z.Z.Z.Z.Z.Z.Z.Z.Z.S.H.u.D.#X9X*X%X;X=X*X+X,X<.<./ ` ) ` ` ` ` ` ` ` / / / ` ` ` ` ` n 1 9 ; 9 4 0 9 4 4 4 4 4 4 9 9 4 4 4 4 4 4 4 4 4 = + + + + + + @ @ @ @ @ @ @ @ @ @ @ @ @ @ @ @ @ @ @ @ @ @ @ @ @ @ @ @ @ @ @ @ @ @ @ @ @ @ @ @ @ @ @ @ @ @ @ @ @ @ @ @ @ @ @ @ @ @ @ @ @ @ @ @ @ @ @ @ @ @ @ @ @ @ @ @ @ @ @ @ @ @ @ @ @ @ @ @ @ @ @ @ @ @ @ + + & + + 4 9 4 4 4 4 4 4 4 4 4 4 4 4 4 4 4 4 4 4 9 4 q 1 1 e ~ / ` _ _ _ ` ` ` ` ) / ,.,.,.1.n.D.,X1X8X9X6X=X=X=X=X9X+X1XOXu.S.u.y.vXmX+Xi.A.A.Z.F.F.Z.Z.Z.Z.F.Z.Z.Z.Z.Z.Z.Z.Z.Z.Z.Z.Z.Z.Z.Z.Z.Z.Z.Z.Z.Z.Z.Z.Z.Z.Z.Z.Z.Z.Z.Z.Z.Z.F.Z.Z.Z.D.OX6X*X=XQ.7X+X1X,./ m.M.S.p.y.j.SXNXVXZX*Xi.Z.F.S.S.H.Z.Z.Z.Z.Z.Z.F.F.Z.Z.Z.Z.Z.Z.Z.Z.Z.Z.Z.Z.Z.Z.Z.Z.Z.Z.Z.Z.Z.Z.Z.Z.Z.Z.Z.Z.F.F.F.Z.Z.Z.A.R.6X6X6X*X,XD.t.u.S.Z.n.H.A.u.T.1X6X*X7X=X",
"-X*X*X8X,X6.3.H.S.S.<.oXmXNXBXCXnXD.u.S.Z.H.n.H.F.F.F.F.F.F.Z.Z.Z.Z.Z.Z.Z.Z.Z.Z.Z.Z.Z.Z.Z.Z.Z.Z.Z.Z.Z.Z.Z.Z.Z.Z.Z.Z.Z.Z.Z.Z.Z.Z.B.C.Z.A.D.#X6X*X*X9X6XT.A.Z.F.F.Z.Z.D.#X-X%X%X*X6X,XT.6.A.A.I.mXVXVX;Xh.i.A.Z.H.F.F.F.F.Z.Z.S.S.Z.Z.Z.Z.Z.Z.Z.Z.Z.Z.Z.Z.Z.Z.Z.Z.Z.Z.Z.Z.Z.Z.Z.Z.Z.Z.Z.Z.Z.Z.Z.S.H.u.D.#X9X*X%X;X%X*X+X,X<.<./ ` ` ` ` ` ` ` ` ` / / / ` ` ` ` ` n 7 9 ; 9 3 0 0 4 4 4 4 4 4 9 9 4 4 4 4 4 4 4 4 4 = + + + + + + @ @ @ @ @ @ @ @ @ @ @ @ @ @ @ @ @ @ @ @ @ @ @ @ @ @ @ @ @ @ @ @ @ @ @ @ @ @ @ @ @ @ @ @ @ @ @ @ @ @ @ @ @ @ @ @ @ @ @ @ @ @ @ @ @ @ @ @ @ @ @ @ @ @ @ @ @ @ @ @ @ @ @ @ @ @ @ @ @ @ @ @ @ @ @ + + & + + 4 9 4 4 4 4 4 4 4 4 4 4 4 4 4 4 4 4 4 4 9 4 q 1 1 e ~ / ` _ ` ` ` ` ` 3.~ :.:.>.<.A.>XqX,X+X+X*X=X7X=X=X=X7X+X1XOXu.S.u.y.MXmX+Xi.A.A.Z.Z.Z.Z.Z.Z.Z.Z.Z.Z.Z.Z.Z.Z.Z.Z.Z.Z.Z.Z.Z.Z.Z.Z.Z.Z.Z.Z.Z.Z.Z.Z.Z.Z.Z.Z.Z.Z.Z.Z.Z.F.Z.Z.Z.D.OX6X*X=XQ.7X+X,X,.) m.M.S.p.y.j.SXNXSXZX*XA.Z.Z.S.S.H.Z.Z.Z.Z.Z.Z.F.F.Z.Z.Z.Z.S.S.S.S.Z.Z.Z.Z.Z.Z.Z.Z.Z.Z.Z.Z.Z.Z.Z.Z.Z.Z.Z.Z.F.F.F.Z.Z.Z.A.+X6X6X6X*X#XA.0.u.S.w.n.H.S.u.T.1X6X*X7X=X",
"*X*X*X6XqXA.N n.H.w.u.a.mXNXCXCXvX@Xu.S.D.S.M.H.C.C.B.B.B.M.M.Z.Z.Z.Z.Z.Z.Z.Z.Z.Z.Z.Z.Z.Z.Z.Z.Z.Z.Z.Z.Z.Z.Z.Z.Z.Z.Z.Z.Z.Z.Z.Z.Z.C.C.Z.Z.D.+X6X*X*X*X6X+XA.Z.G.Z.H.2.D.8X-X%X*X-X#X#XD.>.D.6.R.bXSXSXgXj.i.D.H.Z.G.G.G.F.Z.Z.M.M.Z.Z.Z.Z.Z.Z.Z.Z.Z.Z.Z.Z.Z.Z.Z.Z.Z.Z.Z.Z.Z.Z.Z.Z.Z.Z.Z.Z.Z.Z.Z.S.Z.w.D.#X+X*X=X%X-X*X*X+X2.~ ` ` ` ` ` ` ` ` ` ` ` ` ` ` ` ` ` ` B ; 7 1 w 4 0 4 4 4 4 4 4 4 9 9 4 4 4 4 4 4 4 4 4 = + + + + + + @ @ @ @ @ @ @ @ @ @ @ @ @ @ @ @ @ @ @ @ @ @ @ @ @ @ @ @ @ @ @ @ @ @ @ @ @ @ @ @ @ @ @ @ @ @ @ @ @ @ @ @ @ @ @ @ @ @ @ @ @ @ @ @ @ @ @ @ @ @ @ @ @ @ @ @ @ @ @ @ @ @ @ @ @ @ @ @ @ @ @ @ @ @ @ + + & + + 4 9 4 4 4 4 4 4 4 4 4 4 4 4 4 4 4 4 4 4 0 3 9 ; 7 e ~ 1.q.` ) ) ` 1.3.,.:.N :.6.T.1X,X,XqX+X+X9X=X=X=XQ.=X7XR.8X>XZ.S.u.g.bXZX9X7.6.D.J.Z.Z.F.F.F.Z.Z.Z.Z.Z.Z.Z.Z.Z.Z.Z.Z.Z.Z.Z.Z.Z.Z.Z.Z.Z.Z.Z.Z.Z.Z.Z.Z.Z.Z.Z.Z.Z.Z.Z.H.Z.H.H.<.1X+X6X=XQ.6X+X,X:.) b.B.n.D.4.j.NXNXMXAX9XI.A.G.Z.Z.H.Z.Z.Z.Z.Z.M.M.M.M.M.M.M.M.C.C.H.Z.Z.Z.Z.Z.Z.Z.Z.Z.Z.Z.Z.Z.Z.Z.Z.Z.Z.F.Z.F.F.F.Z.Z.Z.J.OX,X+X*X-XU.D.A.u.Z.S.S.S.H.w.D.1X6X*X*X=X",
"*X*X*X6XqXD.N n.H.w.u.a.mXVXBXNXZX#X<.t.D.J.S.n.M.M.C.C.H.H.H.H.Z.Z.Z.Z.Z.Z.Z.Z.Z.Z.Z.Z.Z.Z.Z.Z.Z.Z.Z.Z.Z.Z.Z.Z.Z.Z.Z.Z.Z.Z.Z.Z.C.C.Z.Z.D.+X6X*X*X*X6XOXA.Z.G.Z.M.1.A.1X-X%X*X-X8X1XJ.>.D.6.R.bXAXAXcXh.4.t.D.H.G.G.G.F.F.H.H.H.Z.Z.Z.Z.Z.Z.Z.Z.Z.Z.Z.Z.Z.Z.Z.Z.Z.Z.Z.Z.Z.Z.Z.Z.Z.Z.Z.Z.Z.Z.Z.S.S.0.D.#X+X*X=X%X=X*X*X#X0.~ ` ` ` ` ` ` ` ` ` ` ` ` ` ` ` ` ` ` M ; 7 1 0 4 9 4 4 4 4 4 4 4 9 9 4 4 4 4 4 4 4 4 4 = + + + + + + @ @ @ @ @ @ @ @ @ @ @ @ @ @ @ @ @ @ @ @ @ @ @ @ @ @ @ @ @ @ @ @ @ @ @ @ @ @ @ @ @ @ @ @ @ @ @ @ @ @ @ @ @ @ @ @ @ @ @ @ @ @ @ @ @ @ @ @ @ @ @ @ @ @ @ @ @ @ @ @ @ @ @ @ @ @ @ @ @ @ @ @ @ @ @ + + & + + 4 9 4 4 4 4 4 4 4 4 4 4 4 4 4 4 4 4 4 4 0 3 9 ; 7 e ~ 3.) ) ~ 3.1.1.:.:.:.>.6.U.,X6X6X,X8XT.R.6X*X=X9X=X=X7XR.8X>XZ.S.u.g.xXmX9Xi.i.A.A.Z.Z.Z.Z.F.F.Z.Z.Z.Z.Z.Z.Z.Z.Z.Z.Z.Z.Z.Z.Z.Z.Z.Z.Z.Z.Z.Z.Z.Z.Z.Z.Z.Z.Z.Z.Z.Z.Z.Z.H.Z.S.H.<.#X+X*X=XQ.6X+X2X,.) b.C.M.D.y.k.MXSXNXZXxX+Xi.6.Z.Z.Z.Z.Z.Z.H.H.H.J.'.n.n.n.n.n.n.n.n.Z.Z.Z.Z.H.H.H.H.Z.Z.Z.Z.Z.Z.Z.Z.Z.Z.F.Z.F.F.F.Z.Z.Z.A.OX,X+X+X#XD.D.A.u.Z.S.M.S.H.w.D.,X6X*X*X=X",
"*X*X8X6XqXJ.N w.H.w.u.a.mXNXBXNXZX-Xt.4.i.D.H.H.M.M.C.M.M.M.M.M.Z.Z.Z.Z.Z.Z.Z.Z.Z.Z.Z.Z.Z.Z.Z.Z.Z.Z.Z.Z.Z.Z.Z.Z.Z.Z.Z.Z.Z.Z.Z.Z.C.S.Z.Z.D.+X6X*X*X*X6X+XA.Z.H.n.F.3.t.#X-X*X*X*X8X1XJ.:.A.6.+XbXVXCXcXk.5.t.A.J.A.A.A.Z.Z.Z.M.S.Z.Z.Z.Z.Z.Z.Z.Z.Z.Z.Z.Z.Z.Z.Z.Z.Z.Z.Z.Z.Z.Z.Z.Z.Z.Z.Z.Z.Z.Z.Z.S.S.0.D.#X*X-X=X=X=X*X-X#X0.:./ ` ) ` / / ` ` ` ` ` ` ` ` ` ` ` ` M 7 7 1 0 3 9 4 4 4 4 4 4 4 9 9 4 4 4 4 4 4 4 4 4 = + + + + + + @ @ @ @ @ @ @ @ @ @ @ @ @ @ @ @ @ @ @ @ @ @ @ @ @ @ @ @ @ @ @ @ @ @ @ @ @ @ @ @ @ @ @ @ @ @ @ @ @ @ @ @ @ @ @ @ @ @ @ @ @ @ @ @ @ @ @ @ @ @ @ @ @ @ @ @ @ @ @ @ @ @ @ @ @ @ @ @ @ @ @ @ @ @ @ + + & + + 4 9 4 4 4 4 4 4 4 4 4 4 4 4 4 4 4 4 4 4 9 ; 9 ; 7 e ~ 3.~ / 1.1.1.<.>.>.>.Z.T.,X6X0X0X6XyX,X,X8X*X=X=X=X=X9X+X1XOXu.H.u.g.xXZXeXI.A.A.Z.Z.Z.Z.Z.Z.Z.Z.Z.Z.Z.Z.Z.Z.Z.Z.Z.Z.Z.Z.Z.Z.Z.Z.Z.Z.Z.Z.Z.Z.Z.Z.Z.Z.Z.Z.Z.Z.Z.Z.Z.F.M.Z.Z.,.#X+X*X=XQ.6X+X2X~ ) b.C.B.S.t.k.SXSXNXVXbX9XI.7.A.D.A.u.w.n.w.n.w.n.n.H.S.H.S.M.M.C.C.Z.Z.Z.Z.Z.Z.Z.Z.Z.Z.Z.Z.Z.Z.Z.Z.Z.Z.Z.Z.F.F.F.Z.H.Z.Z.OX1X8X6X+XD.D.Z.u.Z.M.M.M.H.w.D.,X,X*X*X*X",
"*X*X8X,XqXJ.N 1.H.n.S.a.mXVXAXSXcX9X*XY.i.4.u.D.H.S.S.S.S.M.M.M.Z.Z.Z.Z.Z.Z.Z.Z.Z.Z.Z.Z.Z.Z.Z.Z.Z.Z.Z.Z.Z.Z.Z.Z.Z.Z.Z.Z.Z.Z.Z.Z.C.S.Z.A.D.+X6X*X*X*X6XOXA.Z.H.n.H.3.2.OX*X*X*X+X,X,XJ.*.Z.6.+XbXNXCXcX&Xj.i.i.u.A.G.G.A.Z.Z.M.n.Z.Z.Z.Z.Z.Z.Z.Z.Z.Z.Z.Z.Z.Z.Z.Z.Z.Z.Z.Z.Z.Z.Z.Z.Z.Z.Z.Z.Z.Z.Z.S.H.w.D.#X*X-X=X=X=X*X8X#Xu.:.` ` ) ` ` / ` ` ` ` ` ` ` ` ` ` ` ` M 7 9 1 q 3 4 4 4 4 4 4 4 4 9 9 4 4 4 4 4 4 4 4 4 = + + + + + + @ @ @ @ @ @ @ @ @ @ @ @ @ @ @ @ @ @ @ @ @ @ @ @ @ @ @ @ @ @ @ @ @ @ @ @ @ @ @ @ @ @ @ @ @ @ @ @ @ @ @ @ @ @ @ @ @ @ @ @ @ @ @ @ @ @ @ @ @ @ @ @ @ @ @ @ @ @ @ @ @ @ @ @ @ @ @ @ @ @ @ @ @ @ @ + + & + + 4 9 4 4 4 4 4 4 4 4 4 4 4 4 4 4 4 4 4 4 9 ; 9 ; 7 e ~ 3.3.1.1.3.:.:.>.<.G.^.1XqXqX,X,X,X1XOX#XqX*X=X=X=X=X9X+X1XOXw.S.u.g.cXZXjXI.i.A.A.Z.Z.Z.Z.Z.Z.Z.Z.Z.Z.Z.Z.Z.Z.Z.Z.Z.Z.Z.Z.Z.Z.Z.Z.Z.Z.Z.Z.Z.Z.Z.Z.Z.Z.Z.Z.Z.Z.Z.Z.F.M.Z.w.:.1X#X*X7XQ.6X+X2X~ ! { C.B.S.4.k.SXSXNXNXZXbX=XI.i.i.i.A.A.A.A.Z.A.Z.A.Z.Z.Z.M.n.M.M.S.S.Z.Z.Z.Z.Z.Z.Z.Z.Z.Z.Z.Z.Z.Z.Z.Z.Z.Z.Z.F.F.F.Z.H.Z.A.OXqXqX+XOXD.S.u.u.S.M.M.M.D.2.A.,X6X*X*X*X",
"*X*X6X+XqXT.N 1.H.M.D.a.mXNXAXBXAXSXVXgXW.y.4.6.A.A.A.S.S.H.H.H.Z.Z.Z.Z.Z.Z.Z.Z.Z.Z.Z.Z.Z.Z.Z.Z.Z.Z.Z.Z.Z.Z.Z.Z.Z.Z.Z.Z.Z.Z.Z.Z.C.S.Z.Z.D.+X6X*X*X*X6X+XA.Z.H.n.H.1.u.+X-X*X*X+X+X,XJ.*.Z.6.,XmXAXGXAXcX;XY.i.>.i.A.A.D.J.H.S.S.Z.Z.Z.Z.Z.Z.Z.Z.Z.Z.Z.Z.Z.Z.Z.Z.Z.Z.Z.Z.Z.Z.Z.Z.Z.Z.Z.Z.Z.Z.Z.S.H.w.u.#X-X-X=X=X=X*X8X,Xu.:.` ` ) ` / ` ` ` ` ` ` ` ` ` ` ` ` ` L 9 9 1 q 1 4 4 4 4 4 4 4 4 9 9 4 4 4 4 4 4 4 4 4 = + + + + + + @ @ @ @ @ @ @ @ @ @ @ @ @ @ @ @ @ @ @ @ @ @ @ @ @ @ @ @ @ @ @ @ @ @ @ @ @ @ @ @ @ @ @ @ @ @ @ @ @ @ @ @ @ @ @ @ @ @ @ @ @ @ @ @ @ @ @ @ @ @ @ @ @ @ @ @ @ @ @ @ @ @ @ @ @ @ @ @ @ @ @ @ @ @ @ + + & + + 4 9 5 4 4 4 4 4 4 4 4 4 4 4 4 4 4 4 4 4 9 ; 9 1 7 e ~ 3./ / / ~ ~ 3.n.J.2X2X2X2X,XOXU.A.,.,.a.+X*X*X9X*X=X9X+X1XJ.2.Z.u.j.xXZXxXI.7.A.J.Z.Z.Z.Z.S.H.C.F.Z.Z.Z.Z.Z.Z.Z.Z.Z.Z.Z.Z.Z.Z.Z.Z.Z.Z.Z.Z.Z.Z.Z.Z.Z.Z.Z.Z.Z.Z.Z.S.H.M.M.w.=.1X,X*X6XQ.6X+X2X~ ! O.V.n.H.6.Y.SXSXCXAXZXVXvX=X5.;.5.7.7.v.i.A.A.A.A.A.A.A.A.A.S.H.H.H.H.H.H.H.H.H.H.Z.Z.Z.Z.Z.Z.Z.Z.Z.Z.Z.Z.F.F.F.Z.F.Z.A.,XqXqX#XU.D.u.u.u.S.S.M.n.D.<.u.,X8X*X*X*X",
"*X*X6X+XqXT.~ 1.H.M.D.i.vXNXGXBXGXCXNXNXNXgX*XI.i.u.6.6.u.u.A.H.Z.Z.Z.Z.Z.Z.Z.Z.Z.Z.Z.Z.Z.Z.Z.Z.Z.Z.Z.Z.Z.Z.Z.Z.Z.Z.Z.Z.Z.Z.Z.Z.C.S.Z.Z.D.+X6X*X*X*X6X+XA.Z.H.M.M.3.u.,X-X*X*X+X+X2XJ.N 6.6.6XZXCXBXCXSXmXxX*XE.7.i.i.A.A.A.S.S.S.Z.Z.Z.Z.Z.Z.Z.Z.Z.Z.Z.Z.Z.Z.Z.Z.Z.Z.Z.Z.Z.Z.Z.Z.Z.Z.Z.Z.Z.Z.S.H.,.u.#X-X-X;X=X-X*X9X,Xu.,.` ` ` ` ` ` ` ` ` ` ` ` ` ` ` ` ` ` L q 9 1 q 1 9 4 4 4 4 4 4 4 9 9 4 4 4 4 4 4 4 4 4 = + + + + + + @ @ @ @ @ @ @ @ @ @ @ @ @ @ @ @ @ @ @ @ @ @ @ @ @ @ @ @ @ @ @ @ @ @ @ @ @ @ @ @ @ @ @ @ @ @ @ @ @ @ @ @ @ @ @ @ @ @ @ @ @ @ @ @ @ @ @ @ @ @ @ @ @ @ @ @ @ @ @ @ @ @ @ @ @ @ @ @ @ @ @ @ @ @ @ + + & + + 4 9 5 4 4 4 4 4 4 4 4 4 4 4 4 4 4 4 4 4 9 ; 9 1 7 e ~ 1./ / / ` w.H.5XrX<X XH.Z.t.2.>.=.L L p.1X8X8X9X=X=X9X,X,XJ.2.Z.A.g.gXZXvXI.7.A.A.Z.Z.Z.Z.S.S.C.C.Z.Z.Z.Z.Z.Z.Z.Z.Z.Z.Z.Z.Z.Z.Z.Z.Z.Z.Z.Z.Z.Z.Z.Z.Z.Z.Z.Z.Z.Z.Z.S.H.S.n.2.=.4X8X*X6XQ.6X+X2X~ K ` V.B.H.t.W.NXCXCXAXVXVXZXbX!.W.=XE.E.E.g.7.7.5.6.A.i.A.i.i.u.u.u.w.n.Z.Z.Z.Z.H.H.Z.Z.Z.Z.Z.Z.Z.Z.Z.Z.Z.Z.F.F.F.Z.Z.Z.H.@X2X#XU.a.A.u.u.u.S.S.M.n.H.<.t.1X8X*X*X*X",
"+X*X8X+XqX>X~ 3.H.M.S.t.gXcXAXBXHXBXzXBXAXAXVXjXR.R.I.i.t.u.u.A.Z.Z.Z.Z.Z.Z.Z.Z.Z.Z.Z.Z.Z.Z.Z.Z.Z.Z.Z.Z.Z.Z.Z.Z.Z.Z.Z.Z.Z.Z.Z.Z.C.H.Z.Z.D.+X*X*X*X*X6XOXA.Z.H.M.3.~ u.,X-X+X*X-X,X4XT.N 2.6.,XmXDXzXSXSXZXmXmXvX+XY.I.i.t.u.u.S.S.Z.Z.Z.Z.Z.Z.Z.Z.Z.Z.Z.Z.Z.Z.Z.Z.Z.Z.Z.Z.Z.Z.Z.Z.Z.Z.Z.Z.Z.Z.S.H.,.t.#X8X*X-X%X=X*X9X1XA.,./ ) ` ` ` ` ` ` ` ` ` ` ` ` / ` ` ` L 9 9 ; q 4 0 9 4 4 4 4 4 4 9 9 4 4 4 4 4 4 4 4 4 = + + + + + + @ @ @ @ @ @ @ @ @ @ @ @ @ @ @ @ @ @ @ @ @ @ @ @ @ @ @ @ @ @ @ @ @ @ @ @ @ @ @ @ @ @ @ @ @ @ @ @ @ @ @ @ @ @ @ @ @ @ @ @ @ @ @ @ @ @ @ @ @ @ @ @ @ @ @ @ @ @ @ @ @ @ @ @ @ @ @ @ @ @ @ @ @ @ @ + + & + + 4 9 4 4 4 4 4 4 4 4 4 4 4 4 4 4 4 4 4 4 0 3 q 1 7 e ~ 1./ ` { b.M.'.'. Xn.9.,.~ :.=.L I ,.,.D.4X8X+X*X*X*X9X,X,XJ.2.Z.A.f.fXZXbX*XU.A.Z.Z.Z.Z.Z.S.S.M.M.Z.Z.Z.Z.Z.Z.Z.Z.Z.Z.Z.Z.Z.Z.Z.Z.Z.Z.Z.Z.Z.Z.Z.Z.Z.Z.Z.Z.Z.Z.Z.S.H.M.n.<.L 1X,X+X6X*X6X,X2X~ K _ #.N.H.6.j.NXBXCXCXNXVXZXAXZXVXZXbXbXkXjXlX7X6X=XE.I.I.g.i.7.6.6.Z.Z.Z.Z.Z.Z.Z.Z.Z.Z.Z.Z.Z.Z.Z.Z.Z.Z.Z.Z.F.F.B.M.Z.Z.A.D.J.A.i.a.u.u.u.u.S.S.M.n.S.:.t.1XqX*X*X=X",
"=X-X6X+X4X>X~ ` C.M.S.<.9XxXCXBXHXHXFXFXCXCXCXAXZXbX9XR.I.g.g.I.A.Z.Z.Z.Z.Z.Z.Z.Z.Z.Z.Z.S.S.S.S.Z.Z.Z.Z.Z.Z.Z.Z.Z.Z.Z.Z.Z.Z.S.M.M.C.S.Z.D.OX,X#X,X,X1XOXZ.Z.H.M.) M w.1X8X+X-X8X+X1XJ.M :.>.J.uXVXSXNXVXMXbXbXZXmXxX=XI.i.t.u.S.Z.Z.Z.Z.Z.Z.Z.Z.Z.Z.Z.Z.Z.Z.Z.Z.Z.Z.Z.Z.Z.Z.Z.Z.Z.Z.Z.Z.Z.Z.Z.Z.H.<.2.#X8X*X=X%X=X%X9X1XA.,./ / ` ` ` ` ) ` ` ` ) ` ) ` / ` ` ` L 9 7 ; q 4 0 0 4 4 4 4 4 4 9 9 4 4 4 4 4 4 4 4 4 = + + + + + + @ @ @ @ @ @ @ @ @ @ @ @ @ @ @ @ @ @ @ @ @ @ @ @ @ @ @ @ @ @ @ @ @ @ @ @ @ @ @ @ @ @ @ @ @ @ @ @ @ @ @ @ @ @ @ @ @ @ @ @ @ @ @ @ @ @ @ @ @ @ @ @ @ @ @ @ @ @ @ @ @ @ @ @ @ @ @ @ @ @ @ @ @ @ @ + + & + + 4 9 5 4 4 4 4 4 4 4 4 4 4 4 4 4 4 4 4 4 0 3 q 7 7 e ~ 1.) / { q.r.q./ K / / / ~ ,.,.,.9.P P D.1X#X+X9X*X*X9X6X,XJ.<.Z.A.g.fXZXZXjX=XI.7.A.A.A.A.Z.A.Z.A.A.A.A.A.A.A.A.Z.Z.Z.Z.Z.Z.Z.Z.Z.Z.Z.Z.Z.Z.Z.Z.Z.Z.Z.Z.Z.Z.Z.Z.Z.C.n.w.,.N 1X6X+X6XQ.6X,X2X~ Y _ ..#.M.<.g.gXcXNXNXAXVXkXbXAXZXbXVXVXVXVXVXZXZXZXZXZXbXbXvXgX7X8XOXOXT.J.J.D.Z.Z.Z.Z.Z.Z.Z.Z.Z.Z.Z.Z.Z.Z.Z.Z.Z.Z.Z.Z.Z.A.u.t.u.A.u.u.u.Z.S.S.M.n.M.:.2.1XpX-X*X*X",
"&X;X*X6XqXH.) b.b.B.M.Z.u.I.jXAXCXCXCXCXCXCXCXCXCXAXAXZXNXfX~.j.i.u.Z.Z.A.A.A.A.Z.Z.S.S.S.S.S.S.S.S.S.S.S.M.M.S.S.S.S.S.M.S.M.M.B.n.n.n.M.'.<XtXrX3X XS.b.1.` ` ! K w.<X1X#X-X*X+X8XH.~ ) ^ ` |.nXZXVXcXhXVXVXVXVXVXVXcX9XY.g.4.t.w.n.Z.Z.H.H.H.H.H.H.H.H.H.H.H.H.H.H.H.H.H.H.H.M.M.M.H.H.M.M.n.n.~ z.2X0X*X=XW.;X%X-X,XA.1.` ` ` ` ` ` ` ` ` ` ` ` ` ` ` ` ` ` M 7 ; 7 7 q 4 4 4 4 4 4 4 4 4 4 4 4 4 4 4 4 4 4 4 = + + + + + + @ @ @ @ @ @ @ @ @ @ @ @ @ @ @ @ @ @ @ @ @ @ @ @ @ @ @ @ @ @ @ @ @ @ @ @ @ @ @ @ @ @ @ @ @ @ @ @ @ @ @ @ @ @ @ @ @ @ @ @ @ @ @ @ @ @ @ @ @ @ @ @ @ @ @ @ @ @ @ @ @ @ @ @ @ @ @ @ @ @ @ @ @ @ @ + + & + + 4 9 4 4 4 4 4 4 4 4 4 4 4 4 4 4 4 4 4 4 9 4 q 7 1 e ~ ` / / ` ` / / / / / / / / / / / / / ~ [.4X+X-X*X=X=XR.6XqXJ.:.` G.g.;XZXZXVXVXhXfX~.~.j.f.5.5.5.y.5.y.y.i.i.i.i.i.i.A.A.A.A.Z.Z.Z.Z.Z.Z.Z.Z.Z.S.S.S.S.S.S.S.S.Z.M.V.N.X.~ 2.OX6XQ.7XQ.,X4X X1.Y ( W _ q.n.A.U.9XmXZXZXZXZXZXZXVXZXVXVXVXVXVXVXVXVXAXAXCXVXZXZXVXVXmXnXnXvXuXqXqXqXOXT.D.S.S.S.H.D.Z.Z.Z.H.H.H.H.H.H.H.A.A.D.D.A.A.u.A.J.J.J.H.C.B.` ~ Z.4X4X#X*XoX",
"&XfX=X*X4XJ./ ` ` b.B.H.A.Z.T.6XVXNXNXNXNXNXVXNXcXNXNXNXNXNXhXgXT.J.J.A.A.Z.Z.S.S.S.S.M.M.M.M.M.n.n.n.n.n.n.n.m.q.q.q.q.q.q.q.q.q.{ ` ` { b.C.`.C.B.b.` ^ ! ! ! ^ ! w.<X1X#X8X*X+X8XS.~ ^ T U _ @X9XmXZXZXAXAXZXVXZXZXZXbXxX9X1X].'.H.S.M.M.M.M.M.Z.M.M.M.M.M.M.C.C.C.C.C.C.C.C.C.C.C.H.C.C.C.B.l.! 2.5X8X*X-X=X&X%X-X,XA.1.` ` ` ` ` ` ` ` ` ` ` ` ` ` ` ` ` ` K 7 ; 7 7 q 4 9 4 4 4 4 4 4 4 4 4 4 4 4 4 4 4 4 4 = + + + + + + @ @ @ @ @ @ @ @ @ @ @ @ @ @ @ @ @ @ @ @ @ @ @ @ @ @ @ @ @ @ @ @ @ @ @ @ @ @ @ @ @ @ @ @ @ @ @ @ @ @ @ @ @ @ @ @ @ @ @ @ @ @ @ @ @ @ @ @ @ @ @ @ @ @ @ @ @ @ @ @ @ @ @ @ @ @ @ @ @ @ @ @ @ @ @ + + & + + 4 9 4 4 4 4 4 4 4 4 4 4 4 4 4 4 4 4 4 4 9 4 q 1 1 e ~ ` / / ` ` / / / / ` / / / / / / / / ~ ].4X+X*X=X=X=X*X6XqXJ.~ ) S.i.:XmXZXZXZXVXNXCXVXbXgX9X=X*X-Xh.j.j.h.i.i.4.4.u.u.u.u.Z.Z.Z.n.n.w.w.w.w.M.M.M.M.M.M.M.M.M.M.B.N.+.) ! 2.,X7X6X7X6X0X4XP.` ( _ T T ^ ` 1.w.J.8XuXuXxX9X9X9X9XxX9XlXlXlX7X9X9X9XW.W.W.W.W.W.W.Y.g.i.i.i.i.i.i.u.u.u.w.0.w.w.w.n.n.Z.Z.Z.Z.Z.Z.Z.n.n.n.n.w.n.n.n.Z.Z.Z.M.B.b.l.X.) ! M.<X1X+X-X-X",
"%X;X*X#X4X X1.! ! ) b.B.S.Z.D.U.vXvXvXvXvXvXvXvXmXmXmXmXmXmXnXnXnXiXrX<XP.M.n.b.l.q.{ { { { +.+.` ` ` ` ` _ ` _ ) _ ) ) ) ) ) ) ) _ ^ ^ ^ _ _ { _ _ _ ^ T T Y ! ^ ! n.>X1X+X9X-X+X8XD.~ ! ) E Y ,.D.pXnXvXvXvXxXvXvXmXmXnXnXiXiX3X.X|.B.b.b.b.n.n.n.n.n.n.n.n.n.B.B.B.B.B.B.B.B.B.B.B.B.B.B.B.n.) S 2.5X,X*X;X=X&X%X*X#XA.1.` ` ` ` ` ` ` ` ` ` ` ` ` ` ` ` ` ` ~ 8 ; 7 1 q 9 9 4 4 4 4 4 4 4 4 4 4 4 4 4 4 4 4 4 = + + + + + + @ @ @ @ @ @ @ @ @ @ @ @ @ @ @ @ @ @ @ @ @ @ @ @ @ @ @ @ @ @ @ @ @ @ @ @ @ @ @ @ @ @ @ @ @ @ @ @ @ @ @ @ @ @ @ @ @ @ @ @ @ @ @ @ @ @ @ @ @ @ @ @ @ @ @ @ @ @ @ @ @ @ @ @ @ @ @ @ @ @ @ @ @ @ @ + + & + + 4 9 4 4 4 4 4 4 4 4 4 4 4 4 4 4 4 4 4 4 9 4 q 1 1 e ~ ` / / / / / / ` ` ` / / / / / / / ,.,.OX4X+X-X=X=X=X*X6X8XJ.3.) n.u.XX8XuXvXmXmXmXmXmXmXnXnXuXiXiXiXiXiXyXyX<X<X>XH.S.H.H.H.H.H.C.C.C.C.C.C.C.C.C.B.B.B.B.B.B.B.m.#.X.! ~ c.,XwX7X7X6X0XqXG.) ! ..W W _ _ ` w.Z.J.u.i.i.i.i.t.t.t.u.u.u.u.u.t.0.2.u.A.A.A.D.A.A.A.u.u.u.Z.Z.Z.Z.S.H.H.C.C.C.C.C.C.H.H.H.H.H.H.H.H.C.C.C.C.C.C.C.C.H.M.C.B.m.b.X.X.! ! Z.2X8X*X-X-X",
"%X;X-X#X2X5Xn.M ) ! ) ` q.w.n.S.Z.u.u.u.u.u.u.u.0.0.<.<.,.,.,.,.1.` ) ! ! ! ( ! ( Y E Y E T E E W W W W W W W W _ _ _ _ _ _ _ _ E W W W W W W E E E W W W E E _ K L n.>X,X-X9X*X*X8XD.:.K ` O._ n L <.2.2.6.6.u.<.<.6.<.2.w.9.w.b.#.` _ Y ( _ _ ) _ _ _ _ _ _ _ ) ) ..) ) ) ) ) _ ) _ ) ) ) ) ( ) ~ Z.1X6X*X;X;X&X%X-X#XA.1.` ` ` ` ` ` ` ` ` ` ` ` ` ` ` ` ` ` ~ e ; 7 1 9 4 4 4 4 4 4 4 4 4 4 4 4 4 4 4 4 4 4 4 = + + + + + + @ @ @ @ @ @ @ @ @ @ @ @ @ @ @ @ @ @ @ @ @ @ @ @ @ @ @ @ @ @ @ @ @ @ @ @ @ @ @ @ @ @ @ @ @ @ @ @ @ @ @ @ @ @ @ @ @ @ @ @ @ @ @ @ @ @ @ @ @ @ @ @ @ @ @ @ @ @ @ @ @ @ @ @ @ @ @ @ @ @ @ @ @ @ @ + + & + + 4 9 4 4 4 4 4 4 4 4 4 4 4 4 4 4 4 4 4 4 9 3 q 1 1 e ~ ` / / / / / / ` / / / / / / / / / ,.~ OX4X+X9X=X=X=X*X6XqXOX1.) 1.~ 0.u.u.A.D.T.T.A.A.D.J.J.J.J.].].[.[.[.D.S.M.n.w.q.b.b.N.N.N.#.+.+.{ { { { { { ) ) ) ) _ ) ) ) O.) ! ~ A.6X7X=X7X6X6X8XJ.1.! ( W Q Q T ^ ) ` 1.H.H.H.S.S.S.S.S.M.C.M.M.M.M.M.M.q.q.q.b.b.b.b.b.n.M.n.n.n.n.n.n.b.b.b.b.N.N.N.N.b.b.b.b.b.b.b.b.b.N.b.N.b.b.b.b.{ ] [ ^ ^ T Y ! ^ ) H.4X8X*X*X%X",
"oX-X-X#X>X3XJ.! X.) Y Y _ ^ ^ ^ ! ! ! ! ! ! ! ! ^ ^ ^ ^ ^ / / ) ( ( ......X.o.O.| E | W W W W W | | | | | | W | | | | | | | | | E E E | | | | | E E E E E E E E M L Z.1X1X8X9X*X*X9X+X2.L ) ` ) ^ K K K ~ ~ ~ :.~ L L K K K K Y _ E W W W W E _ W W E E W W W _ _ _ ) _ _ _ ) ) _ _ _ _ ) _ ) ) S ~ Z.qX8X*X;X=X-X%X-X#XA.1.3.` ` ` ` ` ` ` ` ` ` ` ` ` ` ` ` ` ~ e ; 7 1 9 4 9 4 4 4 4 4 4 4 4 4 4 4 4 4 4 4 4 4 = + + + + + + @ @ @ @ @ @ @ @ @ @ @ @ @ @ @ @ @ @ @ @ @ @ @ @ @ @ @ @ @ @ @ @ @ @ @ @ @ @ @ @ @ @ @ @ @ @ @ @ @ @ @ @ @ @ @ @ @ @ @ @ @ @ @ @ @ @ @ @ @ @ @ @ @ @ @ @ @ @ @ @ @ @ @ @ @ @ @ @ @ @ @ @ @ @ @ + + & + + 4 9 4 4 4 4 4 4 4 4 4 4 4 4 4 4 4 4 4 4 9 3 q ; 1 e ~ ` / / / / / / / / / / / / / / / / ,.~ OX4X+X6X=X=X=X*X6XqX>X<.~ ) ! / ) / ~ :.<.3.2.2.1.1.1.` ) ) / / ) ) ) ) ^ ^ _ _ _ _ _ _ ...._ _ _ E W W W W E E E E E E W _ ! ! ~ <.U.6X7XQ.7XQ.).6X,XZ.~ Y ' ' W W _ _ ) ) ` 3.` ` / / / / ^ _ _ _ _ _ ^ ^ _ [ [ [ { [ { { { ` ` ` ` ` ` ) _ _ ..X..._ _ ( _ _ _ _ _ _ _ _ _ _ _ _ _ _ _ _ T T T T T T ^ ! ! ~ J.1X6X=X=X=X",
"$XoX-X#X#X4X<X1.) ! ! _ _ T T T [ [ [ [ _ [ _ [ T T T T W W W W ....o...| E R Z | | | | | | | | | | | | | W W | | | | | | | | | E W E | | | | | | | ....| E E ( ~ <.J.8X6X6X7X*X=X*X8XOX<.~ ! m ` ! ! ^ ` ` ~ ~ 1.1.` ` ` ` { { _ _ _ _ _ _ _ _ _ _ _ _ _ _ _ _ _ ) _ _ _ _ _ _ ) _ _ _ _ ) _ ) ~ :.A.1X6X*X;X%X-X%X8X1XA.1.3.` ` ` ` ` ` ` ` ` ` ` ` ` ` ` ` ` ~ e 6 7 ; 9 4 9 4 4 4 4 4 4 4 4 4 4 4 4 4 4 4 4 4 = + + + + + + @ @ @ @ @ @ @ @ @ @ @ @ @ @ @ @ @ @ @ @ @ @ @ @ @ @ @ @ @ @ @ @ @ @ @ @ @ @ @ @ @ @ @ @ @ @ @ @ @ @ @ @ @ @ @ @ @ @ @ @ @ @ @ @ @ @ @ @ @ @ @ @ @ @ @ @ @ @ @ @ @ @ @ @ @ @ @ @ @ @ @ @ @ @ @ + + & + + 4 9 4 4 4 4 4 4 4 4 4 4 4 4 4 4 9 4 4 4 4 3 q ; 1 e ~ ` / / / / / / / / / / / / / / / / ,.:.OX1X+X6X=X=X=X=X6X8XOX2.N K / ^ ! ! ~ ~ ~ ~ ) ) ) ) ) ) ) ^ ^ ^ ) / ) ^ ^ ) _ _ _ E E E E E E _ _ _ _ _ _ _ _ _ _ _ _ _ _ _ M M :.u.R.6X=X!.9XQ.Q.6X1XJ.2.) W ' W W _ ) ) ) ) ) ) ) ) ^ ^ ^ ^ ^ _ ^ _ ^ ^ ^ Y T ! T ^ ^ ^ ^ Y Y ! ! ! ( ( _ _ _ _ _ ) ( ( Y _ _ _ _ _ _ _ _ _ _ _ _ _ _ _ T J J T T T _ _ ` ! :.J.6X*X=X=X&X",
":XoX-X8X+X1XqXJ.3.~ ) _ O.[ ' ' W W W W W W W W %.' W W W W W W U U E _ ........| | | | | | | | W W E W E W E W E W E W E W E E W E E W E E _ _ _ _ _ _ _ _ _ ) n.A.,X8X,X*X7X*X6XR.8XqXA.2.1.! ^ Y ! ^ ` ) ~ ~ ! ! ! ! ! ! ! ! ! ! ! ( ( ( ! ! ( ( ! ! ! ! ! ! ^ ! ! ! ! ! ! ! ) ) ^ ^ ) ) ) ` Z.Z.T.8X*X*X=X%X-X%X8X,XA.1.3./ ` ` ` ` ` ` ` ` ` ` ` ` ` ` ` ` ~ e 6 7 ; 9 4 0 4 4 4 4 4 4 4 4 4 4 4 4 4 4 4 4 4 = + + + + + + @ @ @ @ @ @ @ @ @ @ @ @ @ @ @ @ @ @ @ @ @ @ @ @ @ @ @ @ @ @ @ @ @ @ @ @ @ @ @ @ @ @ @ @ @ @ @ @ @ @ @ @ @ @ @ @ @ @ @ @ @ @ @ @ @ @ @ @ @ @ @ @ @ @ @ @ @ @ @ @ @ @ @ @ @ @ @ @ @ @ @ @ @ @ @ + + + + + 4 9 4 4 4 4 4 4 4 4 4 4 4 4 4 4 9 4 9 9 4 3 q ; 1 e ~ ` / / ` ` / / / / ` ` / / / / / ,.,.:.OX1X+X9X*X=X7X=X*X6X+XA.2.w.` ) ! ~ ) ~ ~ ~ S S S ! ! ) ) ^ K K K K ! K H H ! ! ! ! ! Y E E ! ! ! ! ( ( ( ( ! ! ! ! ! ! ! ! / ,.u.U.+X6X=X=X=X!.Q.6X8X,XJ.S.^ _ _ ^ ^ ` ` ) ~ ~ ~ ) ^ ^ ^ ^ ) ~ ) ) ~ ~ ) ~ ~ ~ ~ ~ ~ ! ~ K ! ! ! ! ^ ) ) ) ) ) ) ) ) ) ) ) ! ! ! ! ! ! ! ! ! ! ! ! ! ! ! ! H J H H T ^ ! ~ 1.Z.OX6XQ.Q.=X!.",
";XoX-X9XR.6XwX2Xz.3.) ) _ T T W W W W W W W _ W _ W W W W W _ O._ _ ( ( E ( E _ _ _ E E E E E E _ _ _ _ _ _ _ _ _ T _ T _ ^ _ ^ ! ! ! ! ! ! ^ ! ! ! ! ! ^ ^ ) ` J.T.8X8X+X*X7X=X9XY.+XpX+XD.J.H.H.C.C.J.H.Z.H. XH.H.H.H.H.C.C.C.M.M.M.M.H.H.H.H.H.H.H.H.H.H.H.H.H.S.S.S.S.S.S.S.'.'.'.'.]. X<X<X2XOX,X8X*X*X=X%X-X*X9X,XA.<.,./ ` ` ` ` ` ` ` ` ` ` ` ` ` ` ` ` ~ r ; 7 ; 9 4 0 4 4 4 4 4 4 4 4 4 4 4 4 4 4 4 4 4 = + + + + + + @ @ @ @ @ @ @ @ @ @ @ @ @ @ @ @ @ @ @ @ @ @ @ @ @ @ @ @ @ @ @ @ @ @ @ @ @ @ @ @ @ @ @ @ @ @ @ @ @ @ @ @ @ @ @ @ @ @ @ @ @ @ @ @ @ @ @ @ @ @ @ @ @ @ @ @ @ @ @ @ @ @ @ @ @ @ @ @ @ @ @ @ @ @ @ + + & + + 4 9 4 4 4 4 4 4 4 4 4 4 4 4 4 4 9 9 9 4 4 3 q ; 1 e ~ ` / / / ` / / / ` ` / / / / / / ,.,.=.OX4X+X6X*X=X7XQ.Q.6X8X#X>X<X3X.X X X X XJ.J.J.P.J.H.H.H.C.C.H.S.S.S.S.H.S.M.M.C.C.C.C.C.C.C.M.M.B.M.B.H.H.C.H.H.H.H.H.H.H.H.H.D.OX+X9X6X=X=X=X!.=X6X8X8X1X<X X<X3X X].<X<X>X>X>X>X.X.X.X.X.XJ.^.>X>X^.^.T.T.J.J.J.J.J.J.J.H.H.C.C.C.H.H.H.H.H.H.H.H.H.G.P.G.S.M.M.M.M.M.M.n.n.w.n.w.n.w.n.w.w.q.e.e.n.w.w.2.J.T.qXwX*XQ.=XW.",
"=X=X=X=X7X7X6X6X/.c.*.M ! ) _ _ ^ ^ ^ ^ ^ ^ ^ ^ K Y ! ! ! ^ ! ! ^ ^ ^ ^ ^ ^ ^ ^ ! ! ! Y ! ! ! ! ! ! ! ! ) ) ) ) ) ) ) / ` ` ` ` ,.1.1.1.1.w.w.w.w.n.S.S.H.'.'.].,X6X6X6X6X6X=X=X=X=X*X*X*X,X1X1X2X<X2X2X2X,X,X,X1X1X1X2X2X2X<X2X2X,X,X,X,X,X,X,X2X2X,X,X,X,X,X1X1X1X1X1X1X1X1X1X1X1X1X1X1X1X1X1X1X1X,X6X*X*X-X-X%X*X+X8XD.:.,.` ` ` ` ` ` ` ` ` ` ` ` ` ` ` ` ` 3.t ; 7 1 q 4 4 4 4 4 4 4 4 4 4 4 4 4 4 4 4 4 4 4 = + + + + + + @ @ @ @ @ @ @ @ @ @ @ @ @ @ @ @ @ @ @ @ @ @ @ @ @ @ @ @ @ @ @ @ @ @ @ @ @ @ @ @ @ @ @ @ @ @ @ @ @ @ @ @ @ @ @ @ @ @ @ @ @ @ @ @ @ @ @ @ @ @ @ @ @ @ @ @ @ @ @ @ @ @ @ @ @ @ @ @ @ @ @ @ @ @ @ + + + + = 5 9 9 4 4 4 4 4 4 4 4 4 4 4 4 4 4 4 4 4 9 ; 9 7 7 e ~ ` ` ` ` / / / / / / ) / q.n.M.H.H.3X[.qX1XR.6X*X*X=X=X*X6X*X,X1X1X1X1X1X1X1X,X,X,X,X,X2X2X2X2X2X2X1X1X1X1X1X2X2X1X1X2X2X2X2X2X2X2X2X2X2X,X,X,X,X,X,X,X,X,X,X,X,X2X1X1X,X6X*X*X*X=X=X=X=X=X6X6X,X,X1X1X1X,X,X,X,X,X,X,X,X,X,X,X2X,X6X6X6X6X6X6X6X6X6X6X6X6X6X6X6X6X,X1X1X1X,X2X2X2X4XqX0X0X0X0X0X0X,X1X1X1X1X1X1X1X1X1X1X1X1X1X1X1X,X1X1X,X1X2X,X,X,X6X6X6X6X6X=X=X",
"=X=X=X=X7X7X7X6X0XU.6.:.~ ) ) ! / ~ ~ ~ ~ ~ ~ ~ ,.,.,.,.1.1.1.1.w.2.2.2.w.w.w.w.H.S.H.S.H.H.H.H.D.D.D.J.[.[.[.[.[.].].].].].>X@X>X>X>X1X1X1X1X4X@X<X1X1X1X1X<X1X,X6X6X6X6X6X=X=X=X=X=X*X*X,X,X,X,X,X,X,X6X6X6X6X6X6X6X6X6X6X1X6X6X6X6X6X*X*X*X*X6X6X6X6X6X6X6X*X+X+X*X*X*X*X+X+X*X*X+X+X*X*X*X+X1X,X6X*X*X-X-X-X%X*X+X8XD.:.,.3.` ` ` ` ` ` ` ` ` ` ` ` ` ` ` ` 1.t 7 7 7 q 4 4 4 4 4 4 4 4 4 4 4 4 4 4 4 4 4 4 4 = + + + + + + @ @ @ @ @ @ @ @ @ @ @ @ @ @ @ @ @ @ @ @ @ @ @ @ @ @ @ @ @ @ @ @ @ @ @ @ @ @ @ @ @ @ @ @ @ @ @ @ @ @ @ @ @ @ @ @ @ @ @ @ @ @ @ @ @ @ @ @ @ @ @ @ @ @ @ @ @ @ @ @ @ @ @ @ @ @ @ @ @ @ @ @ @ @ @ + + + + = 5 9 9 4 4 4 4 4 4 4 4 4 4 4 4 4 4 4 4 4 9 ; 9 7 7 e ~ ` / / ` ` { q.q.q.'.'.'.'.'.'.|.'.J.S.1X1X+X6X*X=X=X=X=X*X*X*X,X,X*X*X6X6X*X*X6X6X6X6X6X6X6X6X6X6X6X*X*X*X*X*X6X6X6X*X*X+X6X6X6X6X6X6X6X6X6X6X6X6X6X6X6X6X6X6X6X6X,X1X6X6X*X=X=X=X=X=X=X=X6X6X6X6X*X*X-X*X*X*X*X*X=X*X6X6X6X6X6X6X6X6X6X6X6X6X6X6X6X6X6X6X6X6X6X6X*X+X*X*X*X*X6X6X6X6X6X6X).).).6X6X*X*X*X*X*X*X*X*X*X*X*X*X*X*X*X6X6X6X6X6X6X6X6X6X6X6X6X6X6X*X*X",
"!.!.!.!.=X7X7X7XwX0X,X^.>X>X>X].OXOX@X@X@X@X@X@X@X@X@X@X,X1X1X1X1X1X,X1X1X1X2X1X2X1X2X1X2X2X<X2X1X1X1X1X1X4X4XqX1X1X1X1X1XqXqXqX+X+X+X+X+X+X+X+X8X8X8X8X-X-X-X+X6X6X6X6X6X6X*X*X=X=X-X-X*X*X*X*X*X-X*X*X=X=X=X=X=X=X=X=X*X*X*X*X=X=X=X=X=X=X=X=X=X=X=X=X=X=X=X=X-X*X*X*X-X-X-X*X-X-X*X*X-X-X*X*X+X+X*X*X*X-X=X=X*X*X+X8XJ.:.1.3.` ` ` ` ` ` ` ` ` ` ` ` ` ` ` ` 1.t 7 7 7 q 4 9 4 4 4 4 4 4 4 4 4 4 4 4 4 4 4 4 4 = + + + + + + @ @ @ @ @ @ @ @ @ @ @ @ @ @ @ @ @ @ @ @ @ @ @ @ @ @ @ @ @ @ @ @ @ @ @ @ @ @ @ @ @ @ @ @ @ @ @ @ @ @ @ @ @ @ @ @ @ @ @ @ @ @ @ @ @ @ @ @ @ @ @ @ @ @ @ @ @ @ @ @ @ @ @ @ @ @ @ @ @ @ @ @ @ @ @ + + + + = 5 9 9 4 4 4 4 4 4 4 4 4 4 4 4 4 4 4 4 4 9 ; 9 7 7 e ~ ` ) / ` { q.q.b.b.n.b.b.w.1.1.1.,.<.<.@X8X6X9X*X=X=X=X=X*X*X*X*X*X-X-X-X-X=X=X=X=X=X=X=X=X6X6X6X=X=X=X=X=X=X=X=X=X=X=X=X=X=X=X=X=X=X=X=X=X=X=X=X=X=X=X=X=X=X=X=X=X*X+X*X*X*X=X=X=X=X=X=X=X*X=X*X*X-X;X=X=X=X=X=X=X=X=X=X=X=X=X=X*X*X*X*X*X*X*X*X*X*X*X*X*X*X*X*X*X-X-X-X-X=X=X=X=X=X=X!.!.!.!.!.!.=X=X=X;X;X;X;X;X=X=X=X=X=X=X=X=X=X7X7X7X7X7X7X6X6X6X6X6X6X6X6X6X",
"=X=X!.!.=X=X=X6XQ.*X6X6X6X8XqXqX8X8X8X8X8X8X8X8X6X6X6X6X8X8X8X8X6X1X1X1X1X1X6X1X6X,X6X6X6X6X6X6X+X+X*X*X-X-X8X-X+X+X+X+X+X+X*X*X*X*X*X*X*X%X%X%X%X*X*X*X*X*X*X*X6X6X6X6X6X6X*X*X=X-X-X-X*X*X*X-X-X=X=X=X=X=X=X=X=X=X=X=X=X=X=X=X=X=X&X=X&X&X&X=X&X=X&X=X&X=X&X=X=X%X-X%X-X%X-X%X-X&X-X%X-X%X-X-X*X*X*X*X-X-X-X=X*X6X+X8XJ.:.1.3.` ` ` ` ` ` ` ` ` ` ` ` ` ` ` ` 1.t 7 7 7 q 9 9 4 4 4 4 4 4 4 4 4 4 4 4 4 4 4 4 4 = + + + + + + @ @ @ @ @ @ @ @ @ @ @ @ @ @ @ @ @ @ @ @ @ @ @ @ @ @ @ @ @ @ @ @ @ @ @ @ @ @ @ @ @ @ @ @ @ @ @ @ @ @ @ @ @ @ @ @ @ @ @ @ @ @ @ @ @ @ @ @ @ @ @ @ @ @ @ @ @ @ @ @ @ @ @ @ @ @ @ @ @ @ @ @ @ @ @ + + + + = 5 9 9 4 4 4 4 4 4 4 4 4 4 4 4 4 4 4 4 4 9 ; 9 7 7 e ~ ` / / / ` ` ` ` ` ` / ` / / / / ~ =.=.OX8X6X9X=X=X=X=X=X=X*X-X*X*X=X=X=X=X=X=X=X=X=X=X=X=X=X=X=X=X=X=X=X=X=X=X=X=X=X=X=X=X=X=X=X=X=X=X&X=X&X=X&X=X&X=X&X=X&X=X&X=X*X*X*X*X*X*X=X=X=X=X=X=X=X=X*X*X=X=X=X=X=X=X=X=X=X=X=X=X=X=X=X=X*X*X*X*X*X*X*X*X*X*X*X*X*X*X*X*X-X=X=X=X=X=X=X=X=X=X=X=X!.!.!.!.=X=X=X=X=X=X=X=X=X=X=X=X=X=X=X=X!.(.(.(.7X=X7X7X6X6X6X6X6X6X6X6X",
"=X=X=X=X=X=X=X*XR.*X*X*X*X+X*X*X*X*X*X*X*X*X*X*X*X*X*X*X*X*X*X*X*X*X*X*X*X*X*X*X*X*X*X*X*X*X*X*X*X*X6X6X6X6X6X6X6X6X6X6X6X6X6X6X=X=X=X*X*X*X*X-X%X*X*X*X-X-X-X*X*X6X6X6X*X*X*X*X-X-X-X-X-X-X-X=X=X=X=X=X=X-X=X-X=X-X=X=X=X=X=X=X=X=X=X=X=X=X=X=X=X=X=X=X=X=X=X=X=X=X=X=X=X=X=X=X=X=X=X=X;X=X=X-X-X*X*X-X-X-X=X=X*X9X#X1XJ.:.1.3.` ` ` ` ` ` ` ` ` ` ` ` ` ` ` / 1.y 7 q 7 q 4 4 4 4 4 4 4 4 4 4 4 4 4 4 4 4 4 4 4 = + + + + + + @ @ @ @ @ @ @ @ @ @ @ @ @ @ @ @ @ @ @ @ @ @ @ @ @ @ @ @ @ @ @ @ @ @ @ @ @ @ @ @ @ @ @ @ @ @ @ @ @ @ @ @ @ @ @ @ @ @ @ @ @ @ @ @ @ @ @ @ @ @ @ @ @ @ @ @ @ @ @ @ @ @ @ @ @ @ @ @ @ @ @ @ @ @ @ + + + + = 5 9 9 4 4 4 4 4 4 4 4 4 4 4 4 4 4 4 4 4 9 ; 9 7 7 e ~ ` ` ` / / ) ) ) ) / / ` ` 1.1.1.1.=.=.OX8X,X9X=X7X=X=X=X=X=X-X*X-X=X&X=X=X=X=X=X=X=X=X=X=X=X=X=X=X=X=X=X=X=X=X=X=X=X=X=X=X=X=X=X=X=X=X=X=X=X=X=X=X=X=X=X=X=X=X=X=X*X*X6X6X6X6X6X6X6X6X6X6X6X6X*X*X=X=X=X=X=X=X=X=X=X=X=X=X=X=X=X=X*X*X*X*X*X*X*X*X*X*X*X*X*X*X*X*X-X-X-X-X=X=X=X=X=X=X=X=X7X7X7X=X=X=X=X=X=X=X=X=X=X=X=X=X=X=X=X=X=X=X=X=X=X=X=X=X=X=X*X*X6X6X*X6X",
"=X=X=X=X*X*X*X*X-X-X;X;X;X;X;X=X=X*X*X*X*X*X*X*X7X7X7X9X9X9X9X9X7X6X7X7X7X7X7X7X*X6X7X=X*X*X=X=X=X*X6X6X6X6X6X6X6X6X6X*X6X6X6X6X=X=X=X=X=X=X=X%X=X=X=X-X=X-X=X=X*X6X6X6X*X*X*X*X*X*X-X-X-X%X%X%X-X-X=X-X*X=X-X-X=X=X*X=X=X=X=X=X-X-X=X-X=X-X=X-X=X-X=X-X=X-X=X=X=X=X=X=X=X=X=X=X=X=X=X=X=X=X=X-X-X*X-X-X-X-X=X=X*X9X#X1XJ.:.<.3.` ` ` ` ` ` ` ` ` ` ` ` ` ` ` ` 1.y 7 7 9 q 4 4 4 4 4 4 4 4 4 4 4 4 4 4 4 4 4 4 4 = + + + + + + @ @ @ @ @ @ @ @ @ @ @ @ @ @ @ @ @ @ @ @ @ @ @ @ @ @ @ @ @ @ @ @ @ @ @ @ @ @ @ @ @ @ @ @ @ @ @ @ @ @ @ @ @ @ @ @ @ @ @ @ @ @ @ @ @ @ @ @ @ @ @ @ @ @ @ @ @ @ @ @ @ @ @ @ @ @ @ @ @ @ @ @ @ @ @ + + + + = 5 9 9 4 4 4 4 4 4 4 4 4 4 4 4 4 4 4 4 4 9 ; 9 7 7 e ~ ` / / / / / / / / / ) ) ) ) / / ~ ,.>.#X8X+X6X=X7X7X=X=X=X=X=X-X-X=X=X=X-X-X-X-X-X-X=X=X=X=X=X=X=X=X*X=X=X=X=X=X=X=X=X=X=X-X=X=X=X=X=X=X=X=X=X=X=X=X=X=X=X=X=X=X*X*X*X6X6X6X6X6X6X6X6X6X6X6X6X*X*X*X*X*X*X*X*X*X-X*X-X*X-X*X-X-X*X*X6X6X6X6X6X6X6X6X6X6X6X6X6X6X*X*X*X*X*X*X*X=X=X*X*X*X*X6X6X).=X=X=X=X=X=X=X=X*X=X*X=X*X=X*X=X=X=X=X=X=X=X=X=X=X=X=X*X*X*X6X6X6X",
"7X7X*X*X*X*X$X$XoXoXoX%X=X=X=X=X*X*X*X*X*X*X*X*X*X*X*X*X=X=X=X=X*X*X=XQ.=X=X=X=X7X7X7X6X7X=X=X=X6X6X6X6X6X6X6X6X6X6X*X*X6X6X6X*X7X=X=X=X=X=X7X=X=X=X=X=X=X=X=X=X*X*X*X*X*X*X*X*X*X-X-X-X-X%X&X%X-X-X*X*X*X*X*X*X*X+X*X*X*X*X*X*X-X-X-X*X-X*X-X*X*X*X-X*X-X*X-X-X=X=X=X=X=X=X=X=X=X=X=X=X=X=X=X=X-X-X-X-X-X=X-X=X*X9X,X1XJ.:.<.3.` ` ` ` ` ` ` ` ` ` ` ` ` ` ` / 1.y 7 q 9 q 4 4 4 4 4 4 4 4 4 4 4 4 4 4 4 4 4 4 4 = + + + + + + @ @ @ @ @ @ @ @ @ @ @ @ @ @ @ @ @ @ @ @ @ @ @ @ @ @ @ @ @ @ @ @ @ @ @ @ @ @ @ @ @ @ @ @ @ @ @ @ @ @ @ @ @ @ @ @ @ @ @ @ @ @ @ @ @ @ @ @ @ @ @ @ @ @ @ @ @ @ @ @ @ @ @ @ @ @ @ @ @ @ @ @ @ @ @ + + + + = 5 9 9 4 4 4 4 4 4 4 4 4 4 4 4 4 4 4 4 4 9 ; 9 7 7 e ~ ` / / / / / ` ` ` 1.1.1.` 1.1.` ,.,.>.,X8X+X6X6X7X7X=X=X=X-X-X-X-X-X-X*X-X-X*X*X*X*X*X*X*X6X*X6X6X6X6X6X6X6X6X6X*X*X*X*X*X*X*X*X*X*X*X*X*X*X*X*X*X*X*X*X*X*X*X*X*X6X6X6X6X6X6X6X6X6X6X6X6X6X6X6X6X6X6X6X6X6X6X*X*X*X*X*X*X*X*X*X*X6X7X7X7X7X7X7X7X7X7X7X7X7X7X7X6X6X*X*X+X*X,X6X6X6X6X6X6X6X6X6X6X6X6X6X6X6X6X6X6X6X6X6X6X6X6X6X*X6X*X*X*X*X*X-X-X*X*X*X*X6X6X6X6X",
"6X6X,X,X1X1X#X#XaX#X+X+X-X*X*X*X6X6X6X6X6X6X6X6X,X6X,X6X6X6X8X8X8X8X8X8X8X8X8X0X6X6X6X6X6X6X6X6X6X6X6X6X6X6X6X6X6X6X6X6X6X6X6X6X,X+X*X6X6X6X6X6X6X*X*X*X6X6X6X*X*X*X*X*X*X*X*X*X*X-X-X*X-X-X-X*X*X*X*X*X,X,X,X+X+X+X+X+X+X+X+X+X+X#X+X#X+X#X+X#X,X1X+X#X+X#X,X+X6X6X6X6X6X6X6X6X6X6X6X6X6X6X6X6X+X#X*X*X*X*X*X*X+X8X,X4XJ.:.<.3.` ` ` ` ` ` ` ` ` ` ` ` ` ` / / b.y 8 q 8 q 4 9 9 9 9 9 9 9 9 9 9 9 9 9 4 4 4 9 4 * O O & & + + @ @ @ @ @ @ @ @ @ @ @ @ @ @ @ @ @ @ @ @ @ @ @ @ @ @ @ @ @ @ @ @ @ @ @ @ @ @ @ @ @ @ @ @ @ @ @ @ @ @ @ @ @ @ @ @ @ @ @ @ @ @ @ @ @ @ @ @ @ @ @ @ @ @ @ @ @ @ @ @ @ @ @ @ @ @ @ @ @ @ @ @ @ @ @ + + + & * 1 9 9 4 9 9 9 9 9 9 9 9 9 9 9 9 9 9 9 9 9 ; 9 7 7 e ~ ` ` / ` / / / ) / ` ` ` ` ` / ` ,.:.>.,X1X+X6X,X6X6X6X6X*X*X*X*X*X*X*X+X+X,X1X,X1X,X,X,X,X,X,X6X,X,X,X,X,X,X,X,X,X,X,X,X,X,X,X,X,X,X,X,X,X,X,X,X,X6X,X,X,X,X,X,X,X,X,X,X6X6X6X6X6X6X6X6X6X6X6X6X6X6X,X,X1X1X1X1X1X1X1X1X1X1X1X#X6X6X6X6X6X6X6X6X6X6X6X6X6X6X6X6X6X,X1X1X1X1X1X,X,X4X1X1X1X4X4X4X4X2X,X2X2X2X2X2X2X,X,X,X,X,X,X,X2X1X1X1X#X#X#X1X1X,X,X6X,X6X,X6X,X",
"H.H.H.H.H.H.S.S.S.S.S.H.H.H.H.H.H.H.H.H.H.H.H.H.H.H.H.H.H.H.H.H.H.J.J.J.J.J.J.J.J.J.J.J.J.J.J.J.J.J.J.P.J.J.J.J.J.J.J.J.J.J.J.J. X].>X>X^.T.T.OX2X>X>X>X1XqX8X9X=X=X%X%X;X;X;X-X-XY.*X8X,X1XqX,X1X4X4X4X1X1X1X1X1X1X1X1X1X1X1X2X2X<X2X<X2X<X2X<X2X<X2X<X2X<X2X2X2X2X2X2X2X2X2X3X2X2X2X2X2X2X4X2X2X<X<X<X2X2X2X2X2X4XrX5XH.2.,.,.` ` ` ` ` ` ) ` ) ) ) ` ) ) ) ) 1.u # * 1 < 1 8 1 1 1 1 1 1 1 1 1 1 1 1 1 1 1 1 - %                                                             o o o o o o o o o o o o o o o o o o o o o o o o o o o o o o o o o o o o o o o o o o o o o o o o o o o o o o o o o o o o o o o o o o o o o o o       o % * - 1 1 ; ; ; 1 1 1 ; ; ; ; ; ; ; ; ; 1 1 7 1 - - y n b.` ` ` ` ` ` ` ` ` ` ` ` ` ` ` ` ~ n.>X4X4X2X2X4X2X2X2X2X1X2X2X2X<X<X<X2X2X2X2X<X2X4X2X2X2X2X2X2X<X3X<X3X<X<X2X3X<X<X<X<X2X2X2X2X2X2X2X2X2X2X2X2X4X2X2X4X4X4X4X2X4X3X2X4X0X8X6X*X6X*X6X6X6X6X6X6X8X4X4X<X>X>X3X3X X X X].].@X@X@X].OXOXOXOXOX>XOXJ.J.J.J.J.J.J.J.J.J.J.J.J.J.J.J.J.J.J.J.J.J.J.J.H.H.H.H.H.H.H.H.H.H.H.H.H.H.H.H.H.C.C.C.S.H.H.H.S.S.S.S.S.H.H.H.",
"b.b.b.b.b.b.b.b.b.b.b.b.b.b.b.b.b.b.w.w.b.b.b.b.b.b.b.b.b.b.b.b.b.n.n.n.n.n.n.n.n.n.n.n.n.n.n.b.n.n.n.n.n.n.n.n.n.n.n.n.n.n.n.b.n.n.n.n.Z.Z.Z.n.M.n.n.n.J.OX,X6X-X-X=X&X;X;X=X-X-X%X*X+XT.D.J.Z.H.H.A.H.A.H.A.H.D.H.D.H.D.H.D.H.H.H.H.H.H.H.H.H.H.H.H.H.H.H.H.H.H.H.H.H.H.H.H.H.H.H.H.H.H.H.H.H.H.H.H.H.H.H.H.H.S.H.J.H.n.1.1.1.` ` ` ` ` ` ` ` { { { { { { { q.B.S v n S n n n n n n n n n n n n n n n n n n n M n h h v v v h v v v v v v v v v v v v v v v v v v v v v v v v v v v v v v v v v v v v v v v v v v v v v v v v v v v v v v v v v v v v v v v v v v v v v v v v v v v v v v v v v v v v v v v v v v v v v v v v v n n n n n n n n n n n n n n n n n n n n n n n n n n n n M ` b.` ` ` ` ` ` ` ` ` ` ` ` ` ` ` ` ~ 1.S.H.S.n.n.Z.M.M.M.M.M.M.M.M.n.n.n.n.Z.Z.Z.M.S.S.S.S.S.S.S.S.S.S.S.S.S.S.S.S.M.M.M.M.S.S.S.S.S.S.S.Z.Z.Z.Z.Z.H.Z.Z.S.J.J.H.M.H.H.H.J.,X6X6X*X*X*X*X6X6X7X7X6X1X@XD.S.S.S.C.M.n.n.n.n.w.w.w.w.n.n.n.n.n.n.n.n.w.w.w.w.w.w.w.n.n.n.n.n.n.n.n.n.n.n.n.n.n.b.b.b.b.b.b.b.b.b.b.b.w.w.b.b.b.b.q.b.b.b.b.b.b.b.b.b.b.b.b.b.b.b.b.b.",
"1.1.1.1.1.1.1.1.1.1.1.1.1.1.1.1.1.1.1.1.1.1.1.1.1.1.1.1.1.1.1.1.b.b.b.b.l.l.l.l.1.1.1.1.1.1.1.1.1.1.1.1.1.1.1.1.1.1.1.1.1.1.1.1.1.1.1.1.1.1.1.1.1.1.1.1.w.S.].,X*X-X-X-X-X=X=X-X=X*X6X+XZ.2.z.2.1.3.1.3.1.3.1.3.1.1.2.1.1.1.1.1.1.1.1.1.1.1.1.1.1.1.1.1.1.1.1.1.1.1.1.1.1.1.1.1.1.1.1.1.1.1.1.1.1.1.1.1.1.1.1.1.3.1.1.1.1.1.1.1.q.{ { { { { { { b.b.b.b.b.b.b.b.b.b.B.C.C.B.b.N.B.B.B.B.B.B.B.n.n.n.n.n.n.n.n.n.C.n.n.b.n.n.n.b.B.B.n.n.B.B.B.B.B.B.B.B.B.B.B.B.B.B.B.N.B.B.B.B.B.B.B.B.B.B.B.B.B.B.B.B.B.B.B.B.B.B.B.B.B.B.B.B.B.B.B.B.B.B.B.B.B.B.B.B.B.B.B.B.B.B.B.B.B.B.B.B.B.B.B.B.B.B.B.B.V.V.V.V.V.V.V.V.V.V.V.V.C.V.V.B.B.M.n.n.n.b.b.b.b.b.b.b.b.b.b.b.b.b.b.b.b.b.b.b.n.n.n.n.n.n.b.` 1.{ { { { { { { { { { { { { { 1.w.w.w.1.3.3.3.1.3.3.1.3.3.3.3.3.3.3.1.1.1.1.1.1.1.w.w.w.w.w.1.w.w.w.w.w.w.w.w.w.1.1.1.1.1.1.1.1.1.1.1.1.1.1.1.1.1.1.3.3.1.w.1./ ` 1.w.2.A.+X6X6X*X*X*X*X6X7X7X6X,XJ.w.1.w.n.l.` 1.1.1.1.1.,.,.,.9.1.1.w.1.q.q.q.1.1.1.1.1.1.1.1.1.1.1.1.1.1.1.1.w.w.w.b.b.l.l.b.1.1.1.1.1.1.1.1.1.1.1.1.1.1.1.1.q.{ { { { { { { { { { { { { { { ",
"b.b.b.b.b.b.b.b.b.b.b.b.b.b.b.b.b.b.b.b.b.b.b.b.b.b.b.b.b.b.b.b.b.b.b.b.b.b.b.b.b.b.b.b.b.b.b.b.b.b.b.b.b.b.b.b.b.b.b.b.b.b.b.b.b.b.b.b.b.b.b.b.b.b.q.q.1.w.S.[.+X*X*X*X*X=X=X-X*X*X8X+XZ.<.2.1.1.1.1.1.1.1.1.1.1.1.1.1.1.1.1.1.1.1.1.1.1.1.1.1.1.1.1.1.1.1.1.1.1.1.1.1.1.1.1.1.1.q.1.q.1.1.1.1.1.1.1.1.1.1.1.1.l.1.1.1.b.b.n.b.b.b.b.b.b.b.q.q.b.b.b.b.b.b.b.b.X.b.B.b.l.l.b.b.b.b.b.b.b.b.b.b.b.b.b.b.b.b.b.b.b.1.1.1.b.b.b.l.b.b.b.b.l.b.l.l.b.b.b.b.l.l.l.b.b.b.b.b.l.l.b.b.l.l.l.l.l.l.l.l.b.b.b.b.b.b.b.b.b.b.b.b.b.b.b.b.b.b.b.b.b.b.b.b.b.b.b.b.b.b.b.b.l.b.b.b.b.b.b.b.b.b.b.b.b.b.b.b.b.b.b.b.b.b.b.b.b.b.b.b.b.b.b.b.b.b.b.b.1.1.1.1.q.q.q.q.b.b.b.b.b.b.b.b.q.q.q.q.b.b.1.1.b.b.b.` q.b.q.q.b.b.b.b.b.b.b.b.b.b.q.q.n.b.l.1.1.w.n.b.b.w.b.w.b.w.b.w.l.w.b.w.b.b.n.b.b.w.b.w.b.w.b.w.w.w.w.w.w.w.w.w.1.w.1.q.1.w.1.w.q.q.q.q.q.q.q.q.q.q.q.q.q.q.1.` ` w.w.<.2.T.,X+X*X*X*X*X6X7X7X6XJ.n.1.1.n.n.b.1.b.b.b.b.b.w.w.q.w.w.b.w.b.w.b.w.w.w.b.w.b.w.b.b.b.b.b.b.b.b.b.b.b.b.b.b.b.b.b.b.b.b.b.b.b.b.b.b.b.b.b.b.b.b.b.b.b.b.b.b.b.b.b.b.b.b.b.b.b.b.b.b.",
"b.b.b.b.b.b.b.b.b.b.b.b.b.b.b.b.b.b.b.b.b.b.b.b.b.b.b.b.b.b.b.b.b.b.b.b.b.b.b.b.b.b.b.b.b.b.b.b.b.b.b.b.b.b.b.b.b.b.b.b.b.b.b.b.#.#.@.@.@.b.b.b.q.b.b.{ ` ` q.w.OX+X6X6X=X=X=X*X*X*XqX,XZ.<.n.b.b.b.b.b.b.b.b.b.b.q.b.q.b.q.b.b.b.b.b.b.b.b.l.b.b.b.b.b.b.b.b.b.b.b.b.b.l.b.b.b.b.b.b.b.b.b.b.b.b.b.b.b.b.b.b.b.B.b.l.q.b.n.b.b.b.b.b.b.b.b.b.b.b.b.b.b.b.b.b.b.b.B.b.X.` l.b.b.l.l.l.l.l.l.l.l.b.b.b.b.b.b.b.b.b.1.l.b.b.b.b.b.b.b.b.b.b.b.b.b.b.b.b.b.b.b.b.b.b.b.b.b.b.b.b.b.l.l.l.l.l.l.l.l.b.b.b.b.b.b.b.b.b.b.b.b.b.b.b.b.b.b.b.b.b.b.b.b.b.b.b.b.b.b.b.b.b.b.b.b.b.b.b.b.b.b.b.b.b.b.b.b.l.l.l.l.l.l.l.l.l.l.l.l.l.l.l.l.b.b.b.b.b.b.b.b.b.b.b.b.b.b.b.b.b.b.b.b.b.b.b.b.b.b.l.` l.b.b.B.b.b.b.b.b.b.b.b.b.b.b.b.b.b.b.b.b.b.l.1.b.b.n.b.b.b.b.b.b.b.b.b.b.b.b.b.b.b.n.b.l.b.b.b.b.b.b.b.b.w.b.w.b.w.b.w.b.q.b.w.l.w.b.q.+.{ { { +.{ +.+.+.N.m.m.b.{ b.b.b.n.n.1.2.D.+X+X*X*X*X*X6X7X7XR.2.1.1.1.b.b.b.b.b.b.b.b.b.b.b.q.q.q.b.q.b.q.b.q.b.q.b.q.b.q.b.b.b.b.b.b.b.b.b.b.b.b.b.b.b.b.b.b.b.b.b.b.b.b.b.b.b.b.b.b.b.b.b.b.b.b.b.b.b.b.b.b.b.b.b.b.b.b.b.b.",
"b.b.b.b.b.b.b.b.b.b.b.b.b.b.b.b.b.b.b.b.b.b.b.b.b.b.b.l.b.b.b.b.b.b.b.b.b.b.b.b.b.b.b.b.b.b.b.b.b.b.b.b.b.b.b.b.b.b.b.b.b.b.b.+.#.#.#.#.#.@.@.@.q.b.b.b.{ { { q.H.T.,X6X6X=X*X6X6X6XqX5XZ.1.l.1.b.@.@.@.@.@.@.@.@.@.+.+.+.+.@.b.b.b.b.b.b.b.b.b.b.b.b.b.b.b.b.b.b.b.b.b.b.b.b.b.b.b.b.b.b.b.b.b.b.b.b.b.b.b.l.b.b.b.l.b.b.N.N.b.b.b.b.b.b.b.b.b.b.b.b.b.N.N.b.b.N.N.N.b.N.N.N.#.N.N.N.N.N.N.N.N.N.N.N.N.N.N.N.N.b.b.b.N.N.N.N.N.N.N.N.N.b.b.b.b.N.N.N.N.N.N.N.N.N.N.N.N.b.b.b.b.b.b.b.b.b.b.b.b.N.N.N.N.N.N.N.N.N.N.N.N.N.N.N.N.N.N.N.N.N.N.N.N.N.N.N.N.N.N.N.N.N.N.N.N.N.N.N.N.N.N.N.N.N.N.N.N.b.b.b.b.b.b.N.N.b.N.b.b.b.b.b.b.N.N.N.b.b.b.b.b.b.b.b.b.b.b.b.b.b.b.b.b.b.b.b.b.b.N.b.b.b.+.b.b.b.b.b.b.b.b.b.b.b.b.b.b.b.b.b.b.b.b.b.b.b.b.b.b.b.b.b.b.b.b.b.b.l.b.b.b.b.b.b.b.b.b.b.b.b.N.b.b.b.b.b.b.b.b.b.b.b.b.b.b.b.b.b.b.@.@.@.@.@.@.@.@.` @.N.b.+.{ b.b.b.b.b.9.2.u.OX1X+X*X=X*X6X7X6XU.1.w.b.b.b.b.b.b.b.b.b.b.b.q.q.q.+.q.b.q.+.{ b.q.b.b.b.b.b.q.b.b.b.b.b.b.+.b.b.b.b.b.b.b.b.b.b.b.b.b.b.b.b.b.b.b.b.b.b.b.b.b.b.b.b.b.b.b.b.b.b.b.b.b.b.b.b.b.b.b.",
"b.b.b.b.b.b.b.b.b.b.b.b.b.b.b.b.b.b.b.b.b.b.b.b.b.b.b.b.b.b.b.b.b.N.b.b.b.b.b.N.b.b.b.b.b.b.N.N.b.b.b.b.b.b.b.b.b.b.b.b.b.b.b.b.#.#.#.#.#.@.@.b.b.b.b.b.b.N.b.q.w.A.+X8X6X6X6X6X6X,X4X>XZ.1.b.1.+.+.+.+.+.+.+.+.#.+.#.+.#.+.#.b.b.b.b.b.b.b.b.b.b.b.b.b.b.b.b.b.b.b.l.b.l.b.b.b.l.+.l.+.l.+.l.l.l.b.l.+.l.+.l.+.b.+.b.b.N.b.N.b.b.b.b.b.b.b.b.b.b.b.b.b.b.b.b.b.#.X.+.N.N.N.#.+.N.N.b.N.N.N.N.N.b.b.b.b.b.b.b.b.{ { +.+.{ { +.+.+.+.+.+.+.+.+.+.+.+.+.+.+.+.+.+.+.+.+.+.+.+.+.+.+.+.+.+.+.+.+.+.+.+.#.#.#.#.#.#.+.+.+.+.+.+.#.#.+.+.#.#.#.#.#.#.+.+.+.+.+.+.#.#.+.+.#.#.#.#.#.#.+.+.+.+.+.#.#.b.l.l.l.l.l.l.l.l.l.l.l.l.l.l.l.l.+.+.+.+.+.` ` ` +.+.+.+.+.+.+.+.+.b.b.b.+.+.+.+.+.b.N.N.b.+.` ` b.b.b.b.b.b.b.b.b.b.b.b.b.b.b.b.b.N.N.N.N.b.b.b.N.b.N.N.N.b.N.b.b.b.b.b.N.b.N.b.N.N.N.b.N.N.N.N.b.N.b.N.b.N.N.N.b.b.b.b.b.b.b.b.#.#.@.@.@.@.#.#.{ { { b.b.b.b.b.b.1.1.w.9.<.D.4X+X*X6X*X6X7XR.i.2.b.n.b.b.b.B.C.b.b.b.b.b.@.@.@.N.b.N.N.N.N.N.N.b.b.b.b.b.b.b.b.b.b.b.b.b.b.b.b.b.b.b.b.b.N.N.b.b.b.b.b.b.b.b.b.b.b.b.b.b.b.b.b.N.N.N.N.N.N.N.N.N.N.N.N.N.N.N.N.",
"b.b.b.b.b.b.b.b.b.b.b.b.b.b.b.b.b.b.b.b.b.b.b.b.b.b.b.b.b.b.b.b.b.b.b.b.b.b.b.b.b.b.b.b.b.b.N.N.+.+.+.+.+.+.+.b.+.+.+.+.+.+.+.#.#.#.#.#.+.+.{ q.b.1.1.1.b.b.+.{ 3.Z.OX8X8X6X6X6X6X,X,X>XZ.n.n.b.b.N.N.N.N.N.N.N.N.N.N.N.b.b.b.b.N.N.N.N.N.N.N.N.N.N.N.N.N.N.N.N.N.N.N.N.N.N.N.N.N.N.N.N.N.N.N.N.N.N.N.N.N.N.N.N.b.b.b.N.N.b.#.X.b.b.b.b.b.b.b.b.b.b.b.b.b.b.b.b.N.+.X.N.N.+.+.N.b.b.b.b.b.b.b.b.b.b.b.b.b.b.b.b.b.b.b.b.+.+.N.N.b.b.b.b.b.b.b.b.b.b.b.b.b.b.b.b.b.b.b.b.b.b.b.b.b.b.b.b.b.b.b.b.N.N.N.N.N.b.b.b.N.N.N.N.N.N.N.N.N.N.N.N.N.N.b.b.N.N.N.N.N.N.N.N.N.N.N.N.N.b.b.b.N.N.N.N.N.N.N.N.b.b.b.b.b.b.b.b.b.b.b.b.b.b.b.b.b.b.N.N.N.N.N.N.b.b.b.b.b.b.N.N.b.b.b.b.b.b.b.b.N.b.+.+.N.N.N.N.b.b.b.b.b.b.b.b.b.b.b.b.b.b.b.b.b.b.N.b.b.X.b.b.b.b.b.b.N.N.N.b.b.b.b.b.N.N.N.N.b.b.b.b.b.#.b.#.b.b.b.b.b.b.b.b.+.+.+.+.X.+.X.+.+.+.+.+.O.+.+.{ m.b.` b.H.J.Z.n.n.` { b.w.,.p.4X+X*X*X=X6X9XR.6.1.X.X.l.b.b.B.C.b.b.b.b.@.@.@.@.#.b.b.b.b.b.b.#.+.+.+.+.+.+.#.#.+.+.+.+.+.+.+.+.b.b.b.b.b.b.b.b.b.b.b.b.b.b.b.b.b.b.b.b.b.b.b.b.b.b.b.b.b.b.b.b.b.b.b.b.b.b.b.b.",
"b.b.b.b.b.b.b.b.b.b.b.b.b.b.b.b.b.b.b.b.b.b.b.b.b.b.b.b.b.b.b.b.b.#.#.#.#.#.#.#.#.#.#.#.#.#.#.#.#.#.#.#.#.#.#.#.#.#.#.#.#.#.#.b.N.l.X.X.#.N.b.q.1.n.H.Z.3.` N.+.w.2.2X1X,X8X6X6X6XR.qX4XZ.1.C.B.l.#.#.b.b.b.b.b.b.b.b.b.b.b.N.N.N.N.N.N.N.N.N.N.N.N.N.N.N.N.N.N.N.N.N.N.N.N.#.#.N.N.N.N.N.N.N.N.N.N.N.N.N.N.N.N.N.N.N.N.N.N.#.#.b.b.b.b.b.b.b.b.b.b.b.b.b.b.b.b.b.#.#.#.#.#.#.#.#.#.#.#.#.#.#.#.#.#.#.#.#.#.#.#.#.#.#.#.#.#.#.#.#.#.#.#.#.#.#.#.#.#.#.#.#.#.#.#.#.#.#.#.#.#.#.#.#.#.#.#.#.#.#.#.#.#.#.#.#.#.#.#.#.#.#.#.#.#.#.#.#.#.#.#.#.#.#.#.#.#.#.#.#.#.#.#.#.#.#.#.#.#.#.#.#.#.#.#.#.#.#.b.b.b.b.b.b.b.b.b.b.b.b.b.b.b.b.b.b.#.#.#.#.#.#.#.#.#.#.#.#.#.#.#.#.#.#.#.#.#.#.#.#.#.#.#.#.#.#.b.b.b.b.b.b.b.b.b.b.b.b.b.b.b.b.b.b.N.N.N.N.N.N.N.N.N.N.N.N.N.#.#.N.N.N.N.N.N.N.N.N.N.N.N.N.N.N.N.b.b.b.b.b.b.N.N.b.b.N.b.b.b.b.b.b.b.b.b.b.b.b.b.b.` M.<X2X2X2X>Xn.` ` r.q.9.S.1X-X*X=X=X*X8X,Xu.b.+.N.b.b.) |.H.b.b.b.b.#.#.#.#.#.#.#.#.#.#.#.#.#.#.#.#.#.#.#.#.#.#.#.#.#.#.#.#.#.#.#.#.#.#.#.b.b.b.b.b.b.b.b.b.b.b.b.b.b.b.b.b.b.b.b.b.b.b.b.b.b.b.b.b.b.b.b.b.",
"b.b.b.b.b.b.b.b.b.b.b.b.b.b.b.b.b.b.b.b.b.b.b.b.b.b.b.b.b.b.b.b.b.#.#.#.#.#.#.#.#.#.#.#.#.#.#.#.#.#.#.#.#.#.#.#.#.#.#.#.#.#.#.N.N.l.l.#.@.b.q.w.J.>X2X^.z.b.V.b.w.2.5X4X,X0X6X6X6XR.8X4XZ.1.M.C.l.l.l.b.l.b.l.b.l.b.l.b.l.b.N.N.N.N.N.N.N.N.N.N.N.N.N.N.N.N.N.N.N.N.N.N.N.N.#.#.N.N.N.N.N.N.N.N.N.N.N.N.N.N.N.N.N.N.N.N.N.N.#.#.b.b.b.b.b.b.b.b.b.b.b.b.b.b.b.b.b.#.#.#.#.#.#.#.#.#.#.#.#.#.#.#.#.#.#.#.#.#.#.#.#.#.#.#.#.#.#.#.#.#.#.#.#.#.#.#.#.#.#.#.#.#.#.#.#.#.#.#.#.#.#.#.#.#.#.#.#.#.#.#.#.#.#.#.#.#.#.#.#.#.#.#.#.#.#.#.#.#.#.#.#.#.#.#.#.#.#.#.#.#.#.#.#.#.#.#.#.#.#.#.#.#.#.#.#.#.#.b.b.b.b.b.b.b.b.b.b.b.b.b.b.b.b.b.b.#.#.#.#.#.#.#.#.#.#.#.#.#.#.#.#.#.#.#.#.#.#.#.#.#.#.#.#.#.#.b.b.b.b.b.b.b.b.b.b.b.b.b.b.b.b.b.b.N.N.N.N.N.N.N.N.N.N.N.N.N.#.#.N.N.N.N.N.N.N.N.N.N.N.N.N.N.N.N.b.b.b.b.b.b.N.N.b.N.N.b.b.b.b.b.b.b.b.b.b.b.b.w.b.1.H.2X4X2X0X2XZ.1.9.q.q.9.M.1X-X*X=X=X*X8X,Xw.b.O.N.b.b.`  XH.1.q.b.b.#.#.#.#.#.#.#.#.#.#.#.#.#.#.#.#.#.#.#.#.#.#.#.#.#.#.#.#.#.#.#.#.#.#.#.b.b.b.b.b.b.b.b.b.b.b.b.b.b.b.b.b.b.b.b.b.b.b.b.b.b.b.b.b.b.b.b.b.",
"b.b.b.b.b.b.b.b.b.b.b.b.b.b.b.b.b.b.b.b.b.b.b.b.b.b.b.b.b.b.b.b.b.b.b.b.b.b.b.b.b.b.b.b.b.b.b.b.b.b.b.b.b.b.b.b.b.b.b.b.b.b.b.b.x.x.l.b.b.b.q.1.2X,XwX2XZ.b.N.+.w.2.5X4X,X0X6X6X6XR.6X4XZ.1.n.'.b.b.l.b.l.b.l.b.b.b.b.b.b.b.b.b.N.N.b.b.b.b.b.b.b.b.b.b.b.b.b.b.b.b.b.b.N.b.b.b.N.N.b.b.b.b.b.b.b.b.b.b.b.b.N.b.b.b.b.b.N.b.b.b.b.b.b.b.b.b.b.b.b.b.b.b.b.b.b.b.b.b.b.b.b.b.b.b.#.b.b.b.b.b.b.b.b.b.b.b.b.b.b.b.b.b.b.b.b.b.b.b.b.b.b.b.b.b.b.b.b.b.b.b.b.b.b.b.b.b.b.b.b.b.b.b.b.b.b.b.b.b.b.b.b.b.b.b.b.b.b.b.b.b.b.b.b.b.b.b.b.b.b.b.b.b.b.b.b.b.b.b.b.b.b.b.b.b.b.b.b.b.b.b.b.b.b.b.b.b.b.b.b.b.b.b.b.b.b.b.b.b.b.b.b.b.b.b.b.b.b.b.b.b.b.b.b.b.b.b.b.b.b.b.#.#.b.b.b.b.b.b.N.b.b.b.b.b.b.b.b.b.b.b.b.b.b.b.b.b.b.b.b.b.b.b.b.b.b.b.b.b.b.b.b.b.b.b.N.b.b.b.N.N.b.b.b.b.b.b.b.b.b.b.b.b.N.b.b.b.b.b.b.b.b.b.b.b.b.b.b.b.b.b.b.l.b.b.b.b.b.w.w.w.J.4X8X6XeX0XJ.n.w.q.q.9.M.1X*X=X7X=X=X8X>Xw.q.+.b.+.b.` .XH.1.q.q.b.@.@.#.#.#.b.b.b.b.b.b.b.b.b.b.b.b.b.b.b.b.b.b.b.b.b.b.b.b.b.b.b.b.b.b.b.b.b.b.b.b.b.b.b.b.b.b.b.b.b.b.b.b.b.b.b.b.b.b.b.b.b.b.b.b.b.b.b.",
"b.b.b.b.b.b.b.b.b.b.b.b.b.b.b.b.b.b.b.b.b.b.b.b.b.b.b.b.b.b.b.b.b.b.b.b.b.b.b.b.b.b.b.b.b.b.b.b.b.b.b.b.b.b.b.b.b.b.b.b.b.b.b.b.x.x.b.b.@.q.9.,.,X,X0X/.c.1.N.+.w.2.5X4X,X6X6X7X7X*X6X,XD.1.w.|.b.b.b.b.b.b.l.b.b.b.b.b.b.b.b.b.b.N.b.N.b.b.b.b.b.b.b.b.b.b.b.b.b.b.b.b.b.b.b.b.b.N.b.N.b.b.b.b.b.b.b.b.b.b.b.b.b.b.b.b.b.b.b.b.b.b.b.b.b.b.b.b.b.b.b.b.b.b.b.b.b.b.b.b.b.b.b.b.b.b.b.b.b.b.b.b.b.b.b.b.b.b.b.b.b.b.b.b.b.b.b.b.b.b.b.b.b.b.b.b.b.b.b.b.b.b.b.b.b.b.b.b.b.b.b.b.b.b.b.b.b.b.b.b.b.b.b.b.b.b.b.b.b.b.b.b.b.b.b.b.b.b.b.b.b.b.b.b.b.b.b.b.b.b.b.b.b.b.b.b.b.b.b.b.b.b.b.b.b.b.b.b.b.b.b.b.b.b.b.b.b.b.b.b.b.b.b.b.b.b.b.b.b.b.b.b.b.b.b.b.b.b.b.b.b.b.b.b.b.b.b.b.b.b.b.b.b.b.b.b.b.b.b.b.b.b.b.b.b.b.b.b.b.b.b.b.b.b.b.N.b.b.b.b.b.b.b.b.b.b.b.b.b.N.b.N.b.b.b.b.b.b.b.b.b.b.b.b.b.b.b.b.b.b.b.b.b.b.b.b.b.b.b.b.b.l.b.b.b.w.w.w.1.w.OXqX6X6X7X6X2XG.w.q.{ ] S.1X*X=X=X=X=X8X>Xw.{ +.N.q.b.1.5X'.1.w.q.q.@.@.#.#.#.b.b.b.b.b.b.b.b.b.b.b.b.b.b.b.b.b.b.b.b.b.b.b.b.b.b.b.b.b.b.b.b.b.b.b.b.b.b.b.b.b.b.b.b.b.b.b.b.b.b.b.b.b.b.b.b.b.b.b.b.b.b.b.",
"b.b.N.N.#.#.b.b.b.b.#.#.#.#.b.b.b.b.N.N.#.#.b.b.b.b.#.#.#.#.b.b.b.b.N.N.N.N.b.b.b.b.b.N.N.N.b.b.b.b.b.N.N.N.b.b.b.b.b.N.N.N.b.l.x.x.N.#.{ { 9.0.,X6X6X,XZ.b.m.@.w.2.5X4X,X6X6X7X7X6X6X,XD.,.w..Xb.b.b.b.b.b.b.b.b.b.b.b.b.b.b.b.b.b.b.b.b.b.b.b.b.b.b.b.b.b.b.b.b.b.b.b.b.b.b.b.b.b.b.b.b.b.b.b.b.b.b.b.b.b.b.b.b.b.b.b.b.b.b.b.b.b.b.b.N.N.N.b.b.b.b.b.b.b.b.b.b.b.b.b.b.b.b.b.b.b.b.b.b.b.b.b.b.b.b.N.N.N.b.b.b.b.b.N.N.N.b.b.b.b.b.b.b.b.b.b.b.b.b.b.b.b.b.b.b.b.b.b.b.b.b.b.b.b.b.b.b.b.b.b.b.b.b.b.b.b.b.b.b.b.b.b.b.b.b.b.b.b.b.b.b.b.b.b.b.b.b.b.b.b.b.b.b.b.b.b.b.b.b.b.b.b.b.b.b.b.b.b.b.b.b.#.#.#.b.b.b.b.#.#.#.#.b.b.b.b.N.N.N.N.b.b.b.b.b.N.N.N.b.b.b.b.b.b.N.N.N.N.b.N.N.N.b.b.b.b.N.b.b.b.b.b.b.b.b.N.b.N.b.b.b.N.b.b.b.b.b.b.b.b.b.b.b.b.b.b.b.b.b.b.b.b.b.b.b.b.b.b.b.b.b.b.b.b.b.b.b.b.b.b.b.b.b.b.b.b.b.b.b.b.b.b.b.q.q.q.q.q.,.w.@X8X,X*X7X6X0XJ.z.w.9.9.S.1X*X=X=X=X*XqX@Xq.{ @.b.` b.9.3X'.1.9.w.q.q.@.@.@.b.b.b.b.b.b.b.b.b.b.b.b.b.b.b.b.b.b.b.b.b.N.b.b.b.b.b.N.N.N.b.b.b.b.N.N.#.#.b.b.b.b.#.#.#.#.b.b.b.b.N.N.N.N.b.b.b.b.N.N.N.b.b.N.",
"b.b.N.N.#.#.b.b.b.b.#.N.#.#.b.b.b.b.N.N.#.#.b.b.b.b.#.N.#.#.b.b.b.b.b.b.N.N.b.b.b.b.b.b.N.N.b.b.b.b.b.b.N.N.b.b.b.b.b.b.N.N.b.b.x.l.b.@.{ } r.w.qX6X6X,XZ.1.+.+.q.2.5X1X,X6X=X7X7X7X6X,XD.,.9.3Xb.b.b.b.b.b.b.b.b.b.b.b.b.b.b.b.b.b.b.b.b.b.b.b.b.b.b.b.b.b.b.b.b.b.b.b.b.b.b.b.b.b.b.b.b.b.b.b.b.b.b.b.b.b.b.b.b.b.b.b.b.b.b.b.b.b.N.b.N.N.N.b.b.b.b.b.b.b.b.b.b.b.b.b.b.b.b.b.b.b.b.b.b.b.b.b.b.b.b.b.N.N.b.b.b.b.b.b.N.N.b.b.b.b.b.b.b.b.b.b.b.b.b.b.b.b.b.b.b.b.b.b.b.b.b.b.b.b.b.b.b.b.b.b.b.b.b.b.b.b.b.b.b.b.b.b.b.b.b.b.b.b.b.b.b.b.b.b.b.b.b.b.b.b.b.b.b.b.b.b.b.b.b.b.b.b.b.b.b.b.b.b.b.b.b.b.b.#.b.b.b.b.b.b.#.#.b.b.b.b.b.b.N.N.b.b.b.b.b.b.N.N.b.b.b.b.b.b.N.N.N.N.b.N.N.N.b.b.b.b.N.N.b.b.b.b.b.b.b.b.b.N.b.b.b.N.b.b.b.b.b.b.b.b.b.b.b.b.b.b.b.b.b.b.b.b.b.b.b.b.b.b.b.b.b.b.b.b.b.b.b.b.b.b.b.b.b.b.b.b.b.b.b.b.b.q.q.q.q.q.q.q.,.w.@X1X+X*X7XQ.eXT.z.1.9.9.S.1X*X=X=X=X*XqX@Xq.{ +.b.` q.w.rX].2.9.9.q.q.@.@.@.b.b.b.b.b.b.b.b.b.b.b.b.b.b.b.b.b.b.b.b.b.N.N.N.b.b.b.b.N.N.b.b.b.b.N.N.N.#.b.b.b.b.N.N.#.#.b.b.b.b.N.b.N.N.b.b.b.b.N.N.b.b.b.b.",
"b.b.b.N.#.#.b.b.N.N.b.N.#.#.b.b.b.b.b.N.#.#.b.b.N.N.b.N.#.#.b.b.b.b.b.b.N.N.N.b.b.b.b.b.N.N.N.b.b.b.b.b.N.N.N.b.b.b.b.b.N.N.N.b.l.b.#.+.[ } r.e.4X+X6X,XZ.` [ [ w.2.5X1X,X7X=X7X!.7X6X+XT.,.,.3Xb.b.b.@.b.@.@.@.+.+.@.+.@.@.+.b.b.b.b.b.b.b.b.b.b.b.b.b.b.b.b.b.b.b.b.b.b.b.b.b.b.b.b.b.b.b.b.b.b.b.b.b.b.b.b.b.b.b.b.b.b.b.b.b.N.N.N.N.N.N.N.b.b.b.N.N.N.N.N.N.b.b.b.b.b.b.b.b.b.b.b.b.b.b.b.b.b.b.b.b.N.N.N.b.b.b.b.b.N.N.N.b.b.b.b.b.b.b.b.b.b.b.b.b.b.b.b.b.b.b.b.b.b.b.b.b.b.b.b.b.b.b.b.b.b.b.b.b.b.b.b.b.b.b.b.b.b.b.b.b.b.b.b.b.b.b.b.b.b.b.b.b.b.b.b.b.b.b.b.b.b.b.b.b.b.b.b.b.b.b.b.b.b.b.b.b.b.b.b.b.b.b.b.b.#.b.b.b.b.b.b.b.N.N.N.b.b.b.b.b.N.N.N.b.N.b.b.b.b.b.b.b.b.b.N.N.N.b.b.b.N.N.N.N.b.b.b.b.N.N.N.N.b.b.b.b.b.b.b.b.b.b.b.b.b.b.b.b.b.b.b.b.b.b.b.b.b.b.b.b.b.b.b.b.b.b.b.b.b.b.b.b.b.b.b.b.b.b.b.b.b.b.b.b.b.q.{ { { { { { 9.e.].#X+X*X=XQ.eXU.2.2.9.q.D.1X*X!.=X=X*X4X Xq.` +.b.` w.w.rX@X<.9.9.w.q.@.@.@.b.b.b.b.b.b.b.b.b.b.b.b.b.b.b.b.b.b.b.b.N.N.N.N.b.b.b.b.N.N.N.b.b.b.b.N.#.#.#.#.b.N.N.N.#.#.#.b.b.b.b.b.N.N.N.b.b.N.N.N.b.b.b.b.",
"b.b.b.b.#.#.b.b.N.N.N.N.#.#.b.b.b.b.b.b.#.#.b.b.N.N.N.N.#.#.b.b.b.b.b.b.N.N.N.b.b.b.b.b.N.N.N.N.b.b.b.b.N.N.N.N.b.b.b.b.N.N.N.N.l.N.#.[ [ ] r.S.qX+X8X1XH.{ $.$.q.2.>X1X+X7X!.=X!.9X=X+XT.,.,.rXb.b.b.@.b.@.@.@.+.+.b.b.@.@.@.+.b.b.b.b.b.b.b.b.b.b.b.b.b.b.b.b.b.b.b.b.b.b.b.b.b.b.b.b.b.b.b.b.b.b.b.b.b.b.b.b.b.b.b.b.b.b.b.b.b.N.N.N.N.N.N.b.b.b.N.N.N.N.N.N.b.b.b.b.b.b.b.b.b.b.b.b.b.b.b.b.b.b.b.b.N.N.N.N.b.b.b.b.N.N.N.N.b.b.b.b.b.b.b.b.b.b.b.b.b.b.b.b.b.b.b.b.b.b.b.b.b.b.b.b.b.b.b.b.b.b.b.b.b.b.b.b.b.b.b.b.b.b.b.b.b.b.b.b.b.b.b.b.b.b.b.b.b.b.b.b.b.b.b.b.b.b.b.b.b.b.b.b.b.b.b.b.b.b.b.b.b.#.b.b.b.b.b.b.b.b.b.b.b.b.b.b.N.N.N.b.b.b.b.b.N.N.N.N.N.b.b.b.b.b.b.b.b.b.N.N.N.b.b.b.N.N.N.N.N.b.b.N.N.N.N.N.b.b.b.b.b.b.b.b.b.b.b.b.b.b.b.b.b.b.b.b.b.b.b.b.b.b.b.b.b.b.b.b.b.b.b.b.b.b.b.b.b.b.b.b.b.b.b.b.b.b.b.b.b.q.{ { { { { { 9.w.OX#X+X-X9XR.0XU.2.2.9.9.D.8X6X=X=X=X*X4X@Xq.` b.b./ w.w.yX@X,.9.w.q.b.b.@.@.b.b.b.b.b.b.b.b.b.b.b.b.b.b.b.b.b.b.b.b.N.N.N.N.b.b.b.b.N.N.N.N.b.b.b.b.N.#.#.#.b.N.N.N.#.#.b.b.b.b.b.b.N.N.b.b.N.N.N.N.b.b.b.b.",
"b.b.b.b.b.b.b.b.b.b.b.b.b.b.b.b.b.b.b.b.b.b.b.b.b.b.b.b.b.b.b.b.b.b.b.b.b.b.b.b.b.b.b.b.b.b.b.b.b.b.b.b.b.b.b.b.b.b.b.b.b.b.b.b.N.N.#.#.m.9.w.[.,X,X0X2XZ.b.#.+.w.2.,X1X+X7X=X=X=XW.*X8XD.,.1. X3X~ B.V.) N.N.#.b.b.b.b.b.b.@.@.b.b.b.b.b.b.b.b.b.b.b.b.b.b.b.b.b.b.b.b.b.b.b.b.b.b.b.b.b.b.b.b.b.b.b.b.b.b.b.b.b.b.b.b.b.b.b.b.b.b.b.b.b.#.#.#.#.b.b.b.b.#.#.#.#.#.b.b.N.N.N.#.N.N.N.N.b.b.N.#.b.#.b.b.b.b.b.#.b.#.b.#.b.b.b.b.b.b.b.b.b.b.b.b.b.b.b.b.b.b.b.b.b.b.b.b.b.b.b.b.b.b.b.b.b.b.b.b.b.b.b.b.b.b.b.b.b.b.b.b.b.b.b.b.b.b.b.b.b.b.b.b.b.b.b.b.b.b.b.b.b.b.b.b.b.b.b.b.b.b.b.b.b.b.b.b.b.b.b.b.b.b.b.b.b.b.b.b.b.b.b.b.b.b.b.b.N.N.N.N.b.b.N.N.b.b.b.b.N.N.N.N.b.#.N.#.N.#.b.b.b.#.N.#.#.b.b.b.b.b.#.#.b.b.b.b.b.#.#.b.b.b.b.b.b.b.b.b.b.b.b.b.b.b.b.b.b.b.b.b.b.b.b.b.b.b.b.b.b.b.b.b.b.b.b.b.b.b.b.b.b.b.b.b.b.b.b.b.b.b.b.@.@.{ q.w.<.D.,X6X*X6X6X*X2XJ.1.1.w.,.[.#X*XQ.7X6X6X8X@Xw.l.b.m.{ <.u.iX@X9.{ { b.b.b.+.+.b.b.b.b.b.b.b.b.b.b.b.b.b.b.b.b.b.b.b.b.b.b.b.b.b.b.b.b.b.b.b.b.b.b.b.b.N.N.N.N.b.b.N.N.b.b.b.b.b.b.b.b.b.b.b.b.b.b.b.b.b.b.b.b.",
"b.b.b.b.b.b.b.b.b.b.b.b.b.b.b.b.b.b.b.b.b.b.b.b.b.b.b.b.b.b.b.b.b.b.b.b.b.b.b.b.b.b.b.b.b.b.b.b.b.b.b.b.b.b.b.b.b.b.b.b.b.b.b.b.#.N.#.N.b.1.w.T.6X,XqX2XZ.b.N.+.w.2.,X1X+X=X=X=X=XW.*X8XD.<.9. X4X:.n.B.X.N.#.N.N.x.l.b.b.b.#.@.b.b.b.b.b.b.b.b.b.b.b.b.b.b.b.b.b.b.b.b.b.b.b.b.b.b.b.b.b.b.b.b.b.b.b.b.b.b.b.b.b.b.b.b.b.b.b.b.b.b.b.b.b.b.#.#.b.b.b.b.#.#.b.b.#.#.b.b.b.b.#.#.#.N.b.N.b.b.#.#.#.#.#.b.b.b.b.#.#.#.#.b.b.b.b.#.b.b.b.b.b.b.b.b.b.b.b.b.b.b.b.b.b.b.b.b.b.b.b.b.b.b.b.b.b.b.b.b.b.b.b.b.b.b.b.b.b.b.b.b.b.b.b.b.b.b.b.b.b.b.b.b.b.b.b.b.b.b.b.b.b.b.b.b.b.b.b.b.b.b.b.b.b.b.b.b.b.b.b.b.b.b.b.b.b.b.b.b.b.b.b.b.b.b.b.b.N.b.N.N.b.b.N.N.b.b.b.b.N.N.N.N.b.b.#.#.N.N.b.b.#.#.N.#.#.#.b.b.b.b.#.#.b.b.b.b.b.b.#.#.b.b.b.b.b.b.b.b.b.b.b.b.b.b.b.b.b.b.b.b.b.b.b.b.b.b.b.b.b.b.b.b.b.b.b.b.b.b.b.b.b.b.b.b.b.b.b.b.b.b.b.@.@.{ q.w.<.D.6X6X*X6X6X+X<X'.,.9.w.<.OX+X*X*X6X6X,X1XOXw.l.b.m.] <.t.nX#X9.{ @.b.z.l.+.O.b.b.b.b.b.b.b.b.b.b.b.b.b.b.b.b.b.b.b.b.b.b.b.b.b.b.b.b.b.b.b.b.b.b.b.b.N.b.N.N.b.b.N.N.b.b.b.b.b.b.b.b.b.b.b.b.b.b.b.b.b.b.b.b.",
"b.b.b.b.b.b.b.b.b.b.b.b.b.b.b.b.b.b.b.b.b.b.b.b.b.b.b.b.b.b.b.b.b.b.b.b.b.b.b.b.b.b.b.b.b.b.b.b.b.b.b.b.b.b.b.b.b.b.b.b.b.b.b.b.#.#.#.N.b.1.w.OX6X,XqX2XZ.1.N.+.w.2.>X1X+X*X=X=X=X%X*X8XT.<.1.'.yX3.1.B.#.#.#.N.N.x.x.x.b.b.@.#.b.b.b.b.b.b.b.b.b.b.b.b.b.b.b.b.b.b.b.b.b.b.b.b.b.b.b.b.b.b.b.b.b.b.b.b.b.b.b.b.b.b.b.b.b.b.b.b.b.b.b.b.b.b.b.b.b.b.b.b.b.b.b.b.#.#.b.b.b.b.b.N.b.b.b.b.b.b.b.b.b.b.b.b.b.b.#.#.b.b.b.b.b.b.#.#.b.b.b.b.b.b.b.b.b.b.b.b.b.b.b.b.b.b.b.b.b.b.b.b.b.b.b.b.b.b.b.b.b.b.b.b.b.b.b.b.b.b.b.b.b.b.b.b.b.b.b.b.b.b.b.b.b.b.b.b.b.b.b.b.b.b.b.b.b.b.b.b.b.b.b.b.b.b.b.b.b.b.b.b.b.b.b.b.b.b.b.b.b.b.b.b.b.b.b.b.N.N.b.b.b.b.N.N.N.N.b.b.b.b.b.b.b.b.b.b.N.b.b.b.b.b.N.N.#.#.b.b.b.b.b.#.b.b.b.b.b.b.b.b.b.b.b.b.b.b.b.b.b.b.b.b.b.b.b.b.b.b.b.b.b.b.b.b.b.b.b.b.b.b.b.b.b.b.b.b.b.b.b.b.b.b.b.b.b.b.b.b.b.b.b.@.@.{ q.w.<.U.6X6X*X6X6X+X<X'.,.9.w.0.OX+X*X*X7X6X6X8XOXw.l.b.m.] <.i.nX1X9.{ @.b.n.z.b.@.b.b.b.b.b.b.b.b.b.b.b.b.b.b.b.b.b.b.b.b.b.b.b.b.b.b.b.b.b.b.b.b.b.b.b.b.N.N.b.b.b.b.N.N.N.N.b.b.b.b.b.b.b.b.b.b.b.b.b.b.b.b.b.b.",
"b.b.b.b.b.b.b.b.b.b.b.b.b.b.b.b.b.b.b.b.b.b.b.b.b.b.b.b.b.b.b.b.b.b.b.b.b.b.b.b.b.b.b.b.b.b.b.b.b.b.b.b.b.b.b.b.b.b.b.b.b.b.b.b.#.#.#.b.b.w.w.,X6X6X0X2XZ.1.N.+.w.2.>X1X+X*X=X=X;X%X*X8XT.2.1.H.yX2.3.n.V.#.+.N.N.x.N.x.b.b.@.#.b.b.b.b.b.b.b.b.b.b.b.b.b.b.b.b.b.b.b.b.b.b.b.b.b.b.b.b.b.b.b.b.b.b.b.b.b.b.b.b.b.b.b.b.b.b.b.b.b.b.b.b.b.b.b.b.b.b.b.b.b.b.b.b.b.b.b.b.b.b.b.b.b.b.b.b.b.b.b.b.b.b.b.b.b.b.#.b.b.b.b.b.b.b.#.b.b.b.b.b.b.b.b.b.b.b.b.b.b.b.b.b.b.b.b.b.b.b.b.b.b.b.b.b.b.b.b.b.b.b.b.b.b.b.b.b.b.b.b.b.b.b.b.b.b.b.b.b.b.b.b.b.b.b.b.b.b.b.b.b.b.b.b.b.b.b.b.b.b.b.b.b.b.b.b.b.b.b.b.b.b.b.b.b.b.b.b.b.b.b.b.b.N.b.b.N.N.N.b.b.b.b.N.N.N.N.b.b.#.b.b.b.b.b.b.b.N.b.b.b.b.b.N.N.#.b.b.b.b.b.b.b.b.b.b.b.b.b.b.b.b.b.b.b.b.b.b.b.b.b.b.b.b.b.b.b.b.b.b.b.b.b.b.b.b.b.b.b.b.b.b.b.b.b.b.b.b.b.b.b.b.b.b.b.b.b.b.b.b.b.b.@.@.{ q.w.<.U.6X6X*X6X6X+X<X'.,.9.w.0.OX,X*X*X7X6X6X8XOX2.l.b.m.] <.i.nX1X9.{ @.b.n.z.b.@.b.b.b.b.b.b.b.b.b.b.b.b.b.b.b.b.b.b.b.b.b.b.b.b.b.b.b.b.b.b.b.b.N.b.b.N.N.N.b.b.b.b.N.N.N.N.b.b.b.b.b.b.b.b.b.b.b.b.b.b.b.b.b.b.",
"b.b.b.b.b.b.b.b.b.b.b.b.b.b.b.b.b.b.b.b.b.b.b.b.b.b.b.b.b.b.b.b.b.b.b.b.b.b.b.b.b.b.b.b.b.b.b.b.b.b.b.b.b.b.b.b.b.b.b.b.b.b.b.b.#.N.#.b.b.9.u.,X6X,X6X2XZ.w.N.{ w.2.>X1X*X=X=X=X;X%X*X1XD.2.1.M.iXG.:.n.V.O.#.N.N.N.N.x.b.b.@.#.b.b.b.b.b.b.b.b.b.b.b.b.b.b.b.b.b.b.b.b.b.b.b.b.b.b.b.b.b.b.b.b.b.b.b.b.b.b.b.b.b.b.b.b.b.b.b.b.#.#.b.b.b.b.b.b.b.b.b.b.b.b.b.b.b.b.b.b.b.b.b.b.#.#.b.b.b.b.b.b.b.b.b.b.b.b.b.b.b.b.b.b.b.b.b.b.b.b.b.b.b.b.b.b.b.b.b.b.b.b.b.b.b.b.b.b.b.b.b.b.b.b.b.b.b.b.b.b.b.b.b.b.b.b.b.b.b.b.b.b.b.b.b.b.b.b.b.b.b.b.b.b.b.b.b.b.b.b.b.b.b.b.b.b.b.b.b.b.b.b.b.b.b.b.b.b.b.b.b.b.b.b.b.b.b.b.b.b.b.b.b.b.b.b.b.b.b.b.b.b.b.b.b.b.b.b.b.b.#.#.b.b.b.b.b.b.b.b.b.b.b.b.b.b.b.b.b.b.b.b.b.b.#.#.b.b.b.b.b.b.b.b.b.b.b.b.b.b.b.b.b.b.b.b.b.b.b.b.b.b.b.b.b.b.b.b.b.b.b.b.b.b.b.b.b.b.b.b.b.b.b.b.b.b.b.b.b.b.b.b.+.+.@.{ q.w.2.T.6X6X*X6X6X,X<X'.3.w.w.0.OX1X*X=X7X6X6X8XOX2.l.b.m.] 0.i.mXqX9.{ #.b.n.z.b.@.b.b.b.b.b.b.b.b.b.b.b.b.b.b.b.b.b.b.b.b.b.b.b.b.b.b.b.b.b.b.b.b.b.b.b.b.b.b.b.b.b.b.b.b.b.b.b.b.b.b.b.b.b.b.b.b.b.b.b.b.b.b.b.b.",
"b.b.b.b.b.b.b.b.b.b.b.b.b.b.b.b.b.b.b.b.b.b.b.b.b.b.b.b.b.b.b.b.b.b.b.b.b.b.b.b.b.b.b.b.b.b.b.b.b.b.b.b.b.b.b.b.b.b.b.b.b.b.b.b.N.N.+.b.b.w.Z.,X6X6X6X,XZ.w.N.{ w.2.>X1X*X=X=X=X=X=X*X1XD.w.1.n.yX>X1.b.m.{ #.#.N.N.N.x.b.b.@.#.b.b.b.b.b.b.b.b.b.b.b.b.b.b.b.b.b.b.b.b.b.b.b.b.b.b.b.b.b.b.b.b.b.b.b.b.b.b.b.b.b.b.b.b.b.b.b.b.#.#.b.b.b.b.b.b.b.b.b.b.b.b.#.#.b.b.b.b.b.b.b.b.#.#.b.b.b.b.b.b.b.b.b.b.b.b.b.b.b.b.b.b.b.b.b.b.b.b.b.b.b.b.b.b.b.b.b.b.b.b.b.b.b.b.b.b.b.b.b.b.b.b.b.b.b.b.b.b.b.b.b.b.b.b.b.b.b.b.b.b.b.b.b.b.b.b.b.b.b.b.b.b.b.b.b.b.b.b.b.b.b.b.b.b.b.b.b.b.b.b.b.b.b.b.b.b.b.b.b.b.b.b.b.b.b.b.b.b.b.b.b.b.b.b.b.b.b.b.b.b.b.b.b.b.b.b.b.b.#.#.b.b.b.b.b.b.b.b.b.b.b.b.#.#.b.b.b.b.b.b.b.b.#.#.b.b.b.b.b.b.b.b.b.b.b.b.b.b.b.b.b.b.b.b.b.b.b.b.b.b.b.b.b.b.b.b.b.b.b.b.b.b.b.b.b.b.b.b.b.b.b.b.b.b.b.b.b.b.b.b.+.+.@.{ q.w.2.T.6X6X*X6X6X#X<X'.3.w.w.0.@X8X*X*X7X6X6X1XOX2.b.b.m.] 0.a.mXpX9.{ #.b.z.z.b.@.b.b.b.b.b.b.b.b.b.b.b.b.b.b.b.b.b.b.b.b.b.b.b.b.b.b.b.b.b.b.b.b.b.b.b.b.b.b.b.b.b.b.b.b.b.b.b.b.b.b.b.b.b.b.b.b.b.b.b.b.b.b.b.b.",
"b.b.b.b.b.b.b.b.b.b.b.b.b.b.b.b.b.b.b.b.b.b.b.b.b.b.b.b.b.b.b.b.b.b.b.b.b.b.b.b.b.b.b.b.b.b.b.b.b.b.b.b.b.b.b.b.b.b.b.b.b.b.b.b.b.#.+.b.n.w.A.1X6X6X0X2XZ.1.N.+.w.2.,X1X*X=X=X&X=X=X*X1XU.w.,.1.yXqX2.1.b.` N.#.b.b.b.b.b.b.b.#.b.b.b.b.b.b.b.b.b.b.b.b.b.b.b.b.b.b.b.b.b.b.b.b.b.b.b.b.b.b.b.b.b.b.b.b.b.b.b.b.b.b.b.b.b.b.b.b.#.b.b.b.b.#.#.b.#.#.b.b.b.b.#.#.b.b.#.#.b.b.b.b.#.b.b.b.b.#.#.#.#.#.b.b.b.b.b.b.#.#.b.b.b.b.b.b.b.b.b.b.b.b.b.b.b.b.b.b.b.b.b.b.b.b.b.b.b.b.b.b.b.b.b.b.b.b.b.b.b.b.b.b.b.b.b.b.b.b.b.b.b.b.b.b.b.b.b.b.b.b.b.b.b.b.b.b.b.b.b.b.b.b.b.b.b.b.b.b.b.b.b.b.b.b.b.b.b.b.b.b.b.b.b.b.b.b.b.b.b.b.b.b.b.b.b.b.b.b.b.b.b.b.b.b.b.b.b.b.#.b.b.b.b.#.#.b.#.#.b.b.b.b.#.#.b.b.#.#.b.b.b.b.#.b.b.b.b.#.#.b.b.b.b.b.b.b.b.b.b.b.b.b.b.b.b.b.b.b.b.b.b.b.b.b.b.b.b.b.b.b.b.b.b.b.b.b.b.b.b.b.b.b.b.b.b.b.b.b.b.b.+.@.@.{ q.w.2.T.8X6X=X6X6X#X<X'.1.w.w.0.@X8X*X=X7X6X,X1XOX1.b.b.m.] <.a.mXpX9.q.b.b.z.z.@.+.b.b.b.b.b.b.b.b.b.b.b.b.b.b.b.b.b.b.b.b.b.b.b.b.b.b.b.b.b.b.b.b.b.b.b.b.b.b.b.b.b.b.b.b.b.b.b.b.b.b.b.b.b.b.b.b.b.b.b.b.b.b.b.b.",
"b.b.b.b.b.b.b.b.b.b.b.b.b.b.b.b.b.b.b.b.b.b.b.b.b.b.b.b.b.b.b.b.b.b.b.b.b.b.b.b.b.b.b.b.b.b.b.b.b.b.b.b.b.b.b.b.b.b.b.b.b.b.b.b.b.#.+.b.n.w.A.1X6X6X6X,XZ.1.b.+.w.2.,X1X*X=X=X=X=X=X*X1XOXw.,.1.qXuXw.1.b.` m.#.b.b.l.b.b.b.b.b.b.b.b.b.b.b.b.b.b.b.b.b.b.b.b.b.b.b.b.b.b.b.b.b.b.b.b.b.b.b.b.b.b.b.b.b.b.b.b.b.b.b.b.b.b.b.b.b.#.b.b.b.b.#.#.#.#.#.b.b.b.b.#.#.#.#.#.b.b.b.b.#.#.#.b.b.b.b.#.#.#.#.b.b.b.b.b.#.#.#.b.b.b.b.b.#.b.b.b.b.b.b.b.b.b.b.b.b.b.b.b.b.b.b.b.b.b.b.b.b.b.b.b.b.b.b.b.b.b.b.b.b.b.b.b.b.b.b.b.b.b.b.b.b.b.b.b.b.b.b.b.b.b.b.b.b.b.b.b.b.b.b.b.b.b.b.b.b.b.b.b.b.b.b.b.b.b.b.b.b.b.b.b.b.b.b.b.b.b.b.b.b.b.b.b.b.b.b.b.b.b.b.b.b.b.b.b.b.#.#.b.b.b.b.#.#.#.#.b.b.b.b.#.#.b.#.#.b.b.b.b.#.#.b.b.b.b.#.#.#.b.b.b.b.b.b.b.b.b.b.b.b.b.b.b.b.b.b.b.b.b.b.b.b.b.b.b.b.b.b.b.b.b.b.b.b.b.b.b.b.b.b.b.b.b.b.b.b.b.b.+.@.@.{ q.w.2.T.8X6X=X6X6X+X<X'.1.w.w.0.@X8X*X=X7X6X,X1XOX1.b.#.m.] <.h.ZXpX9.q.b.b.z.z.@.+.b.b.b.b.b.b.b.b.b.b.b.b.b.b.b.b.b.b.b.b.b.b.b.b.b.b.b.b.b.b.b.b.b.b.b.b.b.b.b.b.b.b.b.b.b.b.b.b.b.b.b.b.b.b.b.b.b.b.b.b.b.b.b.b.",
"b.b.b.b.b.b.b.b.b.b.b.b.b.b.b.b.b.b.b.b.b.b.b.b.b.b.b.b.b.b.b.b.b.b.b.b.b.b.b.b.b.b.b.b.b.b.b.b.b.b.b.b.b.b.b.b.b.b.b.b.b.b.b.b.N.X.b.b.1.w.J.,X6X6X6X,XZ.1.b.b.w.2.,X1X*X=X=X=X=X%X*X1XOXw.,.2.8XnXJ.<.b.b.N.O.b.b.b.b.b.b.b.b.b.b.b.b.b.b.b.b.b.b.b.b.b.b.b.b.b.b.b.b.b.b.b.b.b.b.b.b.b.b.b.b.b.b.b.b.b.b.b.b.b.b.b.b.b.b.b.b.#.b.b.b.b.#.#.#.#.b.b.b.b.#.#.#.+.+.b.b.b.b.+.+.b.b.b.b.+.+.+.b.#.#.b.b.b.#.#.#.b.b.b.b.b.b.#.#.b.b.b.b.b.b.b.b.b.b.b.b.b.b.b.b.b.b.b.b.b.b.b.b.b.b.b.b.b.b.b.b.b.b.b.b.b.b.b.b.b.b.b.b.b.b.b.b.b.b.b.b.b.b.b.b.b.b.b.b.b.b.b.b.b.b.b.b.b.b.b.b.b.b.b.b.b.b.b.b.b.b.b.b.b.b.b.b.b.b.b.b.b.b.b.b.b.b.b.b.b.b.b.b.b.b.b.b.b.b.b.b.b.b.+.+.b.b.b.b.+.b.b.b.b.+.+.+.b.b.b.b.b.b.#.#.#.#.b.b.b.b.#.b.b.b.b.b.b.b.b.b.b.b.b.b.b.b.b.b.b.b.b.b.b.b.b.b.b.b.b.b.b.b.b.b.b.b.b.b.b.b.b.b.b.b.b.b.b.b.b.b.b.b.N.#.@.@.q.9.2.,X8X6X=X*X*X,X4XS.w.w.,.w.1X1X*X*X6X*X6X1XJ.2.b.N.@.] <.+XbXvXw.q.b.b.z.l.+.@.b.b.b.b.b.b.b.b.b.b.b.b.b.b.b.b.b.b.b.b.b.b.b.b.b.b.b.b.b.b.b.b.b.b.b.b.b.b.b.b.b.b.b.b.b.b.b.b.b.b.b.b.b.b.b.b.b.b.b.b.b.b.b.b.",
"b.b.b.b.b.b.b.b.b.b.b.b.b.b.b.b.b.b.b.b.b.b.b.b.b.b.b.b.b.b.b.b.b.b.b.b.b.b.b.b.b.b.b.b.b.b.b.b.b.b.b.b.b.b.b.b.b.b.b.b.b.b.b.b.N.` b.b.1.w.OX,X6X6X6X,XZ.1.b.q.w.2.,X1X+X*X=X=X=X%X*X1XOXw.,.2.,XnXT.,.q.q.b.{ #.b.b.b.b.b.b.b.b.b.b.b.b.b.b.b.b.b.b.b.b.b.b.b.b.b.b.b.b.b.b.b.b.b.b.b.b.b.b.b.b.b.b.b.b.b.b.b.b.b.b.b.b.b.b.b.#.b.b.b.b.#.#.#.b.b.b.b.#.#.b.#.+.+.b.b.b.b.+.+.b.b.b.b.+.+.+.b.b.b.b.b.b.#.b.#.#.#.b.b.b.b.#.#.b.b.b.b.b.b.b.b.b.b.b.b.b.b.b.b.b.b.b.b.b.b.b.b.b.b.b.b.b.b.b.b.b.b.b.b.b.b.b.b.b.b.b.b.b.b.b.b.b.b.b.b.b.b.b.b.b.b.b.b.b.b.b.b.b.b.b.b.b.b.b.b.b.b.b.b.b.b.b.b.b.b.b.b.b.b.b.b.b.b.b.b.b.b.b.b.b.b.b.b.b.b.b.b.b.b.b.b.b.b.b.b.b.b.+.+.b.b.b.b.b.b.b.b.+.+.b.b.#.#.b.b.b.b.#.#.#.#.b.b.b.b.#.b.b.b.b.b.b.b.b.b.b.b.b.b.b.b.b.b.b.b.b.b.b.b.b.b.b.b.b.b.b.b.b.b.b.b.b.b.b.b.b.b.b.b.b.b.b.b.b.b.b.b.N.#.@.{ { 9.w.,X8X6X=X*X*X,X4XS.w.w.,.w.1X1X*X*X6X*X6X1XJ.2.b.b.@.] <.*XbXvXw.q.b.b.z.l.+.@.b.b.b.b.b.b.b.b.b.b.b.b.b.b.b.b.b.b.b.b.b.b.b.b.b.b.b.b.b.b.b.b.b.b.b.b.b.b.b.b.b.b.b.b.b.b.b.b.b.b.b.b.b.b.b.b.b.b.b.b.b.b.b.b.",
"b.b.b.b.b.b.b.b.b.b.b.b.b.b.b.b.b.b.b.b.b.b.b.b.b.b.b.b.b.b.b.b.b.b.b.b.b.b.b.b.b.b.b.b.b.b.b.b.b.b.b.b.b.b.b.b.b.b.b.b.b.b.b.b.N.X.b.b.1.w.OX,X6X6X6X,XZ.1.b.q.w.2.>X1X+X*X=X=X=X%X*X1XOXu.1.2.,XmXOX2.w.q.N.+.b.b.b.b.b.b.b.b.b.b.b.b.b.b.b.b.b.b.b.b.b.b.b.b.b.b.b.b.b.b.b.b.b.b.b.b.b.b.b.b.b.b.b.b.b.b.b.b.b.b.b.b.b.b.b.b.#.#.b.b.b.b.b.b.b.b.b.b.b.b.b.b.b.+.b.b.b.b.b.b.+.+.b.b.b.b.b.b.b.b.b.b.b.b.b.b.#.#.b.b.b.b.b.#.b.b.b.b.b.b.b.b.b.b.b.b.b.b.b.b.b.b.b.b.b.b.b.b.b.b.b.b.b.b.b.b.b.b.b.b.b.b.b.b.b.b.b.b.b.b.b.b.b.b.b.b.b.b.b.b.b.b.b.b.b.b.b.b.b.b.b.b.b.b.b.b.b.b.b.b.b.b.b.b.b.b.b.b.b.b.b.b.b.b.b.b.b.b.b.b.b.b.b.b.b.b.b.b.b.b.b.b.b.b.b.b.b.b.+.+.b.b.b.b.b.b.b.b.b.b.b.b.#.#.b.b.b.b.b.#.#.#.b.b.b.b.b.b.b.b.b.b.b.b.b.b.b.b.b.b.b.b.b.b.b.b.b.b.b.b.b.b.b.b.b.b.b.b.b.b.b.b.b.b.b.b.b.b.b.b.b.b.b.b.b.b.b.b.N.#.@.{ q.9.Z.,X8X6X=X*X*X,X4XM.w.w.,.u.1X1X*X*X6X*X6X1XJ.2.b.b.@.] <.*XmXvXu.w.b.b.z.l.+.@.b.b.b.b.b.b.b.b.b.b.b.b.b.b.b.b.b.b.b.b.b.b.b.b.b.b.b.b.b.b.b.b.b.b.b.b.b.b.b.b.b.b.b.b.b.b.b.b.b.b.b.b.b.b.b.b.b.b.b.b.b.b.b.b.",
"b.b.b.b.b.b.b.b.b.b.b.b.b.b.b.b.b.b.b.b.b.b.b.b.b.b.b.b.b.b.b.b.b.b.b.b.b.b.b.b.b.b.b.b.b.b.b.b.b.b.b.b.b.b.b.b.b.b.b.b.b.b.b.b.N.+.b.b.1.w.OX,X6X*X6X+Xu.1.b.q.w.2.,X1X+X*X=X=X=X%X*X1XOXu.1.2.R.mX,X0.w.{ N.@.b.b.b.b.b.b.b.b.b.b.b.b.b.b.b.b.b.b.b.b.b.b.b.b.b.b.b.b.b.b.b.b.b.b.b.b.b.b.b.b.b.b.b.b.b.b.b.b.b.b.b.b.b.b.b.b.b.#.b.b.b.b.b.b.b.b.b.b.b.b.b.b.b.b.b.b.b.b.b.b.+.+.b.b.b.b.b.b.b.b.b.b.b.b.b.b.b.b.b.b.b.b.b.#.b.b.b.b.b.b.b.b.b.b.b.b.b.b.b.b.b.b.b.b.b.b.b.b.b.b.b.b.b.b.b.b.b.b.b.b.b.b.b.b.b.b.b.b.b.b.b.b.b.b.b.b.b.b.b.b.b.b.b.b.b.b.b.b.b.b.b.b.b.b.b.b.b.b.b.b.b.b.b.b.b.b.b.b.b.b.b.b.b.b.b.b.b.b.b.b.b.b.b.b.b.b.b.b.b.b.b.b.b.b.b.b.b.b.b.b.b.b.+.+.b.b.b.b.b.b.b.b.b.b.b.b.b.b.b.#.#.#.b.b.b.b.b.b.b.b.b.b.b.b.b.b.b.b.b.b.b.b.b.b.b.b.b.b.b.b.b.b.b.b.b.b.b.b.b.b.b.b.b.b.b.b.b.b.b.b.b.b.b.b.b.b.b.b.N.#.@.{ q.9.Z.,X6X*X=X6X*X,X4Xn.w.w.,.p.1X1X*X*X6X*X6X1XJ.2.b.b.@.] 4.-XZXvXZ.w.l.b.z.l.+.+.b.b.b.b.b.b.b.b.b.b.b.b.b.b.b.b.b.b.b.b.b.b.b.b.b.b.b.b.b.b.b.b.b.b.b.b.b.b.b.b.b.b.b.b.b.b.b.b.b.b.b.b.b.b.b.b.b.b.b.b.b.b.b.b.",
"b.b.b.b.b.b.b.b.b.b.b.b.b.b.b.b.b.b.b.b.b.b.b.b.b.b.b.b.b.b.b.b.b.b.b.b.b.b.b.b.b.b.b.b.b.b.b.b.b.b.b.b.b.b.b.b.b.b.b.b.b.b.b.b.b.X.b.b.,.u.@X,X6X*X6XR.6.1.b.q.w.2.,X1X+X*X=X=X;X%X*X8XOXu.1.2.Y.mXqXu.w.{ N.#.b.b.b.b.b.b.b.b.b.b.b.b.b.b.b.b.b.b.b.b.b.b.b.b.b.b.b.b.b.b.b.b.b.b.b.b.b.b.b.b.b.b.b.b.b.b.b.b.b.b.b.b.b.b.b.b.b.b.b.b.b.b.b.b.b.b.b.b.b.b.b.b.b.b.b.b.b.b.b.b.b.b.b.b.b.b.b.b.b.b.b.b.b.b.b.b.b.b.b.b.b.b.b.b.b.b.b.b.b.b.b.b.b.b.b.b.b.b.b.b.b.b.b.b.b.b.b.b.b.b.b.b.b.b.b.b.b.b.b.b.b.b.b.b.b.b.b.b.b.b.b.b.b.b.b.b.b.b.b.b.b.b.b.b.b.b.b.b.b.b.b.b.b.b.b.b.b.b.b.b.b.b.b.b.b.b.b.b.b.b.b.b.b.b.b.b.b.b.b.b.b.b.b.b.b.b.b.b.b.b.b.b.b.b.b.b.b.b.b.b.b.b.b.+.+.b.b.b.b.b.b.b.b.b.b.b.b.b.b.b.b.b.b.b.b.b.b.#.b.b.b.b.b.b.b.b.b.b.b.b.b.b.b.b.b.b.b.b.b.b.b.b.b.b.b.b.b.b.b.b.b.b.b.b.b.b.b.b.b.b.b.b.b.b.b.b.b.b.N.#.@.{ q.9.Z.,X8X*X6X6X*X+X2Xn.9.w.,.S.1X,X*X*X6X*X6X1XJ.2.b.b.@.] t.9XZXbXA.b.l.b.z.l.+.+.b.b.b.b.b.b.b.b.b.b.b.b.b.b.b.b.b.b.b.b.b.b.b.b.b.b.b.b.b.b.b.b.b.b.b.b.b.b.b.b.b.b.b.b.b.b.b.b.b.b.b.b.b.b.b.b.b.b.b.b.b.b.b.b.",
"b.b.b.b.b.b.b.b.b.b.b.b.b.b.b.b.b.b.b.b.b.b.b.b.b.b.b.b.b.b.b.b.b.b.b.b.b.b.b.b.b.b.b.b.b.b.b.b.b.b.b.b.b.b.b.b.b.b.b.b.b.b.b.b.b.+.b.w.,.u.@X,X6X*X6XR.6.1.b.q.w.2.,X1X+X*X=X=X;X%X*X1XOXZ.1.2.g.ZXuXD.w.{ b.@.#.b.b.b.b.b.b.b.b.b.b.b.b.b.b.b.b.b.b.b.b.b.b.b.b.b.b.b.b.b.b.b.b.b.b.b.b.b.b.b.b.b.b.b.b.b.b.b.b.b.b.b.b.b.b.b.b.b.b.b.b.b.b.b.b.b.b.b.b.b.#.b.b.b.b.b.b.b.b.b.b.b.b.b.b.b.b.b.b.b.b.b.b.b.#.b.b.b.b.b.b.b.b.b.b.b.b.b.b.b.b.b.b.b.b.b.b.b.b.b.b.b.b.b.b.b.b.b.b.b.b.b.b.b.b.b.b.b.b.b.b.b.b.b.b.b.b.b.b.b.b.b.b.b.b.b.b.b.b.b.b.b.b.b.b.b.b.b.b.b.b.b.b.b.b.b.b.b.b.b.b.b.b.b.b.b.b.b.b.b.b.b.b.b.b.b.b.b.b.b.b.b.b.b.b.b.b.b.b.b.b.b.b.b.b.b.b.b.b.b.b.b.b.+.+.b.b.b.b.b.+.+.b.b.b.b.b.b.b.b.b.b.b.b.b.b.b.b.b.b.b.b.b.b.b.b.b.b.b.b.b.b.b.b.b.b.b.b.b.b.b.b.b.b.b.b.b.b.b.b.b.b.b.b.b.b.b.b.b.b.b.b.b.b.b.b.b.b.N.#.@.{ q.9.H.,X6X*X6X6X*X+X3Xn.1.w.1.D.4X,X*X*X6X*X6X8XT.2.N.#.@.] t.9XZXmXH.n.l.b.z.n.+.+.b.b.b.b.b.b.b.b.b.b.b.b.b.b.b.b.b.b.b.b.b.b.b.b.b.b.b.b.b.b.b.b.b.b.b.b.b.b.b.b.b.b.b.b.b.b.b.b.b.b.b.b.b.b.b.b.b.b.b.b.b.b.b.b.",
"b.b.b.b.b.b.b.b.b.b.b.b.b.b.b.b.b.b.b.b.b.b.b.b.b.b.b.b.b.b.b.b.b.b.b.b.b.b.b.b.b.b.b.b.b.b.b.b.b.b.b.b.b.b.b.b.b.b.b.b.b.b.b.b.b.b.b.w.,.Z.1X,X*X*X6XR.6.1.b.q.w.2.,X1X+X=X=X=X=X=X*X8X@XZ.1.2.7.ZXnXD.w.{ @.@.#.b.N.b.b.N.N.N.b.b.b.b.b.b.b.b.b.b.b.b.b.b.b.b.b.b.b.b.b.b.b.b.b.b.b.b.b.b.b.b.b.b.b.b.b.b.b.b.b.b.b.b.b.b.b.b.b.b.b.b.b.b.#.b.#.#.b.b.b.b.#.+.+.b.b.b.b.b.+.b.b.b.b.b.b.b.b.b.b.b.b.b.b.b.#.#.b.b.#.b.b.b.b.b.b.b.b.b.b.b.b.b.b.b.b.b.b.b.b.b.b.b.b.b.b.b.b.b.b.b.b.b.b.b.b.b.b.b.b.b.b.b.b.b.b.b.b.b.b.b.b.b.b.b.b.b.b.b.b.b.b.b.b.b.b.b.b.b.b.b.b.b.b.b.b.b.b.b.b.b.b.b.b.b.b.b.b.b.b.b.b.b.b.b.b.b.b.b.b.b.b.b.b.b.b.b.b.b.b.b.b.b.b.b.b.b.b.+.+.+.b.b.b.b.+.+.b.b.b.b.+.+.b.b.#.b.b.b.b.b.b.b.b.b.b.b.b.b.b.b.b.b.b.b.b.b.b.b.b.b.b.b.b.b.b.b.b.b.b.b.b.b.b.b.b.b.b.b.b.b.b.b.b.b.b.b.b.b.b.b.b.b.b.b.b.b.b.b.b.#.@.{ q.9.J.1X6XR.6X6X*X+X<Xn.1.w.w.D.4X+X*X*X6X*X6X1XJ.2.N.#.{ ] t.9XAXmXD.n.l.l.z.n.@.+.b.b.b.b.b.b.b.b.b.b.b.b.b.b.b.b.b.b.b.b.b.b.b.b.b.b.b.b.b.b.b.b.b.b.b.b.b.b.b.b.b.b.b.b.b.b.b.b.b.b.b.b.b.b.b.b.b.b.b.b.b.b.b.b.",
"b.b.b.b.b.b.b.b.b.b.b.b.b.b.b.b.b.b.b.b.b.b.b.b.b.b.b.b.b.b.b.b.b.b.b.b.b.b.b.b.b.b.b.b.b.b.b.b.b.b.b.b.b.b.b.b.b.b.b.b.b.b.b.b.#.+.b.q.,.A.,X6X6X*X6XT.2.1.b.q.w.2.>X1X+X7X=X=X;X=X*X8X@Xw.1.2.5.ZXmXU.0.,.q.+.#.#.b.b.b.b.b.b.b.b.b.b.b.b.b.b.b.b.b.b.b.b.b.b.b.b.b.b.b.b.b.b.b.b.b.b.b.b.b.b.b.b.b.b.b.b.b.b.b.b.b.b.b.b.b.b.b.b.b.b.b.b.b.b.b.b.b.b.b.b.b.b.b.q.b.q.b.q.b.q.b.q.b.q.b.q.b.b.b.b.b.b.b.b.b.b.b.b.b.b.b.b.b.b.b.b.b.b.b.b.b.b.b.b.b.b.b.b.b.b.b.b.b.b.b.b.b.b.b.b.b.b.b.b.b.b.b.b.b.b.b.b.b.b.b.b.b.b.b.b.b.b.b.b.b.b.b.b.b.b.b.b.b.b.b.b.b.b.b.b.b.b.b.b.b.b.b.b.b.b.b.b.b.b.b.b.b.b.b.b.b.b.b.b.b.b.b.b.b.b.b.q.b.q.b.q.b.q.b.q.b.q.b.q.b.q.b.q.b.q.b.q.b.q.b.q.b.q.b.q.b.b.b.b.b.b.b.b.b.b.b.b.b.b.b.b.b.b.b.b.b.b.b.b.b.b.b.b.b.b.b.b.b.b.b.b.b.b.b.b.b.b.b.b.b.b.b.b.b.b.b.b.b.b.b.b.b.b.b.b.b.b.b.b.b.b.b.b.b.@.@.{ q.9.D.1X6XR.6X7X*X,X<Xw.1.w.9.D.4X+X*X*X6X*X6X1XJ.1.N.#.{ / t.9XAXZXD.n.1.b.b.b.@.@.b.b.b.b.b.b.b.b.b.b.b.b.b.b.b.b.b.b.b.b.b.b.b.b.b.b.b.b.b.b.b.b.b.q.b.q.b.q.b.q.b.q.b.q.b.q.b.b.b.b.b.b.b.b.b.b.b.b.b.b.b.b.b.b.",
"b.b.b.b.b.b.b.#.#.#.b.b.b.b.b.#.b.b.b.b.b.b.b.b.b.b.b.b.b.b.b.b.b.b.b.b.b.b.b.b.b.b.b.b.b.b.b.b.N.N.N.N.N.N.#.b.b.b.b.+.b.@.b.+.@.@.N.q.<.D.1X,X6X6X8XOXn.w.N.{ w.1.>X,X+X7X=X=X=X=X+X,X<XS.1.w.t.uXmXjX;.0./ { $.$.#.N.b.b.{ { +.b.b.b.b.b.b.b.b.b.b.b.b.b.b.b.@.@.b.@.#.#.b.b.N.b.b.b.b.b.b.b.b.q.q.q.q.q.q.q.1.` 1.q.q.q.b.b.q.q.w.w.w.w.q.q.n.n.n.n.n.b.n.n.M.n.n.n.M.n.M.n.M.M.M.M.M.M.M.M.M.M.M.M.M.M.M.M.n.n.n.n.n.n.n.n.w.q.w.q.w.q.w.q.q.q.w.q.w.q.w.q.{ b.b.b.b.b.b.b.b.b.b.q.b.{ +.+.b.b.b.b.b.b.b.b.b.b.b.b.b.b.N.b.N.N.N.N.b.b.N.b.b.b.b.b.b.b.b.b.@.@.@.+.+.+.@.@.@.+.+.+.@.+.@.@.+.+.+.@.b.#.N.@.N.@.b.@.b.@.b.b.b.q.w.q.q.9.` ` b.b.n.b.n.B.B.B.M.M.M.M.M.M.M.M.M.M.M.M.M.M.M.M.n.n.n.n.n.n.n.n.w.w.w.w.w.w.1.w.b.w.w.w.b.b.b.b.q.q.q.q.q.q.q.b.N.b.b.b.b.b.l.b.b.b.b.b.b.b.b.b.+.+.+.+.+.+.+.+.b.@.b.@.b.@.b.b.b.b.+.@.@.@.q.1.<X,X6X6X7X=X=X6X>Xw.w.,.w.@X,X6X*X=X6X6X8X1XD.9.#.+.@./ u.xXVXZXR.<.b.#.+.#.+.b.b.b.b.b.b.b.b.b.{ +.b.N.N.@.b.+.+.{ { { q.q.q.w.B.B.M.M.S.H.H.H.H.M.M.M.M.M.n.n.w.w.1.1.1.w.b.b.b.b.b.b.b.b.b.b.b.b.b.b.b.@.b.+.",
"b.b.b.b.b.b.b.#.#.#.b.b.b.b.#.#.b.b.b.b.b.b.b.b.b.b.b.b.b.b.b.b.b.b.b.b.b.b.b.b.b.b.b.b.b.b.b.b.N.N.N.N.b.N.#.#.b.b.+.+.@.@.+.@.+.+.b.q.1.D.8X6X6X6X1X>Xn.b.N.+.b.1.5X1X,X9X=X=X=X*X+X,X<XS.1.q.0.pXmXcX5.4.,.{ $.O.#.N.b.q.{ { { +.b.b.b.b.b.b.b.b.b.b.b.b.b.b.@.@.b.@.@.@.@.b.+.b.b.b.b.b.b.b.q.q.q.q.w.q.w.q.w.w.w.w.b.b.n.n.n.n.n.n.n.n.n.n.M.M.M.M.M.M.M.M.Z.Z.Z.Z.Z.Z.Z.Z.Z.Z.Z.Z.Z.Z.Z.Z.Z.Z.Z.Z.Z.Z.Z.Z.Z.Z.Z.Z.Z.Z.Z.Z.M.B.n.B.n.B.n.B.n.b.n.b.n.b.n.b.b.b.b.b.b.b.b.b.b.b.b.b.b.b.b.b.b.+.+.+.+.+.+.+.+.+.+.+.+.+.+.+.+.+.+.+.+.+.+.+.+.+.+.+.+.+.+.+.+.O.+.O.+.O.+.O.@.@.@.@.#.#.@.@.@.#.N.#.N.N.N.N.+.+.b.@.b.+.b.b.1.1.1.w.w.b.n.b.n.B.B.B.M.M.M.M.M.M.M.M.M.M.M.M.M.M.M.M.M.M.M.S.Z.Z.Z.Z.Z.Z.Z.Z.n.n.n.n.n.n.n.n.w.q.w.q.w.q.q.q.q.q.q.q.w.q.w.q.b.b.b.b.b.b.b.b.b.b.b.b.b.b.b.b.b.@.@.@.@.@.+.+.@.@.@.@.@.@.@.b.b.b.{ @.@.@.q.9.<X,X6X6X=X=X=X6X>Xw.w.,.w.@X,X8X=X=X6X6X8X1XD.9.#.+.N./ u.vXVXAXQ.4.b.@.O.$.b.b.b.b.b.b.b.b.b.b.b.b.b.@.b.@.+.{ { { q.q.b.b.n.n.B.M.M.S.Z.H.H.H.S.S.S.M.M.M.M.M.n.n.n.w.w.w.w.w.b.b.b.b.b.b.b.b.b.b.b.b.@.@.@.@.",
"b.b.b.b.b.b.b.b.#.b.b.b.b.b.#.b.b.b.b.b.b.b.b.b.b.b.b.b.b.b.b.b.b.b.b.b.b.b.b.b.b.b.b.b.b.b.b.b.b.b.b.b.b.#.#.#.b.b.b.b.@.@.@.@.+.+.N.q.2.D.8X*X6X6X1XOXn.b.N.+.b.w.<X1X,X9X=X=X=X*X+X,X2XS.1.w.<.pXZXbXf.4.,.{ O.O.#.b.b.q.{ ] ` +.+.N.b.b.b.+.b.b.b.+.b.b.b.b.b.b.b.b.b.+.+.b.` b.b.b.b.b.b.b.b.w.n.b.n.b.n.b.n.n.n.n.M.M.M.M.M.S.S.S.S.S.S.S.S.S.S.S.S.S.S.S.S.S.S.S.S.S.S.S.Z.Z.Z.Z.Z.Z.Z.Z.Z.Z.Z.Z.Z.Z.Z.Z.Z.Z.Z.Z.Z.Z.Z.S.H.C.S.M.S.M.M.M.M.n.M.n.M.n.M.n.B.n.b.b.b.q.q.q.q.q.q.q.q.w.b.b.b.b.b.b.b.b.b.b.b.b.b.b.b.b.b.b.b.b.b.b.b.b.b.b.b.b.b.b.b.b.b.+.+.+.+.+.+.+.+.+.b.#.b.@.b.#.b.b.b.b.b.N.b.N.b.N.+.+.+.+.b.b.b.b.1.1.w.b.n.B.M.C.S.M.S.M.S.C.H.H.M.S.S.S.S.S.S.S.S.S.S.S.S.S.S.S.S.S.S.S.S.S.S.S.M.M.Z.Z.Z.Z.M.M.n.b.n.b.n.b.n.b.w.w.w.w.w.w.w.b.q.b.b.b.b.b.b.b.b.b.b.b.b.b.b.b.N.N.b.b.b.b.b.b.b.b.b.b.b.b.b.b.b.b.+.@.@.@.q.9.5X,X6X6X=X=X=X6X>Xn.w.,.w.@X,X8X*X=X6X6X8X1XD.9.#.+.@./ a.vXVXAXQ.4.b.$.O.$.b.b.b.b.b.b.b.b.b.b.N.N.b.+.b.+.b.{ b.q.b.b.n.B.M.M.M.M.M.Z.Z.F.H.H.H.H.S.S.S.M.M.M.M.M.M.n.n.w.1.1.b.b.b.b.b.b.b.b.b.b.b.b.b.b.@.@.",
"#.b.b.b.b.b.b.b.b.b.b.b.b.b.b.b.b.b.b.b.b.b.b.b.b.b.b.b.b.b.b.b.b.b.b.b.b.b.b.b.b.b.b.b.b.b.b.b.b.b.b.b.b.#.#.#.b.b.b.b.b.@.b.@.+.+.b.q.2.T.8X*X6X6X,XJ.w.q.b.{ b.2.5X1X,X9X=X=X=X*X+X,X2XS.1.w.>.9XZXZXW.5.,.r.+.+.N.b.n.b.q.{ { +.b.N.N.N.N.b.b.b.b.+.b.b.b.b.b.b.b.b.b.b.b.b.b.l.b.b.b.b.n.n.M.M.M.M.M.M.M.M.M.M.M.M.S.S.S.S.S.S.S.S.M.M.M.M.S.S.S.M.S.S.S.M.H.H.H.H.H.H.H.H.S.S.S.S.S.S.Z.Z.F.H.H.H.H.H.H.H.Z.Z.Z.Z.Z.Z.Z.Z.S.M.S.M.M.M.M.M.S.M.S.M.S.M.S.M.M.M.B.n.b.b.b.b.9.1.9.q.q.q.q.q.b.b.b.b.b.b.b.b.b.b.b.b.b.b.b.b.b.b.b.b.b.b.b.b.b.b.b.b.b.b.b.b.b.b.b.b.b.b.b.b.b.b.b.b.b.b.b.b.b.b.b.b.b.b.b.b.b.b.b.b.b.b.b.n.n.n.n.M.M.M.M.S.S.S.S.H.H.H.H.H.S.S.S.S.S.S.S.S.S.S.S.S.S.S.S.S.Z.Z.Z.Z.Z.Z.Z.Z.Z.Z.Z.Z.Z.Z.Z.M.M.M.S.M.S.M.S.M.n.n.n.n.n.n.n.n.1.l.b.b.b.b.b.b.b.b.b.b.b.b.b.b.b.b.b.b.b.b.N.b.b.b.b.b.b.b.b.b.b.b.+.+.{ { q.w.>X,X6X6X*X*X*X6X>Xw.w.,.2.OX,X9X*X=X6X6X8X1XD.9.#.+.b./ a.vXVXCX=X4.b.$.O.#.b.b.b.b.b.b.b.b.b.b.N.b.b.b.b.b.b.b.n.n.B.B.M.M.C.H.M.Z.Z.Z.Z.Z.Z.Z.S.S.S.S.S.M.M.M.S.S.S.S.M.n.w.1.b.b.b.b.b.b.b.b.b.b.b.b.b.b.b.@.",
"b.b.b.b.b.b.b.b.b.b.b.b.b.b.b.b.b.b.b.b.b.b.b.b.b.b.b.b.b.b.b.b.b.b.b.b.b.b.b.b.b.b.b.b.b.b.b.b.b.b.b.b.b.b.b.b.b.b.b.b.b.b.b.@.@.+.b.w.2.T.8X*X6X6X,XJ.2.1.b.` 1.<.>X1X+X9X=X=X*X*X+X,X1XH.1.w.<.*XZXZX&X5.0.r.@.#.N.B.n.n.q.r.{ +.b.b.b.b.b.b.b.b.b.b.b.b.+.+.b.b.b.b.b.b.b.b.b.b.b.n.n.n.M.M.H.S.S.S.S.S.S.S.Z.M.Z.M.S.S.S.S.S.S.S.S.M.M.S.S.M.M.M.M.M.M.M.M.S.S.S.S.S.S.S.S.S.S.S.S.S.S.S.S.Z.Z.Z.Z.Z.Z.Z.Z.Z.Z.Z.Z.Z.Z.Z.Z.Z.S.Z.S.Z.S.Z.S.Z.S.Z.S.Z.S.Z.S.S.M.M.M.M.M.n.n.b.b.b.w.w.1.1.1.b.b.b.b.b.b.b.b.b.b.b.b.b.b.b.b.b.b.b.b.b.b.b.b.b.b.b.b.b.b.b.b.b.b.b.b.b.b.b.b.b.b.b.b.b.b.b.b.q.b.b.b.b.b.b.b.b.b.b.n.n.n.B.C.H.S.S.S.Z.S.Z.M.S.S.S.S.S.S.Z.S.M.M.S.M.S.S.S.S.M.M.M.S.S.S.S.S.Z.Z.Z.Z.Z.Z.Z.Z.Z.Z.Z.Z.Z.Z.Z.Z.H.H.H.H.H.H.H.H.M.M.S.M.S.S.S.M.n.n.n.b.b.b.b.b.b.b.b.b.b.w.b.1.q.q.q.q.b.b.b.b.b.b.b.b.b.b.b.b.1.l.b.+.{ q.q.w.>X,X6X6X=X=X*X6X>Xw.w.,.2.OX,X6X=X=X6X6X8X1XD.9.N.+.b.,.h.mXVXCX7X6.q.+.O.@.b.b.b.@.b.b.b.b.b.q.b.b.b.b.b.b.n.C.C.C.M.M.M.S.S.S.Z.Z.Z.Z.Z.Z.A.Z.S.S.S.S.S.S.M.M.M.M.S.S.M.M.n.n.b.b.w.b.l.b.b.b.b.b.b.b.b.b.q.b.",
"b.b.b.b.b.b.b.b.b.b.b.b.b.b.b.b.b.b.b.b.b.b.b.b.b.b.b.b.b.b.b.b.b.b.b.b.b.b.b.b.b.b.b.b.b.b.b.b.b.#.b.b.b.b.b.b.b.b.b.b.b.b.b.b.@.{ b.w.w.OX8X*X6X+X,XJ.2.1.b.` 2.2.>X,X+X6X=X=X=X*X+X,X1XH.1.n.6.+XZXVXhXg.u.e.m.V.B.F.F.Z.n.r.q.b.b.b.b.b.b.b.q.b.b.b.b.b.+.b.b.b.b.b.b.b.b.n.n.M.M.M.M.B.F.Z.Z.Z.Z.Z.Z.Z.Z.Z.Z.Z.Z.Z.Z.Z.Z.Z.H.H.H.H.H.H.H.H.S.S.M.M.S.S.S.S.Z.Z.Z.Z.Z.Z.Z.Z.S.H.S.S.S.S.S.S.Z.Z.Z.Z.Z.Z.Z.Z.Z.Z.Z.Z.Z.Z.Z.Z.Z.S.Z.S.Z.S.Z.S.Z.Z.Z.Z.Z.Z.Z.Z.S.S.H.C.H.H.H.H.H.M.M.n.n.n.w.w.w.q.b.b.b.b.b.b.q.q.q.q.b.b.q.q.q.q.q.q.b.b.q.q.w.q.b.q.q.q.q.q.b.w.l.b.b.b.b.b.b.b.b.b.b.n.n.n.n.M.M.M.M.M.M.B.M.M.B.B.C.H.H.H.Z.Z.Z.Z.Z.S.Z.S.H.S.Z.Z.Z.Z.Z.Z.Z.M.S.M.S.S.M.S.M.M.M.S.S.S.S.S.Z.Z.Z.Z.Z.Z.Z.Z.Z.Z.Z.Z.Z.Z.Z.Z.Z.M.Z.M.Z.S.Z.S.H.H.H.H.H.H.H.H.H.H.F.C.B.M.M.M.n.n.n.n.n.n.z.b.q.q.q.q.q.b.b.b.b.b.b.b.b.b.q.q.1.1.b.{ { q.q.w.,X,X6X*X=X=X*X6X>Xw.w.,.w.@X,X6X=X=X6X6X8X1XD.9.N.+.b.,.U.mXCXVX9X6.q.{ O.#.b.b.b.@.b.b.b.b.b.b.1.b.b.n.n.M.H.H.H.H.H.H.S.S.S.Z.Z.Z.Z.Z.Z.Z.Z.Z.Z.S.S.S.S.S.M.M.M.M.M.S.S.S.S.M.n.b.b.b.l.1.l.b.b.b.b.b.b.b.b.q.",
"b.b.b.b.b.b.b.b.b.b.b.b.b.b.b.b.b.b.b.b.b.b.b.b.b.b.b.b.b.b.b.b.b.b.b.b.b.b.b.b.b.b.b.b.b.b.b.b.#.#.b.b.b.b.b.b.b.b.b.b.q.q.q.q.@.{ q.w.w.OX8X*X*X*X,XJ.2.w.B.b.2.2.5X,X+X9X=X=X=X-X+X1X1XH.w.Z.u.Y.ZXCXVXg.i.e.m.B.F.F.F.Z.M.n.m.b.b.q.{ q.b.b.q.b.b.b.b.b.b.b.1.b.b.b.n.M.M.B.M.M.M.B.F.F.F.Z.Z.Z.Z.Z.Z.Z.Z.Z.Z.Z.Z.Z.Z.Z.Z.Z.H.H.H.H.H.H.H.H.Z.Z.Z.Z.Z.Z.Z.Z.Z.Z.Z.Z.Z.Z.Z.Z.Z.Z.Z.Z.Z.Z.Z.Z.Z.Z.Z.Z.Z.Z.Z.Z.Z.Z.Z.Z.Z.Z.Z.Z.Z.Z.Z.Z.Z.Z.Z.Z.Z.Z.Z.Z.Z.Z.Z.Z.Z.S.S.S.Z.S.Z.S.H.H.S.S.Z.M.n.M.b.b.n.b.b.b.b.b.b.b.b.b.n.b.n.b.b.b.b.b.n.b.n.b.n.b.b.b.b.b.b.b.n.n.n.n.n.n.n.n.M.M.M.M.M.M.M.M.F.F.F.F.H.H.H.H.H.H.H.H.H.H.H.H.Z.Z.Z.Z.Z.Z.Z.Z.H.H.Z.Z.Z.Z.Z.Z.Z.Z.Z.Z.Z.Z.Z.Z.Z.Z.Z.Z.Z.Z.Z.Z.Z.Z.Z.Z.Z.Z.Z.Z.Z.Z.Z.Z.Z.Z.Z.Z.Z.Z.Z.Z.Z.Z.Z.Z.Z.S.Z.S.Z.H.Z.H.F.H.F.F.F.F.F.F.F.B.F.M.n.n.n.n.b.b.b.b.b.b.b.b.b.b.b.b.b.b.b.b.1.b.w.q.{ q.q.Z.,X6X6X=X=X=X*X*X>Xw.n.w.w.@X,X6X=X=X6X6X8X1XD.9.N.O.q.,.U.mXCXVXlX6.w.{ O.V.q.b.b.@.+.b.b.b.b.b.b.n.n.M.F.F.F.H.H.S.S.S.S.Z.Z.Z.Z.Z.Z.Z.Z.Z.A.Z.Z.Z.Z.Z.Z.Z.Z.Z.Z.Z.Z.Z.Z.Z.S.H.M.n.n.b.b.b.l.l.b.b.b.b.b.b.b.q.",
"b.b.b.b.b.b.b.b.b.b.b.b.b.b.b.b.b.b.b.b.b.b.b.b.b.b.b.b.b.b.b.b.b.b.b.b.b.b.b.b.b.b.b.b.b.b.b.b.#.#.b.b.b.b.b.b.b.b.b.b.q.q.q.q.+.{ w.w.u.+X8X*X*X+X,XT.w.n.H.C.n.2.,X1X+X9X-X-X=X=X+X,X1XD.w.Z.i.Y.VXVXVXj.i.p.n.B.F.F.G.Z.Z.n.B.m.b.{ 1.{ b.b.b.q.b.b.b.b.b.b.1.l.b.n.n.M.B.H.F.F.F.F.F.F.F.Z.Z.Z.Z.Z.Z.Z.Z.Z.Z.Z.Z.Z.Z.Z.Z.Z.Z.Z.Z.Z.Z.Z.Z.Z.Z.Z.Z.Z.Z.Z.Z.Z.F.Z.Z.Z.Z.Z.Z.Z.Z.Z.Z.Z.Z.Z.Z.Z.Z.Z.Z.Z.Z.Z.Z.Z.Z.Z.Z.Z.Z.Z.Z.Z.Z.Z.Z.Z.Z.Z.Z.Z.Z.Z.Z.Z.Z.Z.Z.Z.Z.S.S.Z.Z.Z.Z.M.Z.Z.Z.Z.Z.Z.Z.Z.M.C.H.C.H.C.C.C.C.C.C.C.H.C.C.C.C.C.C.C.H.C.C.C.H.C.C.C.C.C.C.C.H.H.F.H.F.H.F.H.F.F.F.F.F.F.F.F.Z.Z.F.F.F.F.F.F.H.H.H.F.F.F.F.F.Z.Z.Z.Z.Z.Z.Z.Z.H.H.H.Z.Z.Z.Z.Z.Z.Z.Z.Z.Z.Z.Z.Z.Z.Z.Z.Z.Z.Z.Z.Z.Z.Z.Z.Z.Z.Z.Z.Z.Z.Z.Z.Z.Z.Z.Z.Z.Z.Z.Z.Z.Z.Z.Z.Z.Z.Z.Z.Z.Z.Z.Z.Z.n.n.n.Z.F.F.F.F.H.H.F.F.F.Z.Z.M.b.b.b.b.b.b.b.b.b.b.b.b.b.b.b.b.1.1.w.q.9.9.w.u.,X*X6X=X=X*X-X*X>Xn.n.w.Z.1X1X6X=X=X6X6X8X1XD.9.N.+.q.,.U.mXCXCXlX6.w.{ } m.b.b.b.b.b.b.b.b.b.b.n.n.M.F.F.F.F.Z.Z.Z.Z.Z.Z.Z.Z.Z.Z.Z.Z.Z.Z.Z.A.Z.Z.Z.Z.Z.Z.Z.Z.Z.H.S.Z.Z.Z.Z.S.H.H.H.M.n.b.b.b.b.b.b.b.b.b.b.b.b.",
"b.b.b.b.b.b.b.b.b.b.b.b.b.b.b.b.b.b.b.b.b.b.b.b.b.b.b.b.b.b.b.b.b.b.b.b.b.b.b.b.b.b.b.b.b.b.b.b.b.b.b.+.b.b.b.b.b.b.q.q.1.q.w.b.b.b.B.S.D.OX6X*X*X6X,XU.Z.M.H.H.Z.J.>X1X6X*X=X-X%X-X+X+X1X].Z.S.i.I.VXkXNXcX;.S.M.M.F.G.G.Z.Z.M.M.B.B.b.b.q.q.1.q.q.q.q.q.q.q.q.1.n.M.M.H.H.Z.Z.Z.Z.Z.Z.Z.Z.Z.Z.Z.Z.Z.Z.Z.Z.Z.Z.Z.Z.Z.Z.Z.Z.Z.Z.Z.Z.Z.Z.Z.Z.Z.Z.Z.Z.Z.Z.Z.Z.Z.Z.Z.Z.Z.Z.Z.Z.Z.Z.Z.Z.Z.Z.Z.Z.Z.Z.Z.Z.Z.Z.Z.Z.Z.Z.Z.Z.Z.Z.Z.Z.Z.Z.Z.Z.Z.Z.Z.Z.Z.Z.Z.Z.Z.Z.Z.Z.Z.Z.Z.Z.Z.Z.Z.Z.Z.Z.Z.Z.Z.Z.Z.Z.Z.Z.S.M.S.M.S.M.H.C.M.M.H.C.S.M.S.M.S.M.H.C.S.M.S.M.S.S.S.M.S.M.S.S.Z.Z.Z.Z.Z.Z.Z.Z.Z.Z.Z.Z.Z.Z.Z.Z.Z.Z.Z.Z.Z.Z.Z.Z.Z.Z.F.Z.Z.Z.Z.Z.Z.Z.Z.Z.Z.Z.Z.Z.Z.Z.Z.Z.Z.Z.Z.Z.Z.Z.Z.Z.Z.Z.Z.Z.Z.Z.Z.Z.Z.Z.Z.Z.Z.Z.Z.Z.Z.Z.Z.Z.Z.Z.Z.Z.Z.Z.Z.Z.Z.Z.Z.Z.Z.Z.Z.Z.Z.Z.Z.Z.Z.Z.Z.Z.Z.Z.Z.Z.Z.Z.Z.Z.Z.Z.F.Z.Z.Z.Z.Z.M.M.M.M.M.M.C.C.n.b.n.n.n.n.n.n.1.n.b.b.B.q.w.D.,X6X6X=X=X-X-X*X>XZ.J.Z.0.1XqX*X=X=X=X=X8X1XD.9.b.N.b.,.oXAXCXCXkX7.9.{ @.V.b.n.b.b.b.b.b.b.b.n.Z.Z.Z.Z.Z.Z.Z.Z.Z.Z.Z.Z.Z.Z.Z.Z.Z.Z.Z.Z.Z.Z.Z.Z.Z.Z.Z.Z.Z.Z.Z.Z.Z.Z.Z.Z.Z.Z.Z.Z.S.S.S.M.M.M.M.n.q.q.q.q.w.w.w.b.",
"b.q.q.q.b.b.b.b.b.b.b.b.b.b.b.b.b.b.b.b.b.b.b.b.b.b.b.b.b.b.b.b.b.b.b.b.b.b.b.b.b.b.b.b.b.b.b.b.b.b.b.b.b.b.b.b.b.b.w.q.q.w.b.b.b.B.M.Z.D.#X*X*X*X8X+XU.A.Z.H.S.Z.D.+X1X6X*X=X-X%X-X+X+X1XOXZ.A.u.I.VXVXNXcX5.p.M.S.G.G.A.A.Z.M.M.B.n.n.n.n.n.b.b.b.b.b.b.b.b.b.n.n.M.S.H.H.Z.Z.Z.Z.Z.F.Z.Z.Z.Z.Z.Z.Z.Z.Z.Z.Z.Z.Z.Z.Z.Z.Z.Z.Z.Z.Z.Z.Z.Z.Z.Z.Z.Z.Z.Z.Z.Z.Z.Z.Z.Z.Z.Z.Z.Z.Z.Z.Z.Z.Z.Z.Z.Z.Z.Z.Z.Z.Z.Z.Z.Z.Z.Z.Z.Z.Z.Z.Z.Z.Z.Z.Z.Z.Z.Z.Z.Z.Z.Z.Z.Z.Z.Z.Z.Z.Z.Z.Z.Z.Z.Z.Z.Z.Z.Z.Z.Z.Z.Z.Z.Z.Z.Z.Z.Z.Z.S.S.S.S.S.H.H.S.S.H.H.S.S.S.S.S.S.H.H.S.S.S.S.S.S.S.S.S.S.S.Z.Z.Z.Z.Z.Z.Z.F.F.Z.Z.Z.F.Z.Z.Z.Z.Z.Z.Z.F.Z.Z.Z.Z.Z.Z.Z.Z.Z.Z.Z.Z.Z.Z.Z.Z.Z.Z.Z.Z.Z.Z.Z.Z.Z.Z.Z.Z.Z.Z.Z.Z.Z.Z.Z.Z.Z.Z.Z.Z.Z.Z.Z.Z.Z.Z.Z.Z.Z.Z.Z.Z.Z.Z.Z.Z.Z.Z.Z.Z.Z.Z.Z.Z.Z.Z.Z.Z.Z.Z.Z.Z.Z.Z.Z.Z.Z.Z.Z.F.Z.Z.Z.Z.Z.Z.Z.Z.Z.Z.Z.Z.S.M.M.M.M.M.C.C.M.M.M.M.M.M.M.M.n.H.M.M.M.n.u.T.6X6X=X=X=X-X-X+XOXn.H.w.2.1XqX*X=X=X=X=X6X1XD.w.b.N.w.,.oXAXCXCXkX7.9.{ +.m.1.2.1.q.w.b.n.n.M.H.Z.Z.Z.Z.Z.Z.Z.Z.Z.Z.Z.Z.Z.Z.Z.Z.Z.Z.Z.Z.Z.Z.Z.Z.Z.Z.Z.Z.Z.Z.Z.Z.Z.Z.Z.Z.Z.Z.Z.Z.Z.S.S.M.M.M.M.M.n.b.b.b.b.w.q.q.",
"1.1.q.q.q.b.b.b.b.b.b.b.b.w.b.b.b.b.b.b.b.b.b.b.b.b.b.b.b.b.b.b.b.b.b.b.b.b.b.b.b.b.b.b.b.b.b.b.b.+.b.b.b.b.b.b.q.q.w.b.n.n.n.n.n.n.M.Z.D.#X*X*X*X6X+XU.A.Z.H.S.Z.D.+X6X*X*X=X-X%X-X+X+X1XT.u.A.u.g.VXVXNXcXi.u.p.S.Z.G.A.A.Z.Z.M.M.M.M.M.M.M.M.n.n.n.n.M.n.M.M.n.M.S.S.H.S.Z.Z.Z.Z.Z.Z.Z.Z.Z.Z.Z.Z.Z.Z.Z.Z.Z.Z.Z.Z.Z.Z.Z.Z.Z.Z.Z.Z.Z.Z.Z.Z.Z.Z.Z.Z.Z.Z.Z.Z.Z.Z.Z.Z.Z.Z.Z.Z.Z.Z.Z.Z.Z.Z.Z.Z.Z.Z.Z.Z.Z.Z.Z.Z.Z.Z.Z.Z.Z.Z.Z.Z.Z.Z.Z.Z.Z.Z.Z.Z.Z.Z.Z.Z.Z.Z.Z.Z.Z.Z.Z.Z.Z.Z.Z.Z.Z.Z.Z.Z.Z.Z.Z.Z.Z.Z.Z.Z.Z.Z.Z.Z.Z.Z.Z.Z.Z.Z.Z.Z.Z.Z.Z.Z.Z.Z.Z.Z.Z.Z.Z.Z.Z.Z.Z.Z.Z.Z.Z.Z.Z.Z.Z.Z.Z.Z.Z.Z.Z.Z.Z.Z.Z.Z.Z.Z.Z.Z.Z.Z.Z.Z.Z.Z.Z.Z.Z.Z.Z.Z.Z.Z.Z.Z.Z.Z.Z.Z.Z.Z.Z.Z.Z.Z.Z.Z.Z.Z.Z.Z.Z.Z.Z.Z.Z.Z.Z.Z.Z.Z.Z.Z.Z.Z.Z.Z.Z.Z.Z.Z.Z.Z.Z.Z.Z.Z.Z.Z.Z.Z.Z.Z.Z.Z.Z.Z.Z.Z.Z.Z.Z.Z.Z.Z.Z.Z.Z.Z.Z.Z.Z.Z.Z.Z.Z.Z.Z.Z.Z.Z.S.S.S.S.S.S.S.S.S.S.S.S.S.S.S.S.Z.H.H.S.D.S.Z.OX6X6X=X=X=X=X*X#XJ.n.Z.2.w.1X8X6X=X=X!.=X6X,XD.w.b.b.w.,.+XAXCXCXkX7.1.{ +.N.3.2.1.w.w.n.M.S.H.H.Z.Z.Z.Z.Z.Z.Z.Z.Z.Z.Z.Z.Z.Z.Z.Z.Z.Z.Z.Z.Z.Z.Z.Z.Z.Z.Z.Z.Z.Z.Z.Z.Z.Z.Z.Z.Z.Z.Z.Z.Z.Z.Z.S.M.M.M.M.M.M.M.n.b.w.w.1.",
"q.q.q.q.q.q.b.b.b.b.b.b.b.w.b.b.b.b.b.b.b.b.b.b.b.b.b.b.b.b.b.b.b.b.b.b.b.b.b.b.b.b.b.b.b.b.b.b.b.@.b.b.b.b.b.b.1.q.b.n.M.M.M.M.n.M.n.A.U.+X-X*X*X*X+XU.A.Z.S.Z.Z.D.+X6X*X*X-X-X%X-XoX+X1XT.u.A.u.i.bXCXCXVXh.t.p.S.Z.G.G.A.Z.Z.M.M.S.S.S.S.H.H.S.S.S.S.S.S.S.S.M.S.H.H.H.S.Z.Z.Z.Z.Z.Z.Z.Z.Z.Z.Z.Z.Z.Z.Z.Z.Z.Z.Z.Z.Z.Z.Z.Z.Z.Z.Z.Z.Z.Z.Z.Z.Z.Z.Z.Z.Z.Z.Z.Z.Z.Z.Z.Z.Z.Z.Z.Z.Z.Z.Z.Z.Z.Z.Z.Z.Z.Z.Z.Z.Z.Z.Z.Z.Z.Z.Z.Z.Z.Z.Z.Z.Z.Z.Z.Z.Z.Z.Z.Z.Z.Z.Z.Z.Z.Z.Z.Z.Z.Z.Z.Z.Z.Z.Z.Z.Z.Z.Z.Z.Z.Z.Z.Z.Z.Z.Z.Z.Z.Z.Z.Z.Z.Z.Z.Z.Z.Z.Z.Z.Z.Z.Z.Z.Z.Z.Z.Z.Z.Z.Z.Z.Z.Z.Z.Z.Z.Z.Z.Z.Z.Z.Z.Z.Z.Z.Z.Z.Z.Z.Z.Z.Z.Z.Z.Z.Z.Z.Z.Z.Z.Z.Z.Z.Z.Z.Z.Z.Z.Z.Z.Z.Z.Z.Z.Z.Z.Z.Z.Z.Z.Z.Z.Z.Z.Z.Z.Z.Z.Z.Z.Z.Z.Z.Z.Z.Z.Z.Z.Z.Z.Z.Z.Z.Z.Z.Z.Z.Z.Z.Z.Z.Z.Z.Z.Z.Z.Z.Z.Z.Z.Z.Z.Z.Z.Z.Z.Z.Z.Z.Z.Z.Z.Z.Z.Z.Z.Z.Z.Z.Z.Z.Z.Z.Z.Z.Z.Z.Z.Z.Z.S.Z.S.Z.S.Z.S.Z.M.Z.S.Z.S.Z.Z.Z.H.S.M.S.u.u.T.6X=X=X=X=X-X*X#XJ.n.Z.<.u.1X6X6X=X=X=X=X6X,XD.w.b.b.w.<.*XAXBXCXkX7.1.{ { m.1.2.n.n.M.M.Z.Z.Z.Z.Z.Z.Z.Z.Z.Z.Z.Z.Z.Z.Z.Z.Z.Z.Z.Z.Z.Z.Z.Z.Z.Z.Z.Z.Z.Z.Z.Z.Z.Z.Z.Z.Z.Z.Z.Z.Z.Z.Z.Z.Z.Z.Z.Z.Z.S.S.M.S.S.M.M.n.n.b.w.",
"b.b.b.b.q.q.q.q.q.q.q.q.w.w.w.b.b.b.b.b.b.b.b.b.b.b.b.b.b.b.b.b.b.b.b.b.b.b.b.b.b.b.b.b.b.b.b.b.b.@.@.b.b.b.q.q.1.q.n.M.S.S.S.M.M.M.Z.S.T.#X9X*X*X*X+XU.i.A.Z.Z.Z.D.+X6X*X*X*X%X%X-X+X+X1XT.u.A.u.A.kXAXCXVX-Xt.p.Z.A.G.G.A.Z.S.Z.S.S.S.Z.Z.Z.Z.Z.Z.Z.Z.Z.Z.Z.Z.H.H.H.H.H.S.M.S.Z.Z.Z.Z.Z.Z.Z.Z.Z.Z.Z.Z.Z.Z.Z.Z.Z.Z.Z.Z.Z.Z.Z.Z.Z.Z.Z.Z.Z.Z.Z.Z.Z.Z.Z.Z.Z.Z.Z.Z.Z.Z.Z.Z.Z.Z.Z.Z.Z.Z.Z.Z.Z.Z.Z.Z.Z.Z.Z.Z.Z.Z.Z.Z.Z.Z.Z.Z.Z.Z.Z.Z.Z.Z.Z.Z.Z.Z.Z.Z.Z.Z.Z.Z.Z.Z.Z.Z.Z.Z.Z.Z.Z.Z.Z.Z.Z.Z.Z.Z.Z.Z.Z.Z.Z.Z.Z.Z.Z.Z.Z.Z.Z.Z.Z.Z.Z.Z.Z.Z.Z.Z.Z.Z.Z.Z.Z.Z.Z.Z.Z.Z.Z.Z.Z.Z.Z.Z.Z.Z.Z.Z.Z.Z.Z.Z.Z.Z.Z.Z.Z.Z.Z.Z.Z.Z.Z.Z.Z.Z.Z.Z.Z.Z.Z.Z.Z.Z.Z.Z.Z.Z.Z.Z.Z.Z.Z.Z.Z.Z.Z.Z.Z.Z.Z.Z.Z.Z.Z.Z.Z.Z.Z.Z.Z.Z.Z.Z.Z.Z.Z.Z.Z.Z.Z.Z.Z.Z.Z.Z.Z.Z.Z.Z.Z.Z.Z.Z.Z.Z.Z.Z.Z.Z.Z.Z.Z.Z.Z.Z.Z.Z.Z.Z.Z.Z.Z.Z.Z.Z.Z.Z.Z.Z.Z.Z.Z.Z.Z.Z.Z.Z.Z.Z.Z.Z.Z.Z.Z.Z.Z.Z.Z.Z.Z.H.M.n.S.u.u.T.6X=X=X=X=X-X*X#XOXZ.Z.,.A.1X+X6X=X7X7X=X6X,XD.n.n.b.q.0.-XAXBXCXkX7.1.{ { m.w.Z.Z.S.S.Z.Z.Z.Z.Z.Z.Z.Z.Z.Z.Z.Z.Z.Z.Z.Z.Z.Z.Z.Z.Z.Z.Z.Z.Z.Z.Z.Z.Z.Z.Z.Z.Z.Z.Z.Z.Z.Z.Z.Z.Z.Z.Z.Z.Z.Z.Z.Z.Z.Z.Z.Z.S.S.S.M.M.M.M.M.M.",
"B.B.B.n.b.b.q.q.q.q.q.q.w.w.w.b.b.b.b.b.b.b.b.b.b.b.b.b.b.b.b.b.b.b.b.b.b.b.b.b.b.b.b.b.b.b.b.b.b.@.@.@.b.b.q.q.b.b.n.M.S.S.Z.Z.S.S.Z.S.OX-X-X*X*X*X+XU.i.A.Z.Z.Z.U.R.6X*X*X-X%X%X:X*X+X1XT.u.S.u.i.gXAXNXSXpXt.s.Z.A.G.G.A.Z.S.Z.Z.Z.Z.Z.Z.Z.Z.Z.Z.Z.Z.Z.Z.Z.Z.H.S.S.S.S.S.S.S.Z.Z.Z.Z.Z.Z.Z.Z.Z.Z.Z.Z.Z.Z.Z.Z.Z.Z.Z.Z.Z.Z.Z.Z.Z.Z.Z.Z.Z.Z.Z.Z.Z.Z.Z.Z.Z.Z.Z.Z.Z.Z.Z.Z.Z.Z.Z.Z.Z.Z.Z.Z.Z.Z.Z.Z.Z.Z.Z.Z.Z.Z.Z.Z.Z.Z.Z.Z.Z.Z.Z.Z.Z.Z.Z.Z.Z.Z.Z.Z.Z.Z.Z.Z.Z.Z.Z.Z.Z.Z.Z.Z.Z.Z.Z.Z.Z.Z.Z.Z.Z.Z.Z.Z.Z.Z.Z.Z.Z.Z.Z.Z.Z.Z.Z.Z.Z.Z.Z.Z.Z.Z.Z.Z.Z.Z.Z.Z.Z.Z.Z.Z.Z.Z.Z.Z.Z.Z.Z.Z.Z.Z.Z.Z.Z.Z.Z.Z.Z.Z.Z.Z.Z.Z.Z.Z.Z.Z.Z.Z.Z.Z.Z.Z.Z.Z.Z.Z.Z.Z.Z.Z.Z.Z.Z.Z.Z.Z.Z.Z.Z.Z.Z.Z.Z.Z.Z.Z.Z.Z.Z.Z.Z.Z.Z.Z.Z.Z.Z.Z.Z.Z.Z.Z.Z.Z.Z.Z.Z.Z.Z.Z.Z.Z.Z.Z.Z.Z.Z.Z.Z.Z.Z.Z.Z.Z.Z.Z.Z.Z.Z.Z.Z.Z.Z.Z.Z.Z.Z.Z.Z.Z.Z.Z.Z.Z.Z.Z.Z.Z.Z.Z.Z.Z.Z.Z.Z.Z.Z.Z.Z.Z.Z.Z.Z.J.S.n.D.u.A.+X6X=X=X=X=X-X*X#XOXH.n.:.A.1X+X6X=X7X7X=X6X+XD.n.C.b.n.u.-XAXBXCXVXg.w.q.@.C.n.Z.Z.Z.Z.Z.Z.Z.Z.Z.Z.Z.Z.Z.Z.Z.Z.Z.Z.Z.Z.Z.Z.Z.Z.Z.Z.Z.Z.Z.Z.Z.Z.Z.Z.Z.Z.Z.Z.Z.Z.Z.Z.Z.Z.Z.Z.Z.Z.Z.Z.Z.Z.Z.S.S.S.S.M.M.M.M.M.S.S.M.",
"C.C.M.B.B.n.n.n.w.w.q.q.q.q.w.b.b.b.b.b.b.b.b.b.b.b.b.b.b.b.b.b.b.b.b.b.b.b.b.b.b.b.b.b.b.b.b.b.b.@.@.@.b.b.q.q.n.n.M.S.S.S.S.Z.S.S.Z.A.OX8X-X*X-X*X+XU.i.A.Z.Z.A.D.+X6X*X*X*X%X%X:X*X+X8XT.u.S.u.A.9XAXNXZXnXs.s.Z.A.A.G.A.Z.S.Z.Z.Z.Z.Z.Z.Z.Z.Z.Z.Z.Z.Z.Z.Z.Z.S.M.M.M.M.M.S.S.S.S.Z.Z.Z.Z.Z.Z.Z.Z.Z.Z.Z.Z.Z.Z.Z.Z.Z.Z.Z.Z.Z.Z.Z.Z.Z.Z.Z.Z.Z.Z.Z.Z.Z.Z.Z.Z.Z.Z.Z.Z.Z.Z.Z.Z.Z.Z.Z.Z.Z.Z.Z.Z.Z.Z.Z.Z.Z.Z.Z.Z.Z.Z.Z.Z.Z.Z.Z.Z.Z.Z.Z.Z.Z.Z.Z.Z.Z.Z.Z.Z.Z.Z.Z.Z.Z.Z.S.S.S.S.S.S.S.S.S.S.S.S.S.S.S.Z.Z.Z.Z.Z.Z.Z.Z.Z.Z.Z.Z.Z.Z.Z.Z.Z.Z.Z.Z.Z.Z.Z.Z.Z.Z.Z.Z.Z.Z.Z.Z.Z.Z.Z.Z.Z.Z.Z.Z.Z.Z.Z.Z.Z.Z.Z.Z.Z.Z.Z.Z.Z.Z.Z.Z.Z.Z.Z.Z.Z.Z.Z.Z.Z.Z.Z.Z.Z.Z.Z.Z.Z.Z.Z.Z.Z.Z.Z.Z.Z.Z.Z.Z.Z.Z.Z.Z.Z.Z.Z.Z.Z.Z.Z.Z.Z.Z.Z.Z.Z.Z.Z.Z.Z.Z.Z.Z.Z.Z.Z.Z.Z.Z.Z.Z.Z.Z.Z.Z.Z.Z.Z.Z.Z.Z.Z.Z.Z.Z.Z.Z.Z.Z.Z.Z.Z.Z.Z.Z.Z.Z.Z.Z.Z.Z.Z.Z.Z.Z.Z.Z.Z.Z.Z.Z.Z.Z.Z.Z.Z.Z.H.Z.Z.H.S.A.,X6X=X=X=X=X-X*X#XD.H.2.N A.1X+X6X=X7X7XQ.*X+XD.n.H.n.M.u.9XAXzXCXCXg.w.r.m.`.n.G.Z.Z.Z.Z.Z.G.G.J.Z.Z.Z.Z.Z.Z.Z.Z.Z.Z.Z.Z.Z.Z.Z.Z.Z.S.S.S.S.S.S.Z.Z.Z.Z.Z.Z.Z.Z.Z.Z.Z.Z.Z.Z.Z.Z.Z.Z.Z.Z.Z.Z.H.H.H.M.M.M.S.M.S.S.S.",
"M.C.C.C.M.M.M.M.b.w.q.q.w.q.w.w.b.b.b.b.b.b.b.b.b.b.b.b.b.b.b.b.b.b.b.b.b.b.b.b.b.b.b.b.b.b.b.b.b.q.b.q.b.q.w.w.H.H.S.S.S.S.Z.Z.H.S.Z.A.OX9X9X*X-X*X+XU.A.A.Z.Z.Z.U.+X6X*X*X*X-X*X-X*X+X8XT.u.D.A.A.9XZXNXZXmXy.u.A.Z.A.A.Z.Z.S.Z.Z.Z.Z.Z.Z.G.H.A.Z.Z.Z.Z.Z.Z.Z.S.M.M.M.M.M.S.H.Z.Z.Z.Z.Z.Z.Z.Z.Z.Z.Z.Z.Z.Z.Z.Z.Z.Z.Z.Z.Z.Z.Z.Z.Z.Z.Z.Z.Z.Z.Z.Z.Z.Z.Z.Z.Z.Z.Z.Z.Z.Z.Z.Z.Z.Z.Z.Z.Z.Z.Z.Z.Z.Z.Z.Z.Z.Z.Z.Z.Z.Z.Z.Z.Z.Z.Z.Z.Z.Z.Z.Z.Z.Z.Z.Z.Z.Z.Z.Z.Z.Z.Z.Z.Z.Z.Z.Z.S.S.S.S.S.S.S.S.S.S.S.S.S.S.S.Z.Z.Z.Z.Z.Z.Z.Z.Z.Z.Z.Z.Z.Z.Z.Z.Z.Z.Z.Z.Z.Z.Z.Z.Z.Z.Z.Z.Z.Z.Z.Z.Z.Z.Z.Z.Z.Z.Z.Z.Z.Z.Z.Z.Z.Z.Z.Z.Z.Z.Z.Z.Z.Z.Z.Z.Z.Z.Z.Z.Z.Z.Z.Z.Z.Z.Z.Z.Z.Z.Z.Z.Z.Z.Z.Z.Z.Z.Z.Z.Z.Z.Z.Z.Z.Z.Z.Z.Z.Z.Z.Z.Z.Z.Z.Z.Z.Z.Z.Z.Z.Z.Z.Z.Z.Z.Z.Z.Z.Z.Z.Z.Z.Z.Z.Z.Z.Z.Z.Z.Z.Z.Z.Z.Z.Z.Z.Z.Z.Z.Z.Z.Z.Z.Z.Z.Z.Z.Z.Z.Z.Z.Z.Z.Z.Z.Z.Z.Z.Z.Z.Z.Z.Z.Z.Z.Z.Z.Z.Z.Z.Z.S.n.n.H.S.D.+X*X=X=X=X=X-X*X#XH.Z.1.N A.8XR.9X=X7X7X=X*X+XD.Z.J.M.S.a.9XAXzXCXAXY.u.n.m.H.n.H.Z.Z.Z.Z.Z.Z.Z.Z.Z.Z.Z.Z.Z.Z.Z.Z.Z.Z.Z.Z.Z.Z.Z.Z.Z.S.Z.S.Z.S.Z.Z.Z.Z.Z.Z.Z.Z.Z.Z.Z.Z.Z.Z.Z.Z.Z.Z.Z.Z.Z.Z.Z.H.H.H.Z.S.Z.S.S.S.S.S.",
"S.S.Z.Z.Z.Z.Z.Z.Z.Z.Z.Z.Z.Z.Z.S.b.b.b.q.q.q.1.1.w.q.q.q.q.q.w.q.b.b.b.b.b.b.b.b.b.b.b.b.b.q.b.1.1.1.w.n.n.n.M.Z.Z.Z.Z.Z.Z.Z.Z.Z.Z.H.u.i.+X*X*X*X*X*X+XA.Z.Z.H.Z.Z.D.OX1X6X*X*X*X*X-X*X+X1XOXA.A.D.2.*XZXNXCXZXW.i.u.J.J.M.Z.H.Z.Z.Z.Z.Z.Z.Z.Z.Z.Z.Z.Z.Z.Z.Z.Z.Z.Z.Z.Z.Z.Z.Z.Z.Z.Z.Z.Z.Z.Z.Z.Z.Z.Z.Z.Z.Z.Z.Z.Z.Z.Z.Z.Z.Z.Z.Z.Z.Z.Z.Z.Z.Z.Z.Z.Z.Z.Z.Z.Z.Z.Z.Z.Z.Z.Z.Z.Z.Z.Z.Z.Z.Z.Z.Z.Z.Z.Z.Z.Z.Z.Z.Z.Z.Z.Z.Z.Z.Z.Z.Z.Z.Z.Z.Z.Z.Z.Z.Z.Z.Z.Z.Z.Z.Z.Z.Z.Z.Z.Z.Z.Z.Z.Z.Z.Z.Z.Z.Z.Z.Z.Z.Z.Z.Z.Z.Z.Z.Z.Z.Z.Z.Z.Z.Z.Z.Z.Z.Z.Z.Z.Z.Z.Z.Z.Z.Z.Z.Z.Z.Z.Z.Z.Z.Z.Z.Z.Z.Z.Z.Z.Z.Z.Z.Z.Z.Z.Z.Z.Z.Z.Z.Z.Z.Z.Z.Z.Z.Z.Z.Z.Z.Z.Z.Z.Z.Z.Z.Z.Z.Z.Z.Z.Z.Z.Z.Z.Z.Z.Z.Z.Z.Z.Z.Z.Z.Z.Z.Z.Z.Z.Z.Z.Z.Z.Z.Z.Z.Z.Z.Z.Z.Z.Z.Z.Z.Z.Z.Z.Z.Z.Z.Z.Z.Z.Z.Z.Z.Z.Z.Z.Z.Z.Z.Z.Z.Z.Z.Z.Z.Z.Z.Z.Z.Z.Z.Z.Z.Z.Z.Z.Z.Z.Z.Z.Z.Z.Z.Z.Z.Z.Z.Z.Z.Z.Z.Z.Z.Z.Z.Z.Z.Z.Z.Z.Z.Z.Z.Z.Z.M.S.S.w.w.D.+X*X=X=X=X=X7X6X,X Xb.` ~ OXOX*X*X=X=X=X*X8X+XA.Z.S.M.S.i.cXSXAXNXCX!.i.M.H.H.M.M.Z.Z.Z.Z.Z.Z.Z.Z.Z.Z.Z.Z.Z.Z.Z.Z.Z.Z.Z.Z.Z.Z.Z.Z.Z.Z.Z.Z.Z.Z.Z.Z.Z.Z.Z.Z.Z.Z.Z.Z.Z.Z.Z.Z.Z.Z.Z.Z.Z.Z.Z.Z.Z.Z.Z.Z.Z.Z.Z.Z.Z.Z.Z.Z.",
"Z.Z.Z.Z.Z.Z.Z.Z.Z.Z.Z.Z.Z.Z.Z.Z.n.n.n.b.b.w.w.w.w.q.q.q.w.q.w.q.q.b.b.b.b.b.q.q.1.` 1.q.b.b.b.w.n.n.n.n.Z.Z.Z.Z.Z.Z.Z.Z.Z.Z.Z.Z.Z.H.u.i.+X*X*X*X*X6X+XA.Z.Z.H.M.Z.D.OX1X6X*X*X*X*X6X*X+X1XOXA.A.H.6.*XZXNXCXCX&Xg.i.H.J.n.M.H.Z.Z.Z.Z.Z.Z.Z.Z.Z.Z.Z.Z.Z.Z.Z.Z.Z.Z.Z.Z.Z.Z.Z.Z.Z.Z.Z.Z.Z.Z.Z.Z.Z.Z.Z.Z.Z.Z.Z.Z.Z.Z.Z.Z.Z.Z.Z.Z.Z.Z.Z.Z.Z.Z.Z.Z.Z.Z.Z.Z.Z.Z.Z.Z.Z.Z.Z.Z.Z.Z.Z.Z.Z.Z.Z.Z.Z.Z.Z.Z.Z.Z.Z.Z.Z.Z.Z.Z.Z.Z.Z.Z.Z.Z.Z.Z.Z.Z.Z.Z.Z.Z.Z.Z.Z.Z.Z.Z.Z.Z.Z.Z.Z.Z.Z.Z.Z.Z.Z.Z.Z.Z.Z.Z.Z.Z.Z.Z.Z.Z.Z.Z.Z.Z.Z.Z.Z.Z.Z.Z.Z.Z.Z.Z.Z.Z.Z.Z.Z.Z.Z.Z.Z.Z.Z.Z.Z.Z.Z.Z.Z.Z.Z.Z.Z.Z.Z.Z.Z.Z.Z.Z.Z.Z.Z.Z.Z.Z.Z.Z.Z.Z.Z.Z.Z.Z.Z.Z.Z.Z.Z.Z.Z.Z.Z.Z.Z.Z.Z.Z.Z.Z.Z.Z.Z.Z.Z.Z.Z.Z.Z.Z.Z.Z.Z.Z.Z.Z.Z.Z.Z.Z.Z.Z.Z.Z.Z.Z.Z.Z.Z.Z.Z.Z.Z.Z.Z.Z.Z.Z.Z.Z.Z.Z.Z.Z.Z.Z.Z.Z.Z.Z.Z.Z.Z.Z.Z.Z.Z.Z.Z.Z.Z.Z.Z.Z.Z.Z.Z.Z.Z.Z.Z.Z.Z.Z.Z.Z.Z.Z.Z.Z.Z.Z.Z.Z.Z.Z.Z.F.M.M.M.n.w.D.+X*X=X!.=X7X7X6X,X|.+.) ~ >X+X*X=X=X=X=X*X8X+XA.Z.Z.S.S.i.NXBXAXNXCX!.i.u.D.A.M.M.Z.Z.Z.Z.Z.Z.Z.Z.Z.Z.Z.Z.Z.Z.Z.Z.Z.Z.Z.Z.Z.Z.Z.Z.Z.Z.Z.Z.Z.Z.Z.Z.Z.Z.Z.Z.Z.Z.Z.Z.Z.Z.Z.Z.Z.Z.Z.Z.Z.Z.Z.Z.Z.Z.Z.Z.Z.Z.Z.Z.Z.Z.Z.Z.",
"Z.Z.Z.Z.Z.Z.Z.Z.Z.Z.Z.Z.Z.Z.Z.Z.M.M.M.M.M.n.n.n.n.b.n.b.n.b.n.b.w.q.w.w.w.w.w.w.w.q.w.b.n.n.n.M.Z.Z.Z.Z.Z.Z.Z.Z.Z.Z.Z.Z.Z.Z.Z.Z.Z.H.u.A.+X9X*X*X*X6X+XA.Z.Z.H.M.Z.D.+X1X6X*X*X*X*X6X*X+X1XOXA.A.Z.u.+XZXNXCXCXhXg.t.H.H.M.M.H.Z.Z.Z.Z.Z.Z.Z.Z.Z.Z.Z.Z.Z.Z.Z.Z.Z.Z.Z.Z.Z.Z.Z.Z.Z.Z.Z.Z.Z.Z.Z.Z.Z.Z.Z.Z.Z.Z.Z.Z.Z.Z.Z.Z.Z.Z.Z.Z.Z.Z.Z.Z.Z.Z.Z.Z.Z.Z.Z.Z.Z.Z.Z.Z.Z.Z.Z.Z.Z.Z.Z.Z.Z.Z.Z.Z.Z.Z.Z.Z.Z.Z.Z.Z.Z.Z.Z.Z.Z.Z.Z.Z.Z.Z.Z.Z.Z.Z.Z.Z.Z.Z.Z.Z.Z.Z.Z.Z.Z.Z.Z.Z.Z.Z.Z.Z.Z.Z.Z.Z.Z.Z.Z.Z.Z.Z.Z.Z.Z.Z.Z.Z.Z.Z.Z.Z.Z.Z.Z.Z.Z.Z.Z.Z.Z.Z.Z.Z.Z.Z.Z.Z.Z.Z.Z.Z.Z.Z.Z.Z.Z.Z.Z.Z.Z.Z.Z.Z.Z.Z.Z.Z.Z.Z.Z.Z.Z.Z.Z.Z.Z.Z.Z.Z.Z.Z.Z.Z.Z.Z.Z.Z.Z.Z.Z.Z.Z.Z.Z.Z.Z.Z.Z.Z.Z.Z.Z.Z.Z.Z.Z.Z.Z.Z.Z.Z.Z.Z.Z.Z.Z.Z.Z.Z.Z.Z.Z.Z.Z.Z.Z.Z.Z.Z.Z.Z.Z.Z.Z.Z.Z.Z.Z.Z.Z.Z.Z.Z.Z.Z.Z.Z.Z.Z.Z.Z.Z.Z.Z.Z.Z.Z.Z.Z.Z.Z.Z.Z.Z.Z.Z.Z.Z.Z.Z.Z.Z.Z.Z.Z.Z.Z.Z.Z.Z.Z.Z.Z.Z.F.M.M.M.n.u.D.+X*X=X=X=X7X6X6X,XH.` ! L >X,X9X=X=X=X=X*X8X+XA.Z.Z.Z.S.i.NXBXSXNXCX!.i.u.D.A.M.M.Z.Z.Z.Z.Z.Z.Z.Z.Z.Z.Z.Z.Z.Z.Z.Z.Z.Z.Z.Z.Z.Z.Z.Z.Z.Z.Z.Z.Z.Z.Z.Z.Z.Z.Z.Z.Z.Z.Z.Z.Z.Z.Z.Z.Z.Z.Z.Z.Z.Z.Z.Z.Z.Z.Z.Z.Z.Z.Z.Z.Z.Z.Z.Z.",
"Z.Z.Z.Z.Z.Z.Z.Z.Z.Z.Z.Z.Z.Z.Z.Z.H.S.S.S.S.M.M.M.M.M.S.M.M.M.S.M.M.n.M.n.M.n.M.n.M.n.M.M.M.C.H.H.S.Z.Z.Z.Z.Z.Z.Z.Z.Z.Z.Z.Z.Z.Z.Z.Z.H.A.A.+X9X*X*X*X6X+XA.Z.Z.H.M.Z.D.+X1X6X6X*X*X*X6X*X+X1XOXA.A.Z.u.+XbXVXCXCXbXg.t.Z.H.M.M.H.n.Z.Z.Z.Z.Z.Z.Z.Z.Z.Z.Z.Z.Z.Z.Z.Z.Z.Z.Z.Z.Z.Z.Z.Z.Z.Z.Z.Z.Z.Z.Z.Z.Z.Z.Z.Z.Z.Z.Z.Z.Z.Z.Z.Z.Z.Z.Z.Z.Z.Z.Z.Z.Z.Z.Z.Z.Z.Z.Z.Z.Z.Z.Z.Z.Z.Z.Z.Z.Z.Z.Z.Z.Z.Z.Z.Z.Z.Z.Z.Z.Z.Z.Z.Z.Z.Z.Z.Z.Z.Z.Z.Z.Z.Z.Z.Z.Z.Z.Z.Z.Z.Z.Z.Z.Z.Z.Z.Z.Z.Z.Z.Z.Z.Z.Z.Z.Z.Z.Z.Z.Z.Z.Z.Z.Z.Z.Z.Z.Z.Z.Z.Z.Z.Z.Z.Z.Z.Z.Z.Z.Z.Z.Z.Z.Z.Z.Z.Z.Z.Z.Z.Z.Z.Z.Z.Z.Z.Z.Z.Z.Z.Z.Z.Z.Z.Z.Z.Z.Z.Z.Z.Z.Z.Z.Z.Z.Z.Z.Z.Z.Z.Z.Z.Z.Z.Z.Z.Z.Z.Z.Z.Z.Z.Z.Z.Z.Z.Z.Z.Z.Z.Z.Z.Z.Z.Z.Z.Z.Z.Z.Z.Z.Z.Z.Z.Z.Z.Z.Z.Z.Z.Z.Z.Z.Z.Z.Z.Z.Z.Z.Z.Z.Z.Z.Z.Z.Z.Z.Z.Z.Z.Z.Z.Z.Z.Z.Z.Z.Z.Z.Z.Z.Z.Z.Z.Z.Z.Z.Z.Z.Z.Z.Z.Z.Z.Z.Z.Z.Z.Z.Z.Z.Z.Z.Z.Z.Z.Z.Z.Z.Z.Z.Z.Z.Z.Z.Z.Z.F.Z.S.S.n.u.D.,X*X=X=X=X7X6X6X,XC.) ! L <X1X9X=X=X=X=X*X8X+XA.Z.H.Z.S.g.NXSXSXNXCXdXi.u.D.Z.M.M.Z.Z.Z.Z.Z.Z.Z.Z.Z.Z.Z.Z.Z.Z.Z.Z.Z.Z.Z.Z.Z.Z.Z.Z.Z.Z.Z.Z.Z.Z.Z.Z.Z.Z.Z.Z.Z.Z.Z.Z.Z.Z.Z.Z.Z.Z.Z.Z.Z.Z.Z.Z.Z.Z.Z.Z.Z.Z.Z.Z.Z.Z.Z.Z.",
"Z.Z.Z.Z.Z.Z.Z.Z.Z.Z.Z.Z.Z.Z.Z.Z.S.S.S.S.Z.S.Z.M.S.S.S.S.S.S.S.S.H.H.H.H.H.H.H.H.H.H.H.C.H.C.H.H.S.Z.Z.Z.Z.Z.Z.Z.Z.Z.Z.Z.Z.Z.Z.Z.Z.H.Z.A.+X9X*X*X*X6X+XA.Z.Z.H.M.Z.D.+X8X6X*X*X*X*X6X*X+X1XOXA.A.Z.u.R.cXCXCXCXVXW.i.Z.H.M.M.H.Z.Z.Z.Z.Z.Z.Z.Z.Z.Z.Z.Z.Z.Z.Z.Z.Z.Z.Z.Z.Z.Z.Z.Z.Z.Z.Z.Z.Z.Z.Z.Z.Z.Z.Z.Z.Z.Z.Z.Z.Z.Z.Z.Z.Z.Z.Z.Z.Z.Z.Z.Z.Z.Z.Z.Z.Z.Z.Z.Z.Z.Z.Z.Z.Z.Z.Z.Z.Z.Z.Z.Z.Z.Z.Z.Z.Z.Z.Z.Z.Z.Z.Z.Z.Z.Z.Z.Z.Z.Z.Z.Z.Z.Z.Z.Z.Z.Z.Z.Z.Z.Z.Z.Z.Z.Z.Z.Z.Z.Z.Z.Z.Z.Z.Z.Z.Z.Z.Z.Z.Z.Z.Z.Z.Z.Z.Z.Z.Z.Z.Z.Z.Z.Z.Z.Z.Z.Z.Z.Z.Z.Z.Z.Z.Z.Z.Z.Z.Z.Z.Z.Z.Z.Z.Z.Z.Z.Z.Z.Z.Z.Z.Z.Z.Z.Z.Z.Z.Z.Z.Z.Z.Z.Z.Z.Z.Z.Z.Z.Z.Z.Z.Z.Z.Z.Z.Z.Z.Z.Z.Z.Z.Z.Z.Z.Z.Z.Z.Z.Z.Z.Z.Z.Z.Z.Z.Z.Z.Z.Z.Z.Z.Z.Z.Z.Z.Z.Z.Z.Z.Z.Z.Z.Z.Z.Z.Z.Z.Z.Z.Z.Z.Z.Z.Z.Z.Z.Z.Z.Z.Z.Z.Z.Z.Z.Z.Z.Z.Z.Z.Z.Z.Z.Z.Z.Z.Z.Z.Z.Z.Z.Z.Z.Z.Z.Z.Z.Z.Z.Z.Z.Z.Z.Z.Z.Z.Z.Z.Z.Z.Z.Z.Z.Z.Z.Z.Z.Z.Z.F.Z.M.S.S.p.D.1X*X=X=X=X7X6X6X,XC.) ! L 2X1X*XQ.=X=X=X*X8X+XA.Z.H.Z.S.h.CXBXSXNXCXfXi.u.A.Z.M.M.Z.Z.Z.Z.Z.Z.Z.Z.Z.Z.Z.Z.Z.Z.Z.Z.Z.Z.Z.Z.Z.Z.Z.Z.Z.Z.Z.Z.Z.Z.Z.Z.Z.Z.Z.Z.Z.Z.Z.Z.Z.Z.Z.Z.Z.Z.Z.Z.Z.Z.Z.Z.Z.Z.Z.Z.Z.Z.Z.Z.Z.Z.Z.Z.",
"Z.Z.Z.Z.Z.Z.Z.Z.Z.Z.Z.Z.Z.Z.Z.Z.Z.Z.Z.Z.Z.Z.Z.Z.Z.Z.Z.Z.Z.Z.Z.Z.H.H.H.H.H.H.H.H.H.H.Z.M.Z.M.Z.Z.Z.Z.Z.Z.Z.Z.Z.Z.Z.Z.Z.Z.Z.Z.Z.Z.Z.H.A.A.6X9X*X*X*X6X+XA.Z.Z.H.M.Z.D.+X8X6X*X*X*X*X6X*X+X1XOXA.Z.S.Z.U.gXAXCXCXAX=Xi.u.H.S.S.H.Z.Z.Z.Z.Z.Z.Z.Z.Z.Z.Z.Z.Z.Z.Z.Z.Z.Z.Z.Z.Z.Z.Z.Z.Z.Z.Z.Z.Z.Z.Z.Z.Z.Z.Z.Z.Z.Z.Z.Z.Z.Z.Z.Z.Z.Z.Z.Z.Z.Z.Z.Z.Z.Z.Z.Z.Z.Z.Z.Z.Z.Z.Z.Z.Z.Z.Z.Z.Z.Z.Z.Z.Z.Z.Z.Z.Z.Z.Z.Z.Z.Z.Z.Z.Z.Z.Z.Z.Z.Z.Z.Z.Z.Z.Z.Z.Z.Z.Z.Z.Z.Z.Z.Z.Z.Z.Z.Z.Z.Z.Z.Z.Z.Z.Z.Z.Z.Z.Z.Z.Z.Z.Z.Z.Z.Z.Z.Z.Z.Z.Z.Z.Z.Z.Z.Z.Z.Z.Z.Z.Z.Z.Z.Z.Z.Z.Z.Z.Z.Z.Z.Z.Z.Z.Z.Z.Z.Z.Z.Z.Z.Z.Z.Z.Z.Z.Z.Z.Z.Z.Z.Z.Z.Z.Z.Z.Z.Z.Z.Z.Z.Z.Z.Z.Z.Z.Z.Z.Z.Z.Z.Z.Z.Z.Z.Z.Z.Z.Z.Z.Z.Z.Z.Z.Z.Z.Z.Z.Z.Z.Z.Z.Z.Z.Z.Z.Z.Z.Z.Z.Z.Z.Z.Z.Z.Z.Z.Z.Z.Z.Z.Z.Z.Z.Z.Z.Z.Z.Z.Z.Z.Z.Z.Z.Z.Z.Z.Z.Z.Z.Z.Z.Z.Z.Z.Z.Z.Z.Z.Z.Z.Z.Z.Z.Z.Z.Z.Z.Z.Z.Z.Z.Z.Z.Z.Z.Z.Z.Z.Z.Z.Z.Z.Z.Z.Z.Z.Z.Z.Z.Z.Z.S.S.S.OX8X*X=X=X=X7X6X6X2Xn.) ! ~ 2X,X*XQ.=X=X=X*X8X+XA.Z.H.Z.S.E.CXBXSXVXFXfXA.u.A.A.S.M.Z.Z.Z.Z.Z.Z.Z.Z.Z.Z.Z.Z.Z.Z.Z.Z.Z.Z.Z.Z.Z.Z.Z.Z.Z.Z.Z.Z.Z.Z.Z.Z.Z.Z.Z.Z.Z.Z.Z.Z.Z.Z.Z.Z.Z.Z.Z.Z.Z.Z.Z.Z.Z.Z.Z.Z.Z.Z.Z.Z.Z.Z.Z.Z.",
"Z.Z.Z.Z.Z.Z.Z.Z.Z.Z.Z.Z.Z.Z.Z.Z.Z.Z.Z.Z.Z.Z.Z.Z.Z.Z.Z.Z.Z.Z.Z.Z.Z.Z.Z.Z.Z.Z.Z.Z.Z.Z.Z.Z.Z.Z.Z.Z.Z.Z.Z.Z.Z.Z.Z.Z.Z.Z.Z.Z.Z.Z.Z.Z.Z.S.A.A.6X9X-X*X*X*X+XA.Z.Z.H.M.Z.D.+X,X6X*X*X*X*X6X*X+X1XOXA.Z.H.Z.i.;XAXCXBXAXgXU.u.S.S.S.H.Z.Z.Z.Z.Z.Z.Z.Z.Z.Z.Z.Z.Z.Z.Z.Z.Z.Z.Z.Z.Z.Z.Z.Z.Z.Z.Z.Z.Z.Z.Z.Z.Z.Z.Z.Z.Z.Z.Z.Z.Z.Z.Z.Z.Z.Z.Z.Z.Z.Z.Z.Z.Z.Z.Z.Z.Z.Z.Z.Z.Z.Z.Z.Z.Z.Z.Z.Z.Z.Z.Z.Z.Z.Z.Z.Z.Z.Z.Z.Z.Z.Z.Z.Z.Z.Z.Z.Z.Z.Z.Z.Z.Z.Z.Z.Z.Z.Z.Z.Z.Z.Z.Z.Z.Z.Z.Z.Z.Z.Z.Z.Z.Z.Z.Z.Z.Z.Z.Z.Z.Z.Z.Z.Z.Z.Z.Z.Z.Z.Z.Z.Z.Z.Z.Z.Z.Z.Z.Z.Z.Z.Z.Z.Z.Z.Z.Z.Z.Z.Z.Z.Z.Z.Z.Z.Z.Z.Z.Z.Z.Z.Z.Z.Z.Z.Z.Z.Z.Z.Z.Z.Z.Z.Z.Z.Z.Z.Z.Z.Z.Z.Z.Z.Z.Z.Z.Z.Z.Z.Z.Z.Z.Z.Z.Z.Z.Z.Z.Z.Z.Z.Z.Z.Z.Z.Z.Z.Z.Z.Z.Z.Z.Z.Z.Z.Z.Z.Z.Z.Z.Z.Z.Z.Z.Z.Z.Z.Z.Z.Z.Z.Z.Z.Z.Z.Z.Z.Z.Z.Z.Z.Z.Z.Z.Z.Z.Z.Z.Z.Z.Z.Z.Z.Z.Z.Z.Z.Z.Z.Z.Z.Z.Z.Z.Z.Z.Z.Z.Z.Z.Z.Z.Z.Z.Z.Z.Z.Z.Z.Z.Z.Z.Z.Z.Z.Z.Z.Z.Z.Z.Z.Z.S.S.Z.OX8X*X=X=X=X6X*X6X2Xb.) ! ~ <X,X*X=X%X=X=X*X8X+XA.Z.H.n.D.Y.CXBXNXNXFXfXi.u.A.A.S.S.Z.Z.Z.Z.Z.Z.Z.Z.Z.Z.Z.Z.Z.Z.Z.Z.Z.Z.Z.Z.Z.Z.Z.Z.Z.Z.Z.Z.Z.Z.Z.Z.Z.Z.Z.Z.Z.Z.Z.Z.Z.Z.Z.Z.Z.Z.Z.Z.Z.Z.Z.Z.Z.Z.Z.Z.Z.Z.Z.Z.Z.Z.Z.Z.",
"Z.Z.Z.Z.Z.Z.Z.Z.Z.Z.Z.Z.Z.Z.Z.Z.Z.Z.Z.Z.Z.Z.Z.Z.Z.Z.Z.Z.Z.Z.Z.Z.Z.Z.Z.Z.Z.Z.Z.Z.Z.Z.Z.Z.H.H.H.H.Z.Z.Z.Z.Z.H.H.H.Z.Z.Z.Z.Z.Z.Z.Z.Z.S.A.A.6X9X-X*X*X*X+XA.Z.Z.H.M.Z.D.+X,X6X*X*X*X*X6X*X+X1XOXA.Z.H.Z.i.=XAXGXzXCXcXY.u.H.Z.Z.F.Z.Z.Z.Z.Z.Z.Z.Z.Z.Z.Z.Z.Z.Z.Z.Z.Z.Z.Z.Z.Z.Z.Z.Z.Z.Z.Z.Z.Z.Z.Z.Z.Z.Z.Z.Z.Z.Z.Z.Z.Z.Z.Z.Z.Z.Z.Z.Z.Z.Z.Z.Z.Z.Z.Z.Z.Z.Z.Z.Z.Z.Z.Z.Z.Z.Z.Z.Z.Z.Z.Z.Z.Z.Z.Z.Z.Z.Z.Z.Z.Z.Z.Z.Z.Z.Z.Z.Z.Z.Z.Z.Z.Z.Z.Z.Z.Z.Z.Z.Z.Z.Z.Z.Z.Z.Z.Z.Z.Z.Z.Z.Z.Z.Z.Z.Z.Z.Z.Z.Z.Z.Z.Z.Z.Z.Z.Z.Z.Z.Z.Z.Z.Z.Z.Z.Z.Z.Z.Z.Z.Z.Z.Z.Z.Z.Z.Z.Z.Z.Z.Z.Z.Z.Z.Z.Z.Z.Z.Z.Z.Z.Z.Z.Z.Z.Z.Z.Z.Z.Z.Z.Z.Z.Z.Z.Z.Z.Z.Z.Z.Z.Z.Z.Z.Z.Z.Z.Z.Z.Z.Z.Z.Z.Z.Z.Z.Z.Z.Z.Z.Z.Z.Z.Z.Z.Z.Z.Z.Z.Z.Z.Z.Z.Z.Z.Z.Z.Z.Z.Z.Z.Z.Z.Z.Z.Z.Z.Z.Z.Z.Z.Z.Z.Z.Z.Z.Z.Z.Z.Z.Z.Z.Z.Z.Z.Z.Z.Z.Z.Z.Z.Z.Z.Z.Z.Z.Z.Z.Z.Z.Z.Z.Z.Z.Z.Z.Z.Z.Z.Z.Z.Z.Z.Z.Z.Z.Z.Z.Z.Z.Z.Z.Z.Z.Z.Z.Z.Z.Z.F.Z.Z.S.S.S.OX8X*X=X=X=X6X*X6X2X` ! ! ~ <X,X9X=X%X=X=X*X8X+XA.Z.H.n.D.Y.AXBXNXNXFXfXA.u.A.A.S.S.Z.Z.Z.Z.Z.Z.Z.Z.Z.Z.Z.Z.Z.Z.Z.Z.Z.Z.Z.Z.Z.Z.Z.Z.Z.Z.Z.Z.Z.Z.Z.Z.Z.Z.Z.Z.Z.Z.Z.Z.Z.Z.Z.Z.Z.Z.Z.Z.Z.Z.Z.Z.Z.Z.Z.Z.Z.Z.Z.Z.Z.Z.Z.Z.",
"Z.Z.Z.Z.Z.Z.Z.Z.Z.Z.Z.Z.Z.Z.Z.Z.Z.Z.Z.Z.Z.Z.Z.Z.Z.Z.Z.Z.Z.Z.Z.Z.Z.Z.Z.Z.Z.Z.Z.Z.Z.Z.Z.Z.Z.Z.Z.Z.Z.Z.Z.Z.Z.Z.Z.Z.Z.Z.Z.Z.Z.Z.Z.Z.Z.u.A.T.+X*X*X*X*X9X+Xi.Z.H.H.H.Z.D.OX,X8X6X*X*X*X*X8X+X,X#X6.Z.S.w.i.=XAXCXDXAXbX*Xu.Z.H.Z.2.H.Z.Z.Z.Z.Z.Z.Z.Z.Z.Z.Z.Z.Z.Z.Z.Z.Z.Z.Z.Z.Z.Z.Z.Z.Z.Z.Z.Z.Z.Z.Z.Z.Z.Z.Z.Z.Z.Z.Z.Z.Z.Z.Z.Z.Z.Z.Z.Z.Z.Z.Z.Z.Z.Z.Z.Z.Z.Z.Z.Z.Z.Z.Z.Z.Z.Z.Z.Z.Z.Z.Z.Z.Z.Z.Z.Z.Z.Z.Z.Z.Z.Z.Z.Z.Z.Z.Z.Z.Z.Z.Z.Z.Z.Z.Z.Z.Z.Z.Z.Z.Z.Z.Z.Z.Z.Z.Z.Z.Z.Z.Z.Z.Z.Z.Z.Z.Z.Z.Z.Z.Z.Z.Z.Z.Z.Z.Z.Z.Z.Z.Z.Z.Z.Z.Z.Z.Z.Z.Z.Z.Z.Z.Z.Z.Z.Z.Z.Z.Z.Z.Z.Z.Z.Z.Z.Z.Z.Z.Z.Z.Z.Z.Z.Z.Z.Z.Z.Z.Z.Z.Z.Z.Z.Z.Z.Z.Z.Z.Z.Z.Z.Z.Z.Z.Z.Z.Z.Z.Z.Z.Z.Z.Z.Z.Z.Z.Z.Z.Z.Z.Z.Z.Z.Z.Z.Z.Z.Z.Z.Z.Z.Z.Z.Z.Z.Z.Z.Z.Z.Z.Z.Z.Z.Z.Z.Z.Z.Z.Z.Z.Z.Z.Z.Z.Z.Z.Z.Z.Z.Z.Z.Z.Z.Z.Z.Z.Z.Z.Z.Z.Z.Z.Z.Z.Z.Z.Z.Z.Z.Z.Z.Z.Z.Z.Z.Z.Z.Z.Z.Z.Z.Z.Z.Z.Z.Z.Z.Z.Z.Z.Z.Z.Z.Z.Z.Z.Z.Z.F.Z.Z.Z.Z.u.D.+X*XQ.=X7XQ.6X8XOX) ^ ! 2.>X,X*X=X=X=X=X*X8XOXA.J.Z.H.t.*XCXBXNXNXCXhX7.t.G.Z.S.S.Z.Z.Z.Z.Z.Z.Z.Z.Z.Z.Z.Z.Z.Z.Z.Z.Z.Z.Z.Z.Z.Z.Z.Z.Z.Z.Z.Z.Z.Z.Z.Z.Z.Z.Z.Z.Z.Z.Z.Z.Z.Z.Z.Z.Z.Z.Z.Z.Z.Z.Z.Z.Z.Z.Z.Z.Z.Z.Z.Z.Z.Z.Z.Z.",
"Z.Z.Z.Z.Z.Z.Z.Z.Z.Z.Z.Z.Z.Z.Z.Z.Z.Z.Z.Z.Z.Z.Z.Z.Z.Z.Z.Z.Z.Z.Z.Z.Z.Z.Z.Z.Z.Z.Z.Z.Z.Z.Z.Z.Z.Z.Z.Z.Z.Z.Z.Z.Z.Z.Z.Z.Z.Z.Z.Z.Z.Z.Z.Z.Z.u.A.T.+X*X*X*X*X9XR.i.A.H.F.H.A.D.OX,X8X6X=X=X*X*X8X+X,X,X6.Z.S.w.t.;XAXHXDXBXVX=Xi.u.J.Z.z.H.Z.Z.Z.Z.Z.Z.Z.Z.Z.Z.Z.Z.Z.Z.Z.Z.Z.Z.Z.Z.Z.Z.Z.Z.Z.Z.Z.Z.Z.Z.Z.Z.Z.Z.Z.Z.Z.Z.Z.Z.Z.Z.Z.Z.Z.Z.Z.Z.Z.Z.Z.Z.Z.Z.Z.Z.Z.Z.Z.Z.Z.Z.Z.Z.Z.Z.Z.Z.Z.Z.Z.Z.Z.Z.Z.Z.Z.Z.Z.Z.Z.Z.Z.Z.Z.Z.Z.Z.Z.Z.Z.Z.Z.Z.Z.Z.Z.Z.Z.Z.Z.Z.Z.Z.Z.Z.Z.Z.Z.Z.Z.Z.Z.Z.Z.Z.Z.Z.Z.Z.Z.Z.Z.Z.Z.Z.Z.Z.Z.Z.Z.Z.Z.Z.Z.Z.Z.Z.Z.Z.Z.Z.Z.Z.Z.Z.Z.Z.Z.Z.Z.Z.Z.Z.Z.Z.Z.Z.Z.Z.Z.Z.Z.Z.Z.Z.Z.Z.Z.Z.Z.Z.Z.Z.Z.Z.Z.Z.Z.Z.Z.Z.Z.Z.Z.Z.Z.Z.Z.Z.Z.Z.Z.Z.Z.Z.Z.Z.Z.Z.Z.Z.Z.Z.Z.Z.Z.Z.Z.Z.Z.Z.Z.Z.Z.Z.Z.Z.Z.Z.Z.Z.Z.Z.Z.Z.Z.Z.Z.Z.Z.Z.Z.Z.Z.Z.Z.Z.Z.Z.Z.Z.Z.Z.Z.Z.Z.Z.Z.Z.Z.Z.Z.Z.Z.Z.Z.Z.Z.Z.Z.Z.Z.Z.Z.Z.Z.Z.Z.Z.Z.Z.Z.Z.Z.Z.Z.Z.Z.Z.Z.Z.Z.Z.Z.Z.Z.Z.G.Z.Z.Z.Z.Z.U.+X*X=X7X7X*X6X8XOX) ^ ! w.>X8X*X=X=X=X=X*X8XOXA.D.Z.H.t.*XCXBXNXCXCXhX7.t.G.Z.S.S.Z.Z.Z.Z.Z.Z.Z.Z.Z.Z.Z.Z.Z.Z.Z.Z.Z.Z.Z.Z.Z.Z.Z.Z.Z.Z.Z.Z.Z.Z.Z.Z.Z.Z.Z.Z.Z.Z.Z.Z.Z.Z.Z.Z.Z.Z.Z.Z.Z.Z.Z.Z.Z.Z.Z.Z.Z.Z.Z.Z.Z.Z.Z.Z.",
"Z.Z.Z.Z.Z.Z.Z.Z.Z.Z.Z.Z.Z.Z.Z.Z.Z.Z.Z.Z.Z.Z.Z.Z.Z.Z.Z.Z.Z.Z.Z.Z.A.A.Z.A.Z.Z.Z.Z.Z.Z.Z.Z.A.A.Z.Z.Z.Z.Z.Z.Z.Z.Z.Z.Z.Z.Z.Z.Z.Z.Z.Z.Z.u.A.T.+X*X*X*X*X9XR.i.A.H.B.H.A.D.OX,X8X6X*X=X*X*X9X+X1X,X6.Z.C.n.t.-XAXHXDXBXSX9XA.u.J.H.Z.J.Z.Z.Z.Z.Z.Z.Z.Z.Z.Z.Z.Z.Z.Z.Z.Z.Z.Z.Z.Z.Z.Z.Z.Z.Z.Z.Z.Z.Z.Z.Z.Z.Z.Z.Z.Z.Z.Z.Z.Z.Z.Z.Z.Z.Z.Z.Z.Z.Z.Z.Z.Z.Z.Z.Z.Z.Z.Z.Z.Z.Z.Z.Z.Z.Z.Z.Z.Z.Z.Z.Z.Z.Z.Z.Z.Z.Z.Z.Z.Z.Z.Z.Z.Z.Z.Z.Z.Z.Z.Z.Z.Z.Z.Z.Z.Z.Z.Z.Z.Z.Z.Z.Z.Z.Z.Z.Z.Z.Z.Z.Z.Z.Z.Z.Z.Z.Z.Z.Z.Z.Z.Z.Z.Z.Z.Z.Z.Z.Z.Z.Z.Z.Z.Z.Z.Z.Z.Z.Z.Z.Z.Z.Z.Z.Z.Z.Z.Z.Z.Z.Z.Z.Z.Z.Z.Z.Z.Z.Z.Z.Z.Z.Z.Z.Z.Z.Z.Z.Z.Z.Z.Z.Z.Z.Z.Z.Z.Z.Z.Z.Z.Z.Z.Z.Z.Z.Z.Z.Z.Z.Z.Z.Z.Z.Z.Z.Z.Z.Z.Z.Z.Z.Z.Z.Z.Z.Z.Z.Z.Z.Z.Z.Z.Z.Z.Z.Z.Z.Z.Z.Z.Z.Z.Z.Z.Z.Z.Z.Z.Z.Z.Z.Z.Z.Z.Z.Z.Z.Z.Z.Z.Z.Z.Z.Z.Z.Z.Z.Z.Z.Z.Z.Z.Z.Z.Z.Z.Z.Z.Z.Z.Z.Z.Z.Z.Z.Z.Z.Z.Z.Z.Z.Z.Z.Z.Z.Z.Z.Z.Z.Z.Z.Z.Z.Z.Z.Z.Z.G.Z.Z.Z.Z.u.U.+X*X=X=X7X*X6X8XJ.) ^ ^ w.>X8X*X=X=X=X=X*X8X+XA.D.Z.H.t.*XCXBXNXCXCXkXi.u.A.Z.S.S.Z.Z.Z.Z.Z.Z.Z.Z.Z.Z.Z.Z.Z.Z.Z.Z.Z.Z.Z.Z.Z.Z.Z.Z.Z.Z.Z.Z.Z.Z.Z.Z.Z.Z.Z.Z.Z.Z.Z.Z.Z.Z.Z.Z.Z.Z.Z.Z.Z.Z.Z.Z.Z.Z.Z.Z.Z.Z.Z.Z.Z.Z.Z.Z.",
"Z.Z.Z.Z.Z.Z.Z.Z.Z.Z.Z.Z.Z.Z.Z.Z.Z.Z.Z.Z.Z.Z.Z.Z.Z.Z.Z.Z.Z.Z.Z.Z.A.Z.Z.Z.Z.Z.Z.Z.Z.Z.Z.Z.Z.Z.Z.Z.Z.Z.Z.Z.Z.Z.Z.Z.Z.Z.Z.Z.Z.Z.Z.Z.Z.u.A.T.6X*X*X*X*X9XR.u.Z.H.B.S.Z.D.OX,X8X6X*X*X*X*X6X+X1X,X6.w.C.n.t.%XCXHXDXBXAXxXE.t.H.H.Z.H.Z.Z.Z.Z.Z.Z.Z.Z.Z.Z.Z.Z.Z.Z.Z.Z.Z.Z.Z.Z.Z.Z.Z.Z.Z.Z.Z.Z.Z.Z.Z.Z.Z.Z.Z.Z.Z.Z.Z.Z.Z.Z.Z.Z.Z.Z.Z.Z.Z.Z.Z.Z.Z.Z.Z.Z.Z.Z.Z.Z.Z.Z.Z.Z.Z.Z.Z.Z.Z.Z.Z.Z.Z.Z.Z.Z.Z.Z.Z.Z.Z.Z.Z.Z.Z.Z.Z.Z.Z.Z.Z.Z.Z.Z.Z.Z.Z.Z.Z.Z.Z.Z.Z.Z.Z.Z.Z.Z.Z.Z.Z.Z.Z.Z.Z.Z.Z.Z.Z.Z.Z.Z.Z.Z.Z.Z.Z.Z.Z.Z.Z.Z.Z.Z.Z.Z.Z.Z.Z.Z.Z.Z.Z.Z.Z.Z.Z.Z.Z.Z.Z.Z.Z.Z.Z.Z.Z.Z.Z.Z.Z.Z.Z.Z.Z.Z.Z.Z.Z.Z.Z.Z.Z.Z.Z.Z.Z.Z.Z.Z.Z.Z.Z.Z.Z.Z.Z.Z.Z.Z.Z.Z.Z.Z.Z.Z.Z.Z.Z.Z.Z.Z.Z.Z.Z.Z.Z.Z.Z.Z.Z.Z.Z.Z.Z.Z.Z.Z.Z.Z.Z.Z.Z.Z.Z.Z.Z.Z.Z.Z.Z.Z.Z.Z.Z.Z.Z.Z.Z.Z.Z.Z.Z.Z.Z.Z.Z.Z.Z.Z.Z.Z.Z.Z.Z.Z.Z.Z.Z.Z.Z.Z.Z.Z.Z.Z.Z.Z.Z.Z.Z.Z.Z.Z.Z.Z.Z.Z.Z.Z.Z.Z.Z.Z.Z.Z.Z.Z.G.Z.Z.Z.Z.S.OX1X*X*X=X7X*X6X,XJ.^ ^ ^ n.>X8X*X=X=X=X=X*X9XOXA.A.Z.H.t.*XCXBXSXNXCXkXI.u.A.Z.H.S.Z.Z.Z.Z.Z.Z.Z.Z.Z.Z.Z.Z.Z.Z.Z.Z.Z.Z.Z.Z.Z.Z.Z.Z.Z.Z.Z.Z.Z.Z.Z.Z.Z.Z.Z.Z.Z.Z.Z.Z.Z.Z.Z.Z.Z.Z.Z.Z.Z.Z.Z.Z.Z.Z.Z.Z.Z.Z.Z.Z.Z.Z.Z.Z.",
"Z.Z.Z.Z.Z.Z.Z.Z.Z.Z.Z.Z.Z.Z.Z.Z.Z.Z.Z.Z.Z.Z.Z.Z.Z.Z.Z.Z.Z.Z.Z.Z.Z.Z.Z.Z.Z.Z.Z.Z.Z.Z.Z.Z.Z.Z.Z.Z.Z.Z.Z.Z.Z.Z.Z.Z.Z.Z.Z.Z.Z.Z.Z.Z.H.Z.A.T.6X*X*X*X%X9XY.u.Z.Z.M.S.Z.D.OX,X8X6X*X*X*X*X6X+X8X,X6.2.C.n.t.W.NXHXHXHXAXcXY.t.Z.H.Z.F.Z.Z.Z.Z.Z.Z.Z.Z.Z.Z.Z.Z.Z.Z.Z.Z.Z.Z.Z.Z.Z.Z.Z.Z.Z.Z.Z.Z.Z.Z.Z.Z.Z.Z.Z.Z.Z.Z.Z.Z.Z.Z.Z.Z.Z.Z.Z.Z.Z.Z.Z.Z.Z.Z.Z.Z.Z.Z.Z.Z.Z.Z.Z.Z.Z.Z.Z.Z.Z.Z.Z.Z.Z.Z.Z.Z.Z.Z.Z.Z.Z.Z.Z.Z.Z.Z.Z.Z.Z.Z.Z.Z.Z.Z.Z.Z.Z.Z.Z.Z.Z.Z.Z.Z.Z.Z.Z.Z.Z.Z.Z.Z.Z.Z.Z.Z.Z.Z.Z.Z.Z.Z.Z.Z.Z.Z.Z.Z.Z.Z.Z.Z.Z.Z.Z.Z.Z.Z.Z.Z.Z.Z.Z.Z.Z.Z.Z.Z.Z.Z.Z.Z.Z.Z.Z.Z.Z.Z.Z.Z.Z.Z.Z.Z.Z.Z.Z.Z.Z.Z.Z.Z.Z.Z.Z.Z.Z.Z.Z.Z.Z.Z.Z.Z.Z.Z.Z.Z.Z.Z.Z.Z.Z.Z.Z.Z.Z.Z.Z.Z.Z.Z.Z.Z.Z.Z.Z.Z.Z.Z.Z.Z.Z.Z.Z.Z.Z.Z.Z.Z.Z.Z.Z.Z.Z.Z.Z.Z.Z.Z.Z.Z.Z.Z.Z.Z.Z.Z.Z.Z.Z.Z.Z.Z.Z.Z.Z.Z.Z.Z.Z.Z.Z.Z.Z.Z.Z.Z.Z.Z.Z.Z.Z.Z.Z.Z.Z.Z.Z.Z.Z.Z.Z.Z.Z.Z.Z.Z.Z.Z.Z.Z.Z.Z.Z.Z.Z.Z.F.Z.Z.Z.Z.S.OX8X*X*X=X7X*X6X,XH.! ^ ^ n.2X8X+X=X=X=X=X*X8XT.A.Z.Z.J.u.*XCXBXSXNXFXVXE.u.A.Z.S.S.Z.Z.Z.Z.Z.Z.Z.Z.Z.Z.Z.Z.Z.Z.Z.Z.Z.Z.Z.Z.Z.Z.Z.Z.Z.Z.Z.Z.Z.Z.Z.Z.Z.Z.Z.Z.Z.Z.Z.Z.Z.Z.Z.Z.Z.Z.Z.Z.Z.Z.Z.Z.Z.Z.Z.Z.Z.Z.Z.Z.Z.Z.Z.Z.",
"Z.Z.Z.Z.Z.Z.Z.Z.Z.Z.Z.Z.Z.Z.Z.Z.Z.Z.Z.Z.Z.Z.Z.Z.Z.Z.Z.Z.Z.Z.Z.Z.Z.A.Z.Z.Z.Z.Z.Z.Z.Z.Z.Z.Z.Z.Z.Z.Z.Z.Z.Z.Z.Z.Z.Z.Z.Z.Z.Z.Z.Z.Z.Z.H.A.D.OX6X*X*X*X%X9XR.t.Z.Z.M.S.Z.D.OX,X8X6X*X*X*X*X6X+X8X,X6.2.C.M.t.W.NXHXHXHXNXMX*Xu.A.H.Z.F.Z.Z.Z.Z.Z.Z.Z.Z.Z.Z.Z.Z.Z.Z.Z.Z.Z.Z.Z.Z.Z.Z.Z.Z.Z.Z.Z.Z.Z.Z.Z.Z.Z.Z.Z.Z.Z.Z.Z.Z.Z.Z.Z.Z.Z.Z.Z.Z.Z.Z.Z.Z.Z.Z.Z.Z.Z.Z.Z.Z.Z.Z.Z.Z.Z.Z.Z.Z.Z.Z.Z.Z.Z.Z.Z.Z.Z.Z.Z.Z.Z.Z.Z.Z.Z.Z.Z.Z.Z.Z.Z.Z.Z.Z.Z.Z.Z.Z.Z.Z.Z.Z.Z.Z.Z.Z.Z.Z.Z.Z.Z.Z.Z.Z.Z.Z.Z.Z.Z.Z.Z.Z.Z.Z.Z.Z.Z.Z.Z.Z.Z.Z.Z.Z.Z.Z.Z.Z.Z.Z.Z.Z.Z.Z.Z.Z.Z.Z.Z.Z.Z.Z.Z.Z.Z.Z.Z.Z.Z.Z.Z.Z.Z.Z.Z.Z.Z.Z.Z.Z.Z.Z.Z.Z.Z.Z.Z.Z.Z.Z.Z.Z.Z.Z.Z.Z.Z.Z.Z.Z.Z.Z.Z.Z.Z.Z.Z.Z.Z.Z.Z.Z.Z.Z.Z.Z.Z.Z.Z.Z.Z.Z.Z.Z.Z.Z.Z.Z.Z.Z.Z.Z.Z.Z.Z.Z.Z.Z.Z.Z.Z.Z.Z.Z.Z.Z.Z.Z.Z.Z.Z.Z.Z.Z.Z.Z.Z.Z.Z.Z.Z.Z.Z.Z.Z.Z.Z.Z.Z.Z.Z.Z.Z.Z.Z.Z.Z.Z.Z.Z.Z.Z.Z.Z.Z.Z.Z.Z.Z.Z.Z.Z.Z.Z.Z.Z.Z.Z.F.Z.Z.Z.Z.D.OX8X6X*X=X7X*X6X#XA.! ^ ) n.2X8X*X=X=X=X=X*X6XT.Z.Z.Z.J.u.*XFXBXSXCXFXCXR.u.A.Z.H.M.Z.Z.Z.Z.Z.Z.Z.Z.Z.Z.Z.Z.Z.Z.Z.Z.Z.Z.Z.Z.Z.Z.Z.Z.Z.Z.Z.Z.Z.Z.Z.Z.Z.Z.Z.Z.Z.Z.Z.Z.Z.Z.Z.Z.Z.Z.Z.Z.Z.Z.Z.Z.Z.Z.Z.Z.Z.Z.Z.Z.Z.Z.Z.Z.",
"Z.Z.Z.Z.Z.Z.Z.Z.Z.Z.Z.Z.Z.Z.Z.Z.Z.Z.Z.Z.Z.Z.Z.Z.Z.Z.Z.Z.Z.Z.Z.Z.Z.Z.Z.Z.Z.Z.Z.Z.A.A.Z.Z.Z.Z.Z.Z.Z.Z.Z.Z.Z.Z.Z.Z.Z.Z.Z.Z.Z.Z.Z.Z.H.A.D.OX6X*X*X*XW.9XR.u.Z.Z.B.S.Z.D.OX,X8X6X*X*X*X*X*X+X8X1X2.1.C.M.t.Y.NXHXHXHXNXZX9XD.A.H.Z.F.Z.Z.Z.Z.Z.Z.Z.Z.Z.Z.Z.Z.Z.Z.Z.Z.Z.Z.Z.Z.Z.Z.Z.Z.Z.Z.Z.Z.Z.Z.Z.Z.Z.Z.Z.Z.Z.Z.Z.Z.Z.Z.Z.Z.Z.Z.Z.Z.Z.Z.Z.Z.Z.Z.Z.Z.Z.Z.Z.Z.Z.Z.Z.Z.Z.Z.Z.Z.Z.Z.Z.Z.Z.Z.Z.Z.Z.Z.Z.Z.Z.Z.Z.Z.Z.Z.Z.Z.Z.Z.Z.Z.Z.Z.Z.Z.Z.Z.Z.Z.Z.Z.Z.Z.Z.Z.Z.Z.Z.Z.Z.Z.Z.Z.Z.Z.Z.Z.Z.Z.Z.Z.Z.Z.Z.Z.Z.Z.Z.Z.Z.Z.Z.Z.Z.Z.Z.Z.Z.Z.Z.Z.Z.Z.Z.Z.Z.Z.Z.Z.Z.Z.Z.Z.Z.Z.Z.Z.Z.Z.Z.Z.Z.Z.Z.Z.Z.Z.Z.Z.Z.Z.Z.Z.Z.Z.Z.Z.Z.Z.Z.Z.Z.Z.Z.Z.Z.Z.Z.Z.Z.Z.Z.Z.Z.Z.Z.Z.Z.Z.Z.Z.Z.Z.Z.Z.Z.Z.Z.Z.Z.Z.Z.Z.Z.Z.Z.Z.Z.Z.Z.Z.Z.Z.Z.Z.Z.Z.Z.Z.Z.Z.Z.Z.Z.Z.Z.Z.Z.Z.Z.Z.Z.Z.Z.Z.Z.Z.Z.Z.Z.Z.Z.Z.Z.Z.Z.Z.Z.Z.Z.Z.Z.Z.Z.Z.Z.Z.Z.Z.Z.Z.Z.Z.Z.Z.Z.Z.Z.Z.Z.Z.Z.Z.Z.Z.Z.Z.G.Z.Z.Z.H.S.OX8X6X*X=X7X*X6X+XZ.! ^ ) n.2X8X*X=X=X=X=X*X6XT.u.A.Z.J.u.;XGXFXSXCXFXCXR.u.A.Z.H.M.Z.Z.Z.Z.Z.Z.Z.Z.Z.Z.Z.Z.Z.Z.Z.Z.Z.Z.Z.Z.Z.Z.Z.Z.Z.Z.Z.Z.Z.Z.Z.Z.Z.Z.Z.Z.Z.Z.Z.Z.Z.Z.Z.Z.Z.Z.Z.Z.Z.Z.Z.Z.Z.Z.Z.Z.Z.Z.Z.Z.Z.Z.Z.Z.",
"Z.Z.Z.Z.Z.Z.Z.Z.Z.Z.Z.Z.Z.Z.Z.Z.Z.Z.Z.Z.Z.Z.Z.Z.Z.Z.Z.Z.Z.Z.Z.Z.Z.Z.Z.Z.Z.Z.Z.Z.Z.Z.Z.Z.Z.Z.Z.Z.Z.Z.Z.Z.Z.Z.Z.Z.Z.Z.Z.Z.Z.Z.Z.Z.H.Z.D.OX8X*X*X*XY.6XT.u.Z.F.B.M.Z.D.OX,X6X6X6X=X=X*X*X+X8X1X2.<.C.S.u.h.NXBXBXBXNXAXxXh.i.A.A.D.Z.Z.Z.Z.Z.Z.Z.Z.Z.Z.Z.Z.Z.Z.Z.Z.Z.Z.Z.Z.Z.Z.Z.Z.Z.Z.Z.Z.Z.Z.Z.Z.Z.Z.Z.Z.Z.Z.Z.Z.Z.Z.Z.Z.Z.Z.Z.Z.Z.Z.Z.Z.Z.Z.Z.Z.Z.Z.Z.Z.Z.Z.Z.Z.Z.Z.Z.Z.Z.Z.Z.Z.Z.Z.Z.Z.Z.Z.Z.Z.Z.Z.Z.Z.Z.Z.Z.Z.Z.Z.Z.Z.Z.Z.Z.Z.Z.Z.Z.Z.Z.Z.Z.Z.Z.Z.Z.Z.Z.Z.Z.Z.Z.Z.Z.Z.Z.Z.Z.Z.Z.Z.Z.Z.Z.Z.Z.Z.Z.Z.Z.Z.Z.Z.Z.Z.Z.Z.Z.Z.Z.Z.Z.Z.Z.Z.Z.Z.Z.Z.Z.Z.Z.Z.Z.Z.Z.Z.Z.Z.Z.Z.Z.Z.Z.Z.Z.Z.Z.Z.Z.Z.Z.Z.Z.Z.Z.Z.Z.Z.Z.Z.Z.Z.Z.Z.Z.Z.Z.Z.Z.Z.Z.Z.Z.Z.Z.Z.Z.Z.Z.Z.Z.Z.Z.Z.Z.Z.Z.Z.Z.Z.Z.Z.Z.Z.Z.Z.Z.Z.Z.Z.Z.Z.Z.Z.Z.Z.Z.Z.Z.Z.Z.Z.Z.Z.Z.Z.Z.Z.Z.Z.Z.Z.Z.Z.Z.Z.Z.Z.Z.Z.Z.Z.Z.Z.Z.Z.Z.Z.Z.Z.Z.Z.Z.Z.Z.Z.Z.Z.Z.Z.Z.Z.Z.Z.Z.Z.Z.Z.Z.Z.Z.Z.Z.Z.Z.Z.Z.Z.A.Z.A.A.+X8X7X=X=X7X*X6X+Xu.! ^ ^ n.2XqX*X-X=X=X=X*X8XT.u.A.Z.J.i.9XAXCXCXCXFXCXY.i.i.u.H.M.Z.Z.Z.Z.Z.Z.Z.Z.Z.S.S.S.S.S.S.S.Z.Z.Z.Z.Z.Z.Z.Z.Z.Z.Z.Z.Z.Z.Z.Z.Z.Z.Z.Z.Z.Z.Z.Z.Z.Z.Z.Z.Z.Z.Z.Z.Z.Z.Z.Z.Z.Z.Z.Z.Z.Z.Z.Z.Z.Z.Z.Z.",
"G.F.G.F.G.Z.F.Z.F.F.F.F.G.Z.G.F.Z.Z.Z.Z.H.H.H.Z.Z.Z.Z.Z.Z.Z.Z.Z.Z.Z.Z.Z.Z.Z.Z.Z.Z.Z.Z.Z.Z.Z.Z.Z.H.S.S.S.S.H.H.S.Z.Z.Z.Z.Z.Z.Z.Z.Z.c.A.+X8X9X*X-X*X*XU.u.n.H.H.n.w.,.1X+X9X6X9X=X=X7X6X+X1X<Xn.M S.J.6.5.MXAXDXBXDXSXSXfXk.g.4.4.i.A.A.A.A.D.D.D.A.S.H.S.H.S.H.S.Z.n.Z.n.Z.Z.S.S.S.S.S.S.S.S.S.S.S.S.S.S.S.S.S.S.S.S.S.S.S.S.S.S.S.S.S.S.S.S.S.S.S.S.S.S.S.S.S.S.S.S.S.S.S.S.S.S.S.S.S.S.S.S.S.S.S.S.S.S.S.S.S.S.S.S.S.S.S.S.S.S.S.S.S.S.S.S.S.S.S.S.S.S.S.S.S.S.Z.Z.Z.Z.Z.Z.Z.Z.H.H.H.H.H.H.H.H.S.S.S.S.S.S.S.S.S.S.S.S.S.S.S.H.S.S.S.S.Z.Z.S.S.S.S.S.S.S.S.S.S.S.S.S.S.S.S.S.S.S.S.S.S.S.S.S.S.S.S.S.S.S.S.S.S.H.S.H.S.S.S.H.H.H.H.H.H.Z.H.H.H.Z.Z.Z.Z.Z.Z.S.Z.Z.Z.Z.Z.Z.Z.Z.Z.H.H.H.H.H.H.H.Z.Z.Z.Z.Z.Z.Z.n.n.Z.Z.Z.Z.Z.Z.Z.Z.Z.Z.Z.Z.Z.Z.F.Z.Z.Z.Z.Z.Z.Z.Z.Z.Z.Z.Z.Z.Z.Z.Z.Z.Z.Z.Z.Z.Z.Z.Z.Z.H.S.S.S.S.S.S.S.S.S.S.S.S.S.S.S.Z.S.D.A.i.I.R.6X6X7X7X7X*X8X6XA.^ ! ! J.1X+X*X%X=X=XW.*X8XT.Z.J.2.A.E.=XVXCXNXCXCXNXjXY.t.<.w.D.M.M.M.M.H.H.M.n.M.B.n.n.n.B.B.C.C.F.F.F.F.F.F.F.F.F.B.F.F.F.F.H.H.C.C.C.C.C.C.C.C.C.C.C.C.C.C.C.C.S.F.S.F.S.F.S.H.H.H.H.H.H.H.H.",
"Z.Z.Z.Z.Z.Z.Z.Z.Z.Z.Z.Z.Z.Z.Z.Z.Z.Z.Z.Z.Z.Z.Z.Z.Z.A.Z.Z.Z.Z.Z.Z.Z.Z.F.Z.F.Z.F.Z.F.F.F.F.F.Z.F.F.H.S.S.S.S.H.H.S.Z.Z.Z.Z.Z.Z.Z.Z.J.Z.A.T.6X*X*X*XoX+XT.Z.n.H.C.b.1.,.,X+X9X7X9X!.=X=X=X*X1X<XM.K w.J.t.i.mXAXcXNXSXSXSXDXfX:X%X%X4.4.4.4.6.6.t.t.u.u.u.u.Z.Z.Z.S.J.J.H.H.H.H.S.S.S.S.S.S.S.S.S.S.S.S.S.S.S.S.S.S.S.S.S.S.S.S.S.S.S.S.S.S.S.S.S.S.S.S.S.S.S.S.S.S.S.S.S.S.S.S.S.S.S.S.S.S.S.S.S.S.S.S.S.S.S.S.S.S.S.S.S.S.S.S.S.S.S.S.S.S.S.S.S.S.S.S.S.S.S.S.S.S.Z.Z.Z.Z.Z.Z.Z.Z.Z.Z.Z.Z.Z.Z.Z.Z.H.S.H.S.H.H.H.S.Z.Z.Z.Z.Z.Z.Z.Z.Z.Z.Z.Z.Z.Z.Z.Z.Z.Z.Z.Z.Z.Z.Z.Z.Z.Z.Z.Z.Z.Z.Z.Z.Z.Z.Z.Z.Z.Z.Z.Z.Z.n.Z.n.Z.n.Z.n.Z.n.Z.n.Z.n.Z.Z.Z.Z.Z.Z.Z.Z.Z.Z.Z.Z.Z.Z.Z.Z.Z.Z.Z.Z.Z.Z.Z.Z.Z.Z.H.H.H.H.H.H.H.Z.Z.Z.Z.Z.Z.Z.Z.Z.Z.Z.Z.Z.Z.Z.Z.Z.Z.F.F.Z.Z.Z.Z.Z.F.F.F.F.F.F.F.F.F.F.F.F.F.F.F.F.H.H.H.H.H.H.H.H.S.S.S.S.S.S.S.S.S.S.S.S.S.S.S.S.u.p.S.u.i.I.R.6XwX7X7X6X6X8XT.<.^ T ! H.1X+X-X%X=X;XW.*X1XJ.w.Z.Z.7.g.9XZXCXNXAXBXNXMXgXoXi.t.0.J.H.F.Z.Z.Z.M.n.S.M.M.M.M.M.n.B.C.F.F.F.F.F.F.F.F.F.B.B.F.F.F.F.H.C.C.C.H.C.H.C.H.C.H.C.C.C.H.H.M.M.M.M.M.M.M.M.M.M.M.M.M.M.M.M.",
"Z.Z.Z.Z.Z.Z.Z.Z.Z.Z.Z.Z.Z.H.H.H.Z.A.Z.A.H.S.H.S.A.A.Z.A.Z.A.A.Z.Z.Z.Z.Z.Z.Z.Z.Z.Z.Z.Z.Z.Z.Z.Z.Z.Z.Z.Z.Z.Z.Z.Z.Z.Z.Z.Z.Z.Z.Z.Z.Z.F.Z.Z.T.+X,X+X+X+X#XOXH.Z.B.N.` ,.=.>X+X8X6X9X!.!.=X*X+X1X1XZ.L 1.H.u.u.9XZXMXNXCXBXAXAXAXZXZXmXvXvXwX9X+XU.I.i.A.A.A.A.i.u.u.u.w.n.n.Z.Z.Z.Z.Z.Z.Z.Z.Z.Z.Z.Z.Z.Z.Z.Z.Z.Z.Z.Z.Z.Z.Z.Z.Z.Z.Z.Z.Z.Z.Z.Z.Z.Z.Z.Z.Z.Z.Z.Z.Z.Z.Z.Z.Z.Z.Z.Z.Z.Z.Z.Z.Z.Z.Z.Z.Z.Z.Z.Z.Z.Z.Z.Z.Z.Z.Z.Z.Z.Z.Z.Z.Z.Z.Z.Z.Z.Z.Z.Z.Z.Z.Z.Z.Z.Z.Z.Z.Z.Z.Z.Z.Z.Z.Z.Z.Z.Z.Z.Z.Z.Z.Z.Z.Z.Z.Z.Z.Z.Z.Z.Z.Z.Z.Z.Z.Z.Z.Z.Z.Z.Z.Z.Z.Z.Z.Z.Z.Z.Z.Z.Z.Z.Z.Z.Z.Z.Z.Z.Z.Z.Z.Z.Z.Z.Z.Z.Z.Z.Z.Z.Z.Z.Z.Z.Z.Z.Z.Z.Z.Z.Z.Z.Z.Z.Z.Z.Z.Z.Z.Z.Z.Z.Z.Z.Z.Z.Z.Z.Z.Z.Z.Z.Z.Z.Z.Z.H.Z.Z.Z.Z.Z.Z.Z.Z.Z.Z.Z.Z.Z.Z.Z.Z.Z.Z.F.F.F.F.F.F.F.Z.Z.Z.Z.Z.Z.Z.Z.Z.Z.Z.Z.Z.Z.Z.Z.Z.Z.Z.Z.Z.Z.Z.Z.Z.Z.Z.Z.Z.Z.Z.Z.Z.Z.Z.Z.Z.Z.Z.Z.Z.Z.Z.Z.Z.Z.Z.Z.Z.Z.Z.Z.Z.Z.Z.Z.M.e.M.u.Z.A.R.6X0X+X/.6XqXqXOX,.^ T ! '.1X+X-X%X=X=X*X*X1XJ.1.w.D.t.i.9XZXNXDXGXzXBXCXNXgX=Xh.g.7.7.6.6.A.D.T.T.u.u.A.S.S.S.Z.Z.Z.Z.Z.Z.Z.Z.Z.Z.Z.Z.Z.Z.Z.Z.Z.Z.F.H.F.H.F.H.F.H.F.H.F.H.F.H.F.Z.Z.Z.Z.Z.Z.Z.Z.Z.Z.Z.Z.Z.Z.Z.Z.Z.",
"H.S.H.H.H.H.H.S.Z.Z.Z.A.A.A.S.S.A.Z.Z.Z.S.S.S.Z.A.A.A.Z.Z.Z.Z.Z.Z.Z.Z.Z.Z.Z.Z.Z.Z.Z.Z.Z.Z.Z.Z.Z.S.S.S.S.H.H.H.H.Z.Z.Z.Z.Z.Z.Z.Z.F.F.Z.J.>X,X1X8X1X2X>XZ.n.b.X.! ~ L >X#X8X6X9X!.!.=X=X*X8X1XA.L 1.'.S.2.OXvXmXAXNXNXNXNXCXAXVXVXZXmXmXmXmXvXvXvX+X+XY.U.A.i.i.u.Z.Z.Z.Z.Z.Z.Z.Z.Z.Z.Z.Z.Z.Z.Z.Z.Z.Z.Z.Z.Z.Z.Z.Z.Z.Z.Z.Z.Z.Z.Z.Z.Z.Z.Z.Z.Z.Z.Z.Z.Z.Z.Z.Z.Z.Z.Z.Z.Z.Z.Z.Z.Z.Z.Z.Z.Z.Z.Z.Z.Z.Z.Z.Z.Z.Z.Z.Z.Z.Z.Z.Z.Z.Z.Z.Z.Z.Z.Z.Z.Z.Z.Z.Z.Z.Z.Z.Z.Z.Z.Z.Z.Z.Z.Z.Z.Z.Z.Z.Z.Z.Z.Z.Z.Z.Z.Z.Z.Z.Z.Z.Z.Z.Z.Z.Z.Z.Z.Z.Z.Z.Z.Z.Z.Z.Z.Z.Z.Z.Z.Z.Z.Z.Z.Z.Z.Z.Z.Z.Z.Z.Z.Z.Z.Z.Z.Z.Z.Z.Z.Z.Z.Z.Z.Z.Z.Z.Z.Z.Z.Z.Z.Z.Z.Z.Z.Z.Z.Z.Z.Z.Z.S.S.H.Z.Z.Z.Z.Z.Z.Z.Z.Z.Z.Z.Z.Z.Z.Z.Z.S.Z.Z.Z.Z.Z.Z.Z.Z.Z.Z.Z.Z.Z.Z.Z.Z.Z.Z.Z.Z.Z.Z.Z.Z.Z.Z.Z.Z.Z.F.Z.Z.Z.Z.Z.Z.Z.Z.Z.Z.Z.Z.Z.Z.Z.Z.Z.Z.Z.Z.Z.Z.Z.Z.Z.Z.Z.Z.Z.Z.Z.Z.Z.Z.Z.S.Z.S.Z.S.Z.H.Z.H.Z.S.Z.S.Z.S.M.M.M.S.H.J.,XqXqX,X2X4X4XrX>X1.) ^ ! H.1X+X-X%X=X-X*X-X1XH.,.1.S.u.u.-XmXVXDXBXFXFXFXCXCXVXVXbX9X7XQ.R.E.I.7.6.6.6.i.i.i.A.A.A.Z.Z.Z.Z.Z.Z.Z.Z.Z.Z.Z.Z.Z.Z.Z.Z.Z.Z.Z.Z.Z.Z.Z.Z.Z.Z.Z.Z.Z.Z.Z.Z.Z.A.Z.A.Z.A.A.A.A.A.A.A.A.A.A.A.",
"S.p.S.e.M.e.M.e.M.p.S.p.M.e.M.M.n.n.M.M.e.M.w.w.S.S.S.S.S.S.S.S.M.M.M.S.S.S.S.S.H.H.H.H.H.S.H.H.H.H.H.H.H.H.H.H.H.H.H.H.H.H.H.H.B.B.F.F.J.>X>X2X>X].H.1.` ..) ( ! L <X#X8X6X=X=X!.=X=X*X6X1XA.L ^ V.`.n.A.+XvXZXAXAXVXCXAXAXCXVXZXZXZXZXZXZXZXmXZXZXZXmXmXnXnXiX4X2X5X>XJ.J.Z.Z.Z.Z.Z.Z.Z.Z.Z.Z.Z.Z.Z.Z.Z.Z.Z.Z.Z.Z.Z.Z.Z.Z.Z.Z.Z.Z.Z.Z.Z.Z.Z.Z.Z.Z.Z.Z.Z.Z.Z.Z.Z.Z.Z.Z.Z.Z.Z.Z.Z.Z.Z.Z.Z.Z.Z.Z.Z.Z.Z.Z.Z.Z.Z.Z.Z.Z.Z.Z.Z.F.F.Z.Z.Z.Z.Z.Z.Z.Z.Z.Z.Z.Z.Z.Z.Z.Z.Z.Z.Z.Z.Z.Z.Z.Z.Z.F.F.F.F.F.F.F.F.F.F.F.Z.H.H.H.F.Z.Z.Z.Z.Z.Z.Z.Z.Z.Z.Z.Z.Z.Z.Z.Z.Z.Z.Z.Z.Z.Z.Z.Z.Z.Z.Z.Z.Z.Z.Z.Z.Z.Z.Z.Z.Z.Z.Z.Z.Z.Z.Z.Z.Z.Z.Z.Z.Z.Z.Z.H.H.S.Z.Z.n.n.n.n.M.M.Z.M.Z.M.Z.M.Z.M.Z.M.n.n.M.M.M.M.n.M.H.H.H.H.S.S.H.H.F.B.F.F.F.H.F.H.F.H.F.H.F.H.F.H.F.F.F.F.F.F.F.F.H.H.H.H.H.H.H.H.H.H.H.H.H.H.H.H.H.H.H.H.H.H.H.H.H.H.H.H.H.H.H.H.H.H.H.H.H.H.H.H.`.`.C.M.H.'..X<X4X<X2X4X X'.M.~ ) ^ ! H.4X+X-X%X%X-X*X-X2XZ.~ ) 9.e.p.D.9XZXSXSXBXBXDXzXzXCXCXAXCXVXVXkXgX9XQ.Y.R.R.U.I.i.i.A.A.A.A.A.A.A.A.A.A.A.A.A.A.A.A.A.A.Z.A.Z.A.Z.A.Z.A.A.A.A.A.Z.A.A.A.Z.u.Z.u.Z.u.Z.u.A.u.A.u.A.u.A.u.",
"M.M.M.M.M.M.M.M.S.S.S.S.M.M.M.M.M.M.M.M.M.M.M.M.n.n.n.n.n.n.n.n.B.B.B.B.B.B.B.B.b.b.b.b.n.n.b.b.b.b.b.b.b.b.b.b.b.b.b.b.b.b.b.b.X.l.l.1.1.n.n.n.M.1.` ) ( ( | ( ! L <X@X8X*X=X=X!.=X=XQ.6X,XA.~ Y +.C.C.S.D.+X9XmXbXbXbXbXbXkXjXbXxXxX9X9X=X*X*X*X*X*X+X+X+X+X+X5X5X>XJ.G.H.Z.Z.Z.Z.Z.Z.Z.Z.Z.Z.Z.Z.Z.Z.Z.Z.Z.Z.Z.Z.Z.Z.Z.Z.Z.Z.Z.Z.Z.Z.Z.Z.Z.Z.Z.Z.Z.Z.Z.Z.Z.Z.Z.Z.Z.Z.Z.Z.Z.Z.Z.Z.Z.Z.Z.Z.Z.Z.Z.Z.Z.Z.Z.Z.Z.Z.Z.Z.Z.Z.Z.Z.F.F.Z.Z.Z.Z.Z.Z.Z.Z.Z.Z.Z.Z.Z.Z.Z.Z.Z.Z.Z.Z.Z.Z.Z.Z.Z.Z.F.F.F.F.F.H.H.H.H.H.H.H.H.H.H.H.H.H.H.H.H.H.S.S.S.S.H.H.H.H.H.H.H.H.H.H.H.H.Z.Z.Z.Z.H.H.Z.Z.H.H.H.F.Z.Z.Z.S.M.M.M.M.M.M.M.M.S.H.H.H.H.H.H.M.S.M.S.M.H.C.H.C.H.C.S.M.H.C.H.C.M.M.M.M.M.M.M.M.M.M.M.M.M.M.M.M.C.C.C.C.H.C.H.C.B.C.B.C.B.C.B.C.M.n.M.n.M.n.M.n.n.n.n.n.n.n.n.n.n.n.n.n.n.n.n.n.n.b.n.b.n.n.n.n.n.b.n.b.n.b.n.b.n.n.n.b.n.b.n.b.{ { { { q.b.n.M.M.n.M.C.1.` ) H ) ^ ^ '.4X#X:X-X%X*X+X#X2XZ.~ ^ ^ r.r.w.#XmXZXSXSXBXBXBXCXCXCXCXVXVXZXAXAXAXZXmXjXwX6XT.I.A.A.A.Z.Z.Z.Z.Z.Z.Z.Z.Z.Z.Z.Z.Z.Z.Z.Z.A.A.A.A.A.A.Z.Z.A.A.A.A.A.Z.A.D.A.A.A.A.A.A.S.A.Z.A.A.A.A.A.A.A.",
"m.m.m.m.m.m.m.m.m.m.m.m.m.m.m.m.b.b.m.m.b.b.b.b.{ { { { { { { { { { { { { { { { _ _ _ _ _ _ _ _ _ ) _ ) _ ) _ ) _ _ _ _ _ _ _ _ E _ ( ! ! ^ ^ ! ) ^ ( E E | | _ ) P <X,X8X*X7X=X=X=X=X=X6X,XA.N ! W O.C.B.n.A.A.U.I.g.g.I.I.I.g.5.4.4.y.i.i.i.A.t.u.u.u.u.u.A.A.Z.n.Z.Z.F.F.F.F.F.F.F.F.F.F.F.F.F.F.F.F.F.F.F.F.F.F.F.F.F.F.F.F.F.F.F.F.F.F.F.F.F.F.F.F.F.F.F.F.F.F.F.F.F.F.F.F.F.F.F.F.F.F.F.F.F.F.F.F.F.F.F.F.F.F.F.F.F.F.F.F.F.F.F.F.F.F.F.F.F.F.F.F.F.F.F.F.F.C.C.C.C.C.C.C.M.B.B.B.B.C.C.B.C.C.C.C.C.C.C.C.C.C.C.C.C.C.H.C.C.C.C.C.C.C.C.C.C.C.C.C.C.C.C.C.n.n.n.n.B.B.B.n.B.B.n.n.n.n.n.n.n.n.b.b.n.b.n.n.b.n.n.B.B.B.n.b.b.b.b.b.b.m.b.b.b.b.b.b.b.b.b.b.b.b.b.b.b.b.b.b.b.b.b.b.b.b.b.b.b.+.q.b.b.q.b.+.1.{ 1.{ ` { ` { ` ` ` ` ` ` ` ` ) ) ) ) ) ` ) ` ) ) ) ) ) ` ) ) ) ) ) ) ) ) ) ) ) ) ) ) ) ) ) ) ) ) ) ) ) ) ) ) W T T T ^ ) ^ ^ ! M ^ ) Y Y ^ Y _ ) ) '.qX#X-X-X%X*X+X#X<XS.~ ^ T [ ^ ] [.#X9XvXZXAXAXAXAXAXVXVXbXbXbXxXjX9X=X+X8X,XOXT.A.Z.Z.Z.Z.Z.Z.Z.Z.Z.Z.Z.Z.Z.Z.Z.Z.Z.Z.Z.Z.Z.Z.Z.Z.Z.Z.Z.Z.Z.Z.Z.Z.Z.Z.Z.S.S.S.S.S.S.S.S.n.n.n.n.n.n.n.n.",
"[ [ [ [ [ [ [ [ ^ ^ ^ ^ ^ ^ ^ ^ ^ ^ ^ ^ T ^ ^ ^ T T T T T T T T W W W W W W W W W W W W W W W W W W W W W W W W W W W W W W W W T E _ W W _ _ ^ _ W E | O.| | ..) P <X,X8X*X7X=X=X7X7X=X6X6Xv.N X.U E +.b.1.w.w.2.2.<.6.6.u.Z.u.A.A.u.u.u.u.w.w.Z.Z.Z.Z.Z.Z.M.M.B.C.C.C.C.C.C.C.C.C.C.C.C.C.C.C.C.C.C.C.C.C.C.C.C.C.C.C.C.C.C.C.C.C.C.C.C.C.C.C.H.C.C.C.C.C.C.C.C.C.C.C.C.C.C.C.C.C.C.C.C.C.C.C.C.C.C.C.C.C.C.C.C.C.C.C.C.C.C.C.C.C.C.C.C.C.C.C.H.C.C.C.C.C.C.C.C.B.C.B.C.B.C.B.n.n.n.n.n.B.n.B.b.b.n.b.n.b.b.b.b.b.b.b.b.b.b.b.b.b.b.b.b.b.b.b.q.{ q.{ q.{ q.+.` ` ` ` ` { ` ` ` { ` ` ` ` ` ` ` ` ` ` ` ` ` ` ) ) ` ` ` ` ` ) ^ ^ ^ ^ ^ ^ ^ ^ ^ ^ ^ ^ ^ ^ ^ ^ ! ^ ! ^ ! ^ ! ^ ^ ^ ^ ^ ^ ^ ^ ^ ! T ! ^ ! ^ ^ T ! ^ ! ^ ! T ! ^ Y Y Y Y Y Y Y Y ^ ^ ^ ^ ^ ^ ^ ^ ^ ^ ^ ^ ^ ^ ^ ^ ! ^ ! ^ ! ^ ! ^ _ _ _ _ _ _ _ _ _ _ _ _ _ _ _ _ W ' W W _ _ _ ^ ` ! _ _ Y T _ _ _ ) ~ J.qX#X-X-X*X*X+X#X1XS.~ ^ T W Y ^ q.w.D.8X+X*X-X=X%XY.Y.Y.Y.E.h.i.i.i.t.6.u.n.n.M.M.C.C.C.C.B.C.B.C.B.C.B.C.B.C.B.C.B.C.C.B.B.C.B.C.B.C.B.n.n.n.n.n.b.n.n.w.b.b.b.b.b.b.b.1.{ 1.{ 1.{ 1.{ ",
"T T T W W W W W W W W W W W T T W W W W W W W W W W W W W W W W W W W W W W W W W W W W W W W W W W W W W W W W W W W W W W W W W W W W W T W W W W W W | | | W K 0.OX1X+X6X=X=X=XQ.lX6X7X6XR.r ` E C ! ) ) ! K ~ ~ ~ / ^ ^ / / / ~ ~ ~ ) ^ ^ ^ ) ) ^ ) ) ) ) ) ) ) ) ) ) ) ) ) ) ) ) ) ) ) ) ) ` ` ` ` ` ` ` ` ) ) ) ) ) ) ) ) ` ` ` ` ` ` ` ` ` ` ` ` ` ` ` ` ` ` ` ` X.X.l.+.l.X.` X.l.X.b.X.l.X.l.X.l.X.l.X.` ` ` ` ` ` ` ` ` ` ` ` ` ` ` ` ) ) ) ) ) ) ) ) ) ) ) ) ) ) ) _ ) ) ) _ ) ) ) ) _ _ ) _ _ _ _ _ _ _ _ _ _ _ _ ^ _ _ _ _ _ _ _ _ ^ ^ ^ ^ ^ ^ _ _ ^ _ ^ _ ^ ^ ^ ^ _ _ _ _ _ _ _ _ _ _ _ _ _ _ _ ^ _ _ _ _ _ _ _ _ W W W W W W W W W W W W W W W W W W W W _ W _ W _ _ _ _ _ _ _ _ _ W _ W _ W W W W W W W _ W _ W W W _ W _ W _ W W W W W W W W W W W W W W W T T W W W W W W W W W W E E E E E W E E E E W W W W W W W W W W W _ T _ _ _ _ W T Y ! l.M >XqX8X%XY.-X%XoX#X<XH.~ ) _ W T T _ { w.w.w.w.t.u.t.t.0.0.u.u.u.u.M.M.M.B.n.b.N.m.#.#.#.#.#.#.#.#.#.#.#.#.+.+.+.O.........( ( ( _ ( _ ( _ _ _ _ _ ( _ _ _ ^ W _ W _ W _ W ^ T ^ T ^ T ^ T ",
"W W W W W W W W W W W W W W W W W W W W W W W W W W W W W W W W W W W W W W W Q W Q W Q W W W W W W W W W Q W W W W W W W W W Q Q W W T W T T T W W W Q Q Q Q W M 0.>X1X+X*X=X7X9XQ.7X=X6X6XU.0 f ( N.X.! ! _ Y ! ^ ^ T T T T T ^ ^ ^ ^ E W E W _ W E E E E E W ( ! ! ! ! ^ ! ^ ! ! ! ! ! ! ! Y ! ! ! ! ! ! ! ! ! ! ! ! ! ^ ! ^ ) _ ) _ ^ ^ ) ^ ! ! ! ! ! Y ! Y ! ! ! ! ! ^ ) _ ^ ^ ! ^ ) _ ) _ ^ ^ ^ ^ ^ ^ ^ ^ ! ! ! Y ! Y ! ! ! ! ! ! ! ! ! ! ! ! ! ! ! ^ ! ^ Y Y Y Y Y Y Y Y Y Y Y Y Y Y Y Y T T ^ ^ T T T T T T T T T T T T T T T T T ^ T T T T T T ^ ^ T T ^ T ^ T T T T T T T T T T T T T T T T T T T T T T T T T T T T T T T T T T T T T T T T T T T T T T Q Q Q T T T T T T T T T T T T T T T T T T Q J T Q Q J T T T T T T T T Q Q T T T T T T T T T T T T T T T T T T T T T T T T T T W W W W W W W W W W W W W W W W W W W T W T W W T T Y T T W W _ X.M h OX1X+X*X-X-X-XoX#X1XZ.L ! ..W E _ _ ) ^ ^ ) ) / / / / / / / / ^ ^ ^ ^ ^ ^ _ W W W W W W Q W E E E W W W E W W W W W W W E W W W W E W E W E E E E E E E E W W W W W W W W T T T W W W W W ",
"_ W _ W _ W W W _ W _ W W W W W _ W | W _ W _ W _ W _ W | | W W W W W W W | | | W W | | W W W W W W W W W W W ' W ' W ' W W W ' ' ' ' ' W W W W W W W W W W W Y K u.2XqX6X*X=X7X9XQ.7X*X6X6XI.9 % s S ) ( Y _ [ ^ T T T T T T T W E W W E W E W E W | | | | | E _ _ _ _ _ _ _ _ _ _ _ _ _ _ _ _ _ _ _ _ _ _ _ _ _ _ ) _ _ _ _ _ _ _ _ _ _ _ _ _ _ _ _ _ _ _ _ _ ( ( _ _ _ _ _ _ _ _ _ _ _ _ _ _ _ _ _ _ _ _ _ _ _ _ _ _ _ _ _ _ _ _ _ _ _ _ _ _ ) _ ) _ _ _ _ _ _ _ _ _ _ _ _ _ _ _ _ _ _ _ _ _ _ W W W W W W W W W W W W W W W W W W W W W W W W W W W _ W W W _ _ W W W W W W W W W W W W W W W W W W W W W W W W W W W W W W W W W W W W W W W W W W W W W W W W W W W W W W W W W W W W W W W W T T W T T T W W T T T W W W W W W W T T T T T T T T T T T T T T T T T T T T T T T T T T T T W W W W W W W W W W W W W W W W W W _ _ _ _ _ _ _ W Y W _ _ _ _ ! y u 2X1X+X-X;X%X-X*X-X8XD.:.~ ( E E _ ) ) _ ^ ^ ^ ^ ^ ^ ^ ^ ^ ^ ^ ^ T ^ T T T W W W W W Q Q Q W E E E E E E E E E E E W W _ _ W W W W W W W W ..| ..W _ W _ | W W W W W W W W W W W W W W W W ",
"_ _ _ _ _ W _ W _ _ _ _ _ _ _ _ _ _ _ W _ _ _ _ _ _ _ _ _ W _ W _ W _ W W W W W _ W W W _ W _ W ^ T ^ T T T T T ^ T ^ T T T T T T T ^ ^ ^ ^ ^ ^ ^ ^ ^ ^ T Y Y ! 2.D.1X8X6X*X=X=X7XQ.7X=X9X8XT.w * < i S X.( ( #._ _ _ _ _ W _ _ W | _ W _ | ......| ....| ........` ` ` X.X.X.X._ _ _ _ _ _ _ _ _ _ _ _ _ _ _ _ X.` ` ` ` X.X.X._ ` _ _ _ _ _ _ ` ` ` ` X.X.X...X.X.X.X._ ..X.X._ ` _ _ _ _ _ _ _ _ _ _ _ _ _ _ X.` ` ` _ X.X.X._ ` _ _ _ _ _ _ ` ` ` ` X.X.X..._ _ _ _ _ _ _ _ _ _ _ _ _ _ _ _ _ _ _ _ ) _ _ _ _ _ _ _ _ _ _ _ _ _ _ _ ) _ ) _ _ _ _ _ _ _ _ _ _ _ _ _ _ _ _ _ _ _ _ _ ) _ _ _ _ _ _ _ _ _ _ _ _ _ _ _ _ _ _ _ _ _ _ _ _ _ _ _ _ _ _ _ _ _ _ _ _ _ [ [ _ _ _ _ [ [ [ [ [ [ [ [ _ _ _ _ [ _ _ _ _ _ _ [ [ _ _ _ _ _ [ [ _ _ _ _ _ _ _ _ _ _ _ _ _ _ _ _ _ _ _ _ _ _ _ _ _ _ _ _ _ _ _ _ _ _ _ _ _ _ _ _ _ _ _ _ _ _ _ _ _ _ _ _ _ _ _ X.O._ Y m u % u qX6X+X*X-X%X-X=X*XqX>XZ.F.) ! ! ! ^ ^ ! ! ^ ^ ^ ^ ^ ^ ^ ^ ^ ^ ^ ^ ^ ^ ^ T W W W W W W W W W _ _ _ _ _ _ _ _ _ _ _ _ _ _ _ W W W W W W W W W W E W W W W W W W W W W W W W W W W W W W W W ",
"! ! ! ! ! ! ! ! ! ! ! ! ! ! ! ! ! ! ! ! ! ! ! ! ! ! ! ! ! ! ! ! ! ! ! ! ! ! ! ! ! ! ! ! ! ! ! ! ! ! ! ! ! ! ! ! ! ! ! ! ! ! ! ! K K K K ! ! ! ! ! ! ! ) ^ ) ) ~ T.,X6X6X6X6X*X=X=XQ.7X*X9X8XR.r 8 % < s l s p d a a d a s s s s a a a a a a a a a a a a a a a a s s s s s s s s s s s s s s s s s s s s s s s s s s s s s s s s s s s s s s s s s s s s s s s s s s s s s s s s s s s s s s s s s s s s s s s s d d d s s s d d s s s s s s s s s s s s s s s s s s s s s s s s s s s s s s s s d d s s s s s s d d d d s s s s d d s s s s s s d d d d d d d d d d d d d d d d d d s s s s s s s a s a d a d a s a s a s a d a a a a a a a a a a a a a a a a a p p p p p p p p a a a p p a p a p p p p p p p p p p p p p p p p p p p p p a a a a s s s s s a a a a a a a s s s s a a a a a a a a s s s s a a a a a a a a a a s s s s s s s s s s p p s s u y 8 <   g yX+X*X;XW.=X=X=X*XwX6X^.2XH.n.2.,.~ ~ ~ ! ! ! ! ! ! ! ! ! ) ^ ) ) ~ ~ ) ^ ^ ^ ^ ^ ^ ^ ) ) ) ) ) ) ) ) ) ) ) ) ) ) ) ! ! ! ^ ^ ^ ^ ! ! ! ^ ^ ^ ^ ^ ^ ^ ^ ^ ^ ! ! ! ! ! ! ! ! ! ! ! ! ! ! ! ",
"S.S.S.S.S.S.S.S.S.S.S.S.S.S.S.S.S.S.S.S.S.S.S.S.S.S.S.S.S.S.S.S.S.S.S.S.S.S.S.S.S.S.S.S.S.S.S.S.S.S.S.S.S.S.S.S.S.S.S.S.S.S.S.S.S.S.S.S.S.S.S.S.Z.Z.Z.H.H.J.J.J.qX8X6X6X6X7X7XQ.=X=X7X*X6X6XT.i * < > % # > > # > > > > - * * * $ $ $ $ $ $ $ $ > > > > > > > > > > > > > > > > > > > > > > > > > > > > > > > > > > > > > > > > > > > > > > > > > > > > > > > > > > $ $ $ # # # # # # # # # # # # # # # # # # # > > > > > > > > > > > > > > > > > > > > > > > > > > > $ # $ # $ $ $ $ $ # $ > > > > > > > > > > > > > > $ $ $ $ > > > > > > > > > > > > > > > > > > > > > > > > > > > > > > > > > > > > > > > > > $ > > > > > > > > > > > > > > > > > > > > > > $ $ $ $ > > > > > > > > > > > > $ $ $ $ $ $ $ $ $ $ $ $ $ $ $ $ $ $ $ $ $ $ $ $ $ $ $ $ $ $ $ $ $ $ $ $ $ $ $ $ $ $ $ $ $ $ $ $ $ $ $ $ $ $ $ $ $ $ $ $ $ $ $ $ - - - * $ $ $ $ < $ # # # # % % < o b qXU.9X;X=X=X=X=XQ.6X0X/.0X1X#XOXD.D.D.H.H.H.H.H.H.H.J.J.H.H.H.H.H.H.H.H.H.S.Z.H.H.H.H.H.H.J.J.J.J.J.J.J.J.J.J.J.G.Z.Z.Z.Z.H.H.H.H.H.H.H.H.H.H.S.H.S.S.S.S.S.S.S.S.S.S.S.S.H.H.H.H.H.H.H.H.",
"4X4X1X1X1X1X1X1X1X4X1X4X1X1X1X1X1X1X1X1X1X#X1X#X1X#X1X#X1X#X1X1X#X#X#X#X#X#X#X#X#X1X1X1X1X1X1X1X4X4X<X<X<X<X<X2X2X2X4X2X<X2X<X1X1X1X1X1X1X1X1X4X4X2XqXqXqXqXqXwX6X8X6X6X*X7X=XQ.=X=XeX*X,X,X,Xu * 8 8 > # < 8 < < 2 , , , , 3 , ; - < < < < < < < < 2 2 2 2 2 2 < < 2 2 < 2 < < < < < < < < < < 2 2 2 2 2 2 2 2 < < 2 2 < 2 < < 2 2 2 2 < < 2 2 2 2 2 2 < < < < 2 2 < < < 2 2 2 < < < < < < < < < < < < < < < < < < 2 < < 2 2 2 2 2 2 2 2 2 2 2 2 2 < < < < < < 2 2 2 2 , 2 , 2 , 2 2 2 , 2 , 2 2 < 2 2 2 2 2 2 2 2 2 2 2 2 2 2 2 2 2 2 2 2 2 2 2 2 2 2 2 2 2 2 2 2 2 2 2 2 2 2 2 2 2 2 2 2 2 2 2 < 2 < < < 2 < 2 < 2 < 2 < 2 2 2 2 2 2 2 2 2 2 2 2 2 2 2 2 2 2 2 2 2 2 2 2 2 2 2 2 2 2 2 2 2 2 2 2 2 2 2 2 2 2 2 2 1 1 1 1 2 1 1 1 1 1 1 2 2 2 < < < < < < < < < < < < < < < < < < < < < < < < < < < < < < < < < < < < < < < < 2 ; - - - - - - 6 6 - - - 6 7 8 8 * n qXT.9X-X=X=XfX=XQ.7X6X).0X9X-X+X+X1XqXqXqXqXqXwXwXwXwXwXwXqXqXqXqXqXqXqXqXqX0X8X8X8X0X0X8X0X0X0X0X0X0X0X0XwX0XwX0X0X8X0X8X1X1X1X1X1X1X1X1X1X1X1X1X1X1X1X1X1X1X1X1X1X1X1X1X8X8X8X8X8X8X8X8X",
"+X+X+X+X+X+X+X+X+X+X+X*X*X*X+X+X+X+X*X+X*X*X*X+X*X+X*X+X*X+X*X+X+X+X+X+X+X+X+X+X+X+X+X+X+X+X*X*X+X,X,X,X,X,X,X,X,X,X,X,X,X,X,X+X*X*X*X*X6X,X6X6X6X6X6X6X6X6X6X6XR.6X6X6X=X=X=X=X=XQ.eX*X6X8X8Xj & * < 2 < < < < 2 , , , 3 3 3 3 ; ; ; - ; ; 2 2 2 2 2 2 2 2 2 2 < < 2 < 2 2 2 < , , , , , , , , < 2 2 2 2 2 2 , 2 2 2 2 2 2 2 2 2 < , < 2 < 2 2 2 2 2 2 2 2 2 2 , 2 2 < 2 < 2 < 2 2 2 2 2 2 2 2 2 2 2 2 2 2 2 , 2 2 2 2 2 2 2 2 2 2 2 2 < < < < < 2 < < < < < < , , , 2 2 , 2 2 2 2 2 2 2 2 2 2 , , , , , , , , , , , , , , 2 , , , , , , , , , 2 < 2 < 2 < , < 2 < 2 < 2 < 2 2 , , , , , , , , , , 2 2 2 2 , , , , , , , , , , , , , , , , , , , , , , , , , , , 2 , 2 , 2 , , , , , , , , , , 2 2 2 2 - ; ; ; ; ; < 2 2 2 , , 2 2 2 2 2 2 2 2 2 2 2 2 1 2 2 2 2 2 2 2 2 2 2 2 1 2 2 2 2 2 2 2 2 2 2 2 1 2 2 2 2 2 2 2 2 2 2 2 2 ; ; ; ; - < - * - 1 7 1 ; < - 1 O j qX6X9XW.=XW.=X=X!.7XeX).7X*X%XoX%X*X*X*X+X6X6X6X7X6X7X7X7X6X6X6X6X6X6X6X6X6X6X=X=X6X6X7X7X=X=X=X*X=X=X=X=X=X=X6X6X6X6X6X6X6X6X6X6X6X6X6X6X*X*X*X*X*X*X*X*X*X*X*X*X*X*X*X*X*X*X6X6X6X6X6X6X",
"*X*X*X-X*X*X*X*X-X-X*X*X*X*X6X*X=X=X=X=X=X=X=X=X;X-X=X-X=X-X=X-X;X;X;X;X-X;X;X;X-X-X-X;X;X;X-X-X*X*X*X*X*X*X*X*X*X*X*X*X*X*X*X*X*X*X*X*X*X*X*X*X*X*X*X*X*X*X*X*X-X-X-X=X=X=X=X=X=XQ.=X*X*X*X+Xi.= 1 1 2 2 1 , * , 2 1 1 1 1 1 5 ; ; ; ; ; ; ; ; ; ; ; ; , ; , ; 2 2 2 2 , 2 , 2 2 2 2 2 2 2 2 2 - - - - < < 2 2 , 2 2 , , , , , , 2 , 2 , - , , , , 2 , < < < , 2 < , 2 , 2 2 2 < < < < < < < < - - - - - - - - - - - - - - - - - - - - - - - - - - - - - - - - ; ; ; ; ; ; ; ; 2 2 2 2 ; 2 2 2 1 1 1 1 1 1 1 1 2 ; ; 2 2 2 2 2 2 1 , 1 2 1 2 1 , < , 2 2 2 , 2 2 < 2 < 2 2 , 2 , 2 , 2 , 2 , 2 2 2 ; ; ; 2 2 2 2 2 2 2 2 2 ; ; 2 2 , 2 , 2 , 2 1 1 1 1 1 1 1 1 , 2 , 2 , 2 , , 1 1 1 2 , 2 , , 2 ; ; ; ; ; - - ; ; 1 1 1 1 , , , 2 , 2 , 2 , 2 , , = 2 , 2 1 1 1 2 1 2 1 2 1 1 1 1 1 1 1 1 1 1 , 2 , 2 , 2 , 2 1 1 1 1 1 1 1 1 2 2 2 2 2 2 2 - 8 2 2 1 2 2 2 - ; : N qX8X*X*X9X=X=X=X=X7X7X7X7X=X-X-X-X-X-X*X*X*X*X=X=X=X=X=X=X*X*X*X*X*X*X*X*X*X=X=X=X=X=X=X=X=X=X=X=X=X=X=X=X=X=X=X=X=X=X=X=X=X=X=X=X=X=X=X=X=X=X=X=X=X=X=X=X;X;X;X&X&X;X;X;XQ.=X=XW.Q.6X7X6X",
"*X*X-X-X-X-X-X-X-X-X=X*X=X=X=X=XQ.W.Q.W.Q.W.=X%X=XW.Q.W.Q.W.Q.W.=X=X=X=X!.=X=X=X=X=X=X=X=X=XQ.%XQ.%X*X%X*X%X*X%X=X=X=X=X=X=X=X=X=X=X=X=X=X=X=X=X=X=X=X=X=X=X=X=X-X-X;X;X;X;X=X=X9X=X=X9X*X9X+XA.:.r O 1 9 O O 9 2 2 2 2 2 2 2 2 2 ; ; ; ; ; ; ; ; ; ; ; ; ; ; ; 2 2 2 2 2 2 2 2 2 2 2 2 2 2 2 - - - - - - - 2 2 2 , , , 1 , 2 , , , , , < < < < < < < < < < < < < < * < < < - * < < < < < < < < 1 ; ; ; ; ; ; ; 1 1 1 1 1 1 1 1 ; ; ; ; ; ; ; ; 1 1 ; ; ; ; ; ; ; ; ; ; ; ; ; ; ; - ; - ; ; - ; * * * * * * = = - = - = - - - - < < < < < < < < - - - - - , , , - - - - - - - - < < < < < < < < ; ; ; ; ; - ; ; ; ; ; ; ; ; ; ; 2 2 2 2 2 2 2 2 2 2 2 2 2 2 2 2 2 2 2 2 1 1 1 1 = = = = 2 1 1 2 - - - - - = = = = ; - = , , , , 1 1 1 1 1 1 1 1 2 2 1 1 1 1 1 1 , , , , , , = , , , , , , , , , 2 2 2 2 2 2 2 2 2 2 , 2 , , 2 2 < < < < < < < < O % * < 1 2 1 2 O u J.1XU.6X6X*X=X=X=X=X=X!.!.Q.=X*X*X*X*X*X=X=X*X=X*X*X*X*X=X=X*X%X*X%X*X%X*X%X*X%X*X%X*X%X*X%X*X%X*X%X*X%X*X%X*X%X*X%X*X%X*X%X=XW.Q.!.Q.W.Q.W.Q.W.Q.W.Q.W.Q.W.%X%X%X%X&X&X=X=X=X=X7X=X=X7X7XQ.",
"-X-X-X-X-X-X*X*X*X*X*X*X*X*X*X*X7X=X7X=X7X=X7X=X7X=X7X=X7X=X7X=X7X=X7X=X7X=X7X=X7X=X7X7X7X=X7X=X6X;X6X-X6X-X6X-X6X-X6X-X6X-X6X-X6X*X6X*X6X-X6X*X6X*X6X*X6X*X6X*X*X*X*X*X=X=X=X=X6X*X*X*X+X+X+Xu.G.n e * * - < 8 < < < < 2 2 2 2 2 2 2 2 2 2 2 2 2 2 2 2 2 2 2 2 2 2 2 2 1 1 1 1 < < < < < < < - < - < < < 2 2 2 2 2 , , , 2 , , , 2 < 2 2 2 2 < , < < < < < < < 2 < < < 8 8 2 < - - - - - - - - - - - - - - - - - - - - - - - - - - - - - - - - - - - - - - - - - - - - - - - - - - - - * * - - < < < < < < < < < < < < < < < < < < < < < < < < < < 1 1 1 2 2 2 < < < < < < < < < < < < < < < < 1 1 1 1 1 < 1 1 - - - - - - - - < < < < < < < < < < < < < < < < 2 2 2 2 2 2 2 2 < 2 2 2 2 2 2 2 2 2 1 1 1 1 ; ; 1 ; 2 2 2 , 2 , 1 1 , , 1 1 1 , 2 2 2 1 1 1 1 1 2 2 2 2 2 2 2 2 2 2 2 2 2 2 2 2 1 1 2 2 2 2 2 2 2 2 2 2 2 2 2 2 < < < < < < < < 8 8 8 < - # # # y :.yX1X+XwX8X*X9X9X7X7X7X7X7X7X6X*X6X-X6X-X6X-X6X-X6X-X6X-X6X-X6X-X6X-X7X-X6X-X6X-X6X-X6X-X6X-X6X-X6X-X6X-X6X-X6X-X6X-X6X-X6X-X7X=X7X=X7X=X7X=X7X=X7X=X7X=X7X=X;X:X;X;X;X;X;X=X=X7X7X*X6X6X6XQ.",
"-X-X-X-X-X-X*X*X*X*X*X*X*X+X*X*X*X*X*X*X*X*X*X*X*X*X*X*X*X*X*X*X*X*X*X*X*X*X*X*X*X*X*X*X*X*X*X*X*X*X*X+X*X+X*X+X+X+X+X+X+X+X+X+X+X+X+X+X+X+X+X+X+X+X+X+X+X+X+X+X-X-X-X*X*X*X6X6X6X+X6X1X,X1X#XA.n.P.) e o < <   # # # # # # # # # # # # # # # # # # # # # # # # # # # # # # # # # # # # # # # # # # # # # # # # % % # # # # # # > # # # # # # % # # # # # # # # # # $ $ $ $ $ $ $ $ $ $ $ $ $ $ $ $ $ $ $ $ $ $ $ $ $ $ $ $ $ $ $ $ $ $ $ $ $ $ $ $ $ $ $ $ $ $ $ $ $ $ $ $ $ $ $ $ $ $ $ $ $ $ % % % % % # % % % % % % % % % % % % % % % % % # % % % % % % # # % % % % % % % % # # # # # # # # # # # # # # # # # # # # # # # # # # # # # # # # # # # # # # # # # # # # # # # # # # # # # # # # * * * * # * # # % % % # # * * * * # # # * # * # # # # # * # * # * * * # # * # * # # # # # # # # # # # # # # # # # # # # # # # # # # # # # # # # # # # # # < e u l.n.J.].2X1XU.6X+X*X6X6X6X6X0X6X,X+X+X+X+X+X+X+X+X+X+X+X+X+X+X+X+X+X+X+X*X+X+X+X+X+X+X+X+X+X+X+X+X+X+X+X+X+X+X+X+X+X+X+X+X+X+X+X*X*X*X*X*X*X*X*X*X*X*X*X*X*X*X*X+X+X+X+X+X+X*X*X*X*X*X*X*X6X6X*X",
"-X-X-X-X*X*X*X*X-X#X+X1X1X1X1X1X8X8X8X8X8X8X8X8X6X1X6X1X6X,X6X1X6X8X6X8X6X,X6X,X6X8X6X8X6X8X6X1X,X1X,X1X,X1X,X1X8X1X1X1X1X1X1X1X8XqX8XqX8XqX8XqX8X4X8XqX8XqX8XqX1X1X1X1X1X8X8X8XqX1X8XqX4X4X2XH.n.K.K.) m l l v v v v v v v l l l l l l l l l l l l l l l l l l b l l l l l l l l l l l l l l f h h b l l l l l l l l l v l l l v l l l l l l f l b b b b b b b f l l l d s d f d d d d d d d d s s s s s s s s s s s s s s s s s s s s s s s s s s s s s s s s d d d d d d d d d d d d d d d d l l l l l l l l l l l l l l l l l z l l l l l l l v v v v v v v v v v v v v v v f f f f f f l l f f f f f f f f l l l l l l l l l l l l l l l l l l l l l l l l l l l l l l l l l l l l l l l l f h h h j j j j f f h b b b b b b l l l l l l l l l l l b b b b l l l l l l l l l l l l l l l l f f l l l l l l l l l l f f f f l l b b l l l l f f l l v C X.C..XB.H.<XyX4XT.yX1X8X6X6X6X8XqX1X,X1X1X1X1X1X1X1X,X1X1X1X1X1X1X1X1X1X1X1X1X1X1X1X1X1X1X1X1X1X1X1X,X1X1X1X1X1X1X1X,X1X,X1X1X1X1X1X1X1X6X1X6X,X6X1X6X,X6X1X6X1X6X1X1X1X1X1X1X1X1X1X6X*X+X*X*X*X*X*X",
"-X-X=X-X*X*X*X+X#X#X@X@X@X@X@X@X1X2X2X2X2X2X2X2X,X,X,X,X,X,X,X>X,X,X,X>X>X>X>X>X>X>X,X,X>X>X>X>XOXOXOXOXOXOXOXOXOXOXOXOXOXOXOXOX>X>X>X>X>X>X>X>X>X>X>X>X>X>X>X>XJ.J.J.J.J.J.J.J.>XJ.T.].J. X'.w.) _ X.V.K.B.V.{.V.V.V.V.V.V.V.V.K.K.K.K.K.K.K.K.L.B.K.V.L.V.L.V.V.V.V.V.V.V.V.K.K.K.K.K.V.V.K.K.V.V.V.V.V.V.K.K.K.K.{.{.{.{.K.K.{.{.K.K.K.K.|.|.P.P.P.P.P.P.P.P.K.{.{.V.X._ ..+.( ( ( ( ( ( ( ( ( ( ( ( ( ( ( ( ( ( ( ( ( ( ( ( ( ( ( ( ( ( ( ( ( ( ( ( ( ( ( ( ( ( ( ( ( ( ( ( ( ( ( ( ( ( ( ( Y Y E Y E Y E Y U U E Y E Y E U E E E E E E E E E ( ( ( ( ( ( ( ( ( ( ( ( ( ( ( #.#.#.#.#.#.#.#.b.#.#.#.#.#.#.#.N.N.N.N.N.N.N.#.B.N.N.N.N.N.N.N.V.V.V.V.B.B.V.V.K.K.K.K.K.K.K.K.K.K.K.{.|.{.{.{.|.|.|.|.|.|.|.'.|.|.|.|.P.P.P.K.K.K.K.K.K.K.K.K.V.V.K.K.K.K.K.K.K.K.K.K.K.K.K.K.|.{.{.{.{.{.{.{.K.K.K.K.K.K.K.K.{.{.{.{.|.|.{.{.{.{.{.|.|.|.|.|..X.X.X|.K.V.K.K.N.b..X.X3XrX5X2X2X2X2X2X2X2X2X2X>X>X>X>X>X>X>X>X>X>X>X>X>X>X>X>X>X>X>X>X>X>X>X>X>X>X,X>X>X>X>X>X>X>X>X>X>X>X,X>X>X>X>X>X>X>X>X>X,X,X,X,X,X,X,X>X,X,X,X,X,X,X,X>X<X<X<X<X2X2X2X2X1X,X,X6X6X*X*X*X",
"=X=X=X-X*X*X+X+XA.D.S.S.S.S.S.S.w.n.n.n.n.n.n.n.n.n.n.n.2.z.z.n.z.z.2.2.2.2.2.2.2.2.2.2.2.2.2.w.1.1.1.1.1.1.1.1.1.1.1.3.1.3.1.3.1.1.1.1.1.1.1.1.1.1.2.1.2.1.1.1.w.w.w.w.w.w.n.n.n.<.2.n.w.n.q.! Y E U V V Y U z C C V V V V V V C C A C A C A C V V V V C C C V Y U U U U U U U U U U U U U U U U Y Y Y U U U U E E E E E E E E E W _ E Y ( X.B.N.N.N.N.B.B.n.N.#.O.W U V x x V V V V V V V V V V V Z V Z V Z V Z V Z V Z V Z V Z V Z V Z V Z V Z V Z V Z V Z V Z Z Z V V V V V Z V Z V Z V Z V Z U Z U R U R U V V V V V V V V U U U U U U U U V V U U V U U U U U U U U U U U V V V V x x x x V V V V V V V V V z m m V V x x V V V V V V V V V V V V V V V V U U Y Y Y Y U U E E E ( _ _ _ _ N.N.b.b.b.b.b.b.B.b.l.) ) ( ( ( U U U U U U U U U U U U U U U U E E ( ( E ( E E ( ( ( ( ( ( ( ( _ _ _ _ _ _ _ _ _ _ _ _ _ _ _ _ _ _ _ _ _ _ _ _ Y E E Y Y C C C m C V.B.1.H.S.2.n.w.n.n.n.n.n.n.n.w.w.w.2.w.w.w.2.w.w.w.w.w.w.w.n.n.n.w.w.w.n.n.n.n.n.n.w.w.n.n.n.w.n.n.n.n.n.n.n.n.n.w.n.n.n.n.n.n.n.n.2.z.z.n.z.2.n.n.n.n.n.n.n.n.n.n.n.n.n.w.D.D.T.1X8X6X*X*X",
"=X=X=X-X*X+X+X+X<.<.<.,.,.9.,.1.w.w.b.w.l.w.b.w.b.w.b.w.l.1.b.w.l.1.l.1.l.1.l.1.l.1.l.1.l.1.l.1.b.w.b.w.b.w.b.q.b.w.b.b.b.b.b.b.b.b.b.n.n.n.b.b.b.b.b.b.n.n.n.b.1.1.1.1.1.1.1.1.n.1.b.b.b.b.b.Y V V U U U V Z T U U U U U U U U V V V V V V V V Z Z Z Z V V Z Z U U U U U U U U U U U U U U U U U Y U Y Y Y U U U U U U U U U U x U U U V U X.V.V.V.V.V.C.B.F.C.V.O.R V U U U U U U R U R U R R R R R R R R R R R R R R R R R R R R R R R R R R R R R R R R R R R R R R R R R R R R R R R R R R R R R R R R R R R R R R R R R R U D D D U U U U U U U U U U U U U U Z U Z U Z U U U U U U U U U R R R R R R R R R R R R R R R R U U U U U U U U V U Z U Z U Z U V V V V V V V V V V V V V V V V V.V.V.V.B.B.B.B.C.N.X.( C V V R V U Z U V U V U V V V V Z U U U U U U U U U U U V V V V V V V V V V V V V V V V V V V V V V V V V V V V V V V V E U V V V U E E ..V #.V.) n.n.` n.b.n.n.n.n.b.b.b.w.b.w.l.w.b.w.b.1.b.w.b.w.b.w.b.w.b.w.b.w.b.w.b.w.b.w.b.w.b.w.b.w.b.w.b.w.b.w.b.w.b.w.b.w.b.w.b.w.b.w.l.1.b.w.l.1.b.w.b.w.b.b.q.q.q.q.q.w.w.1.<.<.A.,XqX8X+X*X",
"=X=X*X*X*X8X#XOX<.<.w.9.9.{ 9.q.b.b.b.b.b.b.b.b.b.b.b.b.b.b.b.b.b.b.b.b.b.b.b.b.b.b.b.b.b.b.b.b.b.b.b.b.b.b.b.b.b.b.b.b.b.b.b.b.b.b.b.b.b.b.b.b.b.b.b.b.b.b.b.b.b.w.w.w.b.b.b.l.b.b.b.b.b.N.O._ U U R U R R R U R U R U R U R R R R R R R R R R R R R R R R R R R U R U R U R U R U R U R U R U U U U U U U U U U R U x x U E U R R U U U U _ {.N.V.B.n.B.C.C.b.E x U U x R R R R U R U R U R R R R R R R R R R R R R R R R R R R R R R R R R R R R R R R R R R R R R F R R R R R R R R R R R R R R R R R R R R R R R R F F R R F D F D R U F D R U R U R U R U R U R U R U R U R U R U R U R R R R R R R R R R R R R R R R R R R U R U R U R U U U R U R U R U R U R U R U R U E U Z U E E R V U ( N.K.V.N.C.V.V.C.` V U E R U R U R U R U R U R U R U R U R U R U R U R U R U R U R U R U R U R U R U R U R U R U R U R U R U R U R U R U R U R U R U R U R U Z E ..#.N.b.b.b.b.b.b.b.b.b.b.b.b.b.b.b.b.b.b.b.b.b.b.b.b.b.b.b.b.b.b.b.b.b.b.b.b.b.b.b.b.b.b.b.b.b.b.b.b.b.b.b.b.b.b.b.b.b.b.b.b.b.b.b.b.b.b.b.b.b.b.b.b.b.b.b.b.b.b.N.n.n.w.1.1.0.0.@XqX+X8X*X",
"=X*X*X*X*X8X,XOX<.w.9.9.9.{ { q.b.b.b.b.b.b.b.b.b.b.b.b.b.b.b.b.b.b.b.b.b.b.b.b.b.b.b.b.b.b.b.b.b.b.b.b.b.b.b.b.b.b.b.b.b.b.b.b.b.b.b.b.b.b.b.b.b.b.b.b.b.b.b.b.b.b.b.b.b.b.b.b.b.b.b.b.#.#.+.E U U R R R R R R R R R R R R R R R R R R R R R R R R R R R R R R R R R R R R R R R R R R R R R R R U U U U U U U U U E U U U U x D U D U T U _ L.N.V.V.b.B.C.C.b.E x U U x R Q R R U R R R R R R R R R R R R R R R R R R R R R R R R R R R R R R R R R R R R R R R F F F F F F F F F F F F F F F F F F F F F F F F F F F F F F F F F F F F F F F R R F R R R R R R R R R R R R R R R R R R R R R R R R R R R R R R R R R R R R R R R R R R R R R R R R U R R R R R R R R R R R R R R R R R R U V U E #.K.V.V.C.V.V.K...V U R R U R R F F F R R R R R R R F F F F R R R R R R R R R R R R R R R R R R R R R R R R R R R R R R R R R R R R R R R R R R R R R R R R Z E ..#.N.b.b.b.b.b.b.b.b.b.b.b.b.b.b.b.b.b.b.b.b.b.b.b.b.b.b.b.b.b.b.b.b.b.b.b.b.b.b.b.b.b.b.b.b.b.b.b.b.b.b.b.b.b.b.b.b.b.b.b.b.b.b.b.b.b.b.b.b.b.b.b.b.b.b.b.l.b.b.b.{ q.q.q.9.w.0.@XqX+X6X*X",
"=X*X*X*X*X8X,XOX<.9.9.q.q.q.@.@.b.b.b.b.b.b.b.b.b.b.b.b.b.b.b.b.b.b.b.b.b.b.b.b.b.b.b.b.b.b.b.b.b.b.b.b.b.b.b.b.b.b.b.b.b.b.b.b.b.b.b.b.b.b.b.b.b.b.b.b.b.b.b.b.b.b.b.b.b.b.b.b.b.N.b.b.#.#.+.E U F R R R R R R R R R R R R R R R R R R R R R R R R R R R R R R R R R R R R R R R R R R R R R R R R R U U U U U x U U U U U V x D D x U T U E V.N.V.B.B.n.C.C.N.U c R Q R Q | R R R R R R R R R R R R R R R R R R R R R R R R R R R R R R R R R R R R R R R R R R F F F F F F F F F F F F F F F F F F F F F F F F F F F F F F F F F F F F F F F F F F R R R F F R R R R R R R R R R R R R R R R R R R R R R R R R R R R R R R R F R R R R R R R R R R R R R F F R R R R R R R R Z R Q Q Q R R Z U U X.V.V.C.C.N.V.V._ V U Q F F F F F F F F F F F R R R F F F F R R R R R R R R R R R R R R R R R R R R R R R R R R R R R R R R R R R R R R R R R R R R R R R R Z E X.#.N.b.b.b.b.b.b.b.b.#.b.b.b.b.b.b.b.b.b.b.b.b.b.b.b.b.b.b.b.b.b.b.b.b.b.b.b.b.b.b.b.b.b.b.b.b.b.b.b.b.b.b.b.b.b.b.b.b.b.b.b.b.b.b.b.b.b.b.b.b.b.b.b.b.b.b.X.b.b.b.` ` { b.9.w.2.@XqX+X6X*X",
"=X*X*X*X6X8X,XOX2.1.w.q.b.b.b.+.b.b.b.b.b.b.b.b.b.b.b.b.b.b.b.b.b.b.b.b.b.b.b.b.b.b.b.b.b.b.b.b.b.b.b.b.b.b.b.b.b.b.b.b.b.b.b.b.b.b.b.b.b.b.b.b.b.b.b.b.b.b.b.b.b.b.b.b.b.b.b.b.b.N.b.b.#.#.+...D F R R R R R R F R F R R R R F R R R R R R R R R R R R R R R R R R F F F R R R R R R R R R R R R R R R R U U U U U U V U T _ E W Q U U R U E V.V.V.B.m.B.C.B.N.V R R Q R R | R R R R R R R R R R R R R R R R R R R R R R R R R R R R R R R R R R R R R R R R R R F F F F F F F F F F F F F F F F F F F F F F F F F F F F F F F F F F F F F F F F F R R R R R F R R R R R R R R R R R R R R R R R R R R R R R R R R R R R R R R R R F F F R R R R R R R R R R F R R R R R R R R R R R R Q R R R U V _ V.V.K.C.b.V.V._ V R R F F F F F F F F F F F R F R F F F F R R R R R R R R R R R R R R R R R R R R R R R R R R R R R R R R R R R R R R R R R R R R R R R R Z E ..#.N.b.b.b.b.b.b.b.b.#.#.#.b.b.b.b.b.b.b.b.b.b.b.b.b.b.b.b.b.b.b.b.b.b.b.b.b.b.b.b.b.b.b.b.b.b.b.b.b.b.b.b.b.b.b.b.b.b.b.b.b.b.b.b.b.b.b.b.b.b.b.b.b.b.b.b.l.l.b.b.b.{ q.q.9.w.<.OX8X,X6X*X",
"*X-X*X*X6X8X,XOX2.2.1.w.b.N.N.#.b.N.b.b.b.b.N.N.b.b.b.b.b.b.b.N.b.b.N.N.N.N.b.b.b.b.b.N.N.N.b.b.b.b.b.b.N.N.b.b.b.b.N.N.b.b.b.b.N.N.b.b.b.b.N.N.b.b.b.b.b.b.b.b.b.+.b.b.b.b.b.b.b.b.N.#.#.N.+...R R R R R R R R R R R R R R R R R R R R R R R R R R R R R R R R R R R R R R R R R R R R R R R F F F F R R R R U E E E _ X.#.V.L.$.O.R Z U V Y V.V.V.B.m.B.B.B.N.V R Z  .R R $.R R R R R R R R R R R R R R R R R R R R R R R R R R R R R R R R R R R R R R R R R R R R R F F R R R R R F R R R R F F F R R R F R R R R F R R R F F F F F F F R R R R R R R R R R R R R R R R R R R R R R R R R R R R R R R R R R R R R R R R R R R R R R R R R R R R R R R R R R R R R R R R R R R Z x x R R R R U V _ V.C.C.K.N.V.V._ V R R F R F R R R F R R R R R R R R R R R R R R R R R R R R R R R R R R R R R R R R R R R R R R R R R R R R F F R R R F F R R R R R R R R Z E ..#.N.b.b.b.b.b.b.b.b.#.#.#.b.b.b.b.N.N.b.b.b.b.N.N.b.b.b.b.N.N.b.b.b.b.N.N.b.b.b.b.b.b.b.N.b.b.b.N.N.N.b.b.b.b.b.N.N.N.b.b.b.b.b.b.b.b.N.b.b.b.b.b.b.b.b.b.b.1.b.n.H.C.b.` 9.w.<.OX8X+X6X*X",
"*X*X*X*X6X8X,XOX2.2.1.b.b.N.N.+.N.N.b.b.b.b.b.N.b.b.b.b.b.b.N.N.b.b.b.b.b.b.b.b.b.b.b.b.b.N.b.N.b.b.b.b.N.N.b.b.b.b.N.N.b.b.b.b.N.N.b.b.b.b.b.N.b.b.b.b.b.b.N.b.b.+.b.b.b.b.b.b.l.b.b.b.N.N.#...Z R R R R R R R R R R R R R R R R R R R R R R R R R R R R R R R R R R R R R R R R R R R R R R F F F F F R R R R V U _ V.K.K.K.K.L.#.E Z U V E V.V.V.C.m.B.B.B.N.x  .Z  .R R #. .Z R Z R R R R R R R R R R R R R R R R R R R R R R R R R R R R R R R R R R R R R R R F F F F R R R R R F R R R R F F R R R R R F R R R R R R R R F F F F F F R R R R R R R R R R R R R R Z R Z R R R R R R R Z R R R R R R R R R R R R R R R R R R R R R R R R R R R R R R R R R R R R R R R R R R Z Z Z Z R R R E V _ V.C.V.V.N.V.N.( V R R F Q F R R R F F R R R R R F R R R R R R R R R R R R R R R R R R R R R R R R R R R R R R R R R R R R R F F R R R R F R R R R R R R R Z E X.#.N.b.b.b.b.b.b.b.b.#.#.#.b.b.b.b.N.N.b.b.b.b.N.N.b.b.b.b.N.N.b.b.b.b.b.N.b.b.b.b.b.b.N.N.b.b.b.b.b.b.N.N.b.b.b.b.b.N.b.N.b.b.b.b.N.N.N.N.N.b.b.b.b.b.b.b.n.1.1.H..X.XM./ q.w.,.T.8X+X6X*X",
"*X*X*X*X6X8X,XOX2.1.1.b.B.B.N.#.b.b.b.b.b.b.b.b.b.b.b.b.b.b.b.b.b.b.b.b.b.b.b.b.b.b.b.b.b.b.b.b.b.b.b.b.b.b.b.b.b.b.b.b.b.b.b.b.b.b.b.b.b.b.b.b.b.b.b.b.b.b.b.b.b.b.b.b.b.b.b.b.l.N.b.b.N.N.#...Z R R R R R R R R R R R R R R R R R R R U U R R R R R R R R R R R R R R R R R R R R R R R R R R F F F F R R R R V C ..V.K.K.N.B.L.#.E V U V E N.V.V.C.m.m.M.m.b.z | V  .R Z L.| Z Z R R R R R R R R R R V U R R R R R R R R R R R R R R V R R R R R R R V R R R R R R R R R R R U U R R R R R R R R R R U U R R R R R R R R R R F F R R R R R R R R R R R R R R R R R R Z Z R R R R R R R R R R R R R R R R R R R R R R U R R R R R R R R R R R R R R R R R R R R R R R R R R R R | o...R Z Z R E V _ L.C.B.C.B.K.N.E V R F F  .R R R R R R R R R R R R R R R R R R R Z Z Z R R R R R R R R R R R R R R R R R R Z Z R R R R R R R F R R R R F F F R R R R R R R Z E X.#.N.b.b.b.b.b.b.b.b.@.#.#.b.b.b.b.b.b.b.b.b.b.b.b.b.b.b.b.b.b.b.b.b.b.b.b.b.b.b.b.b.b.b.b.b.b.b.b.b.b.b.b.b.b.b.b.b.b.b.b.b.b.b.b.b.b.b.b.b.b.b.b.b.b.b.b.n.2.2.J.3XrX'.,.q.w.,.T.8X,X6XQ.",
"*X*X*X*X6X8X,XOX2.1.1.b.B.B.b.b.b.b.b.b.b.b.b.b.b.b.b.b.b.b.b.b.b.b.b.b.b.b.b.b.b.b.b.b.b.b.b.b.b.b.b.b.b.b.b.b.b.b.b.b.b.b.b.b.b.b.b.b.b.b.b.b.b.b.b.b.b.b.b.b.b.b.b.b.b.b.b.b.l.b.b.b.N.N.#...Z R R R R R R R R R R R R R R R R R R R R U R R R R R R R R R R R R R R R R R R R R R R R R R R R R R R R R R U E ( X.B.C.B.B.V.V.#.E U E U Y #.V.C.B.m.V.C.m.@.x | V E A Z L.| R R R R R R R R R R R Z Z V R R R R R R R R R R R R R R U R R R R R R R U R R R R R R R R R R R R U R R R R R R R R R R U U R R R R R R R R R R R R R R R R R R R R R R R R R R R R R Z Z Z R R R R R R R R R R R R R R U U R R R R R R U U R R R R R R R R R R R R R R R R R R R R R R R R R R E #.{.L...Z Z E E V ..K.C.B.B.B.K.N.E V R D F  .R R R R R R R R R R R R R R R R R R R R Z R R R R R R R R R R R R R R R R R R Z Z Z R R R R R R R R R R R R R R R R R R R R R R V E X.#.N.b.b.b.b.b.b.b.b.b.b.b.b.b.b.b.b.b.b.b.b.b.b.b.b.b.b.b.b.b.b.b.b.b.b.b.b.b.b.b.b.b.b.b.b.b.b.b.b.b.b.b.b.b.b.b.b.b.b.b.b.b.b.b.b.b.b.b.b.b.b.b.b.b.b.b.n.1.w.J.4XtX[.9.w.w.<.J.8X+X6XQ.",
"=XW.=X=X*X6X,XJ.1.q.b.` H.|.1.n.b.b.b.b.b.b.b.b.b.b.b.b.b.b.b.b.b.b.b.b.b.b.b.b.b.b.b.b.b.b.b.b.b.b.b.b.b.b.b.b.b.b.b.b.b.b.b.b.b.b.b.b.b.b.b.b.b.b.b.b.b.b.b.b.b.b.b.b.b.b.b.b.b.b.N.N.N.b.#.O.U U R R U U R R R R R R R R R R R R R R R R R R R R R R R R U R R R R R R R R R R R R R R R R R U U U U U U U U C U +.C.B.n.C.n.B.B.! m U U U #.V.V.V.B.B.C.B.#.U x E U E C K...Z U R R R R Z U R R R R R R R R R R R R R R R R R R R R R R R R R R R R R R R R R R U R R R R R R R R R R R R R R R U U R R R R R R R R R R R R R R R R R R R R R R R R R R R R R R R R R R R R R R R R R R R R R R R R R R R R R R R R R R R R R R R R R R R R R R R R R R R R U U R R R R R V _ V.C.N.N.( V R R x _ V.B.B.M.B.V.V.R z R F D %.F F R R R R R R R R R R R R Z R R R R R R R R R R R R R R R R R R R R R R R R R R R R R R R R R R R R R R R R R R R R R R R R R V E O.#.#.#.#.X.b.b.b.b.b.N.l.b.b.b.b.b.b.b.b.b.b.b.b.b.b.b.b.b.b.b.b.b.b.b.b.b.b.b.b.b.b.b.b.b.b.b.b.b.b.b.b.b.b.b.b.b.b.b.b.b.b.b.b.b.b.b.b.b.b.b.b.b.b.b.b.b.q.q.1.].,X@X>X2.w.w.1.H.2X8X=X=X",
"=XW.=X=X=X6X,XJ.1.q.q./ '.'.,.n.b.b.b.b.b.b.b.b.b.b.b.b.b.b.b.b.b.b.b.b.b.b.b.b.b.b.b.b.b.b.b.b.b.b.b.b.b.b.b.b.b.b.b.b.b.b.b.b.b.b.b.b.b.b.b.b.b.b.b.b.b.b.b.b.b.b.b.b.b.b.b.b.b.b.N.b.N.b.+.+.U U U U U U R R R R R R R R R R R R R R R R R R R R R R R R U U R R R R R R R R R R R R R R U U U Y U U U U U U C U +.C.C.n.M.n.M.B.^ m Y J U #.V.V.C.B.B.C.B.#.U D T C U C {.+.V U U R R R R U R R R R R R R U R R R R R R R R R R R R R R R R R R R R R R R R R R U U R R R R R R R R R R U U R R R R R R R R R R R R R R U U R R R R R R R R R R R R R R R R R R R U R R R R R R R R R R R R R R R R R R R R R R R R R R R R R R R R R R R R R R R R R R R U U U R F F R U U { B.M.n.b._ C R R D _ V.M.n.M.B.V.#.R x R U D %.D F R R R R R R R R R R U U A Z R R R R R R R R R R R R R R R R R R R R R R R R R R R R R R R R R R R R R R R R R R R R R R U U V E O.#.#.#.#.+.b.b.b.N.N.N.l.l.b.b.b.b.b.b.b.b.b.b.b.b.b.b.b.b.b.b.b.b.b.b.b.b.b.b.b.b.b.b.b.b.b.b.b.b.b.b.b.b.b.b.b.b.b.b.b.b.b.b.b.b.b.b.b.b.b.b.b.b.b.b.b.b.+.{ 1.[.,X#X,X2.w.b.q.H.2X8X=X&X",
"=XW.=X9X=X6X,XJ.1.q.q./ '.'.<.w.b.b.b.b.b.b.b.b.b.b.b.b.b.b.b.b.b.b.b.b.b.b.b.b.b.b.b.b.b.b.b.b.b.b.b.b.b.b.b.b.b.b.b.b.b.b.b.b.b.b.b.b.b.b.b.b.b.b.b.b.b.b.b.b.b.b.b.b.b.b.b.b.b.b.b.b.N.b.b.+.V U U U R R R U R R R R R R R R R R R R R R R R R R R R R R R R R R R R R R R R R R R R R R R R U U U U R R R U V U +.C.B.n.M.n.n.B.^ m T U U #.V.V.C.B.B.C.B.#.U D R V C C {.#.V U U R R R R R R R R R R R R R R R R R R R R R R R R R R R R R R R R R R R R R R R R R R R R R R R R R R R R R R R R R R R R R R R R R R R R R R R R R R R R R R R R R R R R R R R R R R R R R R R R R R R R R R R R R R R R R R R R R R R R R R R R R R R R R R R R R R R R R U U F F F F R U #.B.B.n.V.X.U Z R D W V.M.n.M.B.V.#.R x R U U O.F R R R R R R R R R R R R R R R R R R R R R R R R R R R R R R R R R R R R R R R R R R R R R R R R R R R R R R R R R R R R R R R V E O.#.#.#.#.#.b.b.N.N.N.N.l.l.b.b.b.b.b.b.b.b.b.b.b.b.b.b.b.b.b.b.b.b.b.b.b.b.b.b.b.b.b.b.b.b.b.b.b.b.b.b.b.b.b.b.b.b.b.b.b.b.b.b.b.b.b.b.b.b.b.b.b.b.b.b.b.b.b.q.1.[.,X#X,X2.w.b.b.H.2X8X=X&X",
"=XW.=X7X=X6X,XD.,.q.q.] '. X<.w.b.b.b.b.b.b.b.b.b.b.b.b.b.b.b.b.b.b.b.b.b.b.b.b.b.b.b.b.b.b.b.b.b.b.b.b.b.b.b.b.b.b.b.b.b.b.b.b.b.b.b.b.b.b.b.b.b.b.b.b.b.b.b.b.b.b.b.b.b.b.b.b.b.b.b.b.b.b.b.#.U U U U R R R D R R R R R R R R R R R R R R R R R R R R R R R R R R R R R R R R R R R R R R R R U U U U R R R R U U +.K.B.n.M.n.B.V.^ m U U U +.V.V.C.B.B.C.B.#.U D R V C C {.V.V U R R R R A R R R R R R R R R R R R R R R R R R R R R R R R R R R R R R R R R R R R R R R R R R R R R R R R R R R R R R R R R R R R R R R R R R R R R R R R R R R R R R R R R R R R R R R R R R R R R R R R R R R R R R R R R R R R R R R R R R R R R R R R R R R R R R R R R U U F F F F R E V.C.n.n.K.#.R Z R D _ V.B.n.M.B.V.#.R x R U U $.R F R R R R R R R R R R R R R R R R R R R R R R R R R R R R R R R R R R R R R R R R R R R R R R R R R R R R R R R R R R R R R R V W +.#.#.#.N.N.b.b.N.N.N.N.l.l.b.b.b.b.b.b.b.b.b.b.b.b.b.b.b.b.b.b.b.b.b.b.b.b.b.b.b.b.b.b.b.b.b.b.b.b.b.b.b.b.b.b.b.b.b.b.b.b.b.b.b.b.b.b.b.b.b.b.b.b.b.b.b.b.b.q.1.OX,X,X,X2.w.b.b.H.2X8X*X=X",
";X%X=X7X=X6X,XD.1.q.q.] '.5X2.w.b.b.b.b.b.b.b.b.b.b.b.b.b.b.b.b.b.b.b.b.b.b.b.b.b.b.b.b.b.b.b.b.b.b.b.b.b.b.b.b.b.b.b.b.b.b.b.b.b.b.b.b.b.b.b.b.b.b.b.b.b.b.b.b.b.b.b.b.b.b.b.b.b.b.b.b.b.b.b.#.R R D D F R R F R R R R R R R R R R R R R R R R R R R R R R R R R R R F R R R R R R F R F F R R U U R R R R R R U U +.K.B.b.B.n.m.V._ U Q D U +.V.V.C.B.B.C.B.#.R D R V V C .XK.V U R R R R  .R R R R R R R R R R R R R R R R R R R R R R R R R R R R R R R R R R R R R R R R R R R R R R R R R R R R R R R R R R R R R R R R R R R R R R R R R R R R R R R R R R R R R R R R R R R R R R R R R R R R R R R R R R R R R R R R R R R R R R R R R R R R R R R R R R D F F F F R _ V.C.n.B.{.V. .c R D _ V.M.n.M.B.V.#.R x Q U U V.R R R R R R R R R R R R R R R R R R F F R R R R F R R R R R R R R R R R R R R R R R R R R R R R R R R R R R R R R R R R R R R R U _ +.#.#.N.N.b.b.b.N.N.N.x.l.l.b.b.b.b.b.b.b.b.b.b.b.b.b.b.b.b.b.b.b.b.b.b.b.b.b.b.b.b.b.b.b.b.b.b.b.b.b.b.b.b.b.b.b.b.b.b.b.b.b.b.b.b.b.b.b.b.b.b.b.b.b.b.b.b.b.q.1.OX,X,X,X2.w.b.q.H.2X8X*X=X",
";X%X=X7X=X6X,XD.1.q.q.] '.5X2.w.b.b.b.b.b.b.b.b.b.b.b.b.b.b.b.b.b.b.b.b.b.b.b.b.b.b.b.b.b.b.b.b.b.b.b.b.b.b.b.b.b.b.b.b.b.b.b.b.b.b.b.b.b.b.b.b.b.b.b.b.b.b.b.b.b.b.b.b.b.b.b.b.b.b.b.b.b.b.b.#.| Q R D F R R F F F R R R R R R R R R R R R R R R R R R R R R R R R R F R R R R R R R R F R R R F D R R R R R R U U +.K.V.N.B.m.m.V.W U Q D D O.V.V.C.B.B.C.B.#.U D R Z V C .X{.V U U R R R  . .R R R R R R R R R R R R R R R R R R R R R R R R R R R R R R R R R R R R R R R R R R R R R R R R R R R R R R R R R R R R R R R R R R R R R R R R R R R R R R R R R R R R R R R R R R R R R R R R R R R R R R R R R R R R R R R R R R R R R R R R R R R R R R R R R D F F F c Q ..C.C.n.B.{.L. .c R D _ V.M.M.M.B.V.#.R x Q Z U }.R R R R R R R R R R R R R R R R R R F F R R R R F F R R R R R R R R R R R R R R R R R R R R R R R R R R R R R R R R R R R R R R U _ #.#.#.#.N.b.b.b.N.N.N.N.l.b.b.b.b.b.b.b.b.b.b.b.b.b.b.b.b.b.b.b.b.b.b.b.b.b.b.b.b.b.b.b.b.b.b.b.b.b.b.b.b.b.b.b.b.b.b.b.b.b.b.b.b.b.b.b.b.b.b.b.b.b.b.b.b.b.b.q.1.@X1X,X,X2.w.b.b.H.2X8X=X=X",
"=X=X=X7X=X6X,XD.1.9.9.`  X<X2.w.b.b.b.b.b.b.b.b.b.b.b.b.b.b.b.b.b.b.b.b.b.b.b.b.b.b.b.b.b.b.b.b.b.b.b.b.b.b.b.b.b.b.b.b.b.b.b.b.b.b.b.b.b.b.b.b.b.b.b.b.b.b.b.b.b.b.b.b.b.b.b.b.b.b.b.b.b.b.b.N.$.| R D R R R R R R R R R R R R R R R R R R R R R R R R R R R R R R F F F F R R F R F F R R R F R F R F F R R R U U +.}.V.b.B.m.m.V.W U Q D D O.V.K.C.B.B.C.B.#.D D Q U C C .X{.V U R R R R  . .R R R F R R R R R R R R F F F R R R R R F F R R R R R R R R R R F F R R R R R R R R R F R R R R F F R R R R R R R R R F R R R R F F R R R R R R R R R F R R R R F F R R R R R R R F R R R R R R R R R R F F R R R R R R R R R R R R R R F F F R F F R R R R R R R D F F F c Q $.C.C.n.B.{.L. .c R x _ V.M.n.M.B.V.#.R x E Z U {.R R R R R R R R R R R R R R R R R R F F F F R R F F F F R R R R R R R R R R R R R R R R R R R R R R R R R R R R R R R R R R R R E ..#.#.#.#.b.X.N.N.N.N.N.N.N.N.b.b.b.b.b.b.b.b.b.b.b.b.b.b.b.b.b.b.b.b.b.b.b.b.b.b.b.b.b.b.b.b.b.b.b.b.b.b.b.b.b.b.b.b.b.b.b.b.b.b.b.b.b.b.b.b.b.b.b.b.b.b.b.b.b.q.w.@X1X,X,Xw.w.b.q.H.2X8X*X=X",
"=X=X=X7X*X6X,XD.1.9.9.`  X3X2.2.b.b.b.b.b.b.b.b.b.b.b.b.b.b.b.b.b.b.b.b.b.b.b.b.b.b.b.b.b.b.b.b.b.b.b.b.b.b.b.b.b.b.b.b.b.b.b.b.b.b.b.b.b.b.b.b.b.b.b.b.b.b.b.b.b.b.b.b.b.b.b.b.b.b.b.b.b.b.N.N.#.| R x U R R R R R R R R R R R R R R R R R R R R R R R R R R R R R F F F F F F F F R F F R R R F F F F F R R R U U +.}.V.b.B.n.m.V.W U Q D D O.V.K.C.B.B.C.B.#.D G Q U C C .X{.V U R R R R  . .R R R F F R R R R R R R F F R R R R R R R R R R R R R R R R R R F F R R R R R R R R R F R R R R F F R R R R R R R R R F R R R R F F R R R R R R R R R F F F R R F F R R R R R R R R R R R R R R R R R R R R R R R R R R R R R R R R R R F F F R F F R R R R R R R D F  .F c  .#.V.C.B.B.K.L. .c R x _ V.M.n.M.m.V.#.R Z E Z E {.R R R R R R R R R R R R R R R R R R F F F F R R F F F F F R R R R R R R R R R R R R R R R R R R R R R R R R R R R R R R R R R R E O.#.#.#.#.b.X.N.N.N.N.N.N.N.N.b.b.b.b.b.b.b.b.b.b.b.b.b.b.b.b.b.b.b.b.b.b.b.b.b.b.b.b.b.b.b.b.b.b.b.b.b.b.b.b.b.b.b.b.b.b.b.b.b.b.b.b.b.b.b.b.b.b.b.b.b.b.b.b.b.q.w.@X1X,X,Xw.w.b.q.H.2X8X=X&X",
"-X=X=X=X*X8X,XZ.1.q.n./ '.yX2.2.b.b.b.b.b.b.b.b.b.b.b.b.b.b.b.b.b.b.b.b.b.b.b.b.b.b.b.b.b.b.b.b.b.b.b.b.b.b.b.b.b.b.b.b.b.b.b.b.b.b.b.b.b.b.b.b.b.b.b.b.b.b.b.b.b.b.b.b.b.b.b.b.b.b.b.b.b.b.b.#.#.$.$.| U x Z R R R R R Z R Z R R R R R R R R R R R R R R R R R x U U R R R R R U U U U U U U D D D D D F F F R R U V.L.N.C.n.n.b.V._ U Q U U O.V.V.B.B.B.B.B.N.D Q R U m ! |.|.^ z U U R | R R R R R R R R R R R R R R R R R R R R R R R R R R R R R R R R R R R R R R R R R R R R R R R R R R R R R R R R R R R R R R R R R R R R R R R R R R R R R R R R R R R R R R R R R R R R R R R R R R R R R R R R R R R R R R R R R R Q Q Q Q R R R R R R Q Q Q Q Q R R D F  . .c ..L.B.C.C.B.K.L.$.Z Q V _ V.B.n.B.m.N.V.Z R V U E {.E x R R Z R Z R R R R R U R R R R R R R R R R R R R R R R R R R R R R R R R R R R R R R R R R R R R R R R R R R R R R R R R R E #.#.#.#.b.b.b.N.#.#.N.N.N.N.b.b.b.b.b.b.b.b.b.b.b.b.b.b.b.b.b.b.b.b.b.b.b.b.b.b.b.b.b.b.b.b.b.b.b.b.b.b.b.b.b.b.b.b.b.b.b.b.b.b.b.b.b.b.b.b.b.b.b.b.b.b.b.b.b.b.+.q.w.@X1X,X,X2.1.b.1.S.2X8X=X=X",
"-X=X=X=X*X8X,XZ.1.q.n./ '.yX2.2.b.b.b.b.b.b.b.b.b.b.b.b.b.b.b.b.b.b.b.b.b.b.b.b.b.b.b.b.b.b.b.b.b.b.b.b.b.b.b.b.b.b.b.b.b.b.b.b.b.b.b.b.b.b.b.b.b.b.b.b.b.b.b.b.b.b.b.b.b.b.b.b.b.b.b.b.b.b.b.b.+.+.O._ E U U E Z Z Z Z Z Z Z Z Z V Z V Z V Z V U U U U U U U U U U R U R U R U R U R U R U R U U U U R R R R R U V N.V.b.H.M.M.B.`.[ J Q U U O.V.V.B.B.B.B.B.N.D R U U m ^  X.X^ z Y U U E Z R R R R R R R R R R R R R R R R R R R R R R R R R R R R R R R R R R R R R R R R R R R R R R R R R R R R R R R R R R R R R R R R R R R R R R R R R R R R R R R R R R R R R R R R R R R R R R R R R R R R R R R R R Z R Z R Z R Z R R R R R Z R Z U R R R R R R R R D D F R F x ..V.B.H.F.n.V.L.$.c R x _ V.M.n.B.m.N.V.V R V E C {.E x U U V U V U U R R R R U R R R R R R R U R R R U R R R R R R R R R R R R R R R R R R R U R R Z V Z V Z V Z V Z V V V U E | ..#.#.#.#.b.b.N.N.#.#.N.N.b.b.b.b.b.b.b.b.b.b.b.b.b.b.b.b.b.b.b.b.b.b.b.b.b.b.b.b.b.b.b.b.b.b.b.b.b.b.b.b.b.b.b.b.b.b.b.b.b.b.b.b.b.b.b.b.b.b.b.b.b.b.b.b.b.b.b.b.+.q.w.@X1X,X,X2.1.b.1.M.2X8X*X=X",
"-X*X*X=X*X8X,XA.w.9.n./  XyX6.2.b.b.b.b.b.b.b.b.b.b.b.b.b.b.b.b.b.b.b.b.b.b.b.b.b.b.b.b.b.b.b.b.b.b.b.b.b.b.b.b.b.b.b.b.b.b.b.b.b.b.b.b.b.b.b.b.b.b.b.b.b.b.b.b.b.b.b.b.b.b.b.b.b.b.b.b.b.b.b.b.#.#.#.+..._ ..+.E ( E E E E E E U U U U U U U U U U U U U U U U U U U U U U V V U U U U U U U U U U U U U U U U V V N.C.M.J.Z.Z.M.'.{ J U U U +.V.B.B.B.B.B.m.#.U Q U T C ) 5X3X/ m Y U U E A R R R R R R R R R R R R R R R R R R R R R R R R R R R R R R R R R R R R R R R R R R R R R R R R R R R R R R R R R R R R R R R R R R R R R R R R R R R R R R R R R R R R R R R R R R R R R R R R R R R R R R R R R R R R R R R R R R R R R R R R U R R R R R R R R U D R R R R ..V.B.H.F.M.V.L.o.Z R V _ C.C.n.B.m.N.V.V R A E C |._ V U U V T V U U U U U U U U U Z Z Z Z Z V Z V Z V Z V Z Z Z Z Z Z V U V U R U V U V U V U V U U U U U U U U U E U U U E E O.+.#.b.b.b.#.b.N.b.#.#.b.b.b.b.b.b.b.b.b.b.b.b.b.b.b.b.b.b.b.b.b.b.b.b.b.b.b.b.b.b.b.b.b.b.b.b.b.b.b.b.b.b.b.b.b.b.b.b.b.b.b.b.b.b.b.b.b.b.b.b.b.b.b.b.b.b.b.b.b.b.+.q.w.@X1X,X,X2.2.b.1.S.2X8X=X=X",
"-X*X*X=X*X8X,XA.w.9.n./  XiX6.2.b.b.b.b.b.b.b.b.b.b.b.b.b.b.b.b.b.b.b.b.b.b.b.b.b.b.b.b.b.b.b.b.b.b.b.b.b.b.b.b.b.b.b.b.b.b.b.b.b.b.b.b.b.b.b.b.b.b.b.b.b.b.b.b.b.b.b.b.b.b.b.b.b.b.b.b.b.b.b.b.#.N.N.N.#.#.#.N.#.#.#.#.#.#.#.#................._ _ _ _ _ _ _ _ Y E E E Y T U U Y U Y U Y U Y U U U U U U U V V C C b.B.n.H.Z.Z.w.C.) m V m V #.V.B.B.B.B.B.m.#.U Q U Y m ~  X<X/ m H U V U Z Z Z V Z V Z V Z V Z V Z V Z V Z V V Z Z Z V Z V Z R U U U R U R U Z V Z V Z V Z V R U R U U U U U R U R U U U U U R U R U U U U U R U R U U U U U V U V U V U V U R U R U U U U U R U R U U U R U R U R U R U R U R U R U R U R U U U R U R U R U R U R U R R R R U U R R R U ..C.Z.Z.Z.n.C.V.o.Z R V _ C.C.n.M.m.V.V.V A V C S |._ m U C m U V U Y Y Y U U U U U V V V V V V V V V U V U U U U U U U U U E E E E ( ( ( E ( E ( E _ _ _ _ _ _ _ _ O.O._ _ _ O.+.#.b.b.b.b.#.b.b.b.b.b.b.b.b.b.b.b.b.b.b.b.b.b.b.b.b.b.b.b.b.b.b.b.b.b.b.b.b.b.b.b.b.b.b.b.b.b.b.b.b.b.b.b.b.b.b.b.b.b.b.b.b.b.b.b.b.b.b.b.b.b.b.b.b.b.b.b.b.b.b.b.b.q.w.@X1X,X,X2.2.b.1.M.2X8X*X=X",
"-X*X*X*X*X8X,XA.w.9.n./ 5XiXu.2.b.b.b.b.b.b.b.b.b.b.b.b.b.b.b.b.b.b.b.b.b.b.b.b.b.b.b.b.b.b.b.b.b.b.b.b.b.b.b.b.b.b.b.b.b.b.b.b.b.b.b.b.b.b.b.b.b.b.b.b.b.b.b.b.b.b.b.b.b.b.b.b.b.b.b.b.b.b.b.b.+.+.b.b.b.+.+.+.N.b.N.b.N.N.N.N.N.#.N.#.N.#.N.#.N.#.N.#.N.#.N.#.O.O.O.O.O.O.` _ _ _ _ _ _ _ _ _ T T E E E E ( ( ! S B.H.Z.J.Z.A.Z.H.` m Y V V +.V.B.B.B.B.B.m.@.D R V C n L @X<Xw.n m Y V U Z A V V V V V V V V V V V V V V V V V V V V V V V V V U V U V U V U V V V V V V V V V U V U V U V U V U V U V U V U V U V U V U V U V U V U V U V U V V V V V V V V V V V V V V V V V V V V V V V V V V V V V V V V V V V V V V V V V V V V V V V V V V V V V V V V U U V Z Z U X.B.Z.Z.A.n.M.V...Z R V _ C.M.n.B.m.V.#.x Z V C S 3X` m Y C m Y C Y ! ! Y Y Y T Y Y W W ( W ( W ( W ............X.X.X.X.X.O.+.+.#.#.#.#.#.#.#.#.#.#.#.#.#.#.#.#.#.#.N.#.#.#.#.#.+.+.N.N.b.b.N.b.#.#.b.b.b.b.b.b.b.b.b.b.b.b.b.b.b.b.b.b.b.b.b.b.b.b.b.b.b.b.b.b.b.b.b.b.b.b.b.b.b.b.b.b.b.b.b.b.b.b.b.b.b.b.b.b.b.b.b.b.b.b.b.b.b.b.b.b.b.b.b.b.b.b.+.q.w.@X1X,X,X2.2.b.1.M.2X8X=X=X",
"*X*X*X*X*X8X,XA.w.9.b./ 5XiXu.2.b.b.b.b.b.b.b.b.b.b.b.b.b.b.b.b.b.b.b.b.b.b.b.b.b.b.b.b.b.b.b.b.b.b.b.b.b.b.b.b.b.b.b.b.b.b.b.b.b.b.b.b.b.b.b.b.b.b.b.b.b.b.b.b.b.b.b.b.b.b.b.b.b.b.b.b.b.b.b.b.b.b.b.b.b.b.b.+.b.b.b.b.b.b.b.b.N.#.N.N.b.@.b.@.N.#.b.#.b.@.b.@.#.#.N.#.N.@.@.@.#.#.#.#.@.@.#.#.O.+.O.O.+.#.#.b.l.1. X<X>X2XT.T.^.5Xn.! ) Y C ..V.B.B.B.B.B.m.@.x R T ^ L 2.tXyX].P ) ` _ ....o..._ _ _ _ _ _ _ _ _ _ _ _ _ _ _ _ _ _ _ _ _ _ _ _ _ _ _ _ _ _ _ _ _ _ _ _ _ _ _ _ _ _ _ _ _ _ _ _ _ _ _ _ _ _ _ _ _ _ _ _ _ _ _ _ _ _ _ _ _ _ _ E E E E E E E E E W ( _ E W E W E W ( _ E W E W E W E W E W ( _ E Y E Y E E E E E Y E E E E E Y E Y E E E E E E T T R R U ( N.H.Z.A.A.Z.H.C.+.V Q V _ V.M.m.m.m.V.#.x A A ( ) rXC.^ ` ) ) +.) ` +.+.+.O.O.O.O.+.#.#.#.#.#.#.#.#.#.#.#.#.N.N.N.N.#.#.b.#.N.N.N.N.N.N.N.#.b.#.N.#.b.@.b.@.b.@.b.@.+.@.N.N.N.#.b.+.b.b.b.b.N.N.#.#.b.b.b.b.b.b.b.b.b.b.b.b.b.b.b.b.b.b.b.b.b.b.b.b.b.b.b.b.b.b.b.b.b.b.b.b.b.b.b.b.b.b.b.b.b.b.b.b.b.b.b.b.b.b.b.b.b.b.b.b.b.b.b.b.b.b.b.b.b.b.b.b.+.q.w.@X1X,X,X2.1.b.1.M.2X8X=X=X",
"*X*X*X*X*X8X1XA.w.9.n./ <XiXu.2.b.b.b.b.b.b.b.b.b.b.b.b.b.b.b.b.b.b.b.b.b.b.b.b.b.b.b.b.b.b.b.b.b.b.b.b.b.b.b.b.b.b.b.b.b.b.b.b.b.b.b.b.b.b.b.b.b.b.b.b.b.b.b.b.b.b.b.b.b.b.b.b.b.b.b.b.b.b.b.b.b.b.b.b.b.b.b.b.b.b.b.b.b.b.b.b.b.b.b.b.q.{ q.{ { { { { { { { { { { +.@.b.@.{ { b.@.b.@.b.@.b.@.N.@.N.N.N.N.b.N.n.n.3X4X2XwX6X6XqX4XF.1.b.) Y ) V.B.B.B.B.B.m.@.U W _ b.9.D.iXiXtXq.q.m.#.V.#.L.#.#.#.#.#.#.#.#.#.#.#.#.#.#.#.#.#.#.#.#.#.#.#.#.#.#.#.#.#.#.#.#.#.#.#.#.#.#.#.#.#.#.#.#.#.#.#.#.#.#.#.#.#.#.#.#.#.#.#.#.#.#.#.#.#.#.#.#.#.#.#.#.+.O.+.O.+.+.+.+.#.#.#.#.#.+.#.+.#.#.#.#.+.+.#.#.#.+.#.#.#.#.#.#.+.O.+.O.O.O.+.O.X.X.X.X.O.O.+.O.X.X.O.O.O.O.O.O.+.O.O.....N.P.5XJ.T.T.J. X|.V.E W U _ m.m.q.m.m.V.#.V ..o.X.l.iX.Xb.n.b.b.C.b.N.b.b.b.@.b.@.@.N.N.N.N.N.N.N.N.N.#.+.+.@.b.@.N.N.b.b.b.b.b.+.b.b.b.+.b.+.b.+.b.+.b.+.b.+.q.{ q.{ { { b.b.b.b.b.b.b.N.b.b.b.b.#.N.#.N.N.b.#.#.#.b.b.b.b.b.b.b.b.b.b.b.b.b.b.b.b.b.b.b.b.b.b.b.b.b.b.b.b.b.b.b.b.b.b.b.b.b.b.b.b.b.b.b.b.b.b.b.b.b.b.b.b.b.b.b.b.b.b.b.b.b.b.b.b.b.+.q.1.@X1X,X,X2.1.b.1.M.2X8X=X=X",
"*X*X*X*X6X8X,XZ.w.{ n.,.2XnXu.2.b.b.b.b.b.b.b.b.b.b.b.b.b.b.b.b.b.b.b.b.b.b.b.b.b.b.b.b.b.b.b.b.b.b.b.b.b.b.b.b.b.b.b.b.b.b.b.b.b.b.b.b.b.b.b.b.b.b.b.b.b.b.b.b.b.b.b.b.b.b.b.b.b.b.b.b.b.b.b.b.b.{ { { q.q.b.b.b.b.b.b.b.b.b.b.b.b.b.b.b.b.b.b.N.N.N.N.N.N.N.N.+.+.b.N.N.N.N.b.b.b.b.b.b.b.b.b.+.@.#.#.b.b.b.b.1.1.>X,X,X6X6X6XwXqXF.3.n.+.! ` B.F.F.Z.Z.M.B.b.Y [ { b.w.D.iXnXaX<.9.b.@.#.X.N.N.#.N.#.N.#.#.#.#.#.#.#.#.#.#.#.#.#.#.#.#.#.#.#.#.#.#.#.#.#.#.#.#.#.#.#.#.#.#.#.#.#.N.N.#.#.#.#.#.#.#.N.#.#.#.#.#.#.N.N.#.#.#.#.#.#.#.N.#.#.#.#.#.#.#.#.#.#.#.#.#.N.N.N.#.#.#.#.N.N.N.N.#.#.#.#.#.#.#.#.#.N.N.N.#.#.N.#.#.#.#.#.+.#.#.#.#.#.N.N.#.#.#.#.#.#.#.#.#.@.+.O.O.B. X2X,X8X8X,X2X3X|.#._ U ) B.w.w.M.n.V.#.V X.N.b.n.iX.X1.b.q.q.m.b.b.+.+.+.{ { +.+.+.+.+.+.+.+.+.+.+.+.+.+.+.+.+.+.b.b.b.b.b.b.b.b.b.N.N.N.N.N.N.N.N.b.b.b.b.b.b.b.b.b.b.b.{ +.q.b.b.b.N.b.b.b.b.b.b.#.#.#.b.b.#.#.b.b.b.b.b.b.b.b.b.b.b.b.b.b.b.b.b.b.b.b.b.b.b.b.b.b.b.b.b.b.b.b.b.b.b.b.b.b.b.b.b.b.b.b.b.b.b.b.b.b.b.b.b.b.b.b.b.b.b.b.b.b.b.b.b.{ q.9.@X1X,X,X2.1.b.1.M.2X8X=X=X",
"-X*X*X*X6X7X2Xn.{ [ 9.<.6XnXXX,.w.b.b.b.b.b.b.b.b.b.b.b.b.b.b.b.b.b.b.b.b.b.b.b.b.b.b.b.b.b.b.b.b.b.b.b.b.b.b.b.b.b.b.b.b.b.b.N.b.b.b.N.N.N.b.b.b.b.b.b.b.b.b.N.b.b.b.b.b.b.b.b.b.#.b.#.#.#.#.#.b.b.b.b.b.b.b.b.b.b.b.b.b.b.b.b.b.b.b.b.b.b.b.b.b.b.b.b.b.b.b.b.b.b.b.b.b.b.b.b.b.b.b.b.b.b.b.b.b.b.b.b.b.b.b.b.n.1.>X8X6X7X=X=X6XqXD.3.b.b.1.S.>XT.R.R.R.+XOX].b.b.{ r.,.D.mXmXxXi.,.q.@.#.N.b.N.N.N.N.x.N.b.b.b.b.b.b.b.b.b.b.b.@.b.@.b.@.b.+.+.+.+.+.+.+.+.+.b.b.b.b.b.b.b.b.+.+.+.b.b.@.b.N.b.#.#.#.N.N.N.b.b.b.b.N.N.b.b.b.b.b.b.b.b.b.b.b.b.b.b.b.b.b.b.b.b.b.b.b.b.b.b.b.b.b.b.b.b.b.b.b.b.b.b.b.b.b.b.b.b.b.b.b.b.b.b.b.b.b.b.b.b.b.b.b.b.b.b.b.b.b.b.#.@.+.m.{ / w.@X,X*X*X*X6X1X<XH.{ b.` n.@XOXOX#X@X5XH.+.b.b.,.S.nX>X<.2.q.q.@.{ m.b.b.b.b.b.b.b.b.b.b.b.b.b.b.b.b.b.b.b.b.b.b.b.b.b.b.b.b.b.b.b.b.b.b.b.b.b.b.b.b.b.b.b.b.b.b.b.b.b.b.b.b.b.b.b.b.b.b.b.b.b.b.b.b.b.b.b.b.b.+.+.{ b.b.b.b.b.b.b.b.b.b.b.b.b.b.b.b.b.b.b.b.b.b.b.b.b.b.b.b.b.b.b.b.b.b.#.#.#.#.#.#.b.b.b.b.b.b.b.b.N.@.b.b.b.+.+.+.b.b.b.b.b.b.b.b.q.w.0.@X1X,X1Xw.w.1.b.1.3X#X*X=X",
"-X*X*X6X(.eX,Xn.} } 9.>.=XmX[.] q.b.b.b.b.b.b.b.b.b.b.b.b.b.b.b.b.b.b.b.b.b.b.b.b.b.b.b.b.b.b.b.b.b.b.b.b.b.b.b.b.b.b.b.b.b.N.N.b.b.b.b.N.N.b.b.b.b.b.b.b.b.b.b.b.b.b.b.b.b.b.b.#.#.#.#.#.#.#.#.@.@.+.+.@.@.@.@.@.@.+.+.@.@.@.@.b.b.b.b.b.b.b.b.b.b.b.b.N.N.b.b.b.b.b.b.N.N.N.N.b.b.N.N.b.b.b.b.N.N.N.N.b.b.b.b.n.1.>X8X*X=X!.=X=XqXD.,.b.b.1.Z.,X*XQ.Q.=X6X,X>Xn.w.{ r.,.a.mXbXxXg.,.q.@.#.N.b.N.N.N.x.l.l.b.b.b.b.b.b.b.b.b.b.b.+.+.+.b.b.b.N.b.b.b.b.b.b.b.b.b.b.b.b.b.b.b.b.b.b.b.b.b.b.b.b.b.#.b.#.N.N.b.N.b.b.b.N.N.b.b.b.b.b.b.b.b.b.b.b.b.b.b.b.b.b.b.b.b.b.b.b.b.b.b.b.b.b.b.b.b.b.b.b.b.b.b.b.b.b.b.b.b.b.b.b.b.b.b.b.b.b.b.b.b.b.b.b.b.b.b.b.b.b.b.b.+.{ N.{ / w.@X+X*X=X=X6X8X2XH.1.b.9.S.1X*X*X*X+X<XH.q.q.q.,.a.nX+X>.2.q.{ @.{ m.#.b.b.b.b.b.b.b.b.b.b.b.b.b.b.b.b.b.b.b.b.b.b.b.b.b.b.b.b.b.b.b.b.b.b.b.b.b.b.b.b.b.b.b.b.b.b.b.b.b.b.b.b.b.b.b.b.b.b.b.b.b.b.b.X.X.{ { q.{ { { q.q.q.q.b.b.b.b.b.b.b.b.b.b.b.b.b.b.b.b.b.b.b.b.b.b.b.b.b.b.b.b.b.b.#.N.#.#.#.#.b.b.b.b.b.b.b.b.+.+.+.+.b.b.b.b.b.b.b.b.b.b.b.b.q.q.0.@X8X+X1Xw.w.1.b.1.2X#X*X=X",
"-X*X*X6X(.eX,Xn.} } 9.>.6XmX[./ q.b.b.b.b.b.b.b.b.b.b.b.b.b.b.b.b.b.b.b.b.b.b.b.b.b.b.b.b.b.b.b.b.b.b.b.b.b.b.b.b.b.b.b.#.#.#.#.b.b.b.b.N.N.N.b.N.N.b.N.b.b.b.b.b.b.b.b.#.#.#.#.b.b.#.#.#.#.#.#.b.b.b.b.b.b.b.b.+.b.b.b.b.b.b.b.+.+.b.b.b.b.b.b.b.b.b.b.N.N.b.b.b.b.b.b.N.N.b.b.b.b.N.N.b.N.b.b.b.b.#.#.#.b.b.b.n.1.>X8X*X=X=X=X=XqXD.,.b.b.1.Z.1X6X=X=X=X6X1X2Xn.q.{ r.,.a.mXbXcXg.,.q.@.@.N.b.N.N.b.b.l.b.b.b.b.b.b.b.b.b.b.b.` ` +.b.b.b.b.b.b.b.b.b.b.b.b.b.b.b.b.b.b.b.b.b.b.b.b.b.b.b.b.b.b.b.b.b.N.N.b.N.b.b.N.N.N.N.b.b.b.b.b.b.b.b.b.b.b.b.b.b.b.b.b.b.b.b.b.b.b.b.b.b.b.b.b.b.b.b.b.b.b.b.b.b.b.b.b.b.b.b.b.b.b.b.b.b.b.b.b.b.b.b.b.b.b.b.b.b.b.b.b.b.@.+.b.q./ u.@X+X*X=X=X6X1X2XH.1.b.9.D.qX9X*X*X#X<XH.q.q.q.,.a.nX1X<.2.9.{ @.{ @.#.b.b.b.b.b.b.b.b.b.b.b.b.b.b.b.b.b.b.b.b.b.b.b.b.b.b.b.b.b.b.b.b.b.b.b.b.b.b.b.b.b.b.b.b.b.b.b.b.b.b.b.b.b.b.b.N.b.b.b.b.b.b.b.1.q.q.b.q.q.b.b.w.q.q.q.b.b.b.b.b.b.b.b.b.b.b.b.b.b.b.b.b.b.b.b.b.b.b.b.b.b.b.b.b.N.N.N.b.b.b.b.b.b.b.b.b.b.b.b.` ` +.+.b.b.b.b.b.b.b.b.b.b.b.b.q.q.0.@X8X+X1Xw.w.1.b.1.2X#X*X=X",
"-X*X*X6X(.eX,Xn.} } 9.<.7XmXXX9.q.b.b.b.b.b.b.b.b.b.b.b.b.b.b.b.b.b.b.b.b.b.b.b.b.b.b.b.b.b.b.b.b.b.b.b.b.b.b.b.b.b.b.b.#.#.#.#.b.b.b.b.N.N.N.N.N.N.N.N.b.b.b.b.b.b.b.b.b.#.#.#.b.b.b.#.b.#.b.b.b.b.b.b.b.b.b.b.b.b.b.b.b.b.b.b.+.+.b.b.b.b.b.b.b.b.N.N.N.N.b.b.b.b.N.N.N.N.b.b.b.b.N.N.N.N.b.b.b.b.#.#.#.#.b.b.n.1.OX8X*X=X=X=X*XqXD.,.b.b.1.Z.,X*X=X=X=X6X,X>Xn.q.{ r.,.a.mXbXbXj.<.q.@.@.N.b.b.b.b.b.b.b.b.b.b.b.b.b.b.b.b.b.+.+.+.b.b.b.b.b.b.b.b.b.b.b.b.b.b.l.b.b.b.b.l.b.b.b.b.b.b.b.b.b.b.b.b.N.N.b.b.b.b.b.N.N.N.N.b.b.b.b.b.b.b.b.b.b.b.b.b.b.b.b.b.b.b.b.b.b.b.b.b.b.b.b.b.b.b.b.b.b.b.b.b.b.b.b.b.b.b.b.b.b.b.b.b.b.b.b.b.b.b.b.b.b.b.b.b.b.b.b.b.b.b.{ b.q.,.p.#X+X*X=X=X6X1X<XH.1.w.1.D.qX9X*X*X#X<XH.q.q.q.,.a.nX8X<.2.9.{ @.{ #.#.b.b.b.b.b.b.b.b.b.b.b.b.b.b.b.b.b.b.b.b.b.b.b.b.b.b.b.b.b.b.b.b.b.b.b.b.b.b.b.b.b.b.b.b.b.b.b.b.b.b.b.b.b.b.b.N.N.b.b.b.b.b.b.b.b.b.n.n.B.B.B.b.b.w.q.1.l.b.b.b.b.b.b.b.b.b.b.b.b.b.b.b.b.b.b.b.b.b.b.b.b.b.b.N.N.N.N.b.b.b.b.b.b.b.b.b.b.b.b.l.l.b.b.b.b.+.b.b.b.b.b.b.b.b.b.q.q.0.@X8X+X1Xw.b.l.b.1.3X#X*X=X",
"-X%X*X=X(.eX,Xn.} } 9.<.9XZXXX9.q.b.b.b.b.b.b.b.b.b.b.b.b.b.b.b.b.b.b.b.b.b.b.b.b.b.b.b.b.b.b.b.b.b.b.b.b.b.b.b.b.b.#.#.#.#.#.#.b.b.b.b.b.b.b.b.b.b.b.b.b.b.b.b.b.b.b.b.b.b.b.b.b.b.b.b.b.b.b.b.b.b.b.b.b.q.q.b.b.b.b.b.b.b.b.b.+.b.b.b.+.+.+.b.b.b.b.b.b.b.b.b.b.b.b.b.b.b.b.b.b.b.b.b.b.b.b.b.b.#.#.#.#.#.#.b.b.1.>X8X*X;X=X=X-X8XD.,.b.b.1.Z.,X*XQ.=X=X*X,X>X2.q.{ q.,.a.mXbXZXY.<.q.@.@.N.N.b.b.b.b.b.b.b.b.b.b.b.b.b.b.b.b.b.b.b.b.q.q.q.q.b.b.b.b.b.b.b.b.b.b.b.b.w.w.w.1.b.b.b.b.b.b.b.b.b.b.b.b.b.b.b.b.b.b.b.b.b.b.b.b.b.b.b.b.b.b.b.b.b.b.b.b.b.b.b.b.b.b.b.b.b.b.b.b.b.b.b.b.b.b.b.b.b.b.b.b.b.b.b.b.b.b.b.b.b.b.b.b.b.b.b.b.b.b.b.b.b.b.b.b.b.b.b.b.N.{ b.q.,.S.#X*X*X=X6X6X8X5XH.1.q.,.D.8X6X=X*X+X<XH.q.q.w.,.a.nXqX<.2.9.q.m.{ #.#.b.b.b.b.b.b.b.b.b.b.b.b.b.b.b.b.b.b.b.b.b.b.b.b.b.b.b.b.b.b.b.b.b.b.b.b.b.b.b.b.b.b.b.b.b.b.b.b.b.b.b.b.b.b.b.N.N.b.b.b.b.b.b.n.n.B.M.C.C.H.H.M.n.n.b.w.q.b.b.b.b.b.b.b.b.b.b.b.b.b.b.b.b.b.b.b.b.b.b.b.b.b.b.b.b.b.b.b.b.b.b.b.b.b.b.b.b.b.b.n.n.b.b.b.q.q.q.b.b.b.b.b.@.b.q.q.q.w.@X8X+X1Xw.b.l.b.l.2X#X*X=X",
"-X*X*X=X(.eX2Xn.} } 9.<.eXZX@X9.q.b.b.b.b.b.b.b.b.b.b.b.b.b.b.b.b.b.b.b.b.b.b.b.b.b.b.b.b.b.b.b.b.b.b.b.b.b.b.b.b.b.#.#.#.#.#.#.#.b.b.b.b.b.b.b.b.b.b.b.b.b.#.#.b.b.b.b.b.b.b.b.b.b.b.b.b.b.b.b.b.b.b.b.b.b.b.q.b.b.b.b.b.b.b.b.b.b.b.b.b.b.+.+.b.b.b.b.b.b.b.b.b.b.b.b.b.b.b.b.b.b.b.b.b.b.b.b.b.#.#.#.#.@.+.b.b.1.>X1X*X;X=X=X-X8XD.,.b.b.1.Z.1X6X=X=X=X6X1X2Xn.q.{ q.,.a.mXbXZXY.<.q.{ @.N.N.b.b.b.b.b.b.b.b.b.b.b.b.b.b.b.b.b.b.b.b.b.b.q.q.b.b.b.b.b.b.b.b.n.n.n.n.b.b.b.b.b.b.b.b.b.b.q.q.b.b.b.b.b.b.b.b.b.b.b.b.b.b.b.b.b.b.b.b.b.b.b.b.b.b.b.b.b.b.b.b.b.b.b.b.b.b.b.b.b.b.b.b.b.b.b.b.b.b.b.b.b.b.b.b.b.b.b.b.b.b.b.b.b.b.b.b.b.b.b.b.b.b.b.b.b.b.b.b.N.{ @.q.,.D.1X*X*X=X7X6X8X5XH.1.w.1.D.qX9X*X*X#X<XH.q.q.w.,.a.nXpX6.2.9.q.m.{ @.#.b.b.b.b.b.b.b.b.b.b.b.b.b.b.b.b.b.b.b.b.b.b.b.b.b.b.b.b.b.b.b.b.b.b.b.b.b.b.b.b.b.b.b.b.b.b.b.b.b.b.b.b.b.b.b.N.N.b.b.b.b.n.n.n.M.M.M.M.S.H.H.S.M.M.n.b.w.1.1.b.b.b.b.b.b.b.b.b.b.b.b.b.b.b.b.b.b.b.b.b.b.b.b.b.b.b.b.b.b.b.b.b.b.b.b.b.n.n.n.M.M.M.n.n.b.b.q.b.b.b.b.@.@.@.{ q.q.w.@X8X,X1Xw.b.l.b.1.2X#X*X=X",
"-X%X*X*X(.eX,Xn.@.} 9.<.eXZX@X,.q.@.@.@.+.+.@.@.@.@.@.@.@.@.@.b.w.b.b.b.b.b.b.b.b.b.b.b.b.b.b.b.w.q.q.q.b.b.b.b.b.b.#.#.#.#.#.#.#.#.#.#.#.#.#.#.#.#.#.#.#.#.#.b.b.b.b.b.b.b.b.b.b.b.b.b.b.b.b.b.b.b.b.b.b.b.b.b.b.b.b.b.b.b.b.b.q.q.q.q.b.b.b.b.b.b.#.#.#.#.#.b.b.b.b.b.b.b.b.b.b.b.b.b.b.b.b.b.b.b.@.@.@.@.b.b.w.<.>X1X+X-X*X*X-X8XD.,.b.b.1.Z.1X6X=X=X7X9X1X2Xn.q.{ q.,.a.mXVXAXY.<.q.{ +.N.N.b.#.b.b.b.b.b.b.b.b.b.b.q.q.q.q.b.w.b.b.b.b.n.n.n.n.n.n.B.n.n.n.H.B.B.M.M.n.n.n.b.b.b.b.b.b.b.b.b.b.b.b.b.b.b.b.b.b.b.b.b.b.b.b.b.b.b.b.b.b.b.b.b.b.b.b.b.b.b.b.b.b.b.b.b.b.b.b.b.b.b.b.b.b.b.b.b.b.b.b.b.b.b.b.b.b.b.b.b.b.b.b.b.b.b.b.b.b.b.b.b.b.b.b.b.b.b.b.N.{ b.q.1.D.1X*X*X7X7X6X6X,XH.1.q.1.D.8X9X*X*X+X<XH.q.w.w.,.a.nXpXt.2.9.q.m.{ @.#.b.b.b.b.b.b.b.b.b.b.b.b.b.b.b.b.b.b.b.b.b.b.b.b.b.b.b.b.b.b.b.b.b.b.b.b.b.b.b.b.b.b.b.b.b.b.b.b.b.b.b.b.b.b.b.b.+.+.b.b.b.n.C.M.M.M.Z.Z.Z.Z.Z.S.M.S.M.M.n.w.q.b.b.b.b.b.b.b.b.b.b.b.b.b.b.b.b.b.b.b.b.b.b.b.b.b.b.b.b.b.b.b.b.b.n.n.n.n.M.M.S.F.F.F.B.M.M.n.n.b.b.b.b.@.@.@.{ q.q.0.@X8X,X1Xw.w.1.b.1.2X#X*X=X",
"-X%X*X=X(.eX,Xn.@.[ 9.<.gXAX#X,.q.@.@.@.+.+.+.@.@.@.@.@.@.@.@.b.b.w.n.b.b.b.b.b.n.b.n.b.n.b.b.b.w.q.q.q.b.b.b.b.b.b.b.#.#.#.#.#.#.#.#.#.#.#.#.#.#.#.#.#.#.#.#.b.b.b.b.b.b.b.b.b.b.b.b.b.b.b.b.b.b.b.b.b.b.b.b.b.b.b.b.b.b.b.b.b.q.q.q.q.b.b.b.b.b.b.b.#.#.#.#.#.b.b.b.b.b.b.b.b.b.b.b.b.b.b.b.b.b.b.+.@.@.@.b.q.w.1.>X1X+X9X*X*X*X8XD.,.b.b.1.Z.1X6X=X=X=X6X,X2Xn.q.{ q.,.a.ZXVXAXW.<.q.{ +.N.N.b.#.#.#.b.b.b.b.b.b.b.b.q.q.q.q.1.1.l.b.n.n.M.C.H.C.H.C.H.C.H.H.H.H.H.H.H.M.M.M.b.b.b.b.b.b.b.b.b.b.b.b.b.b.b.b.b.b.b.b.b.b.b.b.b.b.b.b.b.b.b.b.b.b.b.b.b.b.b.b.b.b.b.b.b.b.b.b.b.b.b.b.b.b.b.b.b.b.b.b.b.b.b.b.b.b.b.b.b.b.b.b.b.b.b.b.b.b.b.b.b.b.b.b.b.b.b.b.N.{ +.q.1.D.1X*X*X=X7X6X6X,XH.1.w.1.D.8X6X*X*X+X2XH.q.w.w.,.a.nXuXt.2.9.q.m.{ @.#.b.b.b.b.b.b.b.b.b.b.b.b.b.b.b.b.b.b.b.b.b.b.b.b.b.b.b.b.b.b.b.b.b.b.b.b.b.b.b.b.b.b.b.b.b.b.b.b.b.b.b.b.b.b.b.+.+.+.b.b.n.C.H.C.H.Z.Z.Z.Z.Z.Z.Z.S.S.H.H.M.n.w.b.b.b.b.b.b.b.b.b.b.b.b.b.b.b.b.b.b.b.b.b.b.b.b.b.b.b.b.b.b.b.b.n.n.C.C.H.H.H.H.F.F.F.F.F.F.C.C.b.b.b.b.b.@.@.{ q.q.0.@X8X,X1Xu.w.1.b.1.2X#X*X=X",
"*X*X*X*XQ.7X,Xw.{ [ 9.<.jXbX8X,.q.b.+.+.+.+.+.b.{ +.+.b.b.b.b.b.1.1.w.n.n.M.M.M.S.M.S.M.S.M.S.M.b.b.q.q.q.{ ` ` b.b.N.b.b.b.b.b.N.N.N.b.b.b.+.+.b.N.b.N.b.b.b.b.` q.b.b.b.b.b.b.w.w.b.n.n.n.M.C.M.M.M.M.M.M.M.M.M.n.n.n.n.b.n.w.q.q.q.q.q.q.b.b.b.b.N.b.@.+.+.#.b.b.b.b.b.b.b.b.b.b.b.b.b.b.b.b.b.q.b.b.b.b.b.q.w.w.J.4X8X*X-X*X*X-XD.1.b.b.1.2.,X*X=X=X7X9X1X>Xn.1.b.q.,.XXbXVXCXjX<.9.m.O.N.b.+.+.+.+.+.+.+.{ b.b.q.q.q.1.1.1.w.n.M.S.H.H.H.H.S.M.S.M.S.M.S.S.S.Z.Z.S.S.S.S.M.M.M.n.n.n.b.w.b.b.b.b.b.b.b.b.b.b.b.b.b.b.b.+.b.b.b.b.b.b.b.b.b.b.b.b.b.b.b.b.b.b.b.b.b.b.b.b.b.b.b.b.b.b.b.b.b.b.b.b.b.b.b.b.b.b.b.b.b.b.b.b.b.b.b.b.b.b.b.b.b.b.b.#.b.b.b.b.b.N.{ { q.,.D.1X*X=X=XQ.6X0XOXn.1.q.1.D.8X*X=X*X+X2XS.1.q.w.>.a.nXiXD.<.9.q.{ @.O.#.b.b.b.b.b.b.b.b.b.b.b.b.b.b.b.b.b.b.b.b.b.b.b.b.b.b.b.b.b.b.b.b.b.b.b.b.b.b.b.b.b.b.b.b.b.b.b.b.b.b.b.b.#.b.b.+.b.b.B.B.C.M.M.M.S.Z.Z.Z.Z.A.Z.Z.S.Z.S.S.M.M.M.n.b.b.q.q.b.b.N.b.b.b.b.b.b.b.b.b.b.b.b.b.b.b.b.b.b.b.b.b.b.b.b.C.C.M.S.S.F.F.Z.Z.Z.Z.Z.Z.S.M.M.C.C.B.b.b.q.{ { q.,.w.1X1X+XqX0.n.b.b.1.<X#X6X=X",
"*X*X*X6XQ.7X,Xw.} [ w.4.jXVX8X-.w.b.b.b.+.+.b.b.b.b.b.b.{ { { q.n.n.n.n.M.M.M.S.S.S.Z.S.S.S.S.S.n.n.b.b.b.b.b.b.b.b.b.b.b.b.b.b.N.N.b.N.b.b.b.b.b.b.b.b.b.b.b.b.q.b.b.b.b.b.b.b.n.n.n.M.M.B.B.C.M.M.M.M.M.M.M.M.M.M.M.M.M.n.n.n.b.b.b.b.w.w.b.b.b.b.b.b.b.@.#.b.b.b.b.b.b.b.b.b.b.b.b.b.b.b.b.q.q.q.q.{ +.{ { q.w.w.J.1X8X*X-X*X*X8XD.1.b.b.b.n.,X*X=X=X7X6X1X>Xn.1.b.q.,.XXVXVXCXgX4.,.m.O.N.b.#.#.@.@.b.b.+.q.+.b.q.w.w.b.b.b.n.n.M.S.H.H.H.S.S.S.S.S.S.S.S.S.Z.Z.Z.Z.Z.S.S.S.M.M.M.n.n.n.b.b.b.b.l.b.b.b.b.b.b.b.b.b.b.@.@.@.b.b.b.b.b.b.b.b.b.b.b.b.b.b.b.b.b.b.b.b.b.b.b.b.b.b.b.b.b.b.b.b.b.b.b.b.b.b.b.b.b.b.b.b.b.b.b.b.b.b.b.b.b.b.b.b.b.b.b.b.b.b.b.b.N.{ b.q.9.D.1X*X=X=XQ.6X0XOX2.1.w.1.D.6X*X=X6X+X2XH.1.q.w.,.a.nXiXD.<.9.q.{ @.O.#.b.b.b.b.b.b.b.b.b.b.b.b.b.b.b.b.b.b.b.b.b.b.b.b.b.b.b.b.b.b.b.b.b.b.b.b.b.b.b.b.b.b.b.b.b.b.b.b.b.b.b.#.#.b.b.b.b.b.B.C.C.M.M.H.Z.Z.Z.Z.Z.A.Z.Z.Z.Z.Z.Z.S.M.M.n.b.b.b.q.b.b.b.b.b.b.b.b.b.b.b.b.b.b.b.b.b.b.b.b.b.b.b.b.b.n.n.C.F.S.Z.Z.Z.Z.Z.Z.Z.Z.Z.Z.Z.S.M.C.C.B.n.b.b.q.q.9.,.w.1X1X+X4X0.n.b.b.1.<X#X6X=X",
"*X+X*X6X).eX,Xw.} [ w.5.jXVXpX,.w.b.b.b.b.b.b.b.b.b.b.b.b.b.b.b.M.Z.Z.Z.Z.Z.S.S.Z.Z.Z.Z.Z.Z.Z.S.M.M.M.n.n.n.n.n.1.q.b.q.b.b.b.b.b.b.b.b.b.b.b.b.b.b.b.b.b.b.b.b.b.b.b.b.b.b.b.b.M.M.M.M.F.F.F.H.M.Z.Z.Z.M.M.M.M.S.S.S.S.M.M.M.M.M.M.n.n.n.b.b.w.1.q.b.b.b.b.b.N.b.b.b.b.b.b.b.b.b.b.b.b.b.b.b.q.w.q.q.q.q.q.1.1.n.w.J.1X6X*X*X*X-X8XD.1.q.b.b.Z.,X*X=X=X7X9X,X<Xn.1.b.q.,.+XVXVXCXjXt.,.m.O.N.b.N.N.b.b.b.b.q.b.q.q.w.b.n.n.M.M.n.M.Z.S.S.S.Z.Z.Z.Z.Z.Z.Z.Z.Z.Z.Z.Z.Z.Z.Z.Z.Z.S.M.M.M.M.M.M.n.n.b.l.l.l.b.b.b.b.b.b.b.b.@.@.@.@.b.b.b.b.b.b.b.b.b.b.b.b.b.b.b.b.b.b.b.b.b.b.b.b.b.b.b.b.b.b.b.b.b.b.b.b.b.b.b.b.b.b.b.b.b.b.b.b.b.b.b.b.b.b.b.b.b.b.b.b.b.b.b.b.N.{ b.w.w.D.8X*X=X7X!.6X0XT.2.1.q.1.D.6X*X=X6X+X,XH.1.1.w.,.a.nXiXD.<.9.q.{ @.@.#.b.b.b.b.b.b.b.b.b.b.b.b.b.b.b.b.b.b.b.b.b.b.b.b.b.b.b.b.b.b.b.b.b.b.b.b.b.b.b.b.b.b.b.b.b.b.b.b.b.b.b.#.b.b.b.b.b.n.M.M.H.M.S.S.Z.Z.Z.A.A.A.A.Z.Z.Z.S.S.S.M.M.n.n.b.w.q.b.b.b.b.b.b.b.b.b.b.b.b.b.b.b.b.b.b.b.+.+.+.b.b.b.n.C.M.S.Z.Z.Z.Z.Z.Z.Z.Z.Z.Z.Z.Z.S.M.M.M.M.B.n.b.q.q.q.,.w.1X1X+X4X2.w.b.b.1.<X+X*X=X",
"*X+X*X6X).eX,Xw.} [ w.5.kXVXpX0.1.1.b.b.q.q.b.b.q.q.b.b.b.n.B.B.S.S.Z.Z.Z.Z.Z.Z.Z.Z.Z.Z.Z.Z.Z.Z.S.S.S.M.M.M.M.M.b.b.b.b.b.b.b.b.b.b.b.b.b.b.b.b.b.b.b.b.b.b.b.b.b.b.b.b.b.b.n.n.C.H.H.F.F.F.F.Z.Z.S.Z.S.Z.Z.Z.Z.H.H.S.S.Z.S.Z.Z.S.Z.Z.M.M.n.n.n.b.b.b.b.b.b.b.b.b.b.b.b.b.b.b.b.b.b.b.b.b.b.b.b.1.9.1.w.w.b.b.w.n.w.J.8X6X*X6X*X-X-XD.,.1.b.w.n.,X*X=X=X7X6X,X>Xn.9.b.q.,.+XVXVXCXcXi.9.m.O.N.b.N.b.b.b.b.q.q.b.b.b.n.n.M.M.S.H.Z.Z.Z.S.Z.Z.Z.Z.Z.Z.Z.Z.Z.Z.Z.Z.Z.Z.Z.Z.Z.Z.Z.Z.Z.M.S.S.S.M.M.M.M.n.b.l.l.b.b.b.b.b.b.@.@.@.@.@.b.b.b.b.b.b.b.b.b.b.b.b.b.b.b.b.b.b.b.b.b.b.b.b.b.b.b.b.b.b.b.b.b.b.b.b.b.b.b.b.b.b.b.b.b.b.b.b.b.b.b.b.b.b.b.b.b.b.b.b.+.+.+.+.b.` q.q.9.D.1X*X=X7X!.6X8XT.2.w.w.1.D.6X*X*X6X+X,XH.1.1.w.<.a.nXnXD.<.9.q.{ @.@.#.b.b.b.b.b.b.b.b.b.b.b.b.b.b.b.b.b.b.b.b.b.b.b.b.b.b.b.b.b.b.b.b.b.b.b.b.b.b.b.b.b.b.b.b.b.b.b.b.b.b.b.b.b.b.b.n.n.M.M.M.H.S.H.Z.Z.Z.Z.A.A.A.A.Z.Z.Z.Z.Z.S.S.M.M.n.n.w.b.b.b.b.b.b.b.b.b.b.b.b.b.b.b.b.b.b.b.b.b.b.+.b.b.n.C.H.S.Z.Z.Z.Z.Z.Z.Z.Z.Z.Z.Z.Z.Z.S.S.M.M.S.M.M.n.w.q.q.9.w.1X1X+X1X2.w.1.b.1.<X+X*X=X",
"*X+X6X6X).7X/.2.{ ] w.5.kXZXuX0.1.1.q.q.q.q.w.w.b.b.b.n.B.M.C.H.S.Z.Z.Z.Z.Z.Z.Z.Z.Z.Z.Z.Z.Z.Z.Z.Z.S.S.S.S.S.S.M.M.M.M.n.n.b.b.b.1.1.1.1.1.l.l.l.b.b.b.b.b.b.b.b.b.q.q.q.b.n.M.C.C.H.Z.Z.Z.Z.Z.Z.Z.Z.Z.Z.Z.Z.Z.Z.Z.Z.Z.Z.Z.Z.Z.Z.Z.Z.Z.Z.Z.Z.Z.S.n.n.n.b.b.b.b.b.b.b.b.b.b.b.b.b.b.b.b.b.b.b.b.q.9.9.w.w.n.n.M.M.n.u.T.8X6X*X7X=X*X*XD.,.1.b.1.n.,X*X=X=X7X6X,X>Xn.9.m.q.<.+XZXCXCXbXi.9.m.O.N.#.b.b.b.b.b.b.w.w.n.M.M.M.Z.Z.Z.Z.Z.Z.Z.Z.Z.Z.Z.Z.Z.Z.Z.Z.Z.Z.Z.Z.Z.Z.Z.Z.Z.Z.Z.Z.Z.Z.Z.H.H.S.S.H.H.B.n.b.b.b.b.b.b.b.b.@.+.@.@.+.b.b.b.b.b.b.b.b.b.b.b.b.b.b.b.b.b.b.b.b.b.b.b.b.b.b.b.b.b.b.b.b.b.b.b.b.b.b.b.b.b.b.b.b.b.b.b.b.b.b.b.b.b.b.b.b.b.b.b.b.b.b.b.b.b.` b.w.w.D.1X*X=X7X!.7X6XT.n.n.n.w.D.6X=X=X7X+X,XH.` 1.w.>.A.nXnXD.<.9.q.{ @.@.#.b.b.b.b.b.b.b.b.b.b.b.b.b.b.b.b.b.b.b.b.b.b.b.b.b.b.b.b.b.b.b.b.b.b.b.b.b.b.b.b.b.b.b.b.b.b.b.b.b.b.b.b.b.b.b.M.M.M.S.S.Z.Z.Z.Z.Z.Z.Z.Z.Z.Z.A.A.A.Z.Z.Z.S.S.M.M.B.n.b.q.{ q.b.b.b.b.b.b.b.b.b.b.b.b.b.b.b.b.b.b.b.b.b.b.n.C.H.S.Z.Z.Z.Z.Z.A.Z.Z.Z.Z.Z.Z.S.S.S.M.S.S.S.M.M.n.w.q.9.w.1X1X+X1X2.n.b.b.1.<X+X*X=X",
"*X+X6X6X).eX/.2.{ ] w.6.kXZXuX0.1.1.w.w.w.w.b.b.M.M.M.M.M.M.M.M.Z.Z.Z.Z.Z.Z.Z.Z.Z.Z.Z.Z.Z.Z.Z.Z.Z.Z.Z.Z.Z.Z.Z.Z.H.H.F.B.M.n.n.b.b.b.b.b.b.1.l.l.w.w.w.w.b.b.l.l.q.q.q.b.B.M.C.H.M.M.Z.Z.Z.Z.Z.Z.F.F.F.Z.Z.Z.Z.Z.Z.Z.Z.Z.Z.Z.Z.Z.Z.Z.Z.Z.Z.Z.Z.S.M.M.M.n.b.b.b.b.b.b.b.b.b.b.b.b.q.q.b.b.b.b.b.b.w.w.n.n.S.S.H.H.Z.Z.T.8X6X=X7X=X*X*XD.1.b.b.1.n.,X*X=X=X7X6X,X>Xn.9.b.q.<.+XZXCXCXVXU.9.b.O.N.#.+.b.b.b.b.b.b.n.C.H.S.Z.Z.Z.Z.Z.Z.Z.Z.Z.Z.Z.Z.Z.Z.Z.Z.Z.Z.Z.Z.Z.Z.Z.Z.Z.Z.Z.Z.Z.Z.Z.S.S.H.S.S.S.H.H.B.M.n.b.b.b.b.b.b.@.@.@.@.@.b.b.b.b.b.b.b.b.b.b.b.b.b.b.b.b.b.b.b.b.b.b.b.b.b.b.b.b.b.b.b.b.b.b.b.b.b.b.b.b.b.b.b.b.b.b.b.b.b.b.b.b.b.b.b.b.b.b.b.b.b.b.b.b.N.b.b.n.w.[.8X6X=X7X!.7X6XT.Z.n.n.w.U.6X=X=X7X+X,XH.3.1.w.<.A.nXnXD.<.9.{ { @.@.#.b.b.b.b.b.b.b.b.b.b.b.b.b.b.b.b.b.b.b.b.b.b.b.b.b.b.b.b.b.b.b.b.b.b.b.b.b.b.b.b.b.b.b.b.b.b.b.b.b.b.b.b.N.N.b.F.Z.Z.Z.Z.Z.H.S.Z.Z.Z.Z.Z.Z.Z.Z.A.A.Z.Z.S.S.Z.M.S.B.B.b.q.{ { { b.b.b.b.b.b.b.b.b.b.b.b.b.b.b.b.b.b.b.b.n.C.H.H.Z.Z.Z.Z.Z.Z.A.A.Z.Z.Z.Z.S.S.M.S.M.S.S.S.Z.M.n.n.q.9.w.1X1X+X1X2.n.l.b.1.<X#X*X=X",
"*X+X8X6XQ.7X/.2.@.] w.7.kXAXuX0.w.n.n.n.n.M.n.M.H.H.H.H.M.M.M.M.Z.Z.Z.Z.Z.Z.Z.Z.Z.Z.Z.Z.Z.Z.Z.Z.Z.Z.Z.Z.Z.Z.Z.H.Z.Z.F.F.B.B.M.M.M.M.M.n.n.n.b.n.n.n.n.n.n.n.n.b.b.b.B.B.M.M.M.H.Z.Z.Z.Z.Z.Z.Z.F.F.Z.Z.Z.Z.Z.Z.Z.Z.Z.Z.Z.Z.Z.Z.Z.Z.Z.Z.Z.Z.Z.Z.Z.Z.Z.B.M.n.n.b.b.b.b.b.b.b.b.b.b.q.q.q.b.b.b.b.b.Z.Z.Z.S.S.S.H.H.H.A.T.8X6X=X7X=X*X8XD.w.n.b.b.n.,X*X=X=X7X6X,X>Xn.` b.q.,.+XAXCXCXVXU.0.b.O.N.#.b.b.b.b.n.n.M.M.S.H.S.Z.Z.Z.Z.Z.Z.Z.Z.Z.Z.Z.Z.H.Z.Z.Z.Z.Z.Z.Z.Z.Z.Z.Z.Z.Z.Z.Z.Z.Z.Z.S.S.Z.Z.S.M.H.H.H.B.M.n.n.n.b.b.b.+.@.@.@.@.b.b.b.b.b.b.b.b.b.b.b.b.b.b.b.b.b.b.b.b.b.b.b.b.b.b.b.b.b.b.b.b.b.b.b.b.b.b.b.b.b.b.b.b.b.b.b.b.b.b.b.b.b.b.b.b.b.b.b.b.N.N.N.N.B.m.B.M.M.OX8X6X=X=X!.7X6XT.Z.S.M.n.T.6X=X=X=X+X,XH.3.1.w.<.A.nXnXJ.<.9.{ { @.@.#.b.b.b.b.b.b.b.b.b.b.b.b.b.b.b.b.b.b.b.b.b.b.b.b.b.b.b.b.b.b.b.b.b.b.b.b.b.b.b.b.b.b.b.b.b.b.b.b.b.b.b.b.b.N.b.H.F.F.Z.Z.Z.Z.Z.Z.Z.S.S.S.S.S.Z.A.A.A.A.S.S.S.M.H.M.n.b.q.{ { { b.b.b.b.b.b.b.b.b.b.b.b.b.b.b.b.b.b.b.B.C.C.H.S.F.F.Z.Z.Z.A.A.A.Z.S.M.S.M.M.S.S.Z.Z.Z.Z.Z.Z.Z.M.q.9.w.1X8X+X1X2.n.b.b.1.<X#X*X=X",
"-X+X*X6XQ.6X,X2.b.{ 0.7.kXAXxX4.u.n.M.M.M.S.S.S.M.M.M.S.S.H.H.H.Z.Z.Z.Z.Z.H.H.H.Z.Z.Z.Z.Z.Z.Z.Z.Z.Z.Z.Z.Z.Z.F.F.M.M.Z.Z.F.H.F.H.H.H.H.M.M.n.n.n.M.M.M.M.M.M.M.M.M.M.M.C.C.H.M.M.M.Z.Z.F.F.F.F.F.Z.Z.Z.Z.Z.Z.Z.Z.Z.Z.Z.Z.Z.Z.Z.Z.A.A.Z.A.Z.Z.n.n.Z.Z.M.M.M.M.n.n.b.q.b.q.b.q.b.q.q.q.q.w.b.w.b.b.S.S.S.S.S.S.S.Z.H.A.OX8X*X*X=X=X*X8XT.w.M.B.n.w.,X6X=X=X7X6X6X,Xn.1.b.q.,.+XZXCXCXZXU.0.q.{ b.+.b.b.b.n.M.M.H.H.Z.Z.Z.Z.Z.H.A.H.Z.Z.Z.Z.Z.Z.H.J.Z.Z.Z.Z.Z.Z.Z.Z.Z.Z.Z.Z.Z.Z.Z.Z.Z.Z.S.S.S.Z.Z.M.Z.M.F.S.H.S.C.M.b.q.b.q.b.{ b.b.b.b.b.b.b.b.b.b.b.b.b.b.b.b.b.b.b.b.b.b.b.b.b.b.b.b.b.b.b.b.b.b.b.b.b.b.b.b.b.b.b.b.b.b.b.b.b.b.b.b.b.b.b.b.b.b.+.b.b.b.N.b.B.B.B.n.M.M.Z.OX8X*XQ.=X!.7X6XT.Z.H.H.Z.T.6X=X=X=X+X>XH.1.1.w.>.U.mXmXU.<.9.9.{ @.@.b.b.b.b.b.b.b.b.b.b.b.b.b.b.b.b.b.b.b.b.b.b.b.b.b.b.b.b.b.b.b.b.b.b.b.b.b.b.b.b.b.b.b.b.b.b.b.b.b.b.b.b.b.b.N.n.H.F.F.Z.Z.Z.Z.F.Z.Z.S.S.S.S.S.Z.A.A.A.A.S.S.S.S.H.M.B.b.q.{ { { b.b.b.b.b.b.b.b.b.b.b.b.b.b.b.b.q.w.n.M.C.H.S.Z.F.Z.Z.Z.Z.Z.A.Z.Z.S.M.M.Z.M.Z.Z.S.S.Z.Z.Z.Z.Z.S.q.9.u.1X1X+X1X2.n.b.b.1.<X+X*X-X",
"-X-X*X*X6X6XT.Z.H.S.0.i.mXVXVXj.Z.Z.Z.S.S.S.H.Z.Z.Z.Z.Z.Z.Z.Z.Z.Z.Z.Z.Z.Z.Z.Z.Z.Z.Z.Z.Z.Z.Z.Z.Z.Z.Z.Z.Z.Z.Z.Z.Z.Z.Z.Z.Z.Z.Z.Z.Z.Z.Z.Z.Z.Z.Z.Z.Z.Z.Z.Z.Z.Z.Z.Z.Z.Z.S.S.Z.Z.Z.Z.Z.Z.Z.Z.Z.Z.Z.Z.Z.Z.Z.Z.Z.Z.Z.Z.Z.Z.Z.Z.Z.Z.Z.Z.Z.Z.Z.Z.Z.Z.Z.Z.Z.Z.Z.Z.Z.Z.Z.Z.S.n.n.n.w.n.w.w.w.n.n.n.n.n.n.n.n.S.S.S.Z.Z.Z.Z.Z.Z.u.T.8X6X*X=X*X*X8XU.u.S.S.Z.A.,X6X6X7X=X*X*X+XZ.1.q.q.9.#XZXNXCXkXjX>.9.q.b.b.M.M.Z.Z.Z.S.S.S.Z.Z.Z.Z.Z.Z.Z.Z.Z.Z.Z.Z.Z.Z.Z.Z.Z.Z.Z.Z.Z.Z.Z.Z.Z.Z.Z.Z.Z.Z.Z.Z.Z.Z.Z.Z.Z.Z.Z.Z.Z.Z.Z.Z.Z.Z.Z.S.M.M.M.n.n.w.1.w.b.b.b.b.b.b.b.b.b.b.b.b.b.#.N.#.+.+.+.+.+.@.b.+.b.@.b.@.b.@.b.@.b.@.b.+.b.@.b.@.b.@.b.+.b.@.b.@.O.{ @.@.#.@.N.b.` q.b.n.C.C.C.C.S.n.M.Z.u.OX8X=X=X!.7X7XQ.U.A.Z.S.Z.OX9X-X=X=X*X>XZ.w.w.0.8.Y.vXnX8X>.<.M.{ { N.#.b.b.b.b.b.b.m.b.b.b.b.b.b.b.b.b.b.b.b.b.b.b.b.b.b.b.b.b.b.b.b.b.b.b.b.b.b.b.b.+.+.+.+.+.+.b.b.1.l.b.b.n.B.B.B.Z.Z.Z.Z.Z.Z.Z.Z.Z.Z.Z.Z.Z.Z.Z.Z.Z.Z.Z.Z.Z.Z.Z.M.M.C.M.B.q.{ q.b.b.@.b.+.b.b.b.b.b.b.b.b.b.b.b.b.M.M.M.Z.Z.S.S.Z.Z.Z.Z.Z.Z.Z.Z.Z.Z.Z.Z.Z.Z.Z.Z.Z.Z.Z.Z.Z.Z.Z.Z.Z.S.0.S.@X#X1XOXu.2.n.z.n.OX1X*X-X",
"-X-X*X*X6X6XT.Z.H.A.t.a.mXVXCXk.i.Z.Z.Z.Z.Z.F.Z.Z.Z.Z.Z.Z.Z.Z.Z.Z.Z.Z.Z.Z.Z.Z.Z.Z.Z.Z.Z.Z.Z.Z.Z.Z.Z.Z.Z.Z.Z.Z.Z.Z.Z.Z.Z.Z.Z.Z.Z.Z.Z.Z.Z.Z.Z.Z.Z.Z.Z.Z.Z.Z.Z.Z.Z.Z.Z.Z.Z.Z.Z.Z.Z.Z.Z.Z.Z.Z.Z.Z.Z.Z.Z.Z.Z.Z.Z.Z.Z.Z.Z.Z.Z.Z.Z.Z.Z.Z.Z.Z.Z.Z.Z.Z.Z.Z.Z.Z.Z.Z.Z.Z.Z.Z.Z.Z.Z.Z.n.n.n.Z.Z.Z.Z.Z.Z.Z.Z.S.S.Z.Z.Z.Z.Z.Z.Z.u.T.8X6X*X=X*X*X8XU.u.S.S.u.A.,X6X6X7X=X*X-X+XZ.1.q.] ,.@XZXNXCXkXjX>.w.q.b.n.Z.Z.Z.Z.Z.Z.Z.Z.Z.Z.Z.Z.Z.Z.Z.Z.Z.Z.Z.Z.Z.Z.Z.Z.Z.Z.Z.Z.Z.Z.Z.Z.Z.Z.Z.Z.Z.Z.Z.Z.Z.Z.Z.Z.Z.Z.Z.Z.Z.Z.Z.Z.Z.Z.Z.Z.Z.Z.Z.Z.n.n.n.n.b.b.b.b.b.b.l.+.N.N.b.N.b.@.#.+.+.+.+.@.@.@.#.@.+.+.@.@.@.@.@.@.@.+.+.+.@.@.@.@.@.+.+.+.@.@.@.@.@.+.@.@.@.@.b.b.q.b.n.M.C.H.H.H.H.w.u.u.u.OX8X=X=X!.7X7XQ.A.u.Z.S.Z.OX9X-X=X=X*X,XH.n.Z.t.4.Y.bXmX9X;.<.e.` { +.b.b.b.b.b.q.{ { b.N.N.b.b.b.+.+.b.b.b.b.b.b.b.b.b.b.b.b.b.b.b.b.b.b.b.b.b.b.b.b.+.@.+.@.b.b.b.b.l.l.b.n.n.B.B.F.Z.Z.Z.Z.Z.Z.Z.Z.Z.Z.Z.Z.Z.Z.Z.Z.Z.Z.Z.Z.Z.Z.Z.S.M.S.M.B.q.q.q.b.b.@.@.@.+.+.b.b.b.b.b.+.b.b.b.b.Z.Z.Z.Z.Z.Z.Z.Z.Z.Z.Z.Z.Z.Z.Z.Z.Z.Z.Z.Z.Z.Z.Z.Z.Z.Z.Z.Z.Z.Z.Z.Z.Z.0.D.#X#X1XOXt.2.Z.z.n.OX8X*X-X",
"-X-X*X*X6X6X^.Z.H.A.u.a.mXVXCXk.i.Z.Z.Z.Z.Z.Z.Z.Z.Z.Z.Z.Z.Z.Z.Z.Z.Z.Z.Z.Z.Z.Z.Z.Z.Z.Z.Z.Z.Z.Z.Z.Z.Z.Z.Z.Z.Z.Z.Z.Z.Z.Z.Z.Z.Z.Z.Z.Z.Z.Z.Z.Z.Z.Z.Z.Z.Z.Z.Z.Z.Z.Z.Z.Z.Z.Z.Z.Z.Z.Z.Z.Z.Z.Z.Z.Z.Z.Z.Z.Z.Z.Z.Z.Z.Z.Z.Z.Z.Z.Z.Z.Z.Z.Z.Z.Z.Z.Z.Z.Z.Z.Z.Z.Z.Z.Z.Z.Z.Z.Z.Z.H.H.H.S.Z.Z.Z.Z.H.H.H.H.H.H.H.H.S.S.Z.Z.Z.Z.Z.Z.Z.u.T.8X6X*X=X*X*X8XU.u.S.S.u.A.6X6X6X7X*X*X=X*XZ.1.q.] P XXZXCXCXNXxX8.w.n.n.M.Z.Z.Z.Z.Z.Z.Z.Z.Z.Z.Z.Z.Z.Z.Z.Z.Z.Z.Z.Z.Z.Z.Z.Z.Z.Z.Z.Z.Z.Z.Z.Z.Z.Z.Z.Z.Z.Z.Z.Z.Z.Z.Z.Z.Z.Z.Z.Z.Z.Z.Z.Z.Z.Z.Z.Z.Z.Z.Z.Z.Z.Z.Z.Z.n.b.b.b.b.q.l.q.b.b.b.b.b.b.b.N.+.+.b.b.b.b.b.b.b.b.b.b.b.b.b.b.b.b.b.b.+.+.b.b.b.b.b.b.b.b.b.@.@.@.{ { { { q.q.b.n.n.M.H.H.H.H.H.w.p.u.u.OX9X=X7X!.7X7XR.A.A.Z.S.Z.OX9X-X=X=X*X2XH.n.S.u.6.W.mXmX9Xt.<.e.9.q.b.b.b.b.b.b.q.{ { b.b.b.b.b.b.b.b.b.b.b.b.b.b.b.b.b.b.b.b.b.b.b.b.b.b.b.b.b.b.b.+.N.#.N.N.b.b.b.b.b.b.n.n.B.F.F.F.Z.Z.Z.Z.Z.Z.Z.Z.Z.Z.Z.Z.Z.Z.Z.Z.Z.Z.Z.Z.Z.Z.Z.S.M.S.M.B.b.q.q.b.b.@.@.@.b.b.b.b.b.b.b.b.b.b.b.b.Z.Z.Z.Z.Z.Z.Z.Z.Z.Z.Z.Z.Z.Z.Z.Z.Z.Z.Z.Z.Z.Z.Z.Z.Z.Z.Z.Z.Z.Z.Z.Z.Z.0.D.#X#X#XOXu.2.Z.n.Z.OX8X*X-X",
"-X-X*X*X6X6X^.Z.H.A.u.U.mXVXCXk.i.Z.Z.Z.Z.Z.Z.Z.Z.Z.Z.Z.Z.Z.Z.Z.Z.Z.Z.Z.Z.Z.Z.Z.Z.Z.Z.Z.Z.Z.Z.Z.Z.Z.Z.Z.Z.Z.Z.Z.Z.Z.Z.Z.Z.Z.Z.Z.Z.Z.Z.Z.Z.Z.Z.Z.Z.Z.Z.Z.Z.Z.Z.Z.Z.Z.Z.Z.Z.Z.Z.Z.Z.Z.Z.Z.Z.Z.Z.Z.Z.Z.Z.Z.Z.Z.Z.Z.Z.Z.Z.Z.Z.Z.Z.Z.Z.Z.Z.Z.Z.Z.Z.Z.Z.Z.Z.Z.Z.Z.Z.Z.S.Z.Z.Z.Z.Z.Z.Z.S.S.Z.Z.S.S.S.S.S.S.Z.Z.Z.Z.Z.Z.Z.u.T.8X6X*X=X*X6X8XT.u.S.S.u.A.,X6X6X7X*X*X=X*XA.2.q.9.9.oXZXCXCXVXbX4.u.M.M.H.Z.Z.Z.Z.Z.Z.Z.Z.Z.Z.Z.Z.Z.Z.Z.Z.Z.Z.Z.Z.Z.Z.Z.Z.Z.Z.Z.Z.Z.Z.Z.Z.Z.Z.Z.Z.Z.Z.Z.Z.Z.Z.Z.Z.Z.Z.Z.Z.Z.Z.Z.Z.Z.Z.Z.Z.Z.Z.Z.Z.Z.Z.Z.S.M.n.n.n.b.w.b.w.1.q.1.q.b.b.b.b.q.+.+.+.+.b.b.b.b.b.b.b.b.b.b.b.b.b.b.b.b.b.b.b.b.b.b.b.b.b.b.b.q.q.q.q.q.b.b.b.B.M.M.S.H.H.Z.Z.S.Z.S.u.t.U.8X*X7X!.7X6XR.A.Z.Z.S.Z.OX9X-X=X=X*X2XD.n.S.u.i.*XmXmXvXi.t.S.q.B.n.N.b.n.n.b.w.q.q.{ +.+.b.b.b.N.N.b.b.b.b.b.b.b.b.b.b.b.b.b.b.b.b.b.b.b.b.b.b.b.b.b.b.N.b.b.b.b.l.n.n.B.F.F.F.F.F.Z.Z.Z.Z.Z.Z.Z.Z.Z.Z.Z.Z.Z.Z.Z.Z.Z.Z.Z.Z.Z.Z.Z.S.S.M.M.n.n.b.q.q.b.@.b.b.b.b.b.b.b.+.1.b.b.b.b.n.Z.Z.Z.Z.Z.Z.Z.Z.Z.Z.Z.Z.Z.Z.Z.Z.Z.Z.Z.Z.Z.Z.Z.Z.Z.Z.Z.Z.Z.Z.Z.Z.Z.u.D.#X+X#XOXu.n.H.n.Z.,X8X*X-X",
"-X-X=X*X6X6X^.Z.A.A.u.U.mXVXCX~.i.Z.Z.Z.Z.Z.Z.Z.Z.Z.Z.Z.Z.Z.Z.Z.Z.Z.Z.Z.Z.Z.Z.Z.Z.Z.Z.Z.Z.Z.Z.Z.Z.Z.Z.Z.Z.Z.Z.Z.Z.Z.Z.Z.Z.Z.Z.Z.Z.Z.Z.Z.Z.Z.Z.Z.Z.Z.Z.Z.Z.Z.Z.Z.Z.Z.Z.Z.Z.Z.Z.Z.Z.Z.Z.Z.Z.Z.Z.Z.Z.Z.Z.Z.Z.Z.Z.Z.Z.Z.Z.Z.Z.Z.Z.Z.Z.Z.Z.Z.Z.Z.Z.Z.Z.Z.Z.Z.Z.Z.Z.Z.Z.Z.Z.Z.Z.Z.Z.Z.Z.Z.Z.Z.Z.Z.Z.Z.S.S.Z.Z.Z.Z.Z.Z.Z.u.T.6X6X=X=X*X6X8XT.u.S.S.Z.A.,X6X6X7X*X*X-X*XA.n.M.e.0.$XZXzXCXCXVXy.S.S.Z.H.Z.Z.Z.Z.Z.Z.Z.Z.Z.Z.Z.Z.Z.Z.Z.Z.Z.Z.Z.Z.Z.Z.Z.Z.Z.Z.Z.Z.Z.Z.Z.Z.Z.Z.Z.Z.Z.Z.Z.Z.Z.Z.Z.Z.Z.Z.Z.Z.Z.Z.Z.Z.Z.Z.Z.Z.Z.Z.Z.Z.Z.Z.Z.S.Z.M.M.M.M.n.n.n.w.w.w.q.w.q.q.q.b.q.b.{ { { { { b.b.b.b.b.b.b.q.b.b.b.b.b.b.q.b.b.b.b.b.b.b.b.b.{ { q.b.b.n.n.n.M.S.H.H.H.Z.Z.Z.Z.Z.S.Z.0.D.*X*X7X(.(.6XR.A.Z.Z.S.Z.OX9X-X%X*X*X1XH.n.S.u.t.*XmXmXvXi.u.H.n.C.C.B.B.B.B.n.n.b.b.b.b.b.b.b.b.b.b.b.b.b.b.b.b.b.b.b.b.b.b.b.b.w.b.b.b.b.b.b.b.b.b.b.b.b.b.b.b.b.n.M.Z.F.F.F.F.F.F.Z.Z.Z.Z.Z.Z.Z.Z.Z.Z.Z.Z.Z.Z.Z.Z.Z.Z.Z.Z.Z.Z.Z.S.S.M.M.M.B.n.q.q.b.b.b.b.b.b.b.b.q.q.q.b.b.b.n.B.Z.Z.Z.Z.Z.Z.Z.Z.Z.Z.Z.Z.Z.Z.Z.Z.Z.Z.Z.Z.Z.Z.Z.Z.Z.Z.Z.Z.Z.Z.Z.Z.Z.u.D.#X+X#XOXA.Z.H.F.Z.,X8X*X-X",
"-X-X=X*X6X6XT.Z.A.A.A.U.mXVXCX~.i.Z.Z.Z.Z.Z.Z.Z.Z.Z.Z.Z.Z.Z.Z.Z.Z.Z.Z.Z.Z.Z.Z.Z.Z.Z.Z.Z.Z.Z.Z.Z.Z.Z.Z.Z.Z.Z.Z.Z.Z.Z.Z.Z.Z.Z.Z.Z.Z.Z.Z.Z.Z.Z.Z.Z.Z.Z.Z.Z.Z.Z.Z.Z.Z.Z.Z.Z.Z.Z.Z.Z.Z.Z.Z.Z.Z.Z.Z.Z.Z.Z.Z.Z.Z.Z.Z.Z.Z.Z.Z.Z.Z.Z.Z.Z.Z.Z.Z.Z.Z.Z.Z.Z.Z.Z.Z.Z.Z.Z.Z.Z.S.S.S.S.S.Z.Z.Z.S.S.S.S.S.S.S.S.S.S.Z.Z.Z.Z.Z.Z.Z.u.T.6X6X*X=X*X6X8XT.u.S.S.Z.A.,X6X6X7X*X=X-X*XA.Z.S.M.u.-XZXzXJXCXZXi.D.S.Z.H.Z.Z.Z.Z.Z.Z.Z.Z.Z.Z.Z.Z.Z.Z.Z.Z.Z.Z.Z.Z.Z.Z.Z.Z.Z.Z.Z.Z.Z.Z.Z.Z.Z.Z.Z.Z.Z.Z.Z.Z.Z.Z.Z.Z.Z.Z.Z.Z.Z.Z.Z.Z.Z.Z.Z.Z.Z.Z.Z.Z.Z.Z.Z.Z.H.H.S.S.Z.n.M.n.S.M.n.w.w.9.1.1.w.b.b.b.b.{ q.{ b.b.b.b.b.b.q.q.b.b.b.b.b.b.w.q.b.b.b.b.b.b.b.b.q.q.w.b.n.n.M.M.S.Z.Z.Z.Z.Z.Z.Z.Z.Z.H.Z.0.D.,X*X7X7X6X6XR.A.Z.Z.S.Z.OX9X-X%X*X*X,XH.n.S.u.t.*XmXMXxXg.t.S.n.H.H.C.F.F.F.S.M.M.B.M.B.n.b.b.q.1.` b.b.b.b.b.b.b.w.b.b.b.b.b.b.b.b.w.b.b.b.b.b.b.b.1.1.b.b.n.M.F.F.F.F.F.F.F.F.F.F.Z.Z.Z.Z.Z.Z.Z.Z.Z.Z.Z.Z.Z.Z.Z.Z.Z.Z.Z.Z.Z.Z.Z.Z.S.M.M.M.M.n.b.q.b.b.b.b.b.b.b.b.b.b.b.b.n.n.n.M.H.Z.Z.Z.Z.Z.Z.Z.Z.Z.Z.Z.Z.Z.Z.Z.Z.Z.Z.Z.Z.Z.Z.Z.Z.Z.Z.Z.Z.Z.Z.Z.Z.u.OX#X+X+XOXA.Z.H.F.Z.,X8X*X-X",
"-X-X*X*X6X6XT.Z.Z.Z.u.U.mXVXCX~.i.Z.Z.Z.Z.Z.Z.Z.Z.Z.Z.Z.Z.Z.Z.Z.Z.Z.Z.Z.Z.Z.Z.Z.Z.Z.Z.Z.Z.Z.Z.Z.Z.Z.Z.Z.Z.Z.Z.Z.Z.Z.Z.Z.Z.Z.Z.Z.Z.Z.Z.Z.Z.Z.Z.Z.Z.Z.Z.Z.Z.Z.Z.Z.Z.Z.Z.Z.Z.Z.Z.Z.Z.Z.Z.Z.Z.Z.Z.Z.Z.Z.Z.Z.Z.Z.Z.Z.Z.Z.Z.Z.Z.Z.Z.Z.Z.Z.Z.Z.Z.Z.Z.Z.Z.Z.Z.Z.Z.Z.Z.Z.Z.Z.Z.Z.Z.Z.Z.Z.Z.Z.Z.Z.Z.Z.Z.Z.S.S.Z.Z.Z.Z.Z.Z.Z.u.T.6X6X*X=X*X6X8XT.u.A.S.Z.A.6X6X6X7X*X-X-X*XT.Z.S.S.u.-XAXBXJXCXZXg.D.Z.Z.F.Z.Z.Z.Z.Z.Z.Z.Z.Z.Z.Z.Z.Z.Z.Z.Z.Z.Z.Z.Z.Z.Z.Z.Z.Z.Z.Z.Z.Z.Z.Z.Z.Z.Z.Z.Z.Z.Z.Z.Z.Z.Z.Z.Z.Z.Z.Z.Z.Z.Z.Z.Z.Z.Z.Z.Z.Z.Z.Z.Z.Z.Z.Z.Z.Z.S.H.S.H.S.S.S.H.S.S.n.n.w.w.w.b.b.b.b.b.b.b.b.b.b.b.b.b.b.b.b.b.b.b.b.b.b.b.b.b.b.b.b.b.b.b.b.b.b.n.n.n.M.S.S.Z.Z.Z.Z.Z.Z.Z.Z.Z.Z.H.Z.0.D.,X+X6X6X).6XT.A.Z.M.S.Z.OX9X-X%X*X*X1XH.n.S.u.i.*XZXbXMXg.i.A.w.S.F.F.F.F.F.F.H.H.C.C.C.C.n.n.b.b.b.b.b.b.b.b.b.b.w.b.b.b.b.b.b.b.b.b.w.b.b.b.b.b.b.l.n.n.n.M.B.F.F.F.F.F.F.F.G.G.Z.Z.Z.Z.Z.Z.Z.Z.Z.Z.Z.Z.Z.Z.Z.Z.Z.Z.Z.Z.Z.Z.Z.Z.Z.S.M.M.M.S.M.n.w.b.b.b.b.b.b.b.b.b.b.n.C.H.B.B.M.H.Z.Z.Z.Z.Z.Z.Z.Z.Z.Z.Z.Z.Z.Z.Z.Z.Z.Z.Z.Z.Z.Z.Z.Z.Z.Z.Z.Z.Z.Z.Z.Z.u.T.#X+X+XOXA.Z.H.F.Z.>X8X*X=X",
"-X-X=X*X6X6X^.Z.Z.A.A.U.mXVXCX~.i.Z.Z.Z.Z.Z.Z.Z.Z.Z.Z.Z.Z.Z.Z.Z.Z.Z.Z.Z.Z.Z.Z.Z.Z.Z.Z.Z.Z.Z.Z.Z.Z.Z.Z.Z.Z.Z.Z.Z.Z.Z.Z.Z.Z.Z.Z.Z.Z.Z.Z.Z.Z.Z.Z.Z.Z.Z.Z.Z.Z.Z.Z.Z.Z.Z.Z.Z.Z.Z.Z.Z.Z.Z.Z.Z.Z.Z.Z.Z.Z.Z.Z.Z.Z.Z.Z.Z.Z.Z.Z.Z.Z.Z.Z.Z.Z.Z.Z.Z.Z.Z.Z.Z.Z.Z.Z.Z.Z.Z.Z.Z.Z.Z.Z.Z.Z.Z.Z.Z.Z.Z.Z.Z.Z.Z.Z.Z.S.S.Z.Z.Z.Z.Z.Z.Z.u.T.6X6X*X=X*X6X8XT.u.A.S.Z.A.6X6X6X7X*X*X-X*XT.Z.S.w.0.*XAXBXJXFXAXj.A.Z.Z.Z.Z.Z.Z.Z.Z.Z.Z.Z.Z.Z.Z.Z.Z.Z.Z.Z.Z.Z.Z.Z.Z.Z.Z.Z.Z.Z.Z.Z.Z.Z.Z.Z.Z.Z.Z.Z.Z.Z.Z.Z.Z.Z.Z.Z.Z.Z.Z.Z.Z.Z.Z.Z.Z.Z.Z.Z.H.H.H.Z.Z.Z.Z.Z.Z.A.A.A.A.S.S.S.Z.Z.S.M.S.S.S.S.n.n.n.n.n.b.b.b.b.b.b.b.b.b.b.b.b.b.b.b.b.b.b.b.b.b.b.b.b.b.b.w.n.n.n.M.M.Z.Z.Z.Z.Z.Z.Z.Z.Z.Z.Z.Z.Z.H.Z.0.D.#X+X6X6X6X6XT.A.Z.Z.S.Z.OX9X-X%X*X*X1XH.n.S.A.i.*XZXZXZXY.i.D.Z.H.S.F.F.F.F.F.H.S.S.M.C.C.C.H.C.H.C.b.b.b.b.n.b.n.b.b.b.b.b.z.b.n.b.z.b.n.b.b.b.b.b.F.F.F.F.F.F.Z.Z.F.F.F.F.F.F.G.Z.Z.Z.Z.Z.Z.Z.Z.Z.Z.Z.Z.Z.Z.Z.Z.Z.Z.Z.Z.Z.Z.Z.Z.Z.Z.M.M.S.S.M.n.w.w.b.b.b.b.b.b.b.b.n.M.H.H.H.B.M.S.Z.Z.Z.Z.Z.Z.Z.Z.Z.Z.Z.Z.Z.Z.Z.Z.Z.Z.Z.Z.Z.Z.Z.Z.Z.Z.Z.Z.Z.Z.Z.Z.u.T.1X*X+XOXA.Z.H.F.Z.,X8X*X%X",
"*X-X=X*X6X6XT.A.Z.u.u.U.mXVXGX!.A.Z.Z.Z.Z.Z.Z.Z.Z.Z.Z.Z.Z.Z.Z.Z.Z.Z.Z.Z.Z.Z.Z.Z.Z.Z.Z.Z.Z.Z.Z.Z.Z.Z.Z.Z.Z.Z.Z.Z.Z.Z.Z.Z.Z.Z.Z.Z.Z.Z.Z.Z.Z.Z.Z.Z.Z.Z.Z.Z.Z.Z.Z.Z.Z.Z.Z.Z.Z.Z.Z.Z.Z.Z.Z.Z.Z.Z.Z.Z.Z.Z.Z.Z.Z.Z.Z.Z.Z.Z.Z.Z.Z.Z.Z.Z.Z.Z.Z.Z.Z.Z.Z.Z.Z.Z.Z.Z.Z.Z.Z.Z.Z.Z.Z.Z.Z.Z.Z.Z.Z.Z.Z.Z.Z.Z.Z.Z.S.S.Z.Z.Z.Z.Z.Z.Z.Z.T.6X*X*X=X*X*X6XU.u.Z.S.u.A.+X6X6X7X=X=X*X*XU.A.H.p.t.;XAXBXJXFXVX7Xi.u.J.Z.Z.Z.Z.Z.Z.Z.Z.Z.Z.Z.Z.Z.Z.Z.Z.Z.Z.Z.Z.Z.Z.Z.Z.Z.Z.Z.Z.Z.Z.Z.Z.Z.Z.Z.Z.Z.Z.Z.Z.Z.Z.Z.Z.Z.Z.Z.Z.Z.Z.Z.Z.Z.Z.Z.Z.Z.Z.Z.Z.Z.Z.Z.Z.Z.Z.A.A.Z.A.A.A.Z.Z.Z.Z.S.S.S.S.S.M.M.M.M.M.M.C.C.n.n.n.n.n.n.n.n.w.w.w.w.w.w.w.w.n.n.n.n.M.n.M.M.S.Z.Z.Z.Z.Z.Z.Z.Z.Z.Z.Z.Z.Z.Z.Z.Z.Z.Z.S.u.S.OX8X+X6X6XR.D.Z.Z.H.Z.D.+X*X;X=X=X*X1XD.n.H.u.i.=XZXZXbXW.y.i.A.Z.H.F.F.F.F.Z.Z.S.S.S.M.S.M.S.M.H.C.M.M.M.M.M.M.M.M.n.n.n.n.n.n.n.n.n.n.n.M.M.M.M.M.Z.Z.Z.Z.Z.Z.Z.Z.Z.Z.Z.Z.Z.Z.Z.Z.Z.Z.Z.Z.Z.Z.Z.Z.Z.Z.Z.Z.Z.Z.Z.Z.Z.Z.Z.Z.Z.Z.Z.Z.Z.Z.Z.S.S.S.S.M.n.b.b.w.w.n.n.n.M.S.S.H.Z.S.Z.Z.Z.Z.Z.Z.Z.Z.Z.Z.Z.Z.Z.Z.Z.Z.Z.Z.Z.Z.Z.Z.Z.Z.Z.Z.Z.Z.Z.Z.Z.Z.Z.Z.Z.u.U.#X-X8X#XA.Z.F.Z.Z.,X6X*X;X",
"*X*X=X*X6X6XT.Z.Z.u.u.U.mXVXGX!.A.Z.Z.Z.Z.Z.Z.Z.Z.Z.Z.Z.Z.Z.Z.Z.Z.Z.Z.Z.Z.Z.Z.Z.Z.Z.Z.Z.Z.Z.Z.Z.Z.Z.Z.Z.Z.Z.Z.Z.Z.Z.Z.Z.Z.Z.Z.Z.Z.Z.Z.Z.Z.Z.Z.Z.Z.Z.Z.Z.Z.Z.Z.Z.Z.Z.Z.Z.Z.Z.Z.Z.Z.Z.Z.Z.Z.Z.Z.Z.Z.Z.Z.Z.Z.Z.Z.Z.Z.Z.Z.Z.Z.Z.Z.Z.Z.Z.Z.Z.Z.Z.Z.Z.Z.Z.Z.Z.Z.Z.Z.Z.Z.Z.Z.Z.Z.Z.Z.Z.Z.Z.Z.Z.Z.Z.Z.Z.S.S.Z.Z.Z.Z.Z.Z.Z.Z.T.6X*X*X=X*X*X6XU.u.Z.S.u.A.+X6X6X7X=X=X*X*XU.A.H.p.t.;XGXBXJXFXVX9Xi.u.J.Z.Z.Z.Z.Z.Z.Z.Z.Z.Z.Z.Z.Z.Z.Z.Z.Z.Z.Z.Z.Z.Z.Z.Z.Z.Z.Z.Z.Z.Z.Z.Z.Z.Z.Z.Z.Z.Z.Z.Z.Z.Z.Z.Z.Z.Z.Z.Z.Z.Z.Z.Z.Z.Z.Z.Z.Z.Z.Z.Z.Z.Z.Z.Z.Z.A.A.A.A.Z.A.A.A.Z.Z.Z.Z.S.S.S.S.S.M.M.M.M.M.C.C.M.M.M.M.M.M.M.M.M.M.M.M.M.M.M.M.M.M.M.M.M.M.M.S.Z.Z.Z.Z.Z.Z.Z.Z.Z.Z.Z.Z.Z.Z.Z.Z.Z.Z.Z.H.A.S.T.1X6X6X6XR.J.Z.M.S.n.D.+X*X;X=X*X*X1XD.n.H.A.i.=XZXZXcXW.y.i.A.Z.H.F.F.F.Z.Z.Z.S.S.S.S.S.S.S.S.H.H.M.M.M.M.M.M.M.Z.S.S.S.S.S.S.S.S.n.M.M.M.M.M.S.Z.Z.Z.Z.Z.Z.Z.Z.Z.Z.Z.Z.Z.Z.Z.Z.Z.Z.Z.Z.Z.Z.Z.Z.Z.Z.Z.Z.Z.Z.Z.Z.Z.Z.Z.Z.Z.Z.Z.Z.Z.Z.Z.Z.Z.Z.S.Z.S.H.M.M.M.M.M.M.H.S.Z.Z.F.Z.Z.Z.Z.Z.Z.Z.Z.Z.Z.Z.Z.Z.Z.Z.Z.Z.Z.Z.Z.Z.Z.Z.Z.Z.Z.Z.Z.Z.Z.Z.Z.Z.Z.Z.Z.Z.u.U.#X-X-X+XA.Z.F.Z.Z.,X6X*X;X",
"*X-X=X*X6X,XT.Z.Z.u.u.U.mXVXGXfXA.Z.Z.Z.Z.Z.Z.Z.Z.Z.Z.Z.Z.Z.Z.Z.Z.Z.Z.Z.Z.Z.Z.Z.Z.Z.Z.Z.Z.Z.Z.Z.Z.Z.Z.Z.Z.Z.Z.Z.Z.Z.Z.Z.Z.Z.Z.Z.Z.Z.Z.Z.Z.Z.Z.Z.Z.Z.Z.Z.Z.Z.Z.Z.Z.Z.Z.Z.Z.Z.Z.Z.Z.Z.Z.Z.Z.Z.Z.Z.Z.Z.Z.Z.Z.Z.Z.Z.Z.Z.Z.Z.Z.Z.Z.Z.Z.Z.Z.Z.Z.Z.Z.Z.Z.Z.Z.Z.Z.Z.Z.Z.Z.Z.Z.Z.Z.Z.Z.Z.Z.Z.Z.Z.Z.Z.Z.Z.S.S.Z.Z.Z.Z.Z.Z.Z.Z.T.6X*X*X=X*X*X6XU.u.u.S.u.A.+X,X6X7X=X=X*X*XU.A.S.p.t.;XGXBXJXFXVX9Xi.u.D.Z.Z.Z.Z.Z.Z.Z.Z.Z.Z.Z.Z.Z.Z.Z.Z.Z.Z.Z.Z.Z.Z.Z.Z.Z.Z.Z.Z.Z.Z.Z.Z.Z.Z.Z.Z.Z.Z.Z.Z.Z.Z.Z.Z.Z.Z.Z.Z.Z.Z.Z.Z.Z.Z.Z.Z.Z.Z.Z.Z.Z.Z.Z.Z.Z.A.A.A.A.Z.Z.A.A.Z.Z.Z.Z.S.S.S.S.S.S.S.S.S.S.S.S.S.S.M.Z.S.S.S.S.S.S.S.S.M.M.S.S.S.S.S.S.S.H.H.H.Z.Z.Z.Z.Z.Z.Z.Z.Z.Z.Z.Z.Z.Z.Z.Z.Z.Z.Z.H.S.S.J.,X8X6X,XT.A.Z.M.S.n.D.+X*X-X=X*X*X1XD.n.H.A.i.*XZXZXcX%Xy.i.S.Z.S.F.F.F.Z.Z.Z.S.S.Z.Z.Z.Z.Z.Z.Z.Z.Z.Z.Z.Z.Z.Z.Z.Z.H.H.H.H.H.H.H.H.Z.Z.Z.Z.Z.Z.S.S.Z.Z.Z.Z.Z.Z.Z.Z.Z.Z.Z.Z.Z.Z.Z.Z.Z.Z.Z.Z.Z.Z.Z.Z.Z.Z.Z.Z.Z.Z.Z.Z.Z.Z.Z.Z.Z.Z.Z.Z.Z.Z.Z.Z.Z.Z.Z.Z.H.H.S.S.S.S.H.H.Z.Z.Z.Z.Z.Z.Z.Z.Z.Z.Z.Z.Z.Z.Z.Z.Z.Z.Z.Z.Z.Z.Z.Z.Z.Z.Z.Z.Z.Z.Z.Z.Z.Z.Z.Z.Z.Z.Z.Z.Z.u.U.+X-X-X+Xi.Z.F.Z.Z.,X6X*X;X",
"*X*X=X*X6X,XT.A.Z.u.u.U.mXbXGXfXA.Z.Z.Z.Z.Z.Z.Z.Z.Z.Z.Z.Z.Z.Z.Z.Z.Z.Z.Z.Z.Z.Z.Z.Z.Z.Z.Z.Z.Z.Z.Z.Z.Z.Z.Z.Z.Z.Z.Z.Z.Z.Z.Z.Z.Z.Z.Z.Z.Z.Z.Z.Z.Z.Z.Z.Z.Z.Z.Z.Z.Z.Z.Z.Z.Z.Z.Z.Z.Z.Z.Z.Z.Z.Z.Z.Z.Z.Z.Z.Z.Z.Z.Z.Z.Z.Z.Z.Z.Z.Z.Z.Z.Z.Z.Z.Z.Z.Z.Z.Z.Z.Z.Z.Z.Z.Z.Z.Z.Z.Z.Z.Z.Z.Z.Z.Z.Z.Z.Z.Z.Z.Z.Z.Z.Z.Z.Z.Z.S.Z.Z.Z.Z.Z.Z.A.Z.T.6X*X*X=X*X*X6XU.u.u.S.u.A.+X6X6X7X=X=X=X*XU.A.S.p.t.;XAXBXJXJXVX9Xi.u.D.Z.Z.Z.Z.Z.Z.Z.Z.Z.Z.Z.Z.Z.Z.Z.Z.Z.Z.Z.Z.Z.Z.Z.Z.Z.Z.Z.Z.Z.Z.Z.Z.Z.Z.Z.Z.Z.Z.Z.Z.Z.Z.Z.Z.Z.Z.Z.Z.Z.Z.Z.Z.Z.Z.Z.Z.Z.Z.Z.Z.Z.Z.Z.Z.Z.Z.A.Z.A.Z.Z.Z.Z.Z.Z.Z.S.S.S.S.S.Z.S.Z.S.Z.S.Z.S.S.S.S.S.S.S.S.S.Z.n.Z.n.M.M.M.M.S.S.S.H.H.H.H.H.Z.Z.Z.Z.Z.Z.Z.Z.Z.Z.Z.Z.Z.Z.Z.Z.G.Z.Z.S.H.S.D.OX,X,X+XT.Z.Z.M.S.n.D.+X*X-X=X*X*X1XH.n.H.A.i.*XZXNXVX&Xy.i.S.Z.S.Z.F.Z.Z.Z.Z.S.S.S.Z.Z.Z.Z.Z.Z.Z.Z.Z.Z.Z.Z.Z.Z.Z.Z.S.Z.S.Z.S.Z.H.Z.H.Z.S.Z.Z.Z.Z.Z.Z.Z.Z.Z.Z.Z.Z.Z.Z.Z.Z.Z.Z.Z.Z.Z.Z.Z.Z.Z.Z.Z.Z.Z.Z.Z.Z.Z.Z.Z.Z.Z.Z.Z.Z.Z.Z.Z.Z.Z.Z.Z.Z.Z.Z.Z.Z.S.S.M.M.Z.Z.Z.S.Z.Z.Z.Z.Z.Z.Z.Z.Z.Z.Z.Z.Z.Z.Z.Z.Z.Z.Z.Z.Z.Z.Z.Z.Z.Z.Z.Z.Z.Z.Z.Z.Z.Z.Z.Z.Z.Z.Z.Z.Z.u.U.+X*X*X+Xi.Z.F.Z.Z.,X6X=X;X",
"*X*X*X*X6X,XT.A.A.u.u.XXmXbXGXlXA.Z.Z.Z.Z.Z.Z.Z.Z.Z.Z.Z.Z.Z.Z.Z.Z.Z.Z.Z.Z.Z.Z.Z.Z.Z.Z.Z.Z.Z.Z.Z.Z.Z.Z.Z.Z.Z.Z.Z.Z.Z.Z.Z.Z.Z.Z.Z.Z.Z.Z.Z.Z.Z.Z.Z.Z.Z.Z.Z.Z.Z.Z.Z.Z.Z.Z.Z.Z.Z.Z.Z.Z.Z.Z.Z.Z.Z.Z.Z.Z.Z.Z.Z.Z.Z.Z.Z.Z.Z.Z.Z.Z.Z.Z.Z.Z.Z.Z.Z.Z.Z.Z.Z.Z.Z.Z.Z.Z.Z.Z.Z.Z.Z.Z.Z.Z.Z.Z.Z.Z.Z.Z.Z.Z.Z.Z.Z.Z.S.Z.Z.Z.Z.Z.Z.A.Z.T.6X*X*X=X*X*X6XU.u.u.S.u.A.+X6X6X7X=X*X=X*XU.A.S.p.t.;XGXBXJXFXZX9XA.u.A.Z.Z.Z.Z.Z.Z.Z.Z.Z.Z.Z.Z.Z.Z.Z.Z.Z.Z.Z.Z.Z.Z.Z.Z.Z.Z.Z.Z.Z.Z.Z.Z.Z.Z.Z.Z.Z.Z.Z.Z.Z.Z.Z.Z.Z.Z.Z.Z.Z.Z.Z.Z.Z.Z.Z.Z.Z.Z.Z.Z.Z.Z.Z.Z.Z.Z.Z.Z.Z.Z.Z.Z.Z.Z.S.Z.S.Z.S.S.Z.Z.Z.Z.Z.Z.Z.Z.Z.Z.Z.Z.Z.Z.Z.Z.Z.Z.S.Z.S.F.Z.Z.Z.Z.S.Z.S.Z.Z.Z.Z.Z.Z.Z.Z.Z.Z.Z.Z.Z.Z.S.S.S.S.Z.Z.G.Z.Z.S.S.S.S.J.OXT.T.A.Z.Z.M.C.M.D.OX*X-X=X*X*X,XS.n.H.S.i.=XZXVXZX:Xy.u.S.S.Z.Z.Z.Z.Z.Z.S.S.S.Z.Z.Z.Z.Z.Z.Z.Z.Z.Z.Z.Z.Z.Z.Z.Z.Z.Z.Z.Z.Z.Z.Z.Z.H.H.H.Z.Z.Z.Z.Z.Z.Z.Z.Z.Z.Z.Z.Z.Z.Z.Z.Z.Z.Z.Z.Z.Z.Z.Z.Z.Z.Z.Z.Z.Z.Z.Z.Z.Z.Z.Z.Z.Z.Z.Z.Z.Z.Z.Z.Z.Z.Z.Z.Z.Z.Z.Z.Z.Z.Z.Z.Z.Z.Z.Z.Z.Z.Z.Z.Z.Z.Z.Z.Z.Z.Z.Z.Z.Z.Z.Z.Z.Z.Z.Z.Z.Z.Z.Z.Z.Z.Z.Z.Z.Z.Z.Z.Z.Z.Z.Z.Z.Z.Z.Z.Z.Z.u.U.+X*X+XR.u.Z.F.Z.Z.,X6X=X;X",
"*X*X*X*X6X,XT.A.A.u.u.+XmXbXGXhXA.Z.Z.Z.Z.Z.Z.Z.Z.Z.Z.Z.Z.Z.Z.Z.Z.Z.Z.Z.Z.Z.Z.Z.Z.Z.Z.Z.Z.Z.Z.Z.Z.Z.Z.Z.Z.Z.Z.Z.Z.Z.Z.Z.Z.Z.Z.Z.Z.Z.Z.Z.Z.Z.Z.Z.Z.Z.Z.Z.Z.Z.Z.Z.Z.Z.Z.Z.Z.Z.Z.Z.Z.Z.Z.Z.Z.Z.Z.Z.Z.Z.Z.Z.Z.Z.Z.Z.Z.Z.Z.Z.Z.Z.Z.Z.Z.Z.Z.Z.Z.Z.Z.Z.Z.Z.Z.Z.Z.Z.Z.Z.Z.Z.Z.Z.Z.Z.Z.Z.Z.Z.Z.Z.Z.Z.Z.Z.Z.S.Z.Z.Z.Z.Z.Z.A.Z.T.6X*X*X=X*X*X6XU.u.u.S.u.A.+X6X6X7X=X*X=X*XU.A.S.p.t.-XAXBXHXCXVX9XA.u.A.Z.Z.Z.Z.Z.Z.Z.Z.Z.Z.Z.Z.Z.Z.Z.Z.Z.Z.Z.Z.Z.Z.Z.Z.Z.Z.Z.Z.Z.Z.Z.Z.Z.Z.Z.Z.Z.Z.Z.Z.Z.Z.Z.Z.Z.Z.Z.Z.Z.Z.Z.Z.Z.Z.Z.Z.Z.Z.Z.Z.Z.Z.Z.Z.Z.Z.Z.Z.Z.Z.Z.Z.Z.Z.Z.Z.Z.S.S.S.S.Z.Z.Z.Z.Z.Z.Z.Z.Z.Z.Z.Z.Z.Z.Z.Z.Z.Z.Z.Z.F.Z.Z.Z.Z.Z.Z.Z.Z.Z.Z.Z.Z.Z.Z.Z.Z.Z.Z.Z.Z.S.S.S.S.S.S.Z.G.Z.Z.H.S.M.S.H.D.A.A.A.Z.Z.C.H.M.D.OX*X-X%X=X*X@XS.n.H.S.i.*XZXVXZX;Xi.u.S.S.S.Z.Z.Z.Z.Z.S.S.S.Z.Z.Z.Z.Z.Z.Z.Z.Z.Z.Z.Z.Z.Z.Z.Z.Z.Z.Z.Z.Z.Z.Z.Z.H.H.H.Z.Z.Z.Z.Z.Z.Z.Z.Z.Z.Z.Z.Z.Z.Z.Z.Z.Z.Z.Z.Z.Z.Z.Z.Z.Z.Z.Z.Z.Z.Z.Z.Z.Z.Z.Z.Z.Z.Z.Z.Z.Z.Z.Z.Z.Z.Z.Z.Z.Z.Z.Z.Z.Z.Z.Z.Z.Z.Z.Z.Z.Z.Z.Z.Z.Z.Z.Z.Z.Z.Z.Z.Z.Z.Z.Z.Z.Z.Z.Z.Z.Z.Z.Z.Z.Z.Z.Z.Z.Z.Z.Z.Z.Z.Z.Z.Z.Z.Z.Z.Z.Z.u.U.+X*X*XR.6.Z.F.Z.Z.,X6X=X;X",
"*X-X=X*X6X,XT.A.A.u.u.+XmXbXGXhXA.Z.Z.Z.Z.Z.Z.Z.Z.Z.Z.Z.Z.Z.Z.Z.Z.Z.Z.Z.Z.Z.Z.Z.Z.Z.Z.Z.Z.Z.Z.Z.Z.Z.Z.Z.Z.Z.Z.Z.Z.Z.Z.Z.Z.Z.Z.Z.Z.Z.Z.Z.Z.Z.Z.Z.Z.Z.Z.Z.Z.Z.Z.Z.Z.Z.Z.Z.Z.Z.Z.Z.Z.Z.Z.Z.Z.Z.Z.Z.Z.Z.Z.Z.Z.Z.Z.Z.Z.Z.Z.Z.Z.Z.Z.Z.Z.Z.Z.Z.Z.Z.Z.Z.Z.Z.Z.Z.Z.Z.Z.Z.Z.Z.Z.Z.Z.Z.Z.Z.Z.Z.Z.Z.Z.Z.Z.Z.Z.S.Z.Z.Z.Z.Z.Z.A.Z.T.6X*X*X=X*X*X6XU.u.S.S.u.A.+X6X6X6X=X=X=X*XU.A.S.s.t.;XAXBXJXBXVXxXU.t.A.H.Z.Z.Z.Z.Z.Z.Z.Z.Z.Z.Z.Z.Z.Z.Z.Z.Z.Z.Z.Z.Z.Z.Z.Z.Z.Z.Z.Z.Z.Z.Z.Z.Z.Z.Z.Z.Z.Z.Z.Z.Z.Z.Z.Z.Z.Z.Z.Z.Z.Z.Z.Z.Z.Z.Z.Z.Z.Z.Z.Z.Z.Z.Z.Z.Z.Z.Z.Z.Z.Z.Z.Z.Z.Z.M.M.S.S.M.S.Z.Z.Z.Z.Z.Z.Z.Z.Z.Z.Z.Z.Z.Z.Z.Z.Z.Z.Z.Z.Z.Z.Z.Z.Z.Z.Z.Z.Z.Z.Z.Z.Z.S.Z.Z.Z.Z.S.S.S.S.S.S.S.S.S.Z.G.Z.Z.H.S.M.u.Z.A.A.A.A.Z.S.C.C.M.D.OX*X;X%X=X*XOXS.n.H.D.i.*XZXMXZX9Xi.u.D.S.S.Z.Z.Z.Z.Z.S.S.S.Z.Z.Z.Z.Z.Z.Z.Z.Z.Z.Z.Z.Z.Z.Z.Z.Z.Z.Z.Z.Z.Z.Z.Z.H.Z.Z.Z.Z.Z.Z.Z.Z.Z.Z.Z.Z.Z.Z.Z.Z.Z.Z.Z.Z.Z.Z.Z.Z.Z.Z.Z.Z.Z.Z.Z.Z.Z.Z.Z.Z.Z.Z.Z.Z.Z.Z.Z.Z.Z.Z.Z.Z.Z.Z.Z.Z.Z.Z.Z.Z.Z.Z.Z.Z.Z.Z.Z.Z.Z.Z.Z.Z.Z.Z.Z.Z.Z.Z.Z.Z.Z.Z.Z.Z.Z.Z.Z.Z.Z.Z.Z.Z.Z.Z.Z.Z.Z.Z.Z.Z.Z.Z.Z.Z.Z.Z.Z.Z.u.U.+X*X+XR.6.Z.G.Z.A.,X6X=X;X",
"=X-X=X*X6X,XT.Z.H.u.u.+XZXkXAXhXA.Z.Z.Z.Z.Z.Z.Z.Z.Z.Z.S.Z.Z.Z.Z.Z.Z.Z.Z.Z.Z.Z.Z.Z.Z.Z.Z.Z.Z.Z.Z.Z.Z.Z.Z.Z.Z.Z.Z.Z.Z.Z.Z.Z.Z.Z.Z.Z.Z.Z.Z.Z.Z.Z.Z.Z.Z.Z.Z.Z.Z.Z.Z.Z.Z.Z.Z.Z.Z.Z.Z.Z.Z.Z.Z.Z.Z.Z.Z.Z.Z.Z.Z.Z.Z.Z.Z.Z.Z.Z.Z.Z.Z.Z.Z.Z.Z.Z.Z.Z.Z.Z.Z.Z.Z.Z.Z.F.Z.F.Z.Z.Z.Z.Z.Z.Z.Z.Z.Z.Z.Z.Z.Z.Z.Z.Z.Z.S.Z.Z.Z.Z.Z.Z.A.Z.T.6X*X*X*X*X*X1XU.u.S.S.u.A.+X,X6X=X=X*X*X+XA.Z.S.s.t.;XAXBXFXBXVXxXU.t.A.H.Z.Z.Z.Z.Z.Z.Z.Z.Z.Z.Z.Z.Z.Z.Z.Z.Z.Z.Z.Z.Z.Z.Z.Z.Z.Z.Z.Z.Z.Z.Z.Z.Z.Z.Z.Z.Z.Z.Z.Z.Z.Z.Z.Z.Z.Z.Z.Z.Z.Z.Z.Z.Z.Z.Z.Z.Z.Z.Z.Z.Z.Z.Z.Z.Z.Z.Z.Z.Z.Z.Z.Z.Z.Z.M.M.M.S.S.S.Z.Z.Z.Z.Z.Z.Z.Z.Z.Z.Z.Z.Z.Z.Z.Z.F.Z.F.Z.F.Z.F.Z.H.H.H.Z.F.Z.Z.Z.Z.Z.Z.Z.Z.Z.Z.Z.Z.Z.S.S.S.S.S.Z.H.Z.Z.H.H.Z.u.u.A.A.A.Z.H.H.C.C.Z.D.+X*X;X=X=X*XOXZ.n.H.A.i.*XZXMXZXgXg.i.D.H.M.Z.Z.Z.Z.Z.S.S.S.Z.Z.Z.Z.Z.Z.Z.Z.F.F.F.F.F.F.F.Z.Z.Z.Z.Z.Z.Z.Z.Z.Z.H.Z.Z.Z.Z.Z.Z.Z.Z.Z.Z.Z.Z.Z.Z.Z.Z.Z.Z.Z.S.Z.Z.Z.Z.Z.Z.Z.Z.Z.Z.Z.Z.Z.Z.Z.Z.Z.Z.Z.Z.Z.Z.Z.Z.Z.Z.Z.Z.Z.Z.Z.Z.Z.Z.Z.Z.Z.Z.Z.Z.Z.Z.Z.Z.Z.Z.Z.Z.Z.Z.Z.Z.Z.Z.Z.Z.Z.Z.Z.Z.Z.Z.Z.Z.Z.Z.Z.Z.Z.Z.Z.Z.Z.Z.Z.Z.Z.Z.Z.Z.Z.Z.A.u.U.+X*X*XT.6.Z.G.Z.A.,X6X*X;X",
"=X%X=XY.6X4XZ.H.Z.J.u.6XZXVXCXVXi.H.S.Z.S.J.H.M.M.M.S.S.S.S.u.Z.Z.Z.Z.Z.Z.Z.Z.Z.Z.Z.Z.Z.Z.Z.Z.Z.Z.Z.Z.Z.Z.Z.Z.Z.Z.Z.Z.Z.Z.Z.Z.Z.Z.Z.Z.Z.Z.Z.Z.Z.A.A.A.Z.Z.Z.Z.Z.Z.Z.F.Z.F.Z.F.Z.F.Z.F.Z.F.Z.F.F.F.Z.F.Z.F.Z.F.Z.F.Z.F.F.F.Z.F.Z.F.Z.F.Z.F.Z.F.F.F.Z.F.Z.F.Z.F.Z.F.Z.F.Z.F.Z.F.Z.F.Z.F.Z.F.Z.F.Z.Z.Z.F.Z.Z.Z.Z.Z.Z.A.U.+X*X*X*X*X6X1XD.u.S.S.0.t.OX8X6X*X*X-XoX+XT.Z.A.i.i.9XAXNXCXCXNXcXoX4.0.[.Z.Z.F.F.F.F.H.H.Z.Z.Z.Z.Z.Z.H.H.Z.Z.F.Z.F.Z.F.Z.F.Z.F.Z.F.Z.F.Z.F.Z.F.Z.F.Z.F.Z.F.Z.F.Z.F.Z.F.Z.F.Z.F.Z.F.Z.F.Z.F.Z.F.Z.F.Z.F.F.F.F.F.F.F.F.F.F.F.F.F.F.F.F.F.F.F.Z.F.Z.F.Z.F.Z.F.Z.F.Z.F.Z.F.Z.F.Z.F.Z.F.Z.F.Z.F.Z.F.Z.F.Z.F.Z.Z.Z.Z.Z.Z.Z.F.Z.Z.Z.Z.Z.Z.Z.Z.Z.M.w.w.Z.u.u.A.R.+X+XT.A.Z.M.C.C.F.Z.6X6XW.=X*X+X1Xw.n.Z.D.4.=XVXSXSXgXh.i.i.D.Z.M.B.B.C.C.H.S.H.G.G.G.G.G.G.G.G.G.G.G.G.G.A.G.Z.Z.Z.Z.Z.Z.S.H.S.S.S.S.S.S.M.n.Z.Z.A.A.A.A.A.A.A.A.A.Z.Z.Z.Z.A.A.Z.Z.Z.Z.Z.Z.Z.Z.Z.Z.Z.Z.Z.Z.Z.Z.Z.Z.F.Z.F.Z.F.Z.F.Z.F.Z.F.Z.G.A.G.Z.G.Z.G.Z.F.Z.F.Z.F.Z.F.Z.G.A.G.F.F.F.F.Z.F.Z.F.Z.F.Z.F.Z.F.Z.F.Z.F.Z.F.Z.F.Z.F.Z.F.Z.F.Z.F.Z.S.u.[.#X#X$XXXt.A.H.J.2.,X+X-X&X",
"&XW.=XY.8X4XZ.H.Z.J.i.6XZXNXCXVXU.D.Z.Z.H.H.H.F.F.Z.S.S.Z.Z.u.A.Z.Z.Z.Z.Z.Z.F.F.Z.Z.Z.Z.Z.Z.Z.Z.Z.Z.Z.Z.Z.Z.Z.Z.Z.Z.Z.Z.Z.Z.Z.Z.Z.Z.Z.Z.Z.Z.Z.Z.A.A.A.A.Z.Z.Z.Z.Z.F.F.F.F.F.F.F.F.F.G.G.F.F.F.F.F.F.F.F.F.F.G.G.F.F.F.F.F.F.F.F.F.F.G.G.F.F.F.F.F.F.F.F.F.F.G.G.F.F.F.F.F.F.F.F.F.F.F.F.F.F.F.Z.Z.Z.Z.Z.Z.Z.Z.Z.Z.A.T.+X-X*X*X-X*X1XD.u.D.S.w.u.OX8X6X*X6X*XoX+XT.u.A.i.i.9XAXNXSXBXCXVX;Xi.0.D.n.Z.Z.Z.Z.Z.Z.Z.J.J.H.H.H.Z.Z.Z.Z.F.F.F.F.F.F.F.F.F.F.F.F.F.F.F.F.F.F.F.F.F.F.F.F.F.F.F.F.F.F.F.F.F.F.F.F.F.F.F.F.F.F.F.F.F.F.F.F.F.F.F.F.F.F.F.F.F.F.F.F.F.F.F.F.F.F.F.F.F.F.F.F.F.F.F.F.F.F.F.F.F.F.F.F.F.F.F.F.F.F.F.F.F.F.F.F.F.F.F.F.F.F.F.F.F.F.F.F.F.F.Z.S.n.Z.A.A.A.T.6X6X,XT.A.Z.M.C.C.F.Z.6X6XW.=X*X+X<X9.n.u.A.4.=XVXNXCXhXj.5.7.A.Z.Z.M.B.B.M.M.M.Z.G.G.G.G.G.G.G.G.G.G.G.G.Z.Z.G.Z.Z.Z.Z.Z.Z.u.Z.u.S.S.S.S.S.S.S.S.Z.Z.Z.Z.Z.Z.Z.Z.A.A.Z.Z.Z.Z.A.Z.Z.Z.Z.Z.Z.Z.Z.Z.Z.Z.Z.Z.Z.Z.Z.Z.F.F.F.F.F.F.F.F.F.F.F.F.F.F.G.G.F.F.G.G.G.G.F.F.F.F.F.F.F.F.G.G.F.F.F.F.F.F.F.F.F.F.F.F.F.F.F.F.F.F.F.F.F.F.F.F.F.F.F.F.F.F.F.Z.S.u.D.#X$X$XXXt.A.Z.J.6.,X+X-X%X",
"=X%X*XR.1X2XZ.Z.Z.D.i.7XZXNXBXNXY.A.Z.G.J.G.Z.F.F.F.Z.Z.Z.A.A.Z.Z.S.Z.Z.Z.Z.Z.Z.Z.Z.Z.Z.Z.Z.Z.Z.Z.Z.Z.Z.Z.Z.Z.Z.Z.Z.Z.Z.Z.Z.Z.Z.Z.Z.Z.Z.A.A.A.A.Z.Z.Z.Z.Z.Z.Z.Z.Z.Z.Z.Z.Z.Z.Z.Z.Z.Z.Z.Z.Z.Z.Z.Z.Z.Z.Z.Z.Z.Z.Z.Z.Z.Z.Z.Z.Z.Z.Z.Z.Z.Z.Z.Z.Z.Z.Z.Z.Z.Z.Z.Z.Z.Z.Z.Z.Z.Z.Z.Z.Z.Z.Z.Z.Z.Z.Z.Z.Z.Z.Z.Z.Z.Z.Z.Z.Z.Z.Z.Z.Z.A.U.+X8X*X*X-X*X8XU.t.S.D.Z.A.OX8X6X*X6X*X+X+XJ.Z.Z.i.i.9XZXNXBXBXCXAXxXY.t.t.D.A.A.Z.Z.Z.Z.Z.S.Z.S.S.S.S.Z.Z.Z.Z.Z.Z.Z.Z.Z.Z.Z.Z.Z.Z.Z.Z.Z.Z.Z.Z.Z.Z.Z.Z.Z.Z.Z.Z.Z.Z.Z.Z.Z.Z.Z.Z.Z.Z.Z.Z.Z.Z.Z.Z.Z.Z.Z.Z.Z.Z.Z.Z.Z.Z.Z.Z.Z.Z.Z.Z.Z.Z.Z.Z.Z.Z.Z.Z.Z.Z.Z.Z.Z.Z.Z.Z.Z.Z.Z.Z.Z.Z.Z.Z.Z.Z.Z.Z.Z.Z.Z.Z.Z.Z.Z.Z.Z.Z.Z.Z.Z.Z.Z.Z.Z.Z.Z.Z.Z.Z.Z.Z.Z.Z.H.n.Z.A.A.U.R.6X6X6X,XJ.Z.Z.C.C.Z.Z.6X6XQ.=X*X+X<X,.w.w.D.5.=XZXNXCXNX&Xf.5.i.u.H.H.H.H.H.H.D.S.M.M.M.M.M.M.M.M.M.M.M.M.n.M.M.M.H.H.H.H.H.H.H.H.S.S.S.S.S.S.S.S.Z.Z.Z.Z.Z.Z.Z.Z.Z.Z.Z.Z.Z.Z.Z.Z.Z.Z.Z.Z.Z.Z.Z.Z.Z.Z.Z.Z.Z.Z.Z.Z.Z.Z.Z.Z.Z.Z.Z.Z.Z.Z.Z.Z.Z.Z.Z.Z.F.Z.Z.Z.Z.Z.Z.Z.Z.Z.Z.Z.Z.Z.Z.Z.Z.Z.Z.Z.Z.Z.Z.Z.Z.Z.Z.Z.Z.Z.Z.Z.Z.Z.Z.Z.Z.Z.Z.Z.Z.Z.Z.Z.Z.Z.Z.Z.S.u.D.#X-X$XXXt.Z.Z.J.6.1X+X-X%X",
"=X=X*XR.1X2Xn.Z.Z.D.i.=XZXNXBXBXQ.A.7.G.T.Z.c.G.G.F.F.F.F.Z.A.Z.Z.S.S.S.S.S.S.S.S.S.S.S.Z.S.Z.Z.Z.Z.Z.Z.Z.Z.Z.Z.Z.Z.Z.Z.Z.Z.Z.Z.Z.Z.Z.Z.A.A.A.A.Z.Z.Z.Z.Z.Z.Z.S.Z.S.S.S.S.S.S.S.S.S.Z.Z.Z.Z.Z.S.S.S.S.S.S.S.Z.Z.Z.Z.Z.S.S.S.S.S.S.S.Z.Z.Z.Z.Z.S.S.S.S.S.S.S.Z.Z.Z.Z.Z.Z.Z.Z.Z.Z.Z.Z.Z.Z.Z.Z.Z.Z.Z.Z.Z.Z.Z.Z.Z.Z.A.A.U.+X*X-X=X-X6X8XU.t.p.D.S.A.T.8X6X*X6X*X+X1XJ.n.Z.i.i.9XZXNXCXBXFXCXbX%Xg.4.i.A.A.A.A.S.S.S.u.Z.Z.S.S.S.n.Z.Z.Z.Z.Z.Z.Z.Z.Z.Z.Z.Z.Z.Z.Z.Z.Z.Z.Z.Z.Z.Z.Z.Z.Z.Z.Z.Z.Z.Z.Z.Z.Z.Z.Z.Z.Z.Z.Z.Z.Z.Z.Z.Z.Z.Z.Z.Z.Z.Z.Z.Z.Z.Z.Z.Z.Z.Z.Z.Z.Z.Z.Z.Z.Z.Z.Z.Z.Z.Z.Z.Z.Z.Z.Z.Z.Z.Z.Z.Z.Z.Z.Z.Z.Z.Z.Z.Z.Z.Z.Z.Z.Z.Z.Z.Z.Z.Z.Z.Z.Z.Z.Z.Z.Z.Z.Z.Z.Z.Z.Z.Z.Z.Z.w.u.u.A.U.R.6X6X6X,XD.Z.Z.C.C.Z.u.6X6XQ.=X*X#X@X,.1.w.D.5.9XZXDXCXAXcX;XY.g.4.i.i.u.i.i.i.i.u.S.M.M.M.S.'.'.'.M.M.M.M.M.M.M.M.Z.Z.Z.Z.Z.Z.Z.Z.H.H.H.S.S.M.n.n.Z.Z.Z.Z.Z.Z.Z.Z.Z.Z.Z.Z.Z.Z.Z.Z.S.M.M.M.S.S.S.S.S.S.S.S.M.S.S.S.S.S.S.S.Z.Z.Z.Z.S.S.S.S.S.S.Z.Z.H.H.S.S.Z.M.M.M.S.S.S.S.S.S.Z.Z.Z.Z.Z.Z.Z.Z.Z.Z.Z.Z.Z.Z.Z.Z.Z.Z.Z.Z.Z.Z.Z.Z.Z.Z.Z.Z.Z.Z.Z.Z.Z.Z.S.u.U.$X-X*XXXt.Z.F.H.c.1X6X-X-X",
"=X*X*X+X1X<Xn.n.Z.A.7.;XAXBXHXBX=XA.6.A.G.Z.F.G.F.F.F.F.F.F.F.Z.S.M.S.S.M.M.M.M.M.M.M.M.S.M.S.S.Z.Z.Z.Z.Z.Z.Z.Z.Z.Z.Z.Z.Z.Z.Z.Z.Z.Z.Z.Z.A.Z.Z.Z.Z.Z.Z.Z.Z.Z.Z.Z.S.S.M.M.M.M.M.M.M.M.M.M.S.M.M.M.M.M.M.M.M.M.M.M.S.S.M.M.M.M.M.M.M.M.M.M.S.M.M.M.M.M.M.M.M.S.M.M.S.S.S.S.S.S.S.S.S.S.S.S.S.S.S.Z.Z.A.A.Z.A.A.Z.Z.A.A.A.+X*X-X=X-X*X8XU.t.A.D.A.u.T.6X6X*X6X6X+X1XJ.n.Z.D.i.-XZXVXCXFXFXFXCXgX&Xh.4.4.t.t.t.u.i.u.S.S.S.S.S.M.n.n.Z.Z.Z.Z.Z.Z.Z.Z.Z.Z.Z.Z.Z.Z.Z.Z.Z.Z.Z.Z.Z.Z.Z.Z.Z.Z.Z.Z.Z.Z.Z.Z.Z.Z.Z.Z.Z.Z.Z.Z.Z.Z.Z.Z.Z.Z.Z.Z.Z.Z.Z.Z.Z.Z.Z.Z.Z.Z.Z.Z.Z.Z.Z.Z.Z.Z.Z.Z.Z.Z.Z.Z.Z.Z.Z.Z.Z.Z.Z.Z.Z.Z.Z.Z.Z.Z.Z.Z.Z.Z.Z.Z.Z.Z.Z.Z.Z.Z.Z.Z.Z.Z.Z.Z.Z.Z.Z.Z.Z.Z.Z.Z.Z.Z.u.i.A.R.6X6X6X8X,XJ.Z.Z.H.C.n.0.,X6X*X=X*X#X@XP ,.n.J.5.=XZXNXCXAXVXMXgX-XY.g.g.i.i.i.y.5.y.s.e.e.e.e.w.e.e.e.e.e.e.e.e.p.p.Z.Z.Z.Z.Z.Z.Z.H.Z.Z.Z.Z.Z.Z.Z.Z.H.H.H.H.H.H.F.F.F.F.F.F.F.F.F.Z.S.M.M.M.M.M.M.M.M.M.M.M.M.M.M.M.M.M.M.M.S.S.M.M.M.M.M.M.M.M.M.M.M.M.M.M.M.S.S.M.M.M.M.M.M.S.M.M.S.S.S.S.S.S.M.S.S.S.S.S.S.S.S.Z.Z.Z.Z.Z.Z.Z.Z.Z.Z.Z.Z.Z.Z.Z.Z.Z.A.u.U.$X-X*X+Xu.Z.Z.F.2.,X6X9X=X",
"-X*X8X#X2X<Xw.w.Z.A.5.=XAXBXHXBXlXR.7.A.A.Z.Z.F.F.F.F.F.F.F.F.F.S.S.S.S.Z.Z.Z.S.S.S.S.S.S.S.S.S.Z.Z.Z.Z.Z.Z.Z.Z.Z.Z.Z.Z.Z.Z.Z.Z.Z.Z.Z.Z.A.Z.Z.Z.Z.Z.Z.Z.Z.Z.Z.Z.S.M.M.M.M.M.M.M.M.M.M.M.S.M.M.M.M.M.M.M.M.M.M.M.M.M.M.M.M.M.M.M.M.M.M.M.S.M.M.M.M.M.M.M.M.M.M.M.S.S.Z.S.Z.S.Z.S.Z.S.Z.S.Z.S.Z.S.A.A.A.A.A.A.Z.Z.A.A.A.+X*X*X=X=X*X8XT.t.Z.H.Z.2.T.6X6X*X6X*X+X1XJ.n.Z.H.u.+XmXVXCXCXJXFXCXCXcXgX%XoXY.h.a.i.t.t.t.t.u.w.u.Z.S.S.Z.Z.Z.Z.Z.Z.Z.Z.Z.Z.Z.Z.Z.Z.Z.Z.Z.Z.Z.Z.Z.Z.Z.Z.Z.Z.Z.Z.Z.Z.Z.Z.Z.Z.Z.Z.Z.Z.Z.Z.Z.Z.Z.Z.Z.Z.Z.Z.Z.Z.Z.Z.Z.Z.Z.Z.Z.Z.Z.Z.Z.Z.Z.Z.Z.Z.Z.Z.Z.Z.Z.Z.Z.Z.Z.Z.Z.Z.Z.Z.Z.Z.Z.Z.Z.Z.Z.Z.Z.Z.Z.Z.Z.Z.Z.Z.Z.Z.Z.Z.Z.Z.Z.Z.Z.Z.Z.Z.Z.Z.Z.Z.A.A.A.A.U.+X6X9X6X8X,XJ.Z.Z.H.M.n.0.,X6X*X=X*X#X@XL ,.w.J.6.7XZXCXBXNXNXZXZXZXbXgX9X;X;X;X&X&X&Xh.D.a.a.a.t.t.t.t.t.t.t.t.t.t.t.A.A.A.A.A.A.A.A.Z.Z.Z.Z.A.H.H.H.F.F.F.F.F.F.F.F.Z.Z.Z.Z.Z.Z.Z.Z.S.S.S.S.S.S.S.S.S.S.S.S.M.M.S.M.M.M.M.M.S.M.M.M.M.M.M.M.M.M.M.M.M.M.M.M.M.M.M.M.M.M.M.M.M.M.M.M.S.S.Z.S.Z.S.Z.M.Z.S.Z.S.Z.S.Z.Z.Z.Z.Z.Z.Z.Z.Z.Z.Z.Z.Z.Z.Z.Z.Z.Z.u.u.U.*X-X*XXXu.F.Z.n.3.5X,X8X*X",
"-X%X8X#X2X<X2.w.Z.A.5.=XAXBXHXBXMX8XU.t.u.H.H.Z.M.C.C.C.C.M.M.M.Z.Z.Z.Z.Z.Z.Z.Z.S.S.S.S.S.S.S.S.Z.Z.Z.Z.Z.Z.Z.Z.Z.Z.Z.Z.Z.Z.Z.Z.Z.Z.Z.Z.Z.Z.Z.Z.Z.Z.Z.Z.Z.Z.Z.Z.S.M.S.M.S.M.S.M.S.M.S.M.S.M.S.M.S.M.S.M.S.M.S.M.S.M.S.M.S.M.S.M.S.M.S.M.S.M.S.M.S.M.S.M.S.M.S.S.S.S.Z.S.Z.S.Z.S.Z.S.Z.S.Z.S.Z.Z.A.A.A.A.A.A.A.A.D.A.A.R.*X*X-X*XR.8XOXu.Z.H.w.<.T.6X6X*X6X*X+X1XS.1.M.H.2.U.vXVXCXCXJXFXFXCXCXVXZXmXvX9X-X+XoXU.i.u.u.t.u.u.H.H.Z.Z.Z.Z.Z.Z.Z.Z.Z.Z.Z.Z.Z.Z.Z.Z.Z.Z.Z.Z.Z.Z.Z.Z.Z.Z.Z.Z.Z.Z.Z.Z.Z.Z.Z.Z.Z.Z.Z.Z.Z.Z.Z.Z.Z.Z.Z.S.Z.Z.Z.Z.Z.Z.Z.Z.Z.Z.Z.Z.Z.Z.Z.Z.Z.Z.Z.Z.Z.Z.Z.Z.Z.Z.Z.Z.Z.Z.Z.Z.Z.Z.Z.Z.Z.Z.Z.Z.Z.Z.Z.Z.Z.Z.Z.Z.Z.Z.Z.Z.Z.Z.Z.Z.Z.Z.Z.Z.Z.Z.Z.Z.A.H.A.i.U.,X9X6X6X6X,XD.Z.Z.H.M.n.w.,X8X*X;X*X#X>XL / n.J.6.6XZXCXCXNXNXVXZXZXZXZXZXZXZXVXVXNXVXbXbXcXxXxXjXgXgXW.W.W.W.W.W.W.Y.I.A.A.i.7.6.6.6.A.A.A.A.A.A.D.A.A.Z.Z.Z.Z.A.Z.A.Z.A.Z.Z.Z.Z.Z.Z.Z.S.S.S.S.S.Z.Z.S.S.S.S.S.S.S.S.S.M.S.M.S.M.S.M.S.M.S.M.S.M.S.M.S.M.S.M.S.M.S.M.S.M.S.M.S.M.S.S.S.S.Z.S.Z.S.Z.S.Z.S.Z.S.Z.S.Z.Z.Z.Z.Z.Z.Z.Z.Z.Z.Z.Z.Z.Z.Z.Z.Z.A.i.u.U.-X-X#XOXu.H.M.z.3.>X,X8X*X",
"-X*X8X#X<X5X1.2.Z.A.7.;XAXBXHXBXZXxXoXy.t.D.S.w.S.M.M.M.M.M.M.S.Z.Z.Z.Z.Z.Z.Z.Z.Z.Z.Z.Z.Z.Z.Z.Z.Z.Z.Z.Z.Z.Z.Z.Z.Z.Z.Z.Z.Z.Z.Z.Z.Z.Z.Z.Z.Z.Z.Z.Z.Z.Z.Z.Z.Z.Z.Z.Z.Z.S.S.S.S.S.S.S.S.S.S.S.S.S.S.S.S.S.S.S.S.S.S.S.S.S.S.S.S.S.S.S.S.S.S.S.S.S.S.S.S.S.S.S.S.S.Z.S.Z.Z.Z.Z.Z.Z.Z.Z.Z.Z.Z.Z.Z.Z.Z.Z.A.A.A.A.Z.Z.Z.Z.D.A.A.OX6X-X*X*XR.0XOXu.Z.H.w.:.T.6X6XQ.6X*X+X1Xn.1.M.S.2.D.uXmXVXCXCXCXCXCXNXNXZXZXmXmXmXmXmXnXpXqX#XU.D.u.Z.Z.Z.Z.Z.Z.Z.Z.Z.Z.Z.Z.Z.Z.Z.Z.Z.Z.Z.Z.Z.Z.Z.Z.Z.Z.Z.Z.Z.Z.Z.Z.Z.Z.Z.S.S.S.S.S.S.S.S.S.S.S.S.S.S.S.S.S.Z.S.Z.S.Z.S.Z.S.Z.S.Z.S.Z.Z.Z.Z.Z.Z.Z.Z.Z.Z.Z.Z.Z.Z.Z.Z.Z.Z.Z.Z.Z.Z.Z.Z.Z.Z.Z.Z.Z.Z.Z.Z.Z.Z.Z.Z.Z.Z.Z.Z.Z.Z.Z.Z.Z.Z.Z.Z.Z.Z.Z.Z.A.u.A.+X6X+X6X,X>XJ.Z.Z.H.M.n.w.,X8X*X;X*X#X>X~ ~ n.J.6.6XZXVXCXAXAXZXVXcXVXcXcXcXNXMXSXCXCXVXVXCXCXCXCXAXAXAXAXAXCXVXVXVXVXvXvXvXwX9X8X6X6XR.R.U.U.I.i.i.t.u.i.A.A.A.A.A.A.A.A.A.A.A.A.A.A.A.A.A.Z.Z.Z.A.A.A.A.Z.Z.Z.A.A.Z.Z.S.S.S.S.S.S.S.S.S.S.S.S.S.S.S.S.S.S.S.S.S.S.S.S.S.S.S.S.S.Z.S.Z.Z.Z.Z.Z.Z.Z.Z.Z.Z.Z.Z.Z.Z.Z.Z.Z.S.Z.S.Z.S.Z.S.Z.S.Z.S.Z.S.Z.A.A.t.U.#X#X#XOXu.H.B.l.~ >X,X8X6X",
"%XoX-X#X4X3X1.3.J.t.i.9XZXBXBXHXNXMXcX;Xh.y.4.i.6.t.u.u.A.A.D.D.A.A.A.A.G.A.A.A.A.A.A.A.A.A.Z.A.Z.Z.Z.Z.Z.Z.Z.Z.Z.Z.Z.Z.Z.Z.Z.Z.Z.Z.Z.Z.Z.Z.Z.Z.Z.Z.Z.Z.Z.Z.Z.Z.Z.Z.Z.Z.Z.Z.Z.Z.Z.Z.Z.Z.Z.Z.Z.Z.Z.Z.Z.Z.Z.Z.Z.Z.Z.Z.Z.Z.Z.Z.Z.Z.Z.Z.Z.Z.Z.Z.Z.Z.Z.Z.Z.Z.Z.Z.Z.Z.Z.Z.Z.Z.Z.Z.Z.Z.Z.Z.Z.Z.Z.Z.Z.A.A.A.A.Z.S.S.Z.Z.H.A.A.D.T.#X8X8X8X,XT.H.H.H.2.:.T.6X6XQ.*X*X*X8Xn.) ~ M.S.2.U.vXbXVXCXCXCXCXAXZXZXZXZXZXmXmXmXmXmXnXnXuXqX,XT.J.Z.Z.Z.Z.Z.Z.Z.Z.Z.Z.Z.Z.Z.Z.Z.Z.Z.Z.Z.Z.Z.Z.Z.Z.Z.Z.Z.Z.Z.Z.Z.Z.S.S.S.S.S.S.S.S.M.M.M.M.M.M.M.M.S.S.Z.S.S.S.Z.S.Z.S.Z.S.Z.S.Z.Z.Z.Z.Z.Z.Z.Z.Z.Z.Z.Z.Z.Z.Z.Z.Z.Z.Z.Z.Z.Z.Z.Z.Z.Z.Z.Z.Z.Z.Z.Z.Z.Z.Z.Z.Z.Z.Z.Z.Z.Z.Z.Z.Z.Z.Z.Z.Z.S.S.H.Z.w.A.OX1X1XpX,XJ.Z.S.H.C.M.! D.#X+X9X=X*X+X>X~ / M.S.A.U.wXVXVXZXZXZXZXMXMXcXcXcXcXNXNXNXNXNXVXVXVXVXVXVXVXVXVXVXVXVXVXVXVXZXmXmXmXmXmXmXmXmXmXmXnXvXvXuXuX9XqX8X6X+X+XR.R.A.A.i.i.i.7.6.6.Z.Z.u.u.u.u.u.u.A.A.A.A.A.A.A.A.Z.Z.Z.Z.Z.Z.Z.Z.Z.Z.Z.Z.Z.Z.Z.Z.Z.Z.Z.Z.Z.Z.Z.Z.Z.Z.Z.Z.Z.Z.Z.Z.Z.Z.Z.Z.Z.Z.Z.Z.Z.Z.Z.Z.Z.Z.Z.Z.S.S.S.S.Z.S.Z.S.Z.S.Z.S.Z.S.S.H.u.i.U.+X8X#XJ.Z.J.l.) ) 5X2X6X*X",
"=X*X-X#X4X3X1.3.H.w.i.9XZXAXSXBXNXSXNXcXfX&X=X=XR.Y.Y.g.i.5.;.8.7.v.v.G.I.U.U.U.c.c.Z.A.A.A.A.A.Z.Z.Z.Z.Z.Z.Z.Z.Z.Z.Z.Z.Z.Z.Z.Z.Z.Z.Z.Z.Z.Z.Z.Z.Z.Z.Z.Z.Z.Z.Z.Z.Z.Z.Z.Z.F.A.G.Z.Z.Z.Z.Z.Z.Z.Z.Z.F.F.A.Z.Z.Z.Z.Z.Z.Z.Z.Z.Z.Z.Z.Z.Z.Z.Z.Z.Z.Z.Z.Z.Z.Z.Z.Z.Z.Z.Z.Z.Z.Z.A.Z.A.Z.A.Z.Z.Z.A.Z.Z.Z.Z.Z.Z.u.Z.Z.M.M.M.M.Z.n.Z.A.J.@X,X1X,X>XJ.Z.M.M.1.N T.6X6X*X6X-X*X8XS.) M ) n.M.D.T.jXjXhXkXkXkXcXbXcXxXgX9X=X=X*XR.U.T.T.T.D.A.Z.w.Z.M.M.M.M.M.M.M.n.n.n.n.n.n.n.n.M.n.M.M.M.M.M.M.M.M.M.M.M.n.M.M.M.n.n.n.n.n.n.n.n.n.n.n.n.n.n.n.M.M.M.M.M.M.M.M.M.M.M.M.M.M.M.M.M.M.M.M.M.M.M.M.Z.Z.M.Z.M.M.M.M.M.M.M.M.M.M.M.M.M.M.M.M.M.M.M.M.Z.Z.Z.Z.M.M.M.M.M.M.M.M.M.M.M.M.n.M.n.w.A.OX2X2X>X].H.S.M.C.n.b.K H.@X+X*X*X*X8X<X~ ) b.M.Z.u.U.=X=X9XgXxXbXbXMXxXxXcXcXcXcXcXcXbXkXkXkXbXbXbXbXkXkXkXkXkXkXkXcXcXxXvXvXvXvXvXvXnXnXnXnXnXvXvXvXmXmXmXnXnXnXnXnXvXvXuXuXuXuXpXuXOXOXT.T.T.J.J.D.A.A.A.A.A.A.A.A.Z.Z.Z.Z.Z.Z.Z.Z.Z.Z.Z.Z.Z.Z.Z.Z.Z.Z.Z.A.Z.Z.Z.Z.Z.Z.Z.Z.Z.Z.Z.Z.Z.Z.A.Z.Z.Z.Z.Z.Z.Z.Z.Z.Z.Z.Z.Z.Z.M.M.M.M.M.M.M.S.M.M.M.M.M.M.M.u.A.D.@X1X@XD.n.C.l.` ) 2X,X6X=X",
"-X*X9X+X4X3X1.` C.n.A.+XxXZXAXNXFXFXFXFXCXCXAXAXAXVXVXbXhXlXfX=XE.E.I.I.v.7.7.6.A.A.A.A.A.A.A.A.Z.Z.Z.Z.Z.Z.Z.Z.Z.Z.Z.Z.Z.Z.Z.Z.Z.S.Z.S.Z.S.Z.S.Z.S.Z.S.Z.S.Z.Z.Z.Z.Z.Z.Z.Z.Z.Z.Z.Z.Z.Z.Z.Z.Z.Z.Z.Z.Z.Z.Z.Z.Z.Z.Z.Z.Z.Z.Z.Z.Z.Z.Z.Z.Z.Z.Z.Z.Z.Z.Z.Z.Z.Z.Z.Z.Z.Z.Z.Z.Z.Z.Z.Z.Z.Z.Z.Z.Z.Z.Z.Z.Z.Z.S.S.M.M.M.M.B.B.M.M.n.M.H.J.J.[.J.J.S.M.B.b.3.B J.,X6X*X9X;X*X1XS.` M H ` n.n.2.A.E.E.E.E.E.U.U.g.g.g.g.i.7.7.7.6.u.u.Z.A.A.Z.Z.H.C.C.C.C.C.C.C.C.C.C.C.C.C.C.C.C.C.C.C.C.C.C.C.C.C.C.C.C.C.C.C.C.C.C.C.C.C.C.C.M.M.M.M.M.M.M.M.C.C.C.C.C.C.C.C.C.C.C.C.C.C.C.C.C.C.C.C.C.C.C.C.C.C.C.C.C.C.C.C.M.M.M.M.M.M.M.M.C.C.C.C.C.C.C.C.C.C.C.C.C.C.C.C.C.C.C.C.C.C.C.C.B.M.M.M.S.[. X].H.H.H.M.n.b.X.) K S.#X+X=X=X=X8X5X~ ! ` n.H.u.6.6.7.i.g.g.j.j.j.j.j.j.j.j.j.j.j.g.g.g.g.j.j.j.j.g.g.g.g.g.g.g.g.j.j.j.j.j.j.j.j.g.h.j.j.j.j.j.h.i.i.i.i.a.a.U.U.U.U.U.a.a.h.i.A.J.J.J.J.J.A.A.Z.Z.A.Z.A.Z.A.Z.Z.Z.Z.Z.Z.Z.Z.Z.Z.Z.Z.Z.Z.Z.Z.Z.Z.Z.Z.Z.Z.Z.Z.Z.Z.Z.Z.Z.Z.Z.Z.Z.Z.Z.Z.Z.Z.Z.Z.Z.Z.F.F.F.F.G.F.G.F.H.C.C.C.C.C.C.C.C.C.C.C.M.M.B.M.S.H.D.@X@X].D.B.B.` ) ) 2X,X6X=X",
"=X=X6X+X4X<X` ) B.C.Z.A.+XvXZXZXzXzXzXzXzXzXzXVXVXVXVXVXCXCXCXVXbXnXvXvXwX0X6X,XD.D.A.Z.u.2.<.<.Z.M.Z.M.Z.M.Z.M.Z.M.Z.M.Z.M.Z.M.S.S.S.S.Z.M.Z.M.S.M.S.M.Z.M.Z.S.Z.Z.F.Z.F.Z.F.Z.F.Z.F.Z.F.Z.F.Z.F.Z.F.Z.F.Z.F.Z.F.H.F.Z.F.Z.F.F.F.Z.F.Z.F.Z.F.Z.F.Z.F.Z.F.Z.F.Z.H.H.H.H.H.H.H.H.F.H.F.H.F.H.F.H.S.M.M.M.C.C.C.V.C.C.B.B.n.n.n.n.Z.M.B.m.m.q.) M J.,X6X*X9X;X*X#XZ.l.^ ! ^ ^ ` w.Z.Z.A.A.A.A.A.A.6.6.t.i.A.D.D.D.Z.Z.Z.S.S.S.H.H.C.C.C.C.C.C.C.C.C.C.C.C.C.C.C.C.C.C.C.C.C.C.C.C.C.C.C.C.C.C.C.C.C.C.C.C.C.C.C.C.C.C.C.C.C.C.C.C.C.C.C.C.C.C.C.C.C.C.C.C.C.C.C.C.C.C.C.C.C.C.C.C.C.C.C.C.C.C.C.C.C.C.B.B.C.C.C.C.C.C.C.C.C.C.C.C.C.C.C.C.C.C.C.C.C.C.C.C.C.C.C.C.C.C.B.B.B.M.M.M.n.B.B.b.` _ E ! ~ D.1X*X=X=X=X8X>X) ! ) b.'.H.u.A.A.A.A.i.i.i.t.t.y.t.t.t.u.u.u.u.u.u.u.u.u.u.u.u.u.u.u.u.u.u.u.t.i.i.i.i.i.i.t.4.t.t.t.t.t.t.s.i.i.u.u.u.u.u.u.i.i.i.a.a.a.a.D.Z.Z.Z.Z.Z.Z.Z.Z.Z.Z.Z.Z.Z.Z.Z.Z.Z.Z.F.Z.F.Z.F.F.F.H.F.H.F.H.F.H.F.H.F.H.F.H.F.H.F.Z.F.Z.F.Z.F.Z.F.H.F.H.F.H.F.H.H.H.H.H.F.H.F.H.C.C.C.C.C.C.C.C.C.C.C.M.B.B.b.b.n.M.S.S.D.S.n.b.b.) ) ) 2X,X6X=X",
"=X=X6X#X2X.X` ) +.V.C.n.Z.,XxXbXGXGXCXAXAXAXAXZXZXZXZXAXAXAXAXAXmXnXnXnXnXnXnXnXiXiXyXyX4X<X>X>XM.M.M.M.M.M.M.M.S.M.S.M.S.M.S.M.H.C.H.C.H.C.H.C.H.C.H.C.H.C.H.C.H.C.H.C.H.C.H.C.H.C.H.H.H.C.H.C.H.H.H.C.H.C.H.C.H.C.H.C.H.C.H.C.H.C.B.C.B.C.C.C.C.C.C.C.C.C.B.C.C.C.C.C.C.C.C.C.B.B.B.B.B.B.B.B.b.q.q.b.b.#.#.#.N.N.N.b.{ ` ` 1.1.` { { { _ ! K H.,X6X*X7X*X%X+XJ.` ! ^ ^ Y ! +.1.3.3.3.1.1.l.1.1.2.2.1.1.1.1.1.w.w.q.1.` ` ` { ` { { { { { { { { { { { { { { { O.{ O.{ O.{ O.{ O.{ O.{ O.{ O.{ +.{ +.{ +.{ +.{ b.b.b.b.b.b.b.b.b.b.b.b.b.b.b.b.b.b.b.b.b.b.b.b.b.@.@.@.@.@.@.@.@.@.@.@.@.@.@.@.#.@.#.@.N.b.N.b.@.@.@.@.@.@.@.@.@.@.@.@.@.@.+.+.@.@.@.@.+.@.+.@.N.N.N.b.b.{ { { { { O._ _ E E ( K D.1X*X9X=X*X6X X` ) ^ _ C.S.H.Z.S.H.H.H.S.D.D.S.S.S.H.H.H.H.H.S.S.S.S.S.M.M.M.S.S.M.M.M.M.S.S.S.S.D.S.S.S.S.S.S.S.D.D.D.S.D.S.S.S.S.M.n.w.w.w.w.w.w.w.n.n.n.n.M.C.C.C.C.C.H.H.C.C.C.C.C.C.C.C.H.H.H.H.H.H.H.H.H.C.H.C.H.C.H.C.H.C.H.C.H.C.H.C.H.C.C.C.C.C.B.C.B.B.B.B.C.B.B.B.b.b.n.n.n.n.n.b.b.b.b.b.N.N.N.N.N.b.b.b.+.{ +.X.` ` ` ` ` ` / ^ _ ! ) ` 3X,X*X=X",
"&X!.*X+X4X<X` ) ( #.B.n.n.D.T.R.W.W.Y.R.R.R.R.R.+X+X+XR.R.R.Y.R.+X,X,X>XOX@X>X>X>X>X].'.[.D.D.S.M.M.M.M.M.M.M.M.M.M.M.M.M.M.M.M.M.B.M.B.M.B.M.B.M.B.M.B.M.B.M.B.b.b.N.b.N.N.N.b.N.b.N.N.B.b.N.b.N.b.N.b.N.b.N.b.b.b.b.b.b.b.b.b.b.b.l.b.l.b.b.b.X.` X.` X.` X.` X.` X.` X.` X.` ` ` ` ` X._ X._ ^ ^ ^ ^ _ _ W _ _ _ _ _ ) ^ ^ ) ! ! ^ ^ T T ! ) J.,X6X*X7X;X%X+X<X1.M ^ [ T Y W Y ! ! ! ( ( E Y ! ! ! ! ! ! ! Y ^ ^ ^ ^ ^ ^ ^ ^ ^ ^ _ ^ W T _ ^ _ ^ _ T _ ^ _ ^ _ _ _ _ _ _ _ _ _ _ _ _ _ _ _ _ _ _ _ _ _ _ _ _ _ _ _ _ _ _ _ ^ _ _ ) _ ) _ ) _ ) _ ) _ ) _ ) ^ _ _ _ _ _ _ _ _ _ _ _ _ _ _ _ _ _ _ _ _ _ _ _ _ _ _ _ _ _ _ _ _ _ _ _ _ _ _ _ _ _ _ _ _ _ _ _ _ _ _ _ _ _ ^ ^ _ ^ _ _ W W E | _ K A.+X*X=X9X*X,X<X` _ Y Y { 9.n.n.n.n.n.n.w.w.n.M.M.M.M.C.B.V.B.M.B.M.M.M.M.M.M.n.b.m.m.b.m.n.n.n.n.n.n.n.n.n.n.B.B.B.B.B.n.b.b.C.`.C.`.C.`.C.C.C.M.C.C.C.C.C.C.B.V.V.m.N.b.N.N.N.N.N.N.b.b.m.N.N.N.b.N.b.N.N.N.l.X.l.X.l.X.l.X.X.` X.` X.X.X.X.X.` X.` X.` X.` ` ` ` ` ` ` ` ` _ _ _ _ _ _ _ _ _ _ ) _ _ _ _ _ ` _ ) ) _ ) ) ) ) ) ) ^ ! ^ ^ ^ _ Y ) ` 3X,X*X=X",
"&X!.7X+X4X5X) ) E _ X.b.n.2.2.2.2.0.0.0.w.n.n.n.n.n.M.M.S.S.p.S.A.u.u.u.t.0.<.<.w.w.w.w.w.q.q.q.w.w.w.w.w.q.w.w.1.q.1.q.1.q.1.q.1.1.1.1.1.1.1.1.1.1.1.1.1.1.1.{ ) _ _ _ .._ _ _ _ _ .._ .._ _ _ .._ .._ _ _ _ _ _ _ ( _ ( _ _ _ _ _ ( _ ( _ _ _ ( Y ( Y ( Y ( E W W W W W W W W E T E T E T E W T T T T T W W W U W E E W T _ ) ^ Y Y T T Y ^ q. X4X6X*X7X;X*X*X4XH.` ^ _ W T T _ _ ......| ' %.W W W _ _ [ [ [ T T W T W T T T W W W W W W W W E W E W E W W W _ _ E W E W _ _ _ _ _ _ _ _ _ _ _ _ _ _ _ _ _ _ ( W W W ( W ( ! E Y ( Y ( Y ( Y ( Y ( Y ( Y ( Y E T E T E T E T E T E Y E T E T E T W T E T E Y E T E T E T E T E T E T E T E Y E T E T E T E E W T E _ _ T T _ W T T W W | | _ 1.T.+X*X=X9X*X,X3X) _ W T _ ^ 9.B.V.V.m.b.b.q.q.n.m.m.V.V.B.V.B.B.B.B.B.B.B.B.B.b.b.b.b.b.b.b.b.b.b.N.b.N.#.#.@.#.@.#.#.#.@.+.+._ _ _ [ _ [ O.{ _ _ _ _ _ _ _ _ _ _ _ _ _ _ _ _ _ _ _ _ _ _ _ _ _ _ _ _ _ _ _ _ ( _ ( _ ( _ ( _ ( ( ( ( ( ( ( ( ( Y ( Y ( Y ( E E T E T E T E T W W W W W W W W _ _ ( _ ( _ _ _ _ _ ( _ _ _ ( _ .._ _ ) ^ ^ ^ _ _ Y ) 1.4X+X-X&X",
"!.W.*X+X4X<X` _ _ ( ( _ ` ` ) ) ! ^ / ^ ^ ^ _ _ ^ ^ ^ ^ ^ ! K K ~ ~ ~ ~ ~ ~ / / ! ~ ^ ^ ^ ^ ^ ^ ! ! ! ! ! ! ! ! ! ! ! ! ! ! ! ! ^ ^ ^ ^ ^ ^ ^ ^ ^ ^ ^ ^ ^ ^ ^ ^ _ _ _ _ _ _ _ ^ _ _ _ _ _ _ ( ( _ _ _ _ _ _ _ _ _ _ _ ( ( _ _ _ _ _ _ _ _ _ _ _ _ _ _ _ _ _ _ _ _ _ _ _ _ _ _ _ _ _ _ _ _ _ _ _ ^ ^ ^ ^ ^ _ _ _ T _ _ _ ^ ! ^ ^ ^ K ! ^ ^ ^ ` S.>XqX8X*X7X*X=X8X2X3X Xq.! ! _ ^ ) ) ) ) ( E W W T T Y T Y Y Y Y T T ^ _ ^ ^ ^ T T ! ( ! ( ! ( ! _ ^ ( ! _ ^ _ ^ _ ^ _ _ _ _ _ ^ _ _ _ _ _ _ _ _ ^ ^ ^ ^ ^ ^ ^ ^ _ _ _ _ ` _ _ _ _ _ _ _ _ ) ) ) ) ) ) _ _ _ _ _ _ _ _ _ _ _ _ _ _ _ _ _ _ _ _ _ _ ^ _ ^ _ _ _ _ _ _ _ _ _ _ _ _ _ _ _ _ _ _ _ _ _ _ _ _ _ _ _ _ _ _ _ _ _ Y T ^ _ _ T T _ _ W Y J.8X6X=X9X9X*X+X3X) ! ) ) ` K ` ^ ^ ^ ^ ^ ^ ^ ^ ^ ^ ^ ) ) _ _ _ ) ) ) ) ) ) ) ) ) ) ) ^ ) ^ ) ) ! Y ! Y Y Y Y Y Y Y W W W W T T _ _ _ _ _ _ _ _ _ _ _ _ _ _ _ ( Y T T T T ^ _ _ ^ ^ ^ ^ ^ ^ ^ ^ _ _ _ _ _ _ _ _ _ _ _ _ ......_ _ ) _ ) _ _ _ _ _ _ _ _ _ _ _ _ _ _ _ _ _ _ _ _ _ _ _ _ _ _ _ _ _ ) _ ) _ _ _ _ ) ) ) ) ) ) ) ) ( _ ) ^ ^ ^ ^ ^ ) ! ` w.4X6X*X;X",
"*X*X+X#X1X<XM.B ) _ _ _ _ _ _ E E E W W E E E W E E E E E W W W ) ^ ^ ^ ^ ^ ) ^ _ ) _ _ _ _ _ _ _ _ _ _ ) _ ) ) ! ^ ! ^ _ _ ) ) ) ) ) ) ) ) ) ) ) ) ) ) ) ) ) ) ^ ^ ^ ^ ^ ^ ^ ^ ^ ^ ^ ^ ^ ) ) ) ) ) ) ) ) ) ) ) ) ) ) ) ) ) ) ) ! ! ! ! ! ! ! ! ) ~ ~ ~ ^ ^ ^ ^ K K L ! ~ ~ ) ~ ~ ~ ~ ~ ~ ) ~ / P ~ ~ ~ ~ ,.,.,.~ ~ ~ ~ ~ ,.,.,.,.,.,.,.0.S.OX,X1X+X6X*X*X*X*X*X0XqX2XOXJ.A.6.2.2.2.2.2.2.2.2.2.1.1.1.1.1.1.1.1.,.,.,.,.,.,.,.,.~ ~ ~ ~ ~ ~ ~ ~ ~ ~ ~ ~ ~ ~ ~ ~ ~ / / / ) ) ) / ~ ~ ~ ~ ~ ~ ~ ~ ~ P P P / / ~ ~ ~ I ! ! ~ ~ ~ ~ ! ! ! ! ! ! ~ ~ ! K K K ! ! ! ! ^ ^ ^ ^ ^ ^ ^ ^ ^ ^ ^ ^ ^ ^ ^ ! ! ! ! ! ! ! ! ! ! ! ! ! ! ! ! ! ! ! ! ! ! ! ! ! ^ ^ ^ ^ ! ! ^ ! ! ! ! ! ! ! ! ! ! ^ ) ! M ! ` M.6X6X6X6X6X6X6X6X,XD.2.~ L I I K ! ! ! ! ! I I I I ! ! ! ! ^ ^ ^ ^ ^ ^ ^ ^ ^ ^ ^ ^ ^ ^ ^ ^ ^ ^ ^ _ _ ) ^ _ _ _ _ _ _ _ _ _ _ _ ^ ! ! ! ~ ) ) / / ~ ~ ! ! ! ~ ! ! ! Y ! ! ! ! ! ! ^ ^ ^ ^ ^ ^ ! ! ! ! ! ! ! ! ~ ~ ) ) ) ) ) ( ( ( ) ~ ( ~ ^ ^ ^ ^ ! ! ! ! ! ! ! ! ! ! ! ! ! ! ! ! ! ! ! ! ! ! ! ! ! K K ! ! ! K K K K K ! ! K K ! K K K K K K K L L 2.J.,X,X6X6X7X",
"*X*X+X#X1X1XH.~ ) ) ) _ _ W E E W W E E W W E _ E _ E E E E E E _ ^ ^ ^ ^ ^ _ _ Y Y Y Y Y Y Y Y ! ! ! ! ! ! ! ! Y Y Y Y ! ! ! ^ ^ ^ ^ ^ ! ! ! ! ! ! ! ! ! ! ! ! ! ! ~ ~ / P / / P / ~ ~ ) ) ) ) 3.3.3.3.3.3.3.3.1.1.1.1.1.1.1.1.n.n.n.n.n.n.n.n.M.Z.Z.Z.M.M.M.Z.H.H.H.D.J.D.J.J.J.D.J.J.J.J.J.J.OXOXOXOXOXOX>XOX,X,X,X,X2X1X2X1X@X@X@X@X#X#X8X8X*X*X*X*X*X*X*X6X6X,X6X,X6X6X6X6X6X6X6X6X6X6X6X1X1X1X2X1X2X1X2X,X2X1X2X1X2X1X2X2X>X>X2X,X2X,X2X,X2X,X2X,X2X,X2X>X>XOX>XOX X]. X].].].].].].].].].[.[.[.[.[.[.[.[.D.D.D.D.D.D.D.D.H.H.H.S.H.H.H.H.Z.Z.S.M.M.M.n.M.S.S.H.S.S.S.S.S.n.w.n.n.n.n.n.n.1.9.1.9.2.w.2.w.,.,.,.,.1.,.1.,.,.,.,.,.,.,.,.,.,.,.,.,.1.,.1.1.,.,.3.,.3.,.3.,.~ ,.1.1.1.n.J.5X6X7X7X7X6X6X6X6XqX,XD.u.u.0.<.,.,./ / / / / / / / / / / / / / / 1.1.` ` 1.1.1.1.1.1.` ` 1.1.1.1.1.1.1.1.1.1.1.1.1.1.1.1.1.1.1.1.3.,.1.1.1.1.2.1.1.1.1.1.1.w.2.w.w.q.w.w.w.w.w.w.n.n.n.n.n.b.b.w.n.n.M.M.Z.Z.Z.Z.Z.F.B.C.C.B.B.B.B.Z.F.Z.Z.Z.Z.Z.F.H.F.H.F.S.F.S.H.H.H.H.H.H.H.H.H.H.H.H.H.H.H.H.D.D.D.H.H.H.D.H.D.D.H.H.H.H.D.D.D.S.D.D.H.H.H.D.D.T.6X0X6X6X7XwX",
"=X*X*X*X*X8XT.u.L ~ ~ ) ^ ^ ) ) ^ ^ ^ ^ ^ ^ ^ ^ ) ) ) ) ) ) ) ) / / / / / / / ` 1.1.1.1.1.1.1.1.n.n.n.n.n.n.n.n.n.n.n.n.n.n.M.M.M.M.M.M.M.M.M.M.J.'.'.J.'.'.J.J.J.'.'.[.].[.[.].].]. X X X X>X>X5X5X5X5X5X5X5X5X<X<X3X3X<X<X<X<X2X2X2X2X2X2X2X2X5X5X5X5X5X5X5X5X1X,X1X1X2X2X2X2X2X2X2X2X1X1X2X1X1X1X1X8X8X8XqXqX,X,X,X,X1X1X1X1X1X1X8X8X8X-X-X*X*X*X*X*X*X=X=X6X6X,X6X6X6X8X8X8X6X6X6X6X6X6X6X6X,X,X,X,X,X,X,X,X1X1X1X1X1X1X1X1X,X,X,X,X,X,X,X,X,X,X,X,X,X,X,X,XqX8X4X1X4X1X4X1X4X1XqX1X4X1X4X1X1X1X1X1X1X1X1X1X1X1X2X2X2X2X2X2X<X3X<X<X2X2X,X,X,X,X,X<X<X<X<X<X<X1X2X1X2X1X2X1X2X2X2X2X1X2X2X2X4X4X4X<X4X4X4X4X2X1X1X1X<X<X2X1X>X<X>X<X>X<X>X<X<X<X<X<X5X<X<X<X>X>X5X>X5X>X5X>X>XOX>XOX>X>X2XqX6X7X7X7X6X6X6X6X6X,X+X+X#X,X@XOX<X<X<X<X<X<X<X<X<X<X<X<X<X<X>X>X,X2X2X2X2X2X,X,X2X2X2X2X2X2X,X2X5X5X5X5X5X5X5X5X5X5X5X5X5X5X5X<X>X>X5X>X5X5X<X<X4X<X4X4X4X4X4X4X<X<X3X<X3X5X2X2X2X2X2X2X2X4X3X3X>X@X>X>X>X,X,X2X2X2X5X5X5X5X5X5X5X>X5X>X5X>X5X>X2X2X2X2X2X2X2X2X2X2X2X2X2X2X2X2X2X2X2X2X2X2X2X2X2X1X1X1X4X2X2X1X1X1X<X<X2X1X1X1X2X<X2X1X1X1X1X8X6X6X9X6X6X).7X7X",
"=X=X=X=X*X6X,XT.T.J.J.J.J. X X'.].'.'.'.J.'.].]. X X X X X X X X>X>X>X>X>X>X>X5X5X>X>X>X>X5X5X5X2X2X2X2X2X2X2X2X2X2X2X2X2X2X2X2X<X<X2X2X2X2X2X2X2X2X2X<X2X2X2X2X2X2X1X2X1X1X1X1XqXqXqXqXqXqXqXqX4X4X4X1X1X1X1X1X1X1X1X1X1X1X1X1X1X1X1X1X1X1X1X1X1X1X,X,X,X,X1X1X,X,X,X,X,X1X1X,X1X1X,X,X,X,X,X,X+X+X+X+X+X+X+X+X+X+X+X+X+X+X+X+X+X#X+X+X*X*X*X*X*X*X*X=X=X=X=X=X6X6X6X6X6X*X*X+X6X6X6X6X6X6X6X6X*X*X+X+X+X+X+X+X+X+X+X+X+X+X+X+X6X,X,X,X,X,X,X,X,X,X,X,X,X,X,X,X+X+X+X+X+X+X+X+X+X+X+X+X+X+X+X+X,X,X,X,X,X,X,X,X1X1X1X1X1X1X,X1X1X1X1X,X,X6X6X6X6X6X6X6X,X#X,X,X1X#X1X#X,X#X1X#X,X+X,X+X,X+X+X,X1X1X1X1X8X8X8X8X8X8X8X8X1X8X8X8X8X1X8X1X8X1X8X1X8X1X8X1X8X1X8X8X8X8X8X8X8X8X8X8XuXqXqX8X8X,X,X,X6X7X7X7X6X6X6X6X6X+X,X6X8XqXqX8X1X1X1X1X1X1X1X1X1X1X1X1X1X1X1X6X6X7XeXeXeXeX7X7X7X7X7XeXeXeX7X6X,X1X1X1X1X1X1X1X1X1X1X1X1X1X1X1X,X1X1X1X1X1X1X1X1X1X1X1X1X1X1X1X,X,X,X,X,X,X,X,X,X,X,X,X,X,X2X,X#X#X1X1X1X8X8X8X6X1X1X1X2X<X3X<X1X1X1X1X8X1X1X1X8X1X8X1X8X1X8X8X,X,X6X,X6X+X6X+X6X,X6X,X6X,X6X6X+X+X+X+X-X#X*X*X*X-X-X-X+X+X+X+X1X1X,X6X6X6X6X6X6X6X7X7XQ.Q.(.7X",
"!.7X=X!.Q.6X7X6X6X6X6X8XqXqXqXqX8X8X8X8X8X8X8X8X8X8X8X8XqXqXqXqX8X8X8X8X8X8X8X8X6X6X6X6X6X6X6X6X6X6X6X6X6X6X6X6X6X6X6X6X6X6X6X6X6X8X8X1X,X,X,X,X+X+X+X+X+X+X+X+X+X+X+X+X+X+X*X+X*X*X6X6X,X,X,X,X6X,X,X,X,X,X,X,X,X,X,X,X+X+X,X,X,X,X,X,X+X+X+X+X,X,X,X,X,X,X,X,X*X*X6X*X6X6X6X6X6X6X6X6X6X6X*X+X*X*X*X*X*X*X*X*X6X6X*X*X*X*X*X*X*X*X*X*X*X*X*X*X*X*X=X=X=X=X=X=X=X*X6X6X6X6X6X*X6X6X6X6X6X6X6X6X6X6X6X6X*X*X*X*X*X*X*X*X*X*X*X*X6X6X6X6X6X6X6X6X6X6X6X6X6X6X6X6X6X6X6X6X6X6X6X6X6X6X7X6X=X=X6X6X6X6X6X6X6X6X6X6X6X6X6X6X6X6X6X6X6X6X6X6X=X=X6X=XQ.=X=X*X*X*X*X*X*X%X%X%X%X%X*X%X%X%X%X%X%X%X%X%X*X*X*X*X*X*X*X*X*X*X*X*X*X*X*X*X*X*X*X*X*X*X*X*X*X*X*X*X*X*X*X*X6X6X6X6X6X6X6X6X6X6X*X6X6X6X6XQ.6X=X7X=X7X=X6X*X9X6X6X*X6X*X*X*X*X*X*X*X*X*X*X*X*X*X*X*X*X*X*X*X6X6X6X6XQ.Q.Q.Q.6X6X6X6X=XQ.Q.*X*X+X+X+XQ.+XQ.+X*X+X*X+X*X+X*X+X+X+X+X+X+X+X,X,X+X+X+X+X+X+X+X+X+X*X*X*X*X*XQ.Q.Q.Q.*X6X,X+X+X+X+XoX+X*X*X*X*X*X*X*X+X+X+X+X#X#X+X*X*X*X*X*X*X+X*X+X*X+X*X%X*X*X*X*X*X*X-X*X-X*X*X*X-X*X*X*X*X-X*X=X=X=X=X=X=X=X-X-X=X=X=X=X*X*X*X*X*X=X=X=X=X=X=X7X7X7X7X7X7X7X",
"!.=X!.!.!.=X7X7XQ.R.Q.R.R.R.+X+X*X%XY.Y.Y.oX%X*XoXoXoX%X%X%X%X%XQ.Q.Q.Q.Q.Q.Q.Q.=X=X=X=X=X=X=X=X=X=X=X=XQ.Q.Q.Q.=X=X=X=X=X=X=X=X*X*X*X*X*X*X*X*X-X*X*X-X*X*X*X*X6X6X6X*X=X;X=X=X=X=X7X6X6X6X6X6X6X6X6X6X6X6X6X6X6X6X6X6X6X6X7X7X9X9X9X7X9X9X9X9X*X*X*X*X*X*X*X*X*X*X*X*X*X*X*X*X*X*X*X*X6X*X*X*X=X*X*X*X*X*X*X*X*X*X*X*X*X*X*X*X-X*X*X*X*X*X*X*X=X=X=X=X=X=X=X=X=X*X6X6X*X*X*X*X*X*X*X*X*X*X*X*X*X*X*X*X*X*X*X*X*X*X*X*X*X*X*X*X*X*X*X*X*X*X*X*X*X*X*X*X*X*X*X=X7X=X9X9X9X9X9X9X9X9X9X9X7X=X7X7X7X7X7X7X7X7X7X7X7X7X7X6X6X6X6X6X*X*X=X=X=X=X=X=X=X=X=X=X=X=X=X=X=X;X&X;X&X&X;X-X;X:X;X:X;X:X;X;X7X7X7X7X9X7X9X7X7X7X7X7X7X7X7X7X7X9X9X7X9X9X9X9X9X7X9X7X9X7X9X7X7X7X7X7X7X7X7X7X=X=X=X=X7X6X6X=X=X=X=X=X=X=X=X=X7X6X*X=X=X=X*X*X7X9X9X9X9X9X9X9X9X9X9X9X9X9X9X7X7X7X7X7X6X7X6X6X7X7X7X7X6X6X7X7X7X7X7X7X7X7X7X7X7X7X7X7X7X7X7X7X7X6X6X6X6X6X6X6X7X6X6X9X9X9X9X7X7X7X7X9X9X9X9X9X9X7X9X7X7X7X6X-X%X%X%X%X-X-X-X-X=X*X*X*X*X+X+X+X*X*X*X*X*X*X%X%X-X-X-X-X-X-X-X-X-X-X-X-X-X-X-X-X-X-X-X-X-X-X-X;X=X=X=X=X=X=X=X=X=X=X=X=X=X=X=X=X=X=X6X7X7X7X7X7X7X7X7X7X7X7X7X7X",
"7X!.!.=X=X=X=X=X=X=X=X=X*X*X*X-X;X=X=X=X=X;X;X;X=X=X;X;X;X;X;X;X=X9XlXfX=X=X9X9X=X=X=X=X=X=X=X=X=X=X=X=X=X=X=X=X=X=X=X=X=X=X=X=X;X;X;X;X-X-X;X;X=X=X=X=X%X%X%X%X=X=X=X=X&X&X&X&X&X%X=X=X=X=X6X6X=X=X=X=X=X=X=X=X=X=X=X=XQ.Q.=X=XQ.Q.Q.Q.Q.Q.Q.Q.=X=X=X=X=X=X=X=X=X*X=X=X=X=X=X-X*X*X*X*X*X*X=X=X=X-X-X=X=X=X=X=X=X=X=X=X;X;X;X=X*X*X*X*X*XQ.Q.Q.=X=X=X=X=X=X=X=X=X=X=X=X=X=XW.W.=X=X=X=X=X=X=X=X=X=X=X=X;X;X=X=X=X=X=X=X=X=X=X=X=X=X=X=X=X=X=X=X=X=X=X=X=X=X=X=X=X!.!.!.=X=X=X=X!.!.!.!.!.!.!.!.!.(.Q.Q.!.=X=X=X=X=X=X=X*X=X*X*X=X=X=X=X=X!.!.!.=X=X=X=X=X=X=X=X=X;X=X;X=X;X=X;X%X%X%X%X%X%X%X%X!.=XQ.=X=X=X=X=XQ.=XQ.=XQ.=XQ.Q.=X=X!.=X!.=X!.!.!.Q.!.Q.!.Q.!.Q.Q.Q.Q.Q.Q.Q.Q.Q.9X9X9X7X7X=X=X=X=X=X=X=X=X=X=X=XQ.=X=X=X*X=X7X9X!.!.!.!.!.!.=X=X=X=X=X=X=X!.!.=X*X*X+X*X*X*X*X*X*X*X+X*X+X+X+X*X=X=X=X=X=X!.!.=X!.=X=X=X=X=X=X=X=X=X=X=X=X=X=X=XQ.Q.=X=X=X=X=X=XQ.Q.Q.Q.!.!.!.!.!.Q.!.=X=X=XQ.%X-X-X*X-X-X-X-X-X-X-X*X*X*X*X*X*X*X-X-X-X-X-X-X-X-X-X*X*X*X*X-X*X-X-X-X-X-X=X-X=X=X=X-X-X-X-X-X-X=X=X=X=X=X=X=X=X=X=X=X=X=X=X=X=X=X=X=X=X!.(.=X=X7X7X=X!.7X=X=X=X",
"7X=X=X=X=X=X=X=X=X=X=X=X*X*X*X*X=X=X=X=X%X=X=X;X=X=X=X=X=X=X=X=X=X=X!.=X!.!.!.%X=X=X=X=X=X=X=X=X=X=X=X=X&X=X&X=X=X=X!.=X!.&X!.!.=X=X=X=X=X=X=X=X;X;X;X;X;X;X;X;X-X-X=X=X&X&X&X&X;X;X=X=X*X6X6X6X=X=X=X=X=X=X=X=X=X=X=X=X=X=X=X=X=X=X=X=X=X=X=X=X=X=X=X=X=X=X=X=X=X*X=X=X=X=X=X-X7X*X=X*X=X*X=X=X=X=X=X=X;X;X;X;X=X=X=X=X%X%X%XQ.*X*X6X6X6X6X6X6X6X*X6X=X7X=X7X=X=X*X*X*X7X=X7X=X*X*X*X*X=X=X=X*X=X-X-X-X-X-X-X-X-X-X-X-X-X-X-X=X=X=X=X=X=X=X=X=X=X=X=X=X=X=X=X=X=X=X=X=X=X=X=X=X=X=X=X=X=X=X=X=X7X7X7X7X7X7X7X7X6X=X*X*X*X*X*X-X=X=X=X=X=X=X=X=X=X=X=X=X=X=X=X=X=X=X=X=X=X=X=X=X=X=X=X=X=X=X=X=X=X=X=X=X=X=X=X=X=X=X=X=X=X=X=X=X=X=X=X=X=X=X=X=X=X=X=X=X=X=X=X=X7X7X7X7X7X7X7X7XQ.=X=X=X=X=X=X=X=X*X=X*X*X*X*X*X*X*X7X=X*X=XQ.=X=X=X=X=X=X=X=X=X=X=X=X=X=X=X=X=X-X-X-X-X-X-X-X-X-X-X-X-X*X*X*X-X;X;X=X;X=X=X=X=X=X;X=X;X=X=X=X=X=X=X=X=X=X=X7X=X=X=X=X=X=X=X=X=X;X;X=X;X=X&X&X&X&X=X=X=X=X=X=X-X*X*X*X*X*X*X*X*X*X+X+X+X+X+X+X+X+X*X*X*X*X*X*X*X*X*X*X*X*X*X*X*X*X*X*X*X*X*X*X*X*X*X*X*X*X*X*X*X=X=X=X=X6X=X6X=X6X*X6X=X=X=X=X=X6X6X6X6X6X6X6X6X7X6X6X=X6X6X8X9X",
"6X6X6X6X6X6X6X*X*X+X*X*X*X*X%X*X*X*X*X*X=X*X*X*X*X*X*X*X6X6X*X*X*X*X=X*X=X*X-X-X=X=X=X=X=X-X-X-X=X=X=X-X=X-X=X-X;X;X;X;X;X;X=X=X;X;X=X;X;X;X;X;X%X=X;X=XW.W.=X;X;X-X-X%X%X%X%X&X;X;X%X-X*X9X8X*X=X=X=X=X=X=X=X=X;X;X;X=X=X=X;X;X=X=X=X=X=X=X=X=X=X=X=X=X=X=X=X=X*X*X=X*X=X*X=X*X6X*X6X=X6X=X6X*X*X*X*X*X*X*X*X*X*X*X*X*X=X=X=X*X*X*X6X*X6X*X6X*X6X6X6X6X6X6X6X6X6X*X6X*X6X*X6X*X*X*X*X*X*X*X*X*X-X-X*X=X=X=X=X*X*X*X*X*X*X*X*X*X*X*X6X*X6X*X6X*X6X*X6X*X6X*X6X*X6X*X6X*X6X*X6X*X6X*X6X*X6X*X6X6X6X6X6X6X6X6X6X*X*X6X*X6X*X*X*X*XW.-X;X;X-X%X=X*X*X*X*X*X*X=X6X6X6X6X6X6X6X6X6X6X6X*X6X*X6X*X6X*X*X*X*X*X*X*X6X*X6X*X6X*X6X*X6X*X*X*X*X*X*X*X*X*X=X*X=X*X=X*X6X*X*X*X*X*X*X*X*X*X*X*X*X*X*X*X*X*X*X*X6X*X6X*X6X*X*X*X=X=X=X=X=X=X=X*X=X*X=X*X=X*X*X*X*X*X*X*X*X*X=X=X=X=X=X=X;X;X=X=X=X=X=X=X=X%X=X*X*X*X*X*X*X*X=X*X=X*X=X*X*X*X=X=X=X=X=X=X=X=X=X=X=X=X=X=X=X=X%X%X%X%X-X=X=X&X=X=X=X=X-X-X-X*X-X8X8X1X#XOXT.T.T.T.OXOX>X>X,X2X1X1X1X1X1X1X1X1X,X,X,X1X1X1X1X1X8X8X8X8X8X8X8X8X,X,X,X1X,X1X,X,X,X6X6X6X6X6X6X6X6X6X6X6X6X6X6X6X6X6X6X6X6X6X6X6X,X,X,X,X,X,X,X,X",
"1X1X1X1X1X1X1X1XqX8X8X8X8X8X8X8X,X6X,X6X6X6X6X,X+X+X,X+X,X+X,X+X+X+X*X+X+X*X*X*X*X*X*X*X*X*X*X*X*X*X*X*X+X+X*X*X+X+XoXoX*X*X*X%X*X%X%X%X%X%X=X=X=X=X=X=X-X-X=X%X*X*X*X-X-X%X%X%X;X-X-X*X*X+X#XOX+X*X*X=X=X*X*X*X=X*X*X*X=X=X=X=X-X-X-X-X*X*X*X*X=X=X*X*X*X*X=X*X*X,X6X6X6X6X6X6X*X+X+X+XR.+X+X+X+X+X+X+X+X+X+X+X9X9X8X8X8X8X9X6X8X8X8X8X8X8X0X8X6X6X6X6X6X,X6X6X,X,X,X,X,X+X+X+X6X8X6X6X6X6X6X6X9X9X9X9X8X8X9X8X9X9X9X9X9X9X8X8X6X6X6X6X6X6X6X6X8X8X8X8X8X8X8X8X8X8X8X8X8X8X8X8X8X8X8X8X8X8X8X1X,X,X,X,X1X1X8X8X8X6X*X*X*X-X*X*X%X-X-X-X*X*X-X9X*X6X,X,X,X,X,X,X1X1X1X,X,X,X,X,X,X,X,X,X,X,X,X,X8X8X8X8X1X8X1X1X1X1X1X1X1X1X1X1X8X8X8X8X8X8X8X8X8X8X8X8X8X8X8X8X8XqXqXqXqXqX8X1XqXqXqXqXqXqXqXqX#X+X+X,X,X,X,X,X,X,X,X,X6X6X6X6X6X8X8X8X8X8X8X8X8X8X8X8X8X8X8X9X*XQ.=X=X=X=X*X=X*X*X*X*X=X*X=X-X*X+X+X+X+X+X+X+X*X*X*X*X*X*X#X*X*XQ.*X*X*X*X*X*X*X*X*X*XQ.Q.*X*XoXoXoX*X*X*X-X;X=X=X=X=X-X-X-X*X8X1XOXD.A.w.2.2.2.2.2.n.n.Z.Z.Z.Z.Z.Z.Z.Z.Z.Z.Z.Z.Z.Z.Z.H.H.H.H.J.J.J.J.J.J.J.J.>X>X>X>X>X>X>X>X2X2X2X2X2X2X2X2X2X2X2X2X2X2X2X2X1X1X1X1X1X8X1X1X1X1X<X<X2X<X4X4X",
"J.J.J.J.J.J.J.D.@X@X@XOX@X@X@X@X2X2X4X4X4X4X4X4X4X4X4X4X4X4X4X4X,X#X#X#X#X#X#X#X#X#X#X#X1X#X#X#X1X1X1X#X#X#X#X#X#X#X1X1X1X8X8X8X*X*X*X*X*X*X*X*X9X*X*X*X-X9X*X+XoX#X*X*X-X-X*X%X%X*X*X-X1X1X<X4X1X6X6X9X9X6X6X6X6X6X6X6X6X6X6X6X*X*X*X*X*X*X6X6X*X*X*X*X+X+X+X,X,X,X,X,X,X,X,X,X8X8X8X8X8X8X8X8X8X8X8X8X8X8X8X8X#X#X#X#X#X#X#X,X2X,X,X2X2X2X2X2X,X,X,X1X1X1X1X1X,X2X,X2X,X,X,X,X,X>X,X>X,X>X,X+XOXOXOXT.OXOXOXOXT.T.T.T.T.T.T.T.T.T.T.T.T.T.U.T.T.T.T.T.T.T.T.T.J.J.J.J.J.J.J.J.J.J.J.J.J.J.J.J.J.H.H.H.J.J.OXOXqX1X+X+X*X8X-X*X*X*X*X+X*X#X#X1XT.D.D.D.D.D.D.J.J.G.G.G.G.G.G.G.G.G.G.G.G.G.G.J.J.[.[.[.[.[.[.[.J.J.J.J.J.J.J.J.OXOXOXOXOXOXOXOXOXOXOXOXOXOXOXOXOXOX@X@X@XOX[.OX@X@X@X@X@X@X@X@X1X,X,X,X2X2X2X2X,X,X,X,X,X,X,X,X,X>X>X>X>X>X>X>X>X,X>X>X,X,X,X,X8X8X8X8X8X8X8X8X#X#X+X+X#X+X+X#X#X#X#X#X#X#X#X#X1X1X1X1X#X#X#X#X6X6X6X6X6X8X8X8X6X6X6X6X8X6X8X8X#XaXaX-X#X+X*X-X*X-X-X-X*X-X*X6XqX<XH.w.1.1.1.` 1.1.1.1.1.l.l.l.1.1.1.1.1.1.1.1.1.1.1.1.1.1.b.b.l.l.l.l.l.l.l.l.1.1.1.1.1.1.1.3.2.2.2.2.z.z.z.z.Z.Z.Z.Z.Z.Z.Z.Z.H.D.H.H.H.H.H.H.J.J.J.D.H.H.H.H.",
"w.w.w.w.w.w.w.w.w.w.w.w.w.w.w.w.n.M.Z.Z.Z.Z.Z.Z.H.H.H.H.H.H.H.H.J.[.[.[.[.[.[.[.[.[.[.[.[.[.[.[.@X@X@X@X@X@X@X@X@X@X<X<X<X<X1X1X1X,X+X+X+X+X,X1X8X,X+X+X1X8X8X1X+X#X#X*X*X*X*X-XoX*X*X#X#X@X<X<X>XOX>XOXOXOX>XOXOXOXOXOXOXOXOXOXT.T.T.T.T.T.T.T.T.T.T.T.T.T.T.J.J.J.J.J.J.J.J.J.D.D.D.D.G.A.A.D.H.H.H.D.D.D.H.H.H.H.H.H.H.H.H.H.A.Z.Z.Z.Z.Z.Z.Z.Z.Z.Z.Z.Z.Z.Z.Z.Z.Z.Z.Z.Z.Z.Z.Z.Z.Z.Z.Z.Z.Z.Z.Z.u.u.u.u.w.w.w.w.2.2.2.2.2.2.2.2.2.2.2.2.2.2.2.2.w.w.w.w.w.w.w.w.w.w.w.w.w.w.w.w.w.w.w.w.w.w.w.w.w.w.1.1.1.w.w.u.,X1X1X1X,X*X*X*X*X*X+X+X1X#X@X[.w.w.w.w.w.1.1.1.1.1.l.l.l.1.1.1.l.l.l.l.l.l.l.1.w.w.w.w.w.w.w.w.w.w.w.w.w.w.w.w.w.w.w.w.w.w.w.w.w.w.w.w.w.w.w.w.w.w.w.w.w.w.w.w.w.w.w.w.w.w.w.w.n.n.n.n.Z.n.Z.Z.Z.Z.Z.Z.Z.Z.Z.Z.H.S.H.S.H.S.S.S.Z.S.Z.S.Z.S.Z.S.S.S.S.S.S.S.S.S.D.D.D.D.S.D.D.D.J.[.J.D.J.[.J.[.].[.].[.[.[.[.[.T.T.T.T.OXOX>X,X>X>X>X,X,X2X2X>X<X@X@X@X#X#X+X+X*X*X*X*X*X*X=X6X5XJ.n.1.1.b.b.b.b.b.N.b.N.N.N.N.b.b.b.b.b.b.b.b.b.b.b.b.b.b.b.b.l.l.l.l.l.l.l.l.l.l.l.l.l.l.l.l.1.1.1.1.l.l.l.l.l.l.l.l.l.l.l.l.1.1.1.1.1.1.1.1.1.9.1.9.q.9.1.9.",
"q.9.w.q.q.q.q.q.q.q.q.q.9.q.w.q.1.1.1.1.1.1.1.1.1.1.1.1.1.1.1.1.w.9.9.w.w.q.q.q.w.w.9.9.9.9.9.9.w.w.w.w.w.w.w.w.w.n.n.n.M.M.M.S.D.D.H.H.H.H.D.D.J.J.J.J.D.J.>X1X1X8X8X*X*X*X*X-X*X9X8X#XD.w.w.w.n.n.w.w.w.w.n.n.n.w.2.2.w.w.n.w.n.w.n.w.n.w.n.n.w.w.n.w.n.w.n.n.n.n.n.w.n.n.n.n.1.1.1.1.1.1.1.1.1.1.1.1.1.1.1.1.w.w.w.w.w.w.w.w.1.1.1.1.1.1.1.1.1.1.1.1.1.1.1.1.1.1.1.1.1.1.1.1.3.3.3.3.3.3.3.1.1.w.w.w.w.w.w.w.1.1.1.1.1.1.1.1.1.1.1.1.1.1.1.1.w.w.w.w.w.w.w.w.w.q.q.q.q.q.q.q.q.q.q.q.q.q.q.q.b.b.q.1.1.w.w.w.J.OX1XqX6X+X6X6X6X*X*X6X1X@XH.w.1.1.1.q.1.b.b.b.l.l.l.l.l.l.l.l.b.b.b.b.b.b.b.b.q.q.q.q.q.q.q.q.q.q.q.q.q.q.q.q.1.1.1.1.1.1.1.1.1.q.1.q.1.q.1.q.9.q.q.w.q.q.q.q.9.9.9.9.q.q.q.1.1.1.1.1.1.1.1.1.1.1.1.1.1.1.1.1.1.w.1.w.1.w.1.w.1.1.1.1.1.1.1.q.{ { { { [ { { [ { { { { { { { { b.w.n.w.w.w.w.w.n.b.n.b.n.w.n.n.1.1.1.2.2.w.w.w.2.2.w.w.n.n.n.n.e.0.0.u.D.,X8X6X*X*X=X=X7X7X6X0XF.n.1.` b.N.N.#.N.N.N.N.N.N.N.N.N.N.N.N.N.N.N.N.b.b.b.b.b.b.b.b.b.b.b.b.b.b.b.b.N.N.N.B.N.B.B.b.b.b.b.b.b.b.b.b.b.b.b.b.b.b.b.b.q.q.w.q.q.q.w.w.b.w.w.w.w.q.w.q.",
"q.q.q.w.b.b.b.b.b.b.b.b.b.b.b.b.b.b.b.b.b.b.n.m.b.b.b.b.b.b.b.b.{ { { { { q.q.q.` ` { ` ` ` ` ` 1.1.1.1.1.1.1.` ` ` 1.1.1.q.q.q.w.2.2.1.1.1.1.w.w.n.n.w.1.w.M.H.,X1X8X*X*X*X6X9X*X9X8X#XA.2.,.1.1.l.1.` 1.1.l.l.l.b.l.l.l.b.l.b.l.l.l.l.l.l.l.l.l.l.l.l.l.l.l.l.l.l.l.l.l.l.l.l.b.b.b.b.b.b.b.b.b.b.b.b.b.b.b.b.b.b.b.+.q.{ q.b.b.b.q.q.1.1.b.b.n.n.b.n.n.n.n.B.n.B.B.B.B.B.B.B.b.b.b.b.b.b.b.b.b.b.b.b.b.b.b.b.b.b.b.b.b.b.b.b.b.b.b.b.b.b.b.b.b.N.b.N.b.b.b.b.b.b.b.b.b.b.b.b.b.b.b.b.b.b.b.b.m.N.N.b.b.b.n.n.w.D.2X8X6X6X6X6X6X6X6X6X1XOXn.,.1.q.q.b.N.N.N.N.N.b.b.b.b.b.b.b.b.b.b.b.b.b.b.b.b.b.b.b.b.b.b.b.b.b.b.b.b.b.b.b.b.b.b.b.b.b.b.b.b.b.b.b.b.b.b.b.b.w.b.b.b.b.b.b.b.q.b.q.b.q.b.b.n.N.B.B.B.B.B.B.N.N.N.N.N.N.N.b.b.b.b.b.b.b.b.b.b.b.b.b.b.b.b.b.#.+.+.+.+.+.@.+.+.O.+.+.+.+.+.O.+.b.l.b.l.b.l.b.l.l.l.l.l.b.l.1.` ` ` ` 1.1.1.q.1.` 1.1.1.q.1.q.q.,.~ ,.A.OX,X,X6X6X6X7X(.7X(.6Xn.b.l.l.b.N.@.+.#.#.#.#.b.b.b.b.b.b.b.b.b.b.b.b.b.b.b.b.b.b.b.b.b.b.b.b.b.b.b.b.+.+.+.+.+.+.+.+.{ { { { { { { { q.q.q.q.q.q.q.q.b.b.b.b.b.b.b.b.b.b.b.b.b.b.b.b.",
"q.q.q.b.b.b.b.b.b.b.b.b.b.b.b.b.b.{ q.{ { { { { { { { { { { q.{ b.b.b.N.N.N.N.N.N.N.N.N.N.N.N.N.N.N.b.N.b.N.b.N.b.b.b.b.b.b.b.b.b.b.1.1.1.1.b.b.1.1.1.1.1.1.b.w.J.+X6X6X6X*X6X6XR.6X8X,XJ.n.w.n.b.N.N.N.b.N.N.N.N.N.N.N.N.N.N.N.b.N.b.b.b.N.b.N.N.N.N.N.N.N.N.N.N.N.N.N.N.N.N.N.+.+.+.+.+.+.+.+.+.O.+.O.+.O.+.O.+.@.@.@.+.@.+.+.N.b.b.b.b.b.N.N.+.+.+.+.+.O.+.+.#.#.X.X.X.#.X.X.N.N.N.N.N.N.N.N.+.@.+.O.+.+.+.@.@.@.@.@.@.@.N.#.#.#.#.#.#.#.#.#.#.#.#.#.#.#.#.N.b.b.b.b.b.b.b.b.b.b.b.b.b.b.b.b.#.#.#.b.b.b.n.n.2.u.U.R.6X6X6X6X6X6X6X0X2XJ.n.3.q.b.+.+.#.#.#.#.b.q.b.q.b.q.b.q.b.q.b.q.b.q.b.b.b.b.b.b.b.b.b.b.b.b.b.b.b.b.b.b.N.N.N.N.N.N.b.b.N.N.N.N.N.N.N.N.b.b.b.b.b.b.b.+.b.b.b.b.b.b.b.b.l.l.l.l.#.b.X.X.X.X.+.+.+.+.+.X.N.b.b.b.b.b.b.b.b.N.b.N.b.N.b.N.X.X.+.+.+.+.+.+.N.N.N.N.N.N.N.N.N.N.b.N.b.N.b.N.b.b.b.b.b.b.b.b.N.N.N.b.b.N.b.N.b.b.N.b.N.b.N.b.n.w.9.9.w.D.T.6X6X6X7X7X(.(.(.6Xz.n.b.b.b.b.@.@.@.@.#.#.b.b.b.b.b.b.b.b.b.b.b.b.N.N.N.b.b.b.N.N.b.b.b.b.b.b.b.b.b.b.b.b.b.b.b.b.b.b.m.m.b.q.b.b.m.m.m.m.m.m.m.m.{ { +.{ +.{ b.{ b.b.b.b.b.q.b.q.",
"b.b.b.b.b.b.b.b.b.b.b.b.b.b.b.b.N.N.b.b.b.b.b.b.b.b.b.b.b.b.b.b.+.#.#.#.#.#.#.#.#.#.#.#.#.#.#.b.#.b.b.b.b.b.b.#.b.b.b.b.b.b.b.b.b.b.b.b.b.b.b.b.b.b.b.b.N.b.+.` Z.T.,X8X6X*X=X6XR.6X0X2XZ.2.1.b.N.#.#.#.#.#.#.N.+.+.#.#.X.#.#.X.#.#.#.#.#.#.#.#.#.#.#.#.#.#.#.#.#.#.#.#.#.#.#.#.N.N.N.N.#.#.#.#.#.@.#.@.#.@.#.@.O.O.+.+.#.+.+.+.b.b.+.+.+.+.+.+.b.#.@.@.+.+.+.#.#.#.N.#.N.#.N.#.#.#.#.#.#.#.#.#.#.@.#.@.#.@.#.@.#.@.#.@.#.@.#.#.#.#.#.#.#.#.#.#.#.#.#.#.#.#.#.N.b.b.b.b.N.N.b.b.b.b.b.b.b.b.b.b.` { q.b.b.b.b.n.w.2.6.U.6XwX7X=X7X7X6X6X2XJ.n.1.b.N.N.#.#.#.#.+.b.q.q.q.q.q.q.q.q.q.q.q.q.q.q.b.b.b.b.b.b.b.b.b.b.b.b.b.b.b.b.b.b.#.#.#.b.#.#.#.N.#.N.#.N.#.N.N.+.b.b.b.b.b.b.+.b.b.b.b.b.b.b.b.N.N.N.N.N.N.N.#.#.#.#.#.#.#.#.#.N.N.N.N.N.N.N.N.b.b.b.b.b.b.b.b.b.l.b.b.b.b.b.b.b.b.b.b.b.b.b.b.N.N.N.N.N.N.N.N.X.#.#.#.#.#.b.b.+.+.+.+.+.+.+.+.#.b.+.+.+.+.+.q.q.w.w.1.1.Z.T.qX6X6X7X7X(.7X7X6X<.1.w.q.b.1.b.b.@.+.#.#.b.b.b.b.b.b.b.b.b.b.b.b.+.+.+.+.+.+.+.+.b.b.b.b.b.b.b.b.b.b.b.b.b.b.b.b.{ { { { { { { { { { { { { { { { b.b.N.N.N.b.b.b.b.b.b.b.b.b.b.b.",
"b.b.b.b.b.b.b.b.b.b.b.b.b.b.b.b.b.b.b.b.b.b.b.b.b.b.b.b.b.b.b.b.b.b.b.b.#.#.#.b.b.b.b.#.#.#.b.b.#.#.#.b.b.b.#.#.#.b.b.b.b.b.b.#.b.b.N.#.@.N.b.{ q.n.n.q.` @.+.{ 1.D.,X8X*X*X*X=X*X+X1X>Xn.1.b.+.+.+.` B.` V.N.+.b.b.b.b.b.b.b.b.b.b.b.#.#.b.b.b.b.#.#.#.b.b.b.b.b.#.#.#.b.b.b.b.b.#.b.b.b.b.b.b.b.b.b.b.b.b.b.b.b.b.b.b.b.b.b.b.b.b.b.b.b.b.b.b.b.b.b.b.b.b.b.b.b.b.b.b.b.b.N.b.N.b.b.b.b.b.b.b.b.b.+.+.b.b.b.b.b.b.b.b.b.q.b.b.b.b.b.b.b.b.b.b.b.b.b.b.b.b.b.b.b.b.b.b.b.b.b.b.#.#.N.+./ 1.Z.u.OXD.S.w.1.q.b.b.b.1.2.T.6X7X=X=X=X=X=X*X8XJ.w.q.b.` N.N.N.V.X.b.b.b.b.b.b.b.b.b.b.b.b.b.b.b.b.b.b.b.b.b.b.b.b.b.b.b.b.b.b.b.b.b.b.b.b.b.b.b.b.b.b.b.b.b.b.b.b.b.b.b.b.b.b.b.b.b.b.b.b.b.b.b.b.b.b.b.b.b.b.b.N.b.N.b.b.b.b.b.b.b.b.b.b.b.b.b.b.b.b.b.b.b.b.b.b.b.b.b.b.b.b.b.b.b.b.b.b.b.b.b.b.b.b.b.b.b.b.b.b.b.b.b.b.b.b.b.b.b.b.b.b.b.b.b.b.b.#.X.b.N.b.1.q.n.1.b.q.q.q.9.Z.1X,X6X7X).6X7X*X+XZ.b.m.` 1.F.z.l.#.+.+.#.b.b.b.@.b.b.b.b.b.b.b.b.b.b.b.b.b.b.b.b.b.b.b.b.b.b.b.b.b.b.b.b.b.b.b.b.b.q.q.q.q.q.q.q.q.q.q.q.q.q.q.q.b.b.b.b.b.b.b.b.b.b.b.b.b.b.b.b.",
"b.b.b.b.b.b.b.b.b.b.b.b.b.b.b.b.b.b.b.b.b.b.b.b.b.b.b.b.b.b.b.b.b.b.b.b.#.b.#.#.b.b.b.b.#.#.b.b.#.#.b.b.b.b.#.b.#.#.b.b.b.b.b.b.b.N.N.#.@.#.b.1.1.b.b.1.{ @.@.{ 1.H.,X1X*X*X*X=X*X,X8X>Xn.l.N.+.+.{ { C.` m.b.{ b.b.b.b.b.b.b.b.b.b.#.#.b.b.b.b.#.#.b.#.b.b.b.b.b.#.b.#.b.b.b.b.#.#.b.b.b.b.#.+.b.b.b.b.b.b.b.b.b.b.b.b.b.b.b.b.b.b.b.b.b.b.b.b.b.b.b.b.b.b.b.b.b.b.b.b.b.b.b.b.b.b.b.b.b.b.b.b.b.b.b.b.b.b.b.b.b.b.b.b.q.q.b.b.b.b.b.b.b.b.b.b.b.b.b.b.b.b.b.b.b.b.b.b.l.b.b.#.#.O.@.q.1.S.OXT.+X#XXXp.9.{ { { b.1.w.T.6X=X=X=X&X=X=X*X8XJ.w.q.b.` N.b.b.B.l.b.b.b.b.b.b.b.q.q.b.b.b.b.b.b.b.b.b.b.b.b.b.b.b.b.b.b.b.b.b.b.b.b.b.b.b.b.b.b.b.b.b.b.b.b.b.b.b.b.b.b.b.b.b.b.b.b.b.b.q.b.b.b.b.b.b.b.b.b.b.b.b.b.b.b.b.b.b.b.b.b.b.b.b.b.b.b.b.b.b.b.b.b.b.b.b.b.b.b.#.#.b.#.b.b.b.b.#.#.b.b.b.b.b.b.b.b.b.b.b.b.b.b.b.b.b.b.b.b.b.q.b.b.b.b.b.b.b.N.b.b.b.b.b.b.1.b.q.q.b.9.Z.<X,X6X6X=X=X6X*X@Xw.q.@.{ 1.F.G.z.#.+.+.#.l.l.b.@.b.b.b.b.b.b.b.b.b.b.b.b.b.b.b.b.b.b.b.b.b.b.q.b.b.b.b.b.b.b.b.b.b.b.b.b.b.b.b.b.b.b.b.b.b.b.b.b.b.b.b.b.b.b.q.q.b.b.b.b.b.b.b.b.",
"b.b.b.b.b.b.b.b.b.b.b.b.b.b.b.b.b.b.b.b.b.b.b.b.b.b.b.b.b.b.b.b.#.b.b.b.b.b.b.b.b.b.b.b.b.b.b.b.b.b.b.b.b.b.b.b.b.b.b.b.b.b.b.b.b.b.b.#.#.+.{ q.1.1.1.1.+.m.@.{ 1.H.,X1X*X*X*X=X6X,X1X>Xn.l.b.+.{ { { C.` m.b.b.b.b.b.b.b.b.b.b.b.b.b.b.b.b.b.b.b.b.b.b.b.b.b.#.b.b.b.b.b.b.b.b.#.b.b.b.b.b.#.+.b.b.b.b.b.b.b.b.b.b.b.b.b.b.b.b.b.b.b.b.b.b.b.b.b.b.b.b.b.b.b.b.b.b.b.b.b.b.b.b.b.b.b.b.b.b.b.b.b.b.b.b.b.b.b.b.b.b.b.b.b.b.b.b.b.b.b.b.b.b.b.b.b.b.b.b.b.b.b.b.b.b.b.b.l.b.b.#.#.O.@.b.w.J.1X1X8X-X1X[.e.9.{ q.b.1.w.T.8X*X=X=X&X=X=X*X1XJ.w.q.b.` N.+.b.C.1.b.b.b.b.b.b.b.b.q.q.b.b.b.b.b.b.b.b.b.b.b.b.b.b.b.b.b.b.b.b.b.b.b.b.b.b.b.b.b.b.b.b.b.b.b.b.b.b.b.b.b.b.b.b.b.b.b.b.b.b.q.q.b.b.b.b.b.b.b.b.b.b.b.b.b.b.b.b.b.b.b.b.b.b.b.b.b.b.b.b.b.b.b.b.b.b.b.b.b.b.b.b.b.b.b.b.b.#.b.b.b.#.#.b.b.b.b.b.b.b.b.b.b.b.b.b.b.b.b.b.q.b.b.b.b.b.b.X.N.b.b.b.n.n.1.b.b.b.b.b.9.Z.2X,X6X6X=X*X9X*XOXw.q.{ { 1.G.^.z.@.O.+.#.l.l.b.#.#.b.b.b.b.b.b.b.b.b.b.b.b.b.b.b.b.b.b.b.b.b.b.b.q.b.b.b.b.b.b.b.b.b.b.b.b.b.b.b.b.b.b.b.b.b.b.b.b.b.b.b.b.b.b.q.q.b.b.b.b.b.b.b.",
"b.b.b.b.b.b.b.b.b.b.b.b.b.b.b.b.b.b.b.b.b.b.b.b.b.b.b.b.b.b.b.b.#.b.b.b.b.b.b.b.b.b.b.b.b.b.b.b.b.b.b.b.b.b.b.b.b.b.b.b.b.b.b.b.N.b.b.N.N.+.q.b.Z.Z.n.1.q.N.@.{ 1.H.,X1X*X*X*X=X6X,X,X>Xn.l.b.#.b.{ { `.` b.b.b.b.b.b.b.b.b.b.b.b.b.b.b.b.b.b.b.b.b.b.b.b.b.b.#.b.b.b.b.b.b.b.#.#.b.b.b.b.b.#.#.b.b.b.b.b.b.b.b.b.b.b.b.b.b.b.b.b.b.b.b.b.b.b.b.b.b.b.b.b.b.b.b.b.b.b.b.b.b.b.b.b.b.b.b.b.b.b.b.b.b.b.b.b.b.b.b.b.b.b.b.b.b.b.b.b.b.b.b.b.b.b.b.b.b.b.b.b.b.b.b.b.b.b.b.l.b.b.#.#.+.@.q.1.H.2X,X*X*X8X>XD.q.q.m.b.1.w.J.8X*X=X=X=X=X=X*X8XJ.w.q.b.` N.+.b.H.b.b.b.b.b.b.b.b.b.b.q.b.b.b.b.b.b.b.b.b.b.b.b.b.b.b.b.b.b.b.b.b.b.b.b.b.b.b.b.b.b.b.b.b.b.b.b.b.b.b.b.b.b.b.b.b.b.b.b.b.b.q.b.b.b.b.b.b.b.b.b.b.b.b.b.b.b.b.b.b.b.b.b.b.b.b.b.b.b.b.b.b.b.b.b.b.b.b.b.b.b.b.b.b.b.b.b.b.b.b.b.b.#.#.b.b.b.b.b.b.b.b.b.b.b.b.b.b.b.b.b.q.b.b.b.b.b.b.X.N.b.` 1.S.S.1.b.b.b.b.b.9.Z.2X,X6X7X=X*X9X*XOX1.q.{ b.1.G.2Xz.@.+.+.#.l.l.b.#.b.b.b.b.b.b.b.b.b.b.b.b.b.b.b.b.b.b.b.b.b.b.b.b.q.b.b.b.b.b.b.b.b.b.b.b.b.b.b.b.b.b.b.b.b.b.b.b.b.b.b.b.b.b.b.b.q.b.b.b.b.b.b.b.",
"b.b.b.b.b.b.b.b.b.b.b.b.b.b.b.b.b.b.b.b.b.b.b.b.b.b.b.b.b.b.b.b.#.#.b.b.b.b.b.b.#.b.b.b.b.b.#.#.b.b.b.b.b.b.b.b.b.b.b.b.b.b.#.b.N.l.b.N.b.b.b.S. XJ.Z.2.1.b.@.@.1.H.2X1X6X*X*X=X6X,X6X>Xn.l.N.#.b.q.q.'.1.b.q.b.b.b.b.b.b.b.b.b.b.#.#.b.b.b.#.#.b.b.b.b.b.b.#.#.b.b.b.b.b.b.#.#.b.b.b.b.b.b.b.b.b.b.b.b.b.b.b.b.b.b.b.b.b.b.b.b.b.b.b.b.b.b.b.b.b.b.b.b.b.b.b.b.b.b.b.b.b.b.b.b.b.b.b.b.b.b.b.b.b.b.b.b.b.b.b.b.b.b.b.b.b.b.b.b.b.b.b.b.b.b.b.b.b.b.b.b.b.b.b.b.b.b.b.b.b.b.N.#.N.@.@.{ 1.H.2X,X*X*X8X1X[.n.q.m.b.1.w.[.1X*X=X=X=X=X=X*X8XJ.w.q.b.` N.{ b.|.n.b.b.b.b.b.b.b.b.b.b.b.b.b.b.b.b.b.b.b.b.b.b.b.b.b.b.b.b.b.b.b.b.b.b.b.b.b.b.b.b.b.b.b.b.b.b.b.b.b.b.b.b.b.b.b.b.b.b.b.b.b.b.b.b.b.b.b.b.b.b.b.b.b.b.b.b.b.b.b.b.b.b.b.b.b.b.b.b.b.b.b.b.b.b.b.b.b.#.#.#.b.b.b.#.#.b.b.#.#.b.b.b.b.b.b.b.b.b.b.b.b.b.b.b.b.b.b.b.b.b.b.b.b.b.b.b.b.b.B.b.1.M..X<XJ.b.b.q.q.b.1.n.2X,X6X6X=X*X9X+X@Xw.b.{ m.1.G.qXz.+.+.+.+.b.b.b.#.b.b.b.b.b.b.b.b.b.b.b.b.b.b.b.b.b.b.b.b.b.b.b.b.b.b.b.b.b.b.b.b.b.b.b.b.b.b.b.b.b.b.b.b.b.b.b.b.b.b.b.b.b.b.b.b.b.b.b.b.b.b.b.b.",
"b.b.b.b.b.b.b.b.b.b.b.b.b.b.b.b.b.b.b.b.b.b.b.b.b.b.b.b.b.b.b.b.#.#.b.b.b.b.b.b.#.b.b.b.b.b.#.#.b.b.b.b.b.b.b.b.#.b.b.b.b.b.#.b.N.l.l.N.b.q.M. X2X2X^.Z.1.b.#.@.1.H.2X1X6X*X*X=X6X,X6X>Xn.l.N.N.b.q.q.|.q.w.1.b.b.b.b.b.b.b.b.b.#.#.b.b.b.b.b.#.b.b.b.b.b.b.#.#.b.b.b.b.b.b.#.#.b.b.b.b.b.b.b.b.b.b.b.b.b.b.b.b.b.b.b.b.b.b.b.b.b.b.b.b.b.b.b.b.b.b.b.b.b.b.b.b.b.b.b.b.b.b.b.b.b.b.b.b.b.b.b.b.b.b.b.b.b.b.b.b.b.b.b.b.b.b.b.b.b.b.b.b.b.b.b.b.b.b.b.b.b.b.b.b.b.b.b.b.b.b.N.#.#.+.@.q.1.D.1X8X=X=X6X8X].n.1.b.b.` w.[.1X-X=X=X=X=X=X*X8XJ.w.q.b.{ N.` n.|.n.1.b.b.b.b.b.b.b.b.b.b.b.b.b.b.b.b.b.b.b.b.b.b.b.b.b.b.b.b.b.b.b.b.b.b.b.b.b.b.b.b.b.b.b.b.b.b.b.b.b.b.b.b.b.b.b.b.b.b.b.b.b.b.b.b.b.b.b.b.b.b.b.b.b.b.b.b.b.b.b.b.b.b.b.b.b.b.b.b.b.b.b.b.b.b.b.b.#.#.b.b.b.b.#.#.b.b.#.#.b.b.b.b.b.b.b.b.b.b.b.b.b.b.b.b.b.b.b.b.b.b.b.b.b.b.b.b.b.b.1.1.H.<X4X<Xb.b.q.q.b.1.n.2X,X6X6X=X*X9X+X@Xw.b.{ m.3.G.uXZ.b.+.@.+.b.b.b.#.b.b.b.b.b.b.b.b.b.b.b.b.b.b.b.b.b.b.b.b.b.b.b.b.b.b.b.b.b.b.b.b.b.b.b.b.b.b.b.b.b.b.b.b.b.b.b.b.b.b.b.b.b.b.b.b.b.b.b.b.b.b.b.b.",
"b.b.b.b.b.b.b.b.b.b.b.b.b.b.b.b.b.b.b.b.b.b.b.b.b.b.b.b.b.b.b.b.#.b.b.b.b.#.#.b.#.#.b.b.b.b.#.#.#.#.#.b.b.b.b.b.#.#.b.b.b.b.#.b.B.l.l.b.b.w.H.<X,XqX2XJ.n.1.@.b.1.H.2X1X6X*X*X=X6X6X,X>Xn.1.N.b.b.q.w. Xq.q.` b.b.b.b.b.b.b.b.b.b.#.b.b.b.b.#.#.b.#.#.#.b.b.b.b.b.#.#.b.b.b.b.#.b.b.b.b.#.#.b.b.b.b.b.b.b.b.b.b.b.b.b.b.b.b.b.b.b.b.b.b.b.b.b.b.b.b.b.b.b.b.b.b.b.b.b.b.b.b.b.b.b.b.b.b.b.b.b.b.b.b.b.b.b.b.b.b.b.b.b.b.b.b.b.b.b.b.b.b.b.b.b.b.b.b.b.b.b.b.b.b.b.b.b.b.b.N.N.#.#.O.@.q.w.D.2X6X7X=X6X8X@Xn.1.q.b.` w.[.1X-X*X=X=X=X*X*X1XJ.w.q.b.{ b.` n. XM.1.b.b.b.b.b.b.b.b.b.b.b.b.b.b.b.b.b.b.b.b.b.b.b.b.b.b.b.b.b.b.b.b.b.b.b.b.b.b.b.b.b.b.b.b.b.b.b.b.b.b.b.b.b.b.b.b.b.b.b.b.b.b.b.b.b.b.b.b.b.b.b.b.b.b.b.b.b.b.b.b.b.b.b.b.b.b.b.b.b.b.b.b.b.b.b.b.b.b.b.b.b.b.#.#.b.b.b.#.b.b.b.b.b.b.b.b.b.b.b.b.b.b.b.b.b.b.b.b.b.b.b.b.b.b.b.b.b.` 3.n. X2X2X>Xn.b.b.q.b.1.n.2X,X6X6X=X*X9X+X@Xw.b.[ m.,.G.mXZ.q.{ +.+.b.l.b.#.b.b.b.b.b.b.b.b.b.b.b.b.b.b.b.b.b.b.b.b.b.b.b.b.b.b.b.b.b.b.b.b.b.b.b.b.b.b.b.b.b.b.b.b.b.b.b.b.b.b.b.b.b.b.b.b.b.b.b.b.b.b.b.b.",
"b.b.b.b.b.b.b.b.b.b.b.b.b.b.b.b.b.b.b.b.b.b.b.b.b.b.b.b.b.b.b.b.b.b.b.b.#.#.b.b.b.#.b.b.b.b.b.b.#.#.#.b.b.b.#.#.#.#.b.b.b.b.#.b.B.l.l.b.b.n.J.qX,XqXqXT.n.1.+.b.1.H.2X1X6X*X*X=X6X6X,X>Xn.1.N.N.b.q.b. Xq.q.` b.b.b.b.b.b.b.b.b.b.b.b.b.b.b.b.b.b.b.#.#.b.b.b.b.b.b.#.#.b.b.b.b.b.b.b.#.#.#.b.b.b.b.b.b.b.b.b.b.b.b.b.b.b.b.b.b.b.b.b.b.b.b.b.b.b.b.b.b.b.b.b.b.b.b.b.b.b.b.b.b.b.b.b.b.b.b.b.b.b.b.b.b.b.b.b.b.b.b.b.b.b.b.b.b.b.b.b.b.b.b.b.b.b.b.b.b.b.b.b.b.b.b.b.b.N.N.N.#.#.O.@.q.1.H.>X+X7XQ.*X8X,XS.w.b.b.` w.[.4X#X*X*X=X7X*X6X1XJ.w.q.b.{ b.` n. XM.1.b.b.b.b.b.b.b.b.b.b.b.b.b.b.b.b.b.b.b.b.b.b.b.b.b.b.b.b.b.b.b.b.b.b.b.b.b.b.b.b.b.b.b.b.b.b.b.b.b.b.b.b.b.b.b.b.b.b.b.b.b.b.b.b.b.b.b.b.b.b.b.b.b.b.b.b.b.b.b.b.b.b.b.b.b.b.b.b.b.b.b.b.b.b.b.b.b.b.b.b.b.b.b.b.b.b.#.#.b.b.b.b.b.b.b.b.b.b.b.b.b.b.b.b.b.b.b.b.b.b.b.b.#.b.b.b.b.` 1.J.2XqX1X>Xn.b.b.b.b.1.n.2X,X6X6X=X*X9X+X@Xw.b.^ m.:.G.ZXJ.q.{ { b.n.b.b.#.b.b.b.b.b.b.b.b.b.b.b.b.b.b.b.b.b.b.b.b.b.b.b.b.b.b.b.b.b.b.b.b.b.b.b.b.b.b.b.b.b.b.b.b.b.b.b.b.b.b.b.b.b.b.b.b.b.b.b.b.b.b.b.b.",
"b.b.b.b.b.b.b.b.b.b.b.b.b.b.b.b.b.b.b.b.b.b.b.b.b.b.b.b.b.b.b.b.#.#.#.#.b.b.b.b.b.b.b.#.#.#.#.b.#.#.#.b.b.b.#.#.#.#.#.#.b.b.b.b.N.N.N.b.1.w.D.1X6X6XqX,XZ.1.N.b.1.D.,X1X6X*X*X*X=X,X1XJ.1.l.N.b.b.` n.3X1.b.b.1.b.b.b.b.b.b.b.b.b.b.#.#.#.#.b.b.b.b.b.b.#.#.b.b.b.b.b.b.#.#.b.b.b.#.b.b.b.b.b.b.b.b.b.b.b.b.b.b.b.b.b.b.b.b.b.b.b.b.b.b.b.b.b.b.b.b.b.b.b.b.b.b.b.b.b.b.b.b.b.b.b.b.b.b.b.b.b.b.b.b.b.b.b.b.b.b.b.b.b.b.b.b.b.b.b.b.b.b.b.b.b.b.b.b.b.b.b.b.b.b.b.b.b.b.l.b.N.#.#.O.@.{ 1.S.,X6X=X=X=X6X1XH.1.q.b.` w.J.1X+X*X*X=X=X*X,X1XJ.1.q.b.` w.q.w.rXw.n.b.b.b.b.b.b.b.b.b.b.b.b.b.b.b.b.b.b.b.b.b.b.b.b.b.b.b.b.b.b.b.b.b.b.b.b.b.b.b.b.b.b.b.b.b.b.b.b.b.b.b.b.b.b.b.b.b.b.b.b.b.b.b.b.b.b.b.b.b.b.b.b.b.b.b.b.b.b.b.b.b.b.b.b.b.b.b.b.b.b.b.b.b.b.b.b.b.b.b.#.#.#.b.b.b.b.b.b.#.#.b.b.b.b.b.b.b.b.b.b.b.b.b.b.b.b.b.b.b.b.b.b.b.#.#.b.b.` 1.J.2X1X,X,XH.X.b.b.q.w.n.2X,XR.6X6X*X6X-XD.9.b.{ q.1.T.nXqX1.{ { b.n.n.N.#.b.b.b.b.b.b.b.b.b.b.b.b.b.b.b.b.b.b.b.b.b.b.b.b.b.b.b.b.b.b.b.b.b.b.b.b.b.b.b.b.b.b.b.b.b.b.b.b.b.b.b.b.b.b.b.b.b.b.b.b.b.b.b.b.",
"b.b.b.b.b.b.b.b.b.b.b.b.b.b.b.b.b.b.b.b.b.b.b.b.b.b.b.b.b.b.b.b.b.#.#.b.b.b.b.#.b.b.b.b.#.#.b.b.#.#.b.b.b.b.#.b.b.#.#.b.b.b.b.#.N.N.N.b.1.w.D.1X6X6X8X,XZ.1.N.b.1.D.2X1X6X*X*X*X=X,X,XJ.1.l.N.b.b.3.n.3X1.b.b.1.b.b.b.b.b.b.b.b.b.b.#.#.b.b.b.b.b.b.b.b.#.#.b.b.b.b.b.b.#.#.#.b.#.#.b.b.b.b.#.b.b.b.b.b.b.b.b.b.b.b.b.b.b.b.b.b.b.b.b.b.b.b.b.b.b.b.b.b.b.b.b.b.b.b.b.b.b.b.b.b.b.b.b.b.b.b.b.b.b.b.b.b.b.b.b.b.b.b.b.b.b.b.b.b.b.b.b.b.b.b.b.b.b.b.b.b.b.b.b.b.b.b.b.b.b.b.N.#.#.O.@.q.1.S.2X6X=X=XQ.6X1XH.1.w.b.` w.J.1X+X*X*X=X6X6X,X1XJ.w.q.b.` b.q.w.rXn.w.b.b.b.b.b.b.b.b.b.b.b.b.b.b.b.b.b.b.b.b.b.b.b.b.b.b.b.b.b.b.b.b.b.b.b.b.b.b.b.b.b.b.b.b.b.b.b.b.b.b.b.b.b.b.b.b.b.b.b.b.b.b.b.b.b.b.b.b.b.b.b.b.b.b.b.b.b.b.b.b.b.b.b.b.b.b.b.b.b.b.b.b.b.b.b.b.b.b.#.#.b.b.b.b.b.b.b.b.#.#.#.b.b.b.b.b.b.b.b.b.b.b.b.b.b.b.b.b.b.b.b.b.b.#.#.b.b.1.2.J.1X6X*X,XJ.X.b.b.q.w.n.2X,XR.6X6X*X6X-XD.w.b.{ q.2.T.mXqX,.{ { b.n.n.b.#.b.b.b.b.b.b.b.b.b.b.b.b.b.b.b.b.b.b.b.b.b.b.b.b.b.b.b.b.b.b.b.b.b.b.b.b.b.b.b.b.b.b.b.b.b.b.b.b.b.b.b.b.b.b.b.b.b.b.b.b.b.b.b.b.",
"b.b.b.b.b.b.b.b.b.b.b.b.b.b.b.b.b.b.b.b.b.b.b.b.b.b.b.b.b.b.b.b.b.b.b.b.b.b.#.#.b.b.b.b.b.b.b.b.b.#.b.b.b.b.b.b.b.b.b.b.b.b.#.#.N.N.N.b.1.w.D.1X6X*X8X,XZ.1.b.b.1.D.2X1X6X*X*X*X=X,X,XJ.w.l.V.b.b.1.M.3Xw.n.b.1.b.b.b.b.b.b.b.b.b.b.b.b.b.b.b.b.b.b.b.b.#.#.b.b.b.#.b.b.#.b.b.b.#.b.b.b.b.b.#.#.b.b.b.b.b.b.b.b.b.b.b.b.b.b.b.b.b.b.b.b.b.b.b.b.b.b.b.b.b.b.b.b.b.b.b.b.b.b.b.b.b.b.b.b.b.b.b.b.b.b.b.b.b.b.b.b.b.b.b.b.b.b.b.b.b.b.b.b.b.b.b.b.b.b.b.b.b.b.b.b.b.b.b.b.b.b.N.#.#.O.@.{ 1.S.2X6X=X=XQ.6X1XH.1.w.b.` w.J.1X*X*X*X=X6X6X,X2XJ.w.q.b.{ b.q.w.rXn.w.b.b.b.b.b.b.b.b.b.b.b.b.b.b.b.b.b.b.b.b.b.b.b.b.b.b.b.b.b.b.b.b.b.b.b.b.b.b.b.b.b.b.b.b.b.b.b.b.b.b.b.b.b.b.b.b.b.b.b.b.b.b.b.b.b.b.b.b.b.b.b.b.b.b.b.b.b.b.b.b.b.b.b.b.b.b.b.b.b.b.b.b.b.b.b.b.b.b.b.b.b.b.b.b.#.#.b.b.b.b.b.b.b.b.b.b.b.b.b.b.b.b.b.b.b.b.b.b.b.b.b.b.b.#.@.b.b.1.w.T.8X6X*X6XJ.b.b.b.q.w.n.2X6XQ.6X7X*X6X*XD.w.b.{ b.2.R.mXqX9.{ { b.z.n.#.#.b.b.b.b.b.b.b.b.b.b.b.b.b.b.b.b.b.b.b.b.b.b.b.b.b.b.b.b.b.b.b.b.b.b.b.b.b.b.b.b.b.b.b.b.b.b.b.b.b.b.b.b.b.b.b.b.b.b.b.b.b.b.b.b.",
"b.b.b.b.b.b.b.b.b.b.b.b.b.b.b.b.b.b.b.b.b.b.b.b.b.b.b.b.b.b.b.b.b.b.b.b.b.b.#.#.b.b.b.b.b.b.b.b.b.b.b.b.b.b.b.b.b.b.b.b.b.b.b.b.N.N.N.b.1.w.D.#X*X*X6X,XZ.1.b.b.1.D.2X1X6X*X*X*X6X6X,XJ.1.l.V.b.b.1.S.3Xn.n.l.w.b.b.b.b.b.b.b.b.b.b.b.b.b.b.b.b.#.b.b.b.b.#.b.b.#.#.b.b.b.b.b.b.#.#.b.b.b.b.#.#.b.b.b.b.b.b.b.b.b.b.b.b.b.b.b.b.b.b.b.b.b.b.b.b.b.b.b.b.b.b.b.b.b.b.b.b.b.b.b.b.b.b.b.b.b.b.b.b.b.b.b.b.b.b.b.b.b.b.b.b.b.b.b.b.b.b.b.b.b.b.b.b.b.b.b.b.b.b.b.b.b.b.b.b.l.b.b.#.#.O.@.{ 1.S.,X6X=X=X*X6X1XH.1.w.b.` w.J.1X*X*X=X=X6X6X,X2XJ.1.q.b.{ b.9.w.rXn.w.b.b.b.b.b.b.b.b.b.b.b.b.b.b.b.b.b.b.b.b.b.b.b.b.b.b.b.b.b.b.b.b.b.b.b.b.b.b.b.b.b.b.b.b.b.b.b.b.b.b.b.b.b.b.b.b.b.b.b.b.b.b.b.b.b.b.b.b.b.b.b.b.b.b.b.b.b.b.b.b.b.b.b.b.b.b.b.b.b.b.b.b.b.b.b.b.b.b.b.b.b.b.b.b.#.#.b.b.b.b.b.b.b.b.b.b.b.b.b.b.b.b.b.b.b.b.b.b.b.b.b.b.b.#.@.b.b.1.w.OX6X6X=X6XJ.b.b.{ q.q.n.2X6XQ.6X7X*X6X*XD.w.b.{ b.2.+XmXuX9.q.q.q.z.l.#.#.b.b.b.b.b.b.b.b.b.b.b.b.b.b.b.b.b.b.b.b.b.b.b.b.b.b.b.b.b.b.b.b.b.b.b.b.b.b.b.b.b.b.b.b.b.b.b.b.b.b.b.b.b.b.b.b.b.b.b.b.b.b.b.b.",
"b.b.b.b.b.b.b.b.b.b.b.b.b.b.b.b.b.b.b.b.b.b.b.b.b.b.b.b.b.b.b.b.b.b.b.b.b.b.b.b.#.b.b.b.b.b.b.#.b.b.b.b.b.b.b.b.b.b.b.b.b.b.#.b.#.#.#.b.q.w.D.#X*X*X6X+XZ.1.N.b.1.D.2X1X6X*X*X*X6X6X6XJ.1.l.N.b.b.2.H.rXn.n.n.b.b.b.b.b.b.b.b.b.#.#.b.b.b.b.#.#.#.b.b.b.b.b.b.b.#.b.b.b.b.b.b.b.b.b.b.b.b.b.b.b.N.b.b.b.b.b.b.b.b.b.N.N.b.b.b.b.b.b.b.b.b.b.b.b.b.b.b.b.b.b.b.b.b.b.b.b.b.b.b.b.b.b.b.b.b.b.b.b.b.b.b.b.N.N.N.b.b.b.b.b.b.b.b.b.b.b.b.b.b.b.b.b.b.b.b.b.b.b.b.b.b.b.b.b.b.b.b.#.#.O.@.{ 1.S.2X6X=X=X*X6X1XH.1.w.w.1.w.D.,X*X=X=X=X6X,X,X2XJ.1.q.b.{ q.1.n.yXS.1.b.N.N.b.b.b.b.b.b.b.b.b.N.N.N.N.b.b.b.b.b.b.b.b.b.b.b.b.b.b.b.b.b.b.b.b.b.b.b.b.b.b.b.b.b.b.b.b.b.b.b.b.N.N.N.b.b.b.b.b.b.b.b.b.b.b.b.b.b.b.b.b.b.b.b.b.b.b.b.b.b.b.b.b.b.b.b.b.b.b.b.b.b.b.b.b.#.#.#.b.b.b.#.#.#.b.b.b.b.b.b.b.b.b.b.b.b.b.b.b.b.b.b.b.b.b.b.b.b.b.b.b.#.#.@.+.b.1.Z.OX6X6X!.6X Xb.b.b.q.b.n.2X6X*X6X7X*X*X-XD.b.b.{ q.2.+XZXuXw.9.q.w.z.z.#.#.b.b.b.b.b.b.b.b.b.b.b.b.b.b.b.b.N.N.N.b.b.b.b.b.b.b.b.b.N.N.N.N.b.b.b.b.N.N.N.b.b.b.b.b.b.b.b.b.N.N.N.b.b.b.b.b.b.b.b.b.N.N.N.N.",
"b.b.b.b.b.b.b.b.b.b.b.b.b.b.b.b.b.b.b.b.b.b.b.b.b.b.b.b.b.b.b.b.b.b.b.b.b.b.b.b.#.b.b.b.b.b.#.#.b.b.b.b.b.b.b.b.b.b.b.b.b.b.#.#.#.#.#.b.q.w.D.#X*X*X9X+XZ.1.N.b.1.D.2X1X6X*X*X*X6X6X,XJ.1.l.N.b.z.2.H.rXn.n.1.b.b.b.b.b.b.b.b.b.#.#.b.b.b.b.#.#.#.#.b.b.b.b.b.b.#.b.b.b.b.b.b.b.b.b.b.b.b.b.b.b.N.N.b.b.b.b.b.b.b.b.b.N.b.b.b.b.b.b.b.b.b.b.b.b.b.b.b.b.b.b.b.b.b.b.b.b.b.b.b.b.b.b.b.b.b.b.b.b.b.b.N.b.N.N.N.b.b.b.b.b.b.b.b.b.b.b.b.b.b.b.b.b.b.b.b.b.b.b.b.b.b.b.b.b.b.b.b.#.#.O.@.{ 1.S.,X6X=X=X*X6X2XH.1.w.b.1.w.J.1X*X=X=X=X6X,X2X2XJ.1.q.b.{ b.1.n.iXH.1.b.N.b.b.b.b.b.b.b.b.N.b.N.N.N.N.b.b.b.b.b.b.b.b.b.b.b.b.b.b.b.b.b.b.b.b.b.b.b.b.b.b.b.b.b.b.b.b.b.b.N.b.N.N.N.b.b.b.b.b.b.b.b.b.b.b.b.b.b.b.b.b.b.b.b.b.b.b.b.b.b.b.b.b.b.b.b.b.b.b.b.b.b.b.b.b.#.#.b.b.b.b.b.#.#.b.b.b.b.b.b.b.b.b.b.b.b.b.b.b.b.b.b.b.b.b.b.b.b.b.b.b.#.#.+.+.b.1.Z.+X6X=X!.6X>Xb.b.{ q.b.n.2X6X*X6X7X*X*X*XD.b.b.{ q.2.+XZXuXw.q.q.q.z.l.#.#.b.b.b.b.b.b.b.b.b.b.b.b.b.b.b.b.N.N.b.b.b.b.b.b.b.b.N.b.N.N.N.N.b.b.N.b.N.N.N.b.b.b.b.b.b.b.b.b.N.N.b.b.b.b.b.b.b.b.N.b.N.b.N.N.",
"b.b.b.b.b.b.b.b.b.b.b.b.b.b.b.b.b.b.b.b.b.b.b.b.b.b.b.b.b.b.b.b.#.#.b.b.b.b.b.b.#.#.b.b.b.b.#.#.#.b.#.#.b.b.b.b.#.#.b.b.b.b.b.#.#.#.#.+.q.9.D.#X*X*X9X+XZ.1.N.b.1.D.2X1X6X*X*X*X=X,X,XJ.1.l.N.b.z.2.J.rXn.n.l.b.b.b.b.b.b.b.b.b.b.b.b.b.b.b.b.#.b.b.b.b.b.b.b.b.b.b.b.b.#.b.#.b.b.b.b.b.#.#.b.b.N.N.N.N.b.b.b.b.N.N.N.N.b.b.b.b.b.b.b.b.b.b.b.b.b.b.b.b.b.b.b.b.b.b.b.b.b.b.b.b.b.b.b.b.b.b.b.b.N.N.N.N.N.N.N.b.b.b.N.N.N.N.N.N.b.b.b.b.b.b.b.b.b.b.b.b.b.b.b.b.b.b.b.b.b.b.b.#.#.O.@.{ 1.S.,X6X=X=X*X6X2XH.1.w.w.1.w.D.6X*XQ.=X).6X,X2X4XJ.w.q.q.{ n.1.n.iXH.1.b.N.N.N.b.b.N.b.N.N.N.N.N.N.b.b.b.b.b.b.b.b.b.b.b.b.b.b.b.b.b.b.b.b.b.b.b.b.b.b.b.b.b.b.b.b.b.b.N.N.N.N.N.N.N.b.b.b.N.N.N.N.N.N.b.b.b.b.b.b.b.b.b.b.b.b.b.b.b.b.b.b.b.b.b.b.b.b.b.b.b.b.b.b.b.b.b.#.b.b.b.b.#.#.b.b.b.b.#.b.#.b.b.b.b.b.b.b.b.b.b.b.b.b.b.b.b.b.b.b.b.b.#.#.@.b.b.w.A.#X6X=X!.=X<Xb.b.{ q.b.n.2X6X*X6X7X*X*X-XA.w.b.{ q.2.+XZXvX0.q.q.q.2.l.#.#.N.b.b.b.b.b.b.b.b.b.b.b.b.b.b.b.N.N.N.N.b.b.N.b.N.N.N.N.b.b.b.b.N.N.N.N.N.N.N.b.b.b.N.N.N.N.N.N.N.N.N.N.b.b.N.b.N.N.N.N.b.b.b.b.",
"b.b.b.b.b.b.b.b.b.b.b.b.b.b.b.b.b.b.b.b.b.b.b.b.b.b.b.b.b.b.b.b.#.#.#.b.b.b.b.b.#.#.b.b.b.b.b.b.b.b.b.b.b.b.b.b.#.#.#.b.b.b.b.#.#.#.#.b.9.9.D.#X*X*X9X+XZ.1.N.b.1.D.,X8X6X*X=X=X=X+X1XJ.1.1.N.b.w.2.J.rXn.n.l.b.b.b.b.b.b.b.b.b.b.b.b.b.b.b.b.b.b.b.b.b.N.b.N.b.b.b.b.b.#.#.#.b.b.b.#.#.#.#.b.b.N.N.N.N.N.b.b.N.N.b.N.b.b.b.b.b.b.b.b.b.b.b.b.b.b.b.b.b.b.b.b.b.b.b.b.b.b.b.b.b.b.b.b.b.b.b.b.b.N.N.N.N.N.N.N.b.b.b.N.N.N.N.N.N.b.b.b.b.b.b.b.b.b.b.b.b.b.b.b.b.b.b.b.b.b.b.b.#.#.O.@.{ 1.S.2X6X=X=X*X6X2XD.1.w.w.1.2.D.6X6XQ.=X).6X6X,X2XJ.1.q.q.q.n.1.n.iXD.1.b.N.N.b.b.b.N.N.N.N.N.N.b.b.b.b.b.b.b.b.b.b.b.b.b.b.b.b.b.b.b.b.b.b.b.b.b.b.b.b.b.b.b.b.b.b.b.b.N.N.N.N.N.N.N.b.b.b.N.N.N.N.N.N.b.b.b.b.b.b.b.b.b.b.b.b.b.b.b.b.b.b.b.b.b.b.b.b.b.b.b.b.b.b.b.b.b.b.b.b.b.b.b.b.b.b.b.b.#.#.#.b.b.b.b.b.b.b.b.b.b.b.b.b.b.b.b.b.b.b.b.b.#.#.#.b.q.w.A.#X9X=XW.*X<Xb.b.{ q.n.n.2X6X*X6X7X*X*X*XD.w.b.{ q.<.*XAXvX0.q.q.q.z.z.#.#.N.b.b.b.b.b.b.b.b.b.b.b.b.b.b.b.N.N.N.b.b.b.N.N.N.N.N.N.b.b.b.b.N.N.N.N.N.N.N.b.b.b.N.N.N.N.N.N.N.N.N.b.b.b.N.N.N.N.N.N.b.b.b.b.",
"b.b.b.b.b.b.b.b.b.b.b.b.b.b.b.b.b.b.b.b.b.b.b.b.b.b.b.b.b.b.b.b.b.b.b.b.b.b.b.b.b.b.b.b.b.b.b.b.b.b.N.N.N.N.N.N.N.b.N.#.#.#.N.b.#.N.+.b./ ,.@X#X+X*X8XOXw.q.b.{ 1.OX,X+X*X*X=X=X*XoX1XJ.1.b.#.N.w.2. XiXn.w.b.b.b.b.b.b.b.b.b.b.b.b.N.N.N.N.N.N.N.b.N.N.N.N.N.b.b.b.b.b.b.b.b.b.b.b.b.b.b.b.N.N.N.N.b.b.b.b.b.b.b.b.b.b.b.b.b.b.+.b.b.b.b.b.b.b.b.b.b.b.b.b.b.b.b.b.b.b.b.b.b.b.b.b.b.b.b.b.N.N.b.b.b.b.b.b.b.b.b.b.b.b.b.b.b.b.b.b.b.b.b.b.b.b.b.b.b.b.b.b.b.b.b.b.b.b.b.b.b.N.N.O.@.q.1.D.1X6X=X=X*X+X1X[.w.q.q.w.1.T.6XR.7X=X=X6X6X,X2XJ.1.b.b.q.w.w.w.iXOX,.b.b.b.b.b.b.b.b.b.b.b.b.b.b.b.b.b.b.b.b.b.b.b.b.b.b.b.b.b.b.b.b.b.b.N.N.b.b.N.#.b.#.#.#.#.#.#.#.b.b.b.b.b.b.b.b.b.b.b.b.b.b.b.b.b.b.b.b.b.b.b.b.b.b.b.b.b.b.b.b.b.b.N.N.N.b.b.b.b.b.b.N.N.N.b.b.b.b.b.b.b.b.b.b.b.b.b.b.b.b.b.b.b.b.b.b.b.b.b.b.N.N.b.b.N.N.x.b.b.b.b.b.#.#.b.b.b.1.H.1X*X=X;X*X Xb.b.{ q.w.u.1X6X6X7X6X*X8X8XD.l.b.m.9.;.gXVXZXu.9.q.B.z.l.N.#.N.N.#.#.#.b.b.b.N.N.N.#.#.#.b.b.b.b.N.N.N.#.#.#.N.N.N.#.#.#.b.b.N.N.N.N.N.N.N.N.N.N.N.N.N.N.N.N.b.b.b.b.b.b.b.b.b.b.b.b.b.b.b.b.",
"b.b.b.b.b.b.b.b.b.b.b.b.b.b.b.b.b.b.b.b.b.b.b.b.b.b.b.b.b.b.b.b.b.b.b.b.b.b.b.b.b.b.b.b.b.b.b.b.b.N.N.N.N.N.N.N.N.N.N.N.#.#.N.b.+.N.+.b./ ,.@X#X+X+X8XOXw.9.m.{ 1.OX,X+X*X*X=X;X*X+X8XJ.1.b.@.b.w.2.].iXn.w.b.b.b.b.b.b.b.b.b.b.b.N.N.N.N.N.N.N.N.N.N.N.N.N.N.b.b.b.b.b.b.b.b.b.b.b.b.b.b.b.N.N.b.N.b.b.b.b.b.b.b.b.b.b.b.b.b.b.{ q.q.b.b.b.l.l.l.l.b.b.b.b.b.b.b.b.b.b.b.b.b.b.b.b.b.b.b.b.N.N.b.b.b.b.b.b.b.b.b.b.b.b.b.b.b.b.b.b.b.b.b.b.b.b.b.b.b.b.b.b.b.b.b.b.b.b.b.b.N.N.N.O.b.q.1.D.,X6X=X=X*X+X4X[.9.q.q.w.1.T.8X+X7X=X=X=X6X,X2XJ.1.b.b.q.w.9.w.iX@X,.b.b.b.b.b.b.b.b.b.b.b.b.b.b.b.b.b.#.b.b.b.b.b.b.b.b.b.b.b.b.b.b.b.b.b.b.b.b.b.#.#.#.#.#.#.#.#.#.b.b.b.b.b.b.b.b.b.b.b.b.b.b.b.b.b.b.b.b.b.b.b.b.b.b.b.b.b.b.b.b.b.b.N.N.b.b.b.b.b.b.b.b.N.N.b.b.b.b.b.b.b.b.b.b.b.b.b.b.b.b.b.b.b.b.b.b.b.b.b.b.N.N.N.N.N.x.x.l.b.q.b.b.#.#.N.b.b.1.H.1X6X*X&X*X'.{ b.{ q.w.u.1X6X6X7X6X*X8X6XH.l.b.b.0.;.hXVXZXi.9.q.n.z.l.N.#.#.b.#.#.b.b.b.N.N.N.N.N.#.#.b.b.b.b.N.N.N.N.b.#.N.N.N.#.#.#.b.b.N.N.N.N.N.N.N.N.N.N.N.N.N.N.N.N.b.b.b.b.b.b.b.b.b.b.b.b.b.b.b.b.",
"b.b.b.b.b.b.b.b.b.b.b.b.b.b.b.b.b.b.b.b.b.b.b.b.b.b.b.b.b.b.b.b.b.b.b.b.b.b.b.b.#.#.b.b.b.b.b.b.b.b.b.N.b.b.b.b.b.b.b.b.#.#.#.#.+.N.+.b./ ,.@X#X+X+X8XOXw.q.m.{ 1.OX,X+X*X*X=X;X=XoX1XJ.1.b.@.b.9.<. XiXn.q.b.b.b.b.b.b.b.b.b.b.b.b.b.b.b.b.N.b.b.b.b.b.N.b.b.b.b.b.b.b.b.b.b.b.b.b.b.b.b.N.N.N.b.b.b.b.b.b.b.b.b.b.b.b.b.b.b.b.{ { q.q.b.b.1.1.l.l.l.b.b.b.b.b.b.b.b.b.b.b.b.b.b.b.b.b.b.N.N.N.b.b.b.b.b.b.b.b.b.b.b.b.b.b.b.b.b.b.b.b.b.b.b.b.b.b.b.b.b.b.b.b.b.b.b.b.x.N.N.N.N.+.b.q.1.D.,X6X=X=X*X+X4X[.9.q.w.w.<.OX8X+X7X=X=X=X6X,X2XJ.1.b.b.q.w.9.w.iX@X,.b.b.b.b.b.b.b.b.b.b.b.b.b.b.b.b.b.#.#.#.#.#.b.b.b.b.b.b.b.b.b.b.b.b.b.b.b.b.b.b.#.#.#.#.#.#.#.#.b.b.b.b.b.b.b.b.b.b.b.b.b.b.b.b.b.b.b.b.b.b.b.b.b.b.b.b.b.b.b.b.b.N.N.N.b.b.b.b.b.b.b.b.N.N.N.b.#.#.#.b.b.b.b.b.b.b.b.b.b.b.b.b.b.b.b.b.b.b.b.b.b.b.N.N.N.N.N.b.b.q.b.b.#.#.b.b.b.1.H.1X6X*X-X*X'.{ b.{ q.w.w.1X6X6X7X6X*X8X,XZ.l.+.m.9.;.hXNXZXa.9.q.b.l.l.N.#.#.b.b.#.b.b.b.b.b.b.b.b.#.#.#.b.b.b.b.#.#.#.b.b.b.b.b.b.#.#.#.b.b.#.#.#.#.#.b.b.N.N.b.b.N.N.N.N.#.b.b.b.b.b.b.b.b.#.b.b.b.b.b.b.",
"b.b.b.b.b.b.b.b.b.b.b.b.b.b.b.b.b.b.b.b.b.b.b.b.b.b.b.b.b.b.b.b.b.b.b.b.b.b.b.b.b.b.b.b.b.b.b.b.b.b.b.N.b.b.b.b.b.b.b.b.#.#.#.#.+.b.{ b.1.9.@X#X+X+X8XOXw.9.m.{ 1.OX,X+X*X*X=X;X=X+X8XJ.1.b.@.b.1.<.>XiXn.q.b.b.b.b.b.b.b.b.b.b.b.b.b.b.b.b.b.b.b.b.b.b.b.b.b.b.b.b.b.b.b.b.b.b.b.b.b.b.b.b.N.N.b.b.b.b.b.b.b.b.b.b.b.b.b.b.b.b.{ { q.b.b.b.b.b.l.l.l.l.l.b.b.b.b.b.b.b.b.b.b.b.b.b.b.b.b.b.N.N.b.b.b.b.b.b.b.b.b.b.b.b.b.b.b.b.b.b.b.b.b.b.b.b.b.b.b.b.b.b.b.b.b.b.b.b.x.N.N.N.N.+.b.q.1.D.,X6X=X=X*X+X4X[.w.q.w.w.<.OX8X*X7X=X=X=X6X,X2XJ.1.b.b.q.q.9.w.iX#X<.b.b.b.b.b.b.b.b.b.b.b.b.b.b.b.b.b.#.#.#.#.#.#.b.b.b.b.b.b.b.b.b.b.b.b.b.b.b.b.b.b.#.#.#.#.#.#.#.b.b.b.b.b.b.b.b.b.b.b.b.b.b.b.b.b.b.b.b.b.b.b.b.b.b.b.b.b.b.b.b.N.N.N.N.N.b.b.b.b.b.b.b.N.N.N.b.#.#.b.b.b.b.b.b.b.b.b.b.b.b.b.b.b.b.b.b.b.b.b.b.b.b.N.N.N.N.N.b.b.q.b.b.#.#.b.b.b.1.H.2X,X*X-X*XH.{ b.q.q.w.w.1X6X=X7X6X6X8X,XZ.l.+.b.9.;.bXNXZXD.q.q.b.l.l.N.#.#.b.b.#.b.b.b.b.b.b.b.b.#.#.#.b.b.b.N.#.b.#.#.b.b.b.b.b.#.#.b.b.b.#.#.#.#.#.b.b.b.b.b.b.b.b.b.b.#.b.b.b.b.b.b.b.b.b.b.b.b.b.b.b.",
"b.b.b.b.b.b.b.b.b.b.b.b.b.b.b.b.b.b.b.b.b.b.b.b.b.b.b.b.b.b.b.b.b.b.b.b.b.b.b.+.b.b.b.b.b.b.b.b.b.b.b.b.b.b.b.b.b.b.#.#.#.#.#.#.N.N.` b.1.w.<X#X6X6X8XOXw.9.@.{ 1.OX,X+X*X*X=X-X=X+X8XJ.1.b.@.b.,.<.<XiXn.w.b.b.b.b.b.b.b.b.b.b.b.b.b.b.b.b.b.b.b.b.b.b.b.b.b.b.b.b.b.b.b.b.b.b.b.b.b.b.N.N.N.N.b.N.N.b.b.b.b.b.b.b.b.b.b.b.b.b.{ q.b.b.n.M.B.H.b.b.l.l.l.b.b.b.b.b.b.b.b.b.b.b.b.b.b.b.N.N.N.N.b.b.b.b.b.b.b.b.b.b.b.b.b.b.b.b.b.b.b.b.b.b.b.b.b.b.b.b.b.b.b.b.b.b.b.b.x.l.b.b.N.O.b.q.1.D.,X6X=X=X*X+X4X[.w.w.b.w.<.OX8X*X7X=X=X=X6X,X2XJ.w.b.b.q.q.9.Z.nX1X<.b.b.b.b.b.b.b.b.b.b.b.b.b.b.b.b.b.@.@.@.@.@.b.b.b.b.b.b.b.b.b.b.b.b.b.b.b.b.b.b.b.b.b.b.b.#.#.#.b.b.b.b.b.b.b.b.b.b.b.b.b.b.b.b.b.b.b.b.b.b.b.b.b.b.b.b.b.b.b.b.b.b.b.b.b.b.b.b.b.b.b.#.b.b.b.b.b.b.b.b.b.b.b.b.b.b.b.b.+.+.+.b.b.b.b.b.b.b.b.b.b.b.b.b.b.b.b.b.b.q.b.b.b.b.N.b.b.1.H.2X1X+X*X+XH.` b.q.q.w.w.1X6X*X7X7X6X8X,XZ.l.+.{ q.;.bXVXVXD.q.q.b.l.b.N.O.b.b.b.b.b.b.b.b.b.b.b.b.b.b.b.b.b.b.b.b.b.b.b.b.b.b.b.b.b.b.b.b.b.b.b.b.b.b.b.b.b.b.b.b.b.b.b.b.b.b.b.b.b.b.b.+.b.b.b.b.b.b.b.b.",
"b.b.b.b.b.b.b.b.b.b.b.b.b.b.b.b.b.+.b.b.b.b.b.b.b.+.b.b.b.b.b.b.b.b.b.b.b.b.+.+.b.b.b.b.b.b.b.b.b.b.b.b.b.b.b.b.b.b.#.#.#.#.#.#.N.N.` b.9.w.1X+X6X6X8XOX2.9.m.{ 1.OX,X+X*X*X=X-X;X+X8XJ.1.b.@.b.,.<.<XiXn.w.b.b.b.b.b.b.b.b.b.b.b.b.b.b.b.b.b.b.b.b.b.b.b.b.b.b.b.b.b.b.b.b.b.b.b.b.b.b.N.N.N.N.N.b.N.N.b.b.b.b.b.b.b.b.b.b.b.b.q.b.b.B.M.H.H.H.n.n.n.l.l.l.l.b.b.b.b.b.b.b.b.b.b.b.b.b.N.N.N.N.b.b.b.b.b.b.b.b.b.b.b.b.b.b.b.b.b.b.b.b.b.b.b.b.b.b.b.b.b.b.b.b.b.b.b.b.l.l.b.b.N.O.b.q.1.D.,X6X=X;X*X+X4X[.w.w.b.b.<.OX8X*X7X=X=X=X6X,X2XJ.w.b.b.q.q.w.Z.nX8X<.b.b.b.b.b.b.b.b.b.b.b.b.b.b.b.b.b.@.@.@.@.@.b.b.+.+.b.b.b.b.b.b.b.b.b.b.q.q.b.b.b.b.b.b.b.b.b.b.b.b.b.b.b.b.b.b.b.b.b.b.b.b.b.b.b.b.b.b.b.b.b.b.b.b.b.b.b.b.b.b.b.#.b.b.b.b.b.b.b.b.b.#.b.b.b.b.b.b.b.b.b.b.+.b.b.b.b.b.+.@.+.b.b.b.b.b.b.b.b.b.b.b.b.b.b.#.b.b.b.b.b.b.b.b.#.b.b.1.H.2X1X#X-X1XS.` b.q.q.9.w.1X6X*X7X7X6X8X,XZ.+.+.{ q.;.VXVXZXXXq.q.b.l.N.N.O.b.b.b.b.b.b.b.b.b.b.b.b.b.b.b.b.b.b.b.b.b.b.b.b.b.b.b.b.b.b.b.b.b.b.b.b.b.b.b.b.+.+.+.+.#.#.#.+.b.b.b.b.b.b.+.+.b.b.b.b.b.b.b.b.",
"b.b.b.b.b.b.b.b.b.b.b.b.b.b.b.b.+.@.@.+.@.@.@.@.@.@.b.b.b.b.+.+.b.b.b.b.b.b.b.b.b.b.b.b.b.b.b.b.b.b.b.b.b.b.b.b.b.b.+.+.@.@.@.@.N.N.` b.9.w.1X+X6X6X8XOX2.9.m.{ 1.OX,X+X*X*X=X;X=X+X8XJ.1.b.@.b.,.0.<XiXw.1.b.b.b.b.b.b.b.b.b.b.b.b.b.b.b.b.b.b.b.b.b.b.b.b.b.b.b.b.b.b.b.b.b.b.b.b.b.b.N.N.N.N.N.N.N.b.b.b.b.b.b.b.b.b.b.b.b.b.b.b.B.B.C.H.H.H.F.M.n.b.l.b.b.b.b.b.b.b.b.b.b.b.b.b.b.b.N.N.N.N.b.b.b.b.b.b.b.b.b.b.b.b.b.b.b.b.b.b.b.b.b.b.b.b.b.b.b.b.b.b.b.b.b.b.b.b.N.b.b.b.N.O.b.q.1.D.,X6X=X;X*X+X4X[.w.w.b.b.2.OX8X*X7X=X=X=X6X,X2XH.w.b.b.{ 9.w.S.mX8X4.b.b.b.b.b.b.b.b.b.b.b.b.b.b.b.b.b.+.@.@.b.b.b.b.b.b.b.b.b.b.b.b.b.w.b.w.b.b.b.b.b.b.b.b.b.b.b.b.b.b.b.b.b.b.b.b.b.b.b.b.b.b.b.b.b.b.b.b.b.b.b.b.b.b.b.b.b.b.b.b.#.#.#.#.#.#.#.#.#.#.b.b.b.b.b.b.b.b.b.b.b.b.b.b.b.b.b.b.b.b.b.b.b.b.b.b.b.+.#.#.#.#.#.#.#.#.#.#.+.b.b.b.b.b.b.b.b.1.H.3X1X,X1X1XM.` b.q.q.9.w.1X6XQ.7X7X6X8X,XZ.{ { { 9.;.VXNXbXXXq.{ N.b.b.N.O.b.b.b.b.b.b.b.b.b.b.b.b.b.b.b.b.b.b.b.b.b.b.b.b.b.b.b.b.b.b.b.b.b.b.b.b.b.b.b.b.b.b.b.b.b.b.b.b.b.b.b.b.b.b.b.b.b.b.b.b.b.b.b.b.",
"b.b.b.b.b.b.b.b.b.b.b.b.b.b.b.b.+.@.@.@.@.@.@.@.@.@.b.b.b.b.b.b.b.b.b.b.b.b.b.b.b.b.b.b.b.b.b.b.b.b.b.b.b.b.b.b.b.b.b.+.+.@.@.@.N.N.` b.9.w.2X+X6X6X6XT.2.9.m.q.1.OX,X+X*X*X=X;X=X+X8XJ.1.b.@.b.,.0.1XiXw.1.b.b.b.b.b.b.b.b.b.b.b.b.b.b.b.b.b.b.b.b.b.b.b.b.b.b.b.b.b.b.b.b.b.b.b.b.b.b.b.b.b.b.N.N.b.b.b.b.b.b.b.b.b.b.b.b.b.q.B.B.M.M.M.S.Z.Z.H.F.n.n.l.l.l.b.b.b.b.b.b.b.b.b.b.b.b.b.b.b.b.b.b.b.b.b.b.b.b.b.b.b.b.b.b.b.b.b.b.b.b.b.b.b.b.b.b.b.b.b.b.b.b.b.b.b.b.b.N.b.b.b.N.O.b.q.1.D.,X6X=X;X*X+X4X[.w.w.b.b.2.OX0X*X7X=X=X=X6X,X2XJ.q.b.b.{ 1.w.D.mX8X4.b.b.b.b.b.b.b.b.b.b.b.b.b.b.b.b.b.+.b.b.b.b.b.b.b.b.b.b.b.b.b.b.n.n.M.n.n.n.n.n.b.b.b.b.b.b.b.b.b.b.b.b.b.b.b.b.b.b.b.b.b.b.b.b.b.b.b.b.b.b.b.b.b.b.b.b.b.b.b.b.#.#.#.#.#.#.#.#.#.#.b.b.b.b.b.b.b.b.b.b.b.b.b.b.b.b.b.b.b.b.b.b.b.+.b.b.b.+.#.#.#.#.#.#.#.#.#.#.b.b.b.+.b.b.b.b.b.1.H.3X<X>X1X<XM.` b.q.q.9.w.1X6X*X7X7X6X8X,XZ.{ { { 9.4.VXCXmXXXq.{ b.b.b.N.O.b.b.b.b.b.b.b.b.b.b.b.b.b.b.b.b.b.b.b.b.b.b.b.b.b.b.b.b.b.b.b.b.b.b.b.b.b.b.b.b.b.b.b.b.b.b.b.b.b.b.b.b.b.b.b.b.b.b.b.b.b.b.b.b.",
"b.b.b.b.b.q.b.q.b.b.b.b.b.b.b.b.b.@.@.@.@.@.@.@.b.b.b.b.b.b.b.b.b.w.w.q.w.q.w.q.B.B.M.B.B.B.M.B.b.b.b.b.b.b.b.{ b.b.b.b.+.+.+.b.N.+.b.q.1.S.1X#X6X6X6XU.2.w.m.{ 2.OX,X+X*X-X%X;X*X*X8XA.1.m.{ b.,.-.iXiXS.1.1.w.b.b.b.b.b.b.b.b.b.b.b.b.b.b.b.b.b.b.b.b.b.b.b.b.b.b.b.b.b.b.b.b.b.b.b.b.b.b.b.b.N.b.b.b.b.b.b.b.X.b.N.N.b.b.b.m.M.M.M.S.M.S.Z.Z.H.H.M.n.n.b.b.b.q.b.b.b.b.b.+.` b.b.b.b.b.b.b.b.b.b.b.b.b.b.b.b.b.b.b.b.b.b.b.b.b.b.b.b.b.b.b.b.b.b.b.b.b.b.b.b.b.b.b.b.l.l.b.N.#.O.b.q.1.D.,X6X=X=X*X,X4X[.w.w.b.1.Z.OX6X6X6X7X!.=X6X6X2XH.1.b.+.b.w.,.D.nXvX4.b.b.b.b.b.b.b.b.b.+.+.+.+.b.b.b.b.b.b.b.b.b.q.1.b.b.b.n.n.n.B.C.M.M.S.S.C.C.C.C.C.n.b.b.l.b.b.b.b.b.b.b.b.b.b.b.b.b.b.b.b.b.b.b.b.b.b.b.b.b.b.b.b.b.b.b.b.b.b.b.@.@.@.@.@.@.@.@.N.b.b.X.+.b.b.b.` 1.q.q.w.b.n.n.n.b.b.b.w.q.w.q.q.{ { { q.{ b.b.@.@.#.#.#.#.#.#.b.b.b.b.b.b.b.b.` 1.n. X4X4XOXS.b.{ +.b.q.,.S.1X*X6XQ.7X6X6X,X2.{ { r.P h.VXNXMX#Xq.b.b.l.n.+.#.N.b.b.b.b.b.b.b.b.b.b.b.b.b.b.b.b.b.b.b.b.b.b.b.b.b.b.b.b.b.b.b.b.q.1.q.1.1.1.1.b.b.b.b.b.n.n.B.n.n.n.n.B.n.n.B.b.b.b.b.b.b.b.b.",
"q.q.q.b.b.b.b.b.{ { { { { { { { +.@.@.@.{ { { { b.b.b.b.b.b.l.1.1.9.q.w.n.n.M.M.M.M.M.B.M.B.M.M.n.n.n.n.b.b.b.b.b.b.q.b.b.b.b.b.N.+.b.q.1.S.1X+X6X6X6XU.2.w.m.{ 2.OX1X+X*X-X%X;X*X+X8XA.1.b.{ b.,.-.iXiXS.1.1.w.b.b.b.b.b.w.b.b.b.b.b.b.b.q.b.b.1.1.w.b.b.b.b.b.b.b.b.b.b.b.b.b.b.b.b.b.b.b.b.b.b.b.b.b.b.b.b.b.+.b.N.b.{ b.b.B.M.M.M.M.M.M.Z.Z.H.Z.F.M.n.n.b.b.q.q.b.b.b.b.b.+.b.b.b.b.b.b.b.b.b.b.b.b.b.b.b.b.b.b.b.b.b.b.b.b.b.b.b.b.b.b.b.b.b.b.b.b.b.b.b.b.b.b.b.b.l.l.b.N.#.+.b.q.1.D.,X6X=X=X*X+X4X'.w.w.b.1.Z.OX6X6X6X7X!.=X6X6X2XH.1.b.+.b.w.,.J.nXvX4.b.b.b.b.b.b.b.b.b.b.b.+.+.b.b.b.b.b.b.b.b.b.b.b.b.n.n.n.B.B.B.C.S.S.Z.S.H.C.F.C.C.n.n.b.b.b.l.b.b.b.b.b.b.b.b.b.b.b.b.b.b.b.b.b.b.b.b.b.b.b.b.b.b.b.b.b.b.b.b.b.@.@.@.@.@.@.@.b.b.b.b.b.b.b.b.b.b.b.n.n.n.B.M.M.M.M.M.B.n.n.n.n.q.b.q.q.b.b.b.b.b.@.#.#.#.#.#.#.+.b.b.b.b.b.b.b.b.q.b.M.'.H.Z.w.b.{ +.b.q.,.S.1X*X6XQ.7X6X6X,X2.q.{ m.P j.VXCXMX#X9.q.{ 1.n.O.@.b.b.b.b.b.b.b.b.b.b.b.b.b.b.b.b.b.b.b.b.b.b.b.b.b.b.b.b.b.b.b.b.b.b.b.b.b.b.n.b.n.n.n.n.C.C.C.C.M.B.B.B.B.B.M.B.C.M.B.n.b.q.1.1.",
"{ { q.q.b.b.b.b.{ { { { { { { { +.+.+.+.{ +.+.b.b.b.b.b.b.1.1.1.1.9.w.w.M.M.H.S.M.M.M.M.M.M.M.M.M.M.M.n.n.n.n.n.q.q.q.q.q.b.w.b.b.b.b.q.1.H.1X1X6X6X6XU.2.w.m.q.2.OX,X+X*X*X=X;X*X+X8XA.1.m.+.b.,.>.iXiXS.1.1.b.b.b.b.q.w.w.b.b.b.b.b.b.b.b.b.b.w.w.w.w.w.w.w.q.b.q.b.b.b.b.b.b.b.b.b.b.b.b.N.N.b.b.b.b.b.b.b.b.b.b.b.b.{ b.m.B.M.M.M.S.S.S.Z.Z.Z.Z.Z.M.M.n.n.b.q.{ q.q.b.b.b.b.b.b.b.b.b.b.N.N.b.b.b.b.b.b.b.b.b.b.b.b.b.b.b.b.b.b.b.b.b.b.b.b.b.b.b.b.b.b.b.b.b.b.b.b.l.l.b.b.#.O.b.q.1.D.,X6X=X=X*X,X4X'.w.q.b.1.n.OX8X6X=X=X!.=X6X6X2XH.` b.{ b.w.<.T.mXvX6.z.b.b.b.b.b.b.b.b.b.b.b.b.b.b.b.b.b.l.1.b.n.n.C.M.B.H.H.F.F.F.F.Z.Z.Z.Z.Z.S.Z.S.F.B.M.n.n.b.l.l.b.b.b.b.b.b.b.b.b.b.b.b.b.b.b.b.b.b.b.b.b.b.b.b.b.b.b.b.b.b.b.b.+.@.@.@.b.b.b.b.b.b.b.b.b.b.B.n.M.M.M.M.M.M.S.M.H.M.H.M.M.M.M.B.n.n.w.q.l.b.b.b.b.b.b.#.#.#.#.#.b.b.b.b.b.b.b.b.b.b.q.q.w.w.1.1.b.{ +.b.q.,.H.1X6X6XQ.7X6X6X,X2.b.@.r.-.j.VXCXVX#X9.q.q.1.n.{ @.X.b.b.b.b.b.b.b.b.b.b.b.b.b.b.b.b.b.b.b.b.b.b.b.b.b.b.b.b.b.b.b.b.w.n.n.M.M.S.C.M.M.H.C.H.H.H.C.S.M.S.M.M.M.M.M.H.S.S.n.n.w.w.9.",
"b.b.b.b.b.b.b.b.b.b.b.b.b.b.b.@.{ +.+.+.b.b.b.b.q.b.b.b.n.n.n.n.M.n.n.n.M.S.S.S.S.M.M.M.M.M.M.M.S.S.S.M.M.M.M.n.b.b.b.w.b.w.w.b.b.1.b.q.1.H.1X1X6X6X6XU.<.w.m.{ w.OX1X+X*X*X=X;X*X*X8XA.1.m.+.b.<.-.iXiXS.1.w.b.b.b.b.b.w.b.n.n.S.M.S.M.M.M.M.M.H.S.M.n.w.1.1.1.b.q.q.b.b.b.b.b.b.b.b.b.b.b.N.N.N.b.b.b.b.b.b.b.N.b.b.+.+.b.m.B.M.M.S.S.S.S.Z.Z.Z.Z.Z.H.F.M.n.b.q.q.q.q.b.b.b.b.b.b.b.b.b.b.N.N.b.b.b.b.b.b.b.b.b.b.b.b.b.b.b.b.b.b.b.b.b.b.b.b.b.b.b.b.b.b.b.b.b.b.b.b.l.l.b.N.#.O.b.q.1.D.,X6X=X=X*X+X4X[.w.q.b.1.n.OX6X6X6X=X!.=X6X6X2XH.` b.{ b.w.<.T.mXbX7.z.b.b.b.b.b.b.b.b.b.b.b.b.b.b.b.w.1.b.n.n.M.F.H.F.F.F.F.F.F.F.Z.Z.Z.Z.Z.Z.Z.Z.Z.F.F.F.B.B.n.b.l.b.b.b.b.b.b.b.b.b.b.b.b.b.b.b.b.b.b.b.b.b.b.b.b.b.b.b.b.b.b.b.b.+.+.+.@.b.b.b.b.b.l.b.b.n.B.C.H.S.S.S.S.M.M.M.M.S.S.S.S.n.n.n.n.S.M.n.w.l.l.b.b.b.b.b.b.b.#.#.#.b.b.b.b.b.b.b.b.b.b.q.q.1.q.w.b.b.{ +.b.q.,.H.1X6X6XQ.7X6X6X,X2.b.{ r.:.j.NXCXNX#X9.q.b.z.n.+.b.b.b.b.b.b.b.b.b.b.b.b.b.b.b.b.b.b.b.b.b.b.b.b.b.b.b.b.b.b.b.b.b.n.n.M.M.S.S.H.H.S.S.S.M.M.M.M.M.S.S.S.S.S.S.S.S.S.S.M.M.n.n.n.n.",
"b.b.b.b.q.q.q.q.q.q.q.q.q.q.q.q.{ { { { q.q.b.b.q.w.n.n.n.M.M.Z.H.S.H.S.S.S.S.S.S.S.S.S.S.S.S.S.Z.Z.Z.M.M.M.M.M.M.n.n.n.b.w.w.q.b.` b.1.1.S.1X+X6X6X6XU.<.9.m.q.w.@X1X+X*X*X=X;X*X+X8XA.1.b.O.b.2.<.iXiXS.1.w.w.w.w.q.q.b.n.M.S.S.S.S.S.S.S.S.S.H.H.S.M.n.n.2.1.b.b.b.b.b.b.b.b.b.b.b.b.b.b.N.N.N.N.b.b.b.b.b.b.b.b.+.+.b.b.B.M.M.M.S.S.Z.Z.Z.Z.Z.Z.Z.F.F.M.n.b.b.b.b.b.b.b.b.N.b.b.b.b.b.b.N.N.b.b.b.b.b.b.b.b.b.b.b.b.b.b.b.b.b.b.b.b.b.b.b.b.b.b.b.b.b.b.b.b.b.b.b.b.b.b.N.N.#.O.b.w.1.D.,X6X=X;X*X6X4X[.9.q.b.1.Z.OX8X6X=X=X!.=X6X6X2XH.` b.{ q.w.2.T.mXbX7.z.b.b.b.b.b.b.b.b.b.b.b.b.b.b.b.1.w.n.M.Z.Z.F.F.Z.Z.Z.F.Z.Z.Z.Z.Z.Z.Z.Z.Z.Z.Z.Z.Z.H.F.H.B.n.n.l.b.b.b.b.b.b.b.b.b.b.b.b.b.b.b.b.b.b.b.b.b.b.b.b.b.b.b.b.b.b.b.b.b.b.b.b.b.b.b.b.q.b.n.n.M.F.H.H.S.S.S.S.S.Z.Z.Z.S.S.Z.Z.Z.Z.n.n.H.S.M.n.n.n.b.b.b.b.b.b.b.b.b.b.b.b.b.b.b.b.b.b.1.b.b.b.b.q.b.b.b.q.+.b.q.,.H.1X6X6XQ.7X6X,X,X2.1.{ q.:.j.NXCXNX-X0.n.n.n.F.b.m.b.n.n.n.b.b.b.b.b.b.b.b.b.b.b.b.b.b.b.b.b.b.b.b.w.b.b.b.b.n.b.b.M.Z.Z.Z.Z.Z.Z.S.Z.Z.Z.Z.Z.Z.M.Z.S.S.S.S.S.S.S.S.Z.S.Z.Z.S.S.S.S.",
"B.B.m.m.b.q.q.q.q.q.q.q.q.q.{ { { { { q.q.q.w.b.w.n.n.n.Z.H.H.H.Z.Z.Z.H.Z.S.H.H.Z.S.Z.Z.Z.Z.A.Z.Z.Z.Z.Z.Z.Z.Z.M.S.S.S.n.n.n.w.w.b.b.b.w.1.S.#X+X6X6X6XU.<.9.b.9.w.@X8X+X*X*X=X;X*X+X8XA.1.b.O.b.0.<.iXnXS.9.1.n.1.w.b.b.n.M.S.H.Z.Z.Z.Z.Z.Z.Z.Z.Z.Z.Z.Z.Z.Z.Z.M.w.b.b.b.b.b.b.b.b.b.b.b.b.b.N.N.N.N.b.b.b.b.b.b.N.b.+.b.b.m.B.B.M.S.S.S.Z.Z.Z.Z.Z.Z.Z.F.F.Z.M.n.b.b.b.b.b.b.b.b.b.b.b.b.b.b.N.N.b.b.b.b.b.b.b.b.b.b.b.b.b.b.b.b.b.b.b.b.b.b.b.b.b.b.b.b.b.b.b.b.b.b.b.b.b.b.N.N.N.O.b.w.1.D.,X6X=X;X*X+X4X[.9.q.b.1.Z.OX8X6X=X=X!.7X6X6X2XH.` b.{ b.w.2.T.ZXbXi.z.b.b.b.b.b.b.b.b.b.b.b.b.b.N.b.z.n.Z.Z.H.F.Z.Z.Z.Z.Z.Z.Z.Z.Z.Z.Z.Z.Z.Z.Z.Z.Z.Z.Z.H.F.F.F.M.n.n.b.b.b.b.b.b.b.b.b.b.b.b.b.b.b.b.b.b.b.b.b.b.b.b.b.b.b.b.b.b.b.b.b.b.b.b.b.b.b.b.b.n.n.B.F.F.F.F.Z.H.Z.H.Z.S.Z.H.H.H.Z.H.Z.Z.Z.Z.Z.Z.Z.M.M.n.n.b.b.b.b.b.b.b.b.b.#.b.b.b.b.b.b.b.q.b.b.b.b.q.{ { b.q.+.b.q.,.S.1X6X6XQ.7X6X,X,X2.1.` q.-.j.CXFXAXpXe.M.M.Z.H.n.B.C.C.B.n.n.b.b.b.b.b.b.b.b.b.b.w.b.b.b.b.b.b.w.w.b.b.b.n.n.n.n.n.Z.Z.Z.Z.Z.Z.Z.Z.Z.Z.Z.Z.Z.Z.Z.Z.Z.S.Z.Z.A.Z.Z.Z.H.H.Z.Z.A.Z.Z.Z.",
"B.m.B.m.m.m.b.b.q.q.q.q.q.q.q.q.q.q.q.b.b.n.n.n.n.M.M.Z.Z.Z.F.Z.Z.Z.A.Z.A.A.S.S.A.A.A.A.A.Z.A.Z.Z.Z.Z.Z.Z.Z.Z.S.S.S.S.Z.n.n.n.n.B.b.b.b.1.D.,X+X*X6X6XU.<.1.b.` w.>X8X+X*X*X=X=X*X+X1XA.1.b.O.b.0.<.iXiXS.9.w.n.w.n.n.M.M.M.M.M.Z.Z.Z.Z.Z.Z.Z.Z.Z.Z.Z.Z.A.H.H.H.w.b.b.b.b.b.b.b.b.b.b.b.b.b.N.N.N.N.N.b.b.b.b.b.b.b.+.b.b.B.B.B.M.S.S.S.Z.A.A.A.Z.Z.Z.Z.Z.Z.S.M.B.b.b.b.+.+.b.b.b.b.b.b.b.b.N.N.b.b.b.b.b.b.b.b.b.b.b.b.b.b.b.b.b.b.b.b.b.b.b.b.b.b.b.b.b.b.b.b.b.b.b.b.b.N.N.N.#.O.b.w.1.D.,X6X=X=X*X+X4X[.9.1.b.1.n.OX8X6X=X=X!.=X6X6X2XH.` @.{ b.w.2.T.ZXZXg.z.b.b.b.b.b.b.b.b.b.b.b.b.N.N.B.Z.Z.Z.Z.Z.Z.Z.Z.Z.Z.Z.Z.A.A.A.Z.Z.Z.Z.Z.Z.Z.Z.Z.Z.Z.F.F.F.F.Z.B.b.b.b.b.b.b.b.b.b.b.b.b.b.b.b.b.b.b.b.b.b.b.b.b.b.b.b.b.b.b.b.b.b.b.b.b.b.b.b.b.M.M.F.F.F.F.F.Z.Z.A.A.A.A.A.A.A.S.A.A.A.A.S.A.Z.Z.Z.F.H.Z.M.n.n.b.b.b.b.b.b.b.b.#.b.b.b.b.b.b.b.b.q.b.b.b.b.+.{ b.{ { b.q.,.S.1X6X6XQ.7X6X,X,X2.b.w.M.0.j.AXFXNX9Xp.S.S.F.G.B.C.C.C.C.C.B.n.n.b.b.b.b.b.b.b.b.b.b.b.b.b.b.b.b.b.b.n.n.n.n.B.B.M.Z.A.Z.Z.A.Z.Z.Z.Z.Z.Z.Z.A.Z.Z.Z.Z.A.A.A.A.Z.A.A.D.S.D.A.A.Z.u.u.",
"B.m.B.m.m.m.m.B.b.b.b.b.b.b.b.b.b.b.m.B.M.C.C.C.S.S.Z.Z.Z.Z.Z.Z.Z.A.A.A.A.A.A.A.A.A.A.A.A.A.A.A.Z.Z.Z.Z.H.H.H.H.Z.S.S.S.S.S.S.S.C.B.B.n.w.D.1X*X*X6X6XU.<.1.b.` w.>X8X+X*X*X=X=X*X+X1XZ.1.b.O.b.0.<.iXnXD.9.w.n.n.n.M.H.H.M.M.n.A.A.Z.Z.Z.A.Z.Z.Z.Z.Z.Z.Z.Z.Z.Z.w.b.b.b.b.b.b.b.b.b.b.b.b.b.N.N.N.N.N.N.b.b.b.b.b.b.+.b.m.B.B.n.M.S.S.S.A.A.A.A.Z.Z.Z.Z.Z.Z.H.H.B.m.b.b.+.+.b.b.b.b.b.b.b.b.N.N.b.b.b.b.b.b.b.b.b.b.b.b.b.b.b.b.b.b.b.b.b.b.b.b.b.b.b.b.b.b.b.b.b.b.b.b.N.N.N.N.#.O.b.w.1.D.,X6X=X=X*X6X4X[.9.1.b.1.n.OX8X6X=X=X!.7X6X6X2XH.` @.{ b.w.2.OXZXZXI.z.b.b.b.b.b.b.b.X.X.+.b.b.N.N.B.H.F.Z.Z.Z.Z.Z.F.Z.Z.Z.G.G.G.G.Z.Z.Z.Z.Z.Z.Z.Z.Z.Z.Z.F.F.F.F.F.C.b.b.b.b.b.b.b.b.b.b.b.b.b.b.b.b.b.b.b.b.b.b.b.b.b.b.b.b.b.b.b.b.b.b.b.b.b.b.b.b.F.F.F.H.H.F.F.Z.Z.A.A.A.A.A.A.A.A.A.A.A.A.A.A.A.Z.Z.H.H.H.Z.n.n.b.b.b.b.b.b.b.b.#.b.b.b.b.b.b.b.b.{ { q.N.b.N.#.b.{ { b.q.,.S.1X6X6XQ.7X6X,X,X2.n.n.'.s.W.AXFXNX9Xp.S.S.F.G.C.C.C.C.C.C.C.C.B.B.b.b.b.b.b.b.b.w.b.b.b.b.b.b.b.b.n.n.n.B.B.B.C.M.Z.A.Z.Z.Z.Z.Z.Z.Z.Z.Z.A.Z.A.Z.Z.S.S.S.A.A.A.A.A.S.A.A.A.A.A.A.A."
};
