/* XPM */
static char *_5c03d55bfd94f16d332c58e889643f94K8RnNq6N0SxQyqf[] = {
/* columns rows colors chars-per-pixel */
"443 443 256 2 ",
"   c #0D0A2D",
".  c #140A2E",
"X  c #0C0E33",
"o  c #080E33",
"O  c #1C0533",
"+  c #140D34",
"@  c #1B0C35",
"#  c #160E39",
"$  c #1C0D3A",
"%  c #1A0638",
"&  c #051435",
"*  c #0C1235",
"=  c #04163B",
"-  c #0C153A",
";  c #021A3D",
":  c #0C1A3C",
">  c #001837",
",  c #131235",
"<  c #191336",
"1  c #14143B",
"2  c #1B133C",
"3  c #131A3E",
"4  c #1B193D",
"5  c #171837",
"6  c #0E102F",
"7  c #220535",
"8  c #24053B",
"9  c #2A043C",
"0  c #240C3C",
"q  c #2A0B3D",
"w  c #220836",
"e  c #22123D",
"r  c #24183D",
"t  c #31063F",
"y  c #06203E",
"u  c #041D45",
"i  c #0B1C45",
"p  c #041E49",
"a  c #0B1E49",
"s  c #071642",
"d  c #1D1542",
"f  c #141C43",
"g  c #1A1B44",
"h  c #131E4B",
"j  c #1B1D4B",
"k  c #161643",
"l  c #18194B",
"z  c #2D0544",
"x  c #250D43",
"c  c #2B0B45",
"v  c #2D0D49",
"b  c #280544",
"n  c #330546",
"m  c #310946",
"M  c #35044B",
"N  c #3B054C",
"B  c #330B4B",
"V  c #3B0A4D",
"C  c #390346",
"Z  c #231343",
"A  c #2B1343",
"S  c #221B44",
"D  c #2A1A46",
"F  c #25154A",
"G  c #2C134C",
"H  c #241C4B",
"J  c #2B1B4B",
"K  c #32124D",
"L  c #33184B",
"P  c #3B0552",
"I  c #360C52",
"U  c #3C0B54",
"Y  c #3E0B5A",
"T  c #3B0455",
"R  c #2B1951",
"E  c #341451",
"W  c #3B1254",
"Q  c #341B53",
"!  c #3C135A",
"~  c #3B1C57",
"^  c #2F0F52",
"/  c #042045",
"(  c #0B2146",
")  c #05234B",
"_  c #0B234C",
"`  c #07294F",
"'  c #122144",
"]  c #12224C",
"[  c #1C224C",
"{  c #1A2549",
"}  c #042553",
"|  c #0C2552",
" . c #062956",
".. c #0B2A54",
"X. c #052A5A",
"o. c #0B2C5A",
"O. c #032659",
"+. c #122551",
"@. c #122B54",
"#. c #132E5B",
"$. c #1A2A55",
"%. c #0E315E",
"&. c #07325C",
"*. c #12315D",
"=. c #1A325B",
"-. c #24224C",
";. c #27234B",
":. c #252252",
">. c #2B2352",
",. c #232B53",
"<. c #2B2B55",
"1. c #362558",
"2. c #24325B",
"3. c #322753",
"4. c #052E62",
"5. c #092E63",
"6. c #092E68",
"7. c #063265",
"8. c #0B3263",
"9. c #0B356A",
"0. c #06386B",
"q. c #133462",
"w. c #193865",
"e. c #073B74",
"r. c #123B71",
"t. c #223561",
"y. c #3F0D60",
"u. c #41044D",
"i. c #42094F",
"p. c #430554",
"a. c #490556",
"s. c #440A56",
"d. c #44055B",
"f. c #4B045C",
"g. c #430B5C",
"h. c #4A0B5C",
"j. c #490A56",
"k. c #52075D",
"l. c #44125D",
"z. c #431B5C",
"x. c #461359",
"c. c #50125F",
"v. c #42235D",
"b. c #4B0661",
"n. c #450C61",
"m. c #4B0B63",
"M. c #4D0D66",
"N. c #530564",
"B. c #520A65",
"V. c #560669",
"C. c #5C046C",
"Z. c #550B69",
"A. c #5A0B6C",
"S. c #5A0865",
"D. c #441262",
"F. c #4C1364",
"G. c #4B1865",
"H. c #53146B",
"J. c #551568",
"K. c #5D0B71",
"L. c #5E0471",
"P. c #5A1671",
"I. c #64096B",
"U. c #640473",
"Y. c #630B73",
"T. c #6B047B",
"R. c #6B0B7C",
"E. c #690876",
"W. c #740A7B",
"Q. c #671378",
"!. c #701075",
"~. c #472464",
"^. c #63065D",
"/. c #04437B",
"(. c #074678",
"). c #064774",
"_. c #6E0A82",
"`. c #730B83",
"'. c #790988",
"]. c #7A1187",
"[. c #7C0D94",
"{. c #78118E",
"}. c #064985",
"|. c #085689",
" X c #085995",
".X c #12518C",
"XX c #096598",
"oX c #106B9C",
"OX c #0C73AA",
"+X c #0A79B8",
"@X c #0F73AE",
"#X c #077DC3",
"$X c #137EC6",
"%X c #840C8A",
"&X c #880B96",
"*X c #950B9C",
"=X c #891296",
"-X c #981698",
";X c #89118D",
":X c #A3199D",
">X c #990DA6",
",X c #9814A7",
"<X c #8E0EA9",
"1X c #A918A8",
"2X c #B819B6",
"3X c #AA13B3",
"4X c #B424B0",
"5X c #C21BBD",
"6X c #C625BC",
"7X c #B511C4",
"8X c #C71BC5",
"9X c #D11BCE",
"0X c #D728D7",
"qX c #D12ECB",
"wX c #E13EE9",
"eX c #D942D7",
"rX c #D642CA",
"tX c #E469D9",
"yX c #E970DA",
"uX c #E86CE6",
"iX c #EC6FF2",
"pX c #DE54DC",
"aX c #0685CA",
"sX c #0A8CD3",
"dX c #0A94D7",
"fX c #0C8ED0",
"gX c #1BA9DE",
"hX c #06A2DB",
"jX c #1AADE1",
"kX c #22ABE3",
"lX c #25B3E6",
"zX c #1FA6DE",
"xX c #3CC8E9",
"cX c #3FCEF0",
"vX c #43C6E8",
"bX c #5ED7F2",
"nX c #69DBF2",
"mX c #69D9EF",
"MX c #6BE0F3",
"NX c #39A8D0",
"BX c #FD94F8",
"VX c #FC8BF8",
"CX c #FBABFF",
"ZX c #F6A7FD",
"AX c #FFBCFF",
"SX c #FFB6FF",
"DX c #8DDCF5",
"FX c #92DAF5",
"GX c #ADEEFF",
"HX c #B6ECFF",
"JX c #ACF2FF",
"KX c #A6F4FF",
"LX c #B2F2FF",
"PX c #8DE2F7",
"IX c #FFC0FF",
"UX c #84077E",
/* pixels */
"rXrXtXtXtXtXtXtXtXtXtXtXtXtXtXtXtXtXtXtXtXtXtXtXtXtXtXtXtXtXtXtXtXtXtXtXtXtXtXtXtXtXtXtXtXtXtXtXtXtXtXtXtXtXtXtXtXtXtXtXtXtXtXtXtXtXtXtXtXtXtXtXtXtXtXtXtXtXtXtXtXtXtXtXtXtXtXtXtXtXtXtXtXtXtXtXtXtXtXuXuXuXuXtXuXuXuXuXuXuXuXtXtXtXtXtXtXtXtXtXtXtXtXtXtXtXyXtXtXtXtXtXtXtXtXtXtXtXtXtXtXtXtXtXtXtXtXtXtXtXtXtXtXtXtXtXtXtXtXtXtXtXtXtXtXtXuXuXtXtXuXuXuXuXuXuXtXtXtXtXtXtXtXtXtXtXtXtXtXtXtXtXtXtXtXtXtXtXtXtXtXtXtXtXtXtXtXtXtXtXtXtXtXtXtXtXtXtXtXtXtXtXtXtXtXtXuXuXuXtXtXtXuXuXuXuXuXuXtXtXtXtXyXyXyXtXtXtXtXtXtXtXtXtXtXtXtXtXtXtXtXtXuXuXtXtXtXtXtXtXtXtXyXyXtXtXtXyXyXyXtXtXtXtXtXtXtXtXtXtXtXtXtXtXtXtXtXtXtXtXtXtXtXtXtXtXtXtXtXtXtXtXtXtXtXtXtXtXtXtXtXtXtXtXtXtXtXtXtXtXtXtXtXtXtXtXtXtXtXtXtXtXyXtXtXtXtXtXtXtXtXtXtXtXtXtXtXtXtXtXtXtXtXtXtXtXtXtXtXtXtXtXtXtXtXtXtXtXtXtXtXtXtXtXtXtXtXtXtXtXtXtXtXtXtXtXtXtXtXtXtXtXtXtXtXtXtXtXtXtXtXtXtXtXtXtXtXtXtXtXtXtXtXtXtXtXtXtXtXtXtXtXtXtXtXtXtXtXtXtXtXtXtX",
"pXuXVXVXBXBXBXBXBXBXBXBXBXBXBXBXBXBXBXBXBXBXBXBXBXBXBXBXBXBXBXBXBXBXBXBXBXBXBXBXBXBXBXBXBXBXBXBXBXBXBXBXBXBXBXBXBXBXBXBXBXBXBXBXBXBXBXBXBXBXBXBXBXBXBXBXBXBXBXBXBXBXBXBXBXBXBXBXBXBXBXBXBXBXBXBXVXBXBXBXBXBXBXBXBXBXBXBXBXBXVXBXBXBXBXBXBXBXBXBXBXBXBXBXBXBXBXBXBXBXBXBXBXBXBXBXBXBXBXBXBXBXBXBXBXBXBXBXBXBXBXBXBXBXBXBXBXBXBXBXBXBXBXBXBXBXBXBXBXBXBXBXBXBXBXBXBXBXBXBXBXBXBXBXBXBXBXBXBXBXBXBXBXBXBXBXBXBXBXBXBXBXBXBXBXBXBXBXBXBXBXBXBXBXBXBXBXBXBXBXBXBXBXBXBXBXBXBXBXBXBXBXBXBXBXBXBXBXBXBXBXBXBXBXBXBXBXBXBXBXBXBXBXBXBXBXBXBXBXBXBXBXBXBXBXBXBXBXBXBXBXBXBXBXBXBXBXBXBXBXBXBXBXBXBXBXBXBXBXBXBXBXBXBXBXBXBXBXBXBXBXBXBXBXVXVXVXVXBXBXBXBXBXBXBXBXBXBXBXBXBXBXBXBXBXBXBXBXBXBXBXBXBXBXBXBXBXBXBXBXBXBXBXBXBXBXBXBXBXBXBXBXBXBXBXBXBXBXBXBXBXBXBXBXBXBXBXBXBXBXBXBXBXBXBXBXBXBXBXBXBXBXBXBXBXBXBXBXBXBXBXBXBXBXBXBXBXBXBXBXBXBXBXBXBXBXBXBXBXBXBXBXBXBXBXBXBXBXBXBXBXBXBXBXBXBXBXBXBXBXBXBXBXBXBXBXBXBXBXBXBXBXBX",
"uXVXZXCXCXSXAXAXAXAXAXAXAXAXAXAXAXAXAXAXAXAXAXAXAXAXAXAXAXAXAXAXAXAXAXAXAXAXAXAXAXAXAXAXAXAXAXAXAXAXAXAXAXAXAXAXAXAXAXAXAXAXAXAXAXAXAXAXAXAXAXAXAXAXAXAXAXAXAXAXAXAXAXAXAXAXAXAXAXAXAXAXAXAXAXAXAXAXAXAXAXAXAXAXAXAXAXAXAXAXAXAXAXAXAXAXAXAXAXAXAXAXAXAXAXAXAXAXAXAXAXAXAXAXAXAXAXAXAXAXAXAXAXAXAXAXAXAXAXAXAXAXSXSXSXSXSXSXSXAXIXIXAXAXAXAXAXAXAXAXAXAXAXAXAXAXAXAXAXAXAXAXAXAXAXAXAXAXIXIXIXIXIXIXIXIXAXAXAXAXIXIXAXAXAXAXAXAXAXAXAXAXAXAXAXAXAXAXAXAXAXAXAXAXAXAXAXAXAXAXAXAXAXIXIXIXIXIXIXAXIXAXAXAXAXAXAXIXAXAXAXAXAXAXAXAXAXAXAXAXAXAXAXAXAXAXAXAXAXAXAXAXAXAXAXAXAXAXAXAXAXAXAXAXAXAXAXAXAXAXAXAXAXAXAXAXAXAXAXAXAXAXAXAXAXAXAXAXAXAXAXAXAXAXAXAXAXAXAXAXAXAXAXAXAXAXAXAXAXAXAXAXAXAXAXAXAXAXAXAXAXAXAXAXAXAXAXAXAXAXAXAXAXAXAXAXAXAXAXAXAXAXAXAXAXAXAXAXAXAXAXAXAXAXAXAXAXAXAXAXAXAXAXAXAXAXAXAXAXAXAXAXAXAXAXAXAXAXAXAXAXAXAXAXAXAXAXAXAXAXAXAXAXAXAXAXAXAXAXAXAXAXAXAXAXAXAXAXAXAXAXAXAXSXSXSXAXAXAXAXSXSXSX",
"uXiXBXBXBXBXZXZXZXZXZXZXZXZXZXZXZXZXZXZXZXZXZXZXZXZXZXZXZXZXZXZXZXZXZXZXZXZXZXZXZXZXZXZXZXZXZXZXZXZXZXZXZXZXZXZXZXZXZXZXZXZXZXZXCXCXCXCXCXCXCXCXCXCXCXCXZXCXZXZXCXCXZXCXZXCXCXCXCXCXZXZXZXZXZXZXZXZXZXZXZXZXCXZXCXCXCXCXCXCXCXCXCXCXCXCXCXCXCXCXCXCXCXCXCXCXCXCXCXZXCXZXCXZXCXZXCXCXCXCXCXCXCXCXCXCXCXCXCXCXCXCXCXCXCXCXCXCXCXCXCXCXCXCXCXCXCXCXCXCXCXZXCXCXCXCXCXCXCXCXCXCXCXCXCXCXCXCXCXCXCXCXCXCXCXCXCXCXCXCXCXCXCXCXCXCXCXCXCXCXCXCXCXCXCXCXCXCXCXCXCXCXCXCXCXCXCXCXCXCXCXCXCXCXCXCXCXCXCXCXCXCXZXZXZXCXCXCXCXCXCXCXCXCXCXCXCXCXCXCXCXCXCXCXCXCXCXCXCXCXCXCXCXCXCXCXCXCXCXCXCXCXCXCXCXCXCXCXCXCXCXCXCXCXCXCXCXCXCXCXCXCXCXCXCXCXCXCXCXCXCXCXCXCXZXZXZXZXCXCXCXCXCXCXCXCXCXCXCXCXCXCXCXCXCXCXCXCXCXCXCXCXCXCXCXCXCXCXCXCXCXCXCXCXCXCXCXCXCXCXCXCXCXCXCXCXCXZXZXCXZXCXZXCXZXCXZXCXZXZXZXZXZXCXCXCXZXZXZXCXCXCXCXCXCXCXCXCXCXCXCXCXCXCXCXCXCXCXCXCXCXCXCXCXCXCXZXZXZXZXZXZXZXZXZXZXZXZXZXZXZXZXZXZXBXBXZXZXZXZXZXZXZX",
"rXpXiXiXuXuXuXuXtXtXyXtXtXtXtXtXuXtXtXtXuXuXuXuXuXtXtXtXtXuXuXuXuXuXuXuXuXuXuXuXuXuXuXuXuXuXuXuXuXuXuXuXuXuXuXuXuXuXuXuXuXuXuXuXuXuXuXuXuXuXuXuXuXuXuXuXuXuXuXuXuXuXuXuXuXuXuXuXiXiXiXiXuXuXiXiXiXiXiXiXiXiXiXiXiXiXiXiXiXiXiXiXiXuXuXuXuXuXuXuXuXuXuXuXiXiXiXiXiXiXiXiXiXiXiXiXiXiXiXiXiXiXiXiXiXiXiXiXiXiXiXiXiXiXiXiXiXiXiXiXiXiXiXiXiXiXiXiXiXiXiXiXiXiXiXiXiXiXiXiXiXiXiXiXiXiXiXiXiXiXiXiXiXiXiXiXiXiXiXiXiXiXiXiXiXiXiXiXiXiXiXiXiXiXiXiXiXiXiXiXiXiXiXiXiXiXiXiXiXiXiXiXiXiXiXiXiXiXiXiXiXiXuXuXuXuXiXiXiXiXiXiXiXiXiXiXiXiXiXiXiXiXiXiXiXiXiXiXiXiXiXiXiXiXiXiXiXiXiXiXiXiXiXiXiXiXiXiXiXiXiXiXiXiXiXiXiXiXuXuXiXiXiXiXuXiXuXuXiXuXuXiXiXuXuXuXuXuXuXuXuXuXuXuXuXuXuXuXuXuXuXuXuXuXuXuXuXiXiXuXuXuXiXiXuXuXiXuXuXuXuXuXuXuXuXuXuXuXuXuXuXuXuXuXuXuXuXuXuXuXuXuXuXuXuXuXuXuXuXuXuXuXuXuXuXuXuXtXtXtXuXuXuXuXuXuXuXuXuXuXyXyXyXyXyXyXyXyXtXtXyXyXyXyXyXtXtXtXtXuXuXtXtXtXuXuXuXuXuXuXuXuXuXuXuXuXuXuXuXuXuXuXuX",
"6XqXqXqXqXrXrXrXrXrXrXrXrXrXqXqXqXqXqXqXqXrXrXrXrXqXqXqXqXqXqXrXrXrXrXrXrXrXrXrXrXrXrXrXrXrXrXrXeXeXeXeXeXeXeXeXeXeXeXeXeXeXeXeXrXrXqXrXrXrXrXrXrXrXrXrXrXrXrXrXeXeXeXeXeXeXeXeXeXeXeXeXeXeXeXeXwXeX0X0XwXeXeXeXwXwXwXwXwXwXwXeXeXeXeXeXeXeXeXeXqXqXqXeXeXeXeXeXeXeXeXeXeXeXeXeXeXeXeXeXeXeXeXeXeXeXeXeXeXeXeXeXqXqXeXwXqXqXqXeXwXwXwXwXwXwXwXwXwXwXwXwXwXwXwXwXwXwXwXwXwXwXwXwXwXwXwXwXwXwXwXwXwXwXwXwXwXwXwXwXwXwXwXwXwXwXwXwXwXwXwXwXwXwXwXwXwXwXwXwXwXwXwXwXwXwXwXwXwXwXwXwXwXwXwXwXwXwXwXwXwXwXwXwXwXeXeXeXeXwXwXeXeXeXeXwXwXwXwXwXwXwXwXwXwXwXwXwXwXwXwXwXeXeXeXeXeXeXeXeXeXeXeXeXeXeXeXeXeXeXeXeXeXeXeXeXwXwXwXwXwXwXwXwXwXeXwXeXeXeXeXeXpXeXeXqXqXqXeXeXeXeXeXeXeXeXeXeXeXqXqXrXeXeXeXeXeXeXwXwXqXqXqXqXqXqXqXwXqXqXqXqXeXeXeXeXeXeXeXeXrXrXrXrXrXrXrXrXrXrXrXrXrXrXrXrXrXrXrXrXrXrXrXrXeXeXqXqXqXqXqXeXqXqXrXrXqXqXqXqXrXrXrXrXrXrXrXrXrXrXrXrXrXrXrXrXrXrXrXrXrXrXrXrXrXrXrXrXrXrXrXrXrXrXrXrXrXrXqXqXqXqXqX",
"2X2X6X6X6X6X6X4X4X4X6X6X6X6X6X6X6X6X6X6X6X6X6X8X8X6X5X5X5X6X6X6X8X6X8X6X6X8X8X8XqXqXqX8X8X8X8X8XqXqXqXqXqXqXqXqXqXqXqXqXqXqXqXqXqXqXqXqXqXqXqXqXqXqXqXqXqXqXqXqXqXqXqXqXqXqXqXqX9X9X9X9X9X9XqXqX0XqX8X8XqXqXqXqXqXqXqXqXqXqXqXqX0XqX0XqX0X0X0X0XqXqXqX0XqX0X0X0XqXqX0XqXqXqXqXqX0X0XqXqX0X0XqXqX0X0X0X0X0X0X0X0X0X0X0X0X0X0X0X0X0X0X0XqX0X0X0X0X0X0X0X0X0X0X0X0X0X0X0X0X0X0X0X0X0X0X0X0X0X0X0X0X0X0X0X0X0X0X0X0X0X0X0X0X0X0X0X0X0X0X0X0X0X0X0X0X0X0X0X0X0X0X0X0X0X0X0X0X0X0X0X0X0X0X0X0X0X0X0X0XwX0X0X0X0X0X0X0X0X0X0X0X0X0X0X0X0X0X0X0X0X0X0X0X0X0X0X0X0X0X0X0X0X0X0X0X0X0X0X0X0X0X0X0X0X0X0X0XqXqXqX0X0X0X0XqXqXqXqXqXqXqXqXqXqXqXqX0XqX0X0X0X0X0X0XqXqXqXqXqXqXqXqX0XqXqXqXqXqXqXqXqXqXqXqXqXqXqXqXqXqXqXqXqXqXqXqXqXqXqXqXqXqXqXqXqXqXqXqXqXqXqXqXqXqXqXqXqX8X8XqXqXqXqXqXqXqXqXqX8XqXqXqXqXqXqXqX6X5X6X8X8X8X8X8X8X8X8X8X8X6X6X6X6X8X6X8X6X6X6X8X6X6X6X6X6X8XqXqXqXqXqXqXqX6X6X6X6X6X6X6X6X6X6X6X6X6X6X6X6X6X6X4X",
"2X2X4X1X1X1X1X1X1X1X1X1X1X1X1X1X2X2X2X2X2X2X2X2X2X2X3X1X3X1X2X2X2X2X2X2X2X2X2X2X2X2X2X2X2X2X2X2X2X2X2X2X2X2X2X2X2X2X2X2X2X2X2X2X2X2X2X2X2X2X2X2X2X2X2X2X2X2X2X2X5X5X2X2X2X2X2X2X5X2X2X2X2X5X5X5X8X5X2X2X5X5X5X5X5X5X5X5X5X5X5X5X8X8X8X8X8X8X8X8X8X8X8X8X8X8X8X8X8X8X8X8X8X8X8X8X8X8X8X8X9X8X8X8X8X8X8X8X8X8X8X8X8X8X8X8X8X8X8X8X8X8X8X8X8X8X9X9XqX8X5X5X8X8X8X8X8X8X8X8X8X8X8X8X8X8X8X8X8X8X9X9X9X9X9X9X9X9X9X9X9X9X9X9X9X9X9X9X9X9X9X9X9X9X9X9X9X9X9X9X9X9X9X9X9X9X9X9X9X9X9X9X9X9X9X9X9X9X9X9X0X9X9X9X9X9X9X8X9X9X9X9X9X9X9X9X8X8X8X8X8X8X8X8X8X8X8X8X8X8X8X8X8X8X8X8X8X8X8X8X8X8X8X8X8X8X8X8X8X8X8X8X8X8X8X8X8X8X8X8X8X8X8X8X8X8X8X8X8X8X8X8XqX8X8X5X2X5X8X8X8X8X8X8X8X8X8X8X8X8X8X8X8X8X8X8X8X8X8X8X5X5X5X5X5X5X8X8X8X8X8X8X2X2X2X2X2X2X2X2X2X2X2X2X2X2X2X2X2X2X2X2X2X2X2X2X2X2X2X2X2X2X2X2X6X5X2X2X3X3X2X2X2X2X2X2X2X2X2X2X2X2X2X2X2X2X2X2X2X2X2X2X2X2X2X2X1X1X2X2X2X1X2X1X2X2X2X2X2X2X2X1X4X1X1X4X1X1X1X1X1X1X1X",
"*X,X,X,X,X,X-X-X-X-X,X,X,X,X1X1X-X:X:X:X:X:X1X:X1X:X-X:X1X:X:X1X:X:X1X:X1X:X1X:X1X:X1X:X:X:X1X1X:X:X:X:X:X:X:X:X:X:X:X:X:X:X1X1X1X1X1X1X1X1X1X1X1X1X1X1X1X1X1X1X1X1X1X1X1X1X4X4X4X1X1X4X4X1X4X4X4X1X:X1X1X1X1X4X1X1X1X1X1X1X1X4X2X2X2X2X2X2X2X2X2X2X2X2X2X2X2X2X2X2X2X2X2X2X2X2X2X2X2X2X2X2X2X2X2X2X2X2X2X5X2X2X2X2X2X2X2X2X2X2X2X2X2X2X2X2X2X6X6X2X2X2X2X2X2X2X2X2X2X2X2X2X2X5X8X5X5X5X2X2X2X8X5X5X8X5X8X5X8X8X5X5X8X5X8X5X8X5X8X8X8X8X8X8X8X8X8X8X8X5X8X8X8X8X8X8X8X8X8X8X8X8X8X8X8X5X8X8X8XqX9X8X8X2X8X8X8X5X8X5X8X8X8X8X8X8X5X5X2X2X2X5X6X6X2X2X5X5X5X5X5X5X5X5X5X5X5X8X8X5X2X2X2X2X2X2X2X2X2X2X2X2X2X2X2X2X2X2X2X2X2X2X2X2X2X2X2X2X2X2X2X2X2X2X2X1X1X1X1X2X2X2X2X2X2X2X2X1X1X1X1X1X1X1X1X1X1X1X1X1X1X1X1X1X1X1X1X4X4X1X1X1X1X1X1X1X1X1X1X1X1X1X1X1X1X1X1X1X1X1X1X1X1X1X1X1X1X1X1X1X1X1X1X1X4X1X1X:X:X:X1X1X1X1X1X1X1X1X1X1X1X3X3X3X3X3X3X3X3X3X3X3X3X3X3X1X1X:X1X:X1X:X1X:X:X:X:X:X:X:X1X:X,X,X,X,X,X,X,X,X,X,X,X",
"=X=X=X=X-X-X-X-X-X-X-X-X-X-X-X-X-X-X-X-X-X-X-X-X:X-X;X-X-X-X-X-X-X-X-X-X-X-X-X-X-X-X-X-X-X-X-X-X-X-X-X-X-X-X-X-X-X-X-X-X-X-X:X:X:X:X:X:X:X:X:X:X:X:X:X:X:X:X:X:X1X1X1X1X1X1X1X1X1X1X1X1X1X1X1X4X1X:X:X:X1X1X1X1X1X1X1X1X1X1X1X1X1X1X1X1X1X1X1X1X1X1X1X1X1X1X1X1X1X1X1X1X1X1X1X1X1X1X1X1X4X4X2X2X2X2X2X2X2X2X2X2X2X2X2X2X2X2X2X2X2X2X2X2X2X2X2X4X5X2X2X2X2X2X2X2X2X2X2X2X2X2X2X2X2X2X2X2X2X2X2X2X2X2X2X2X2X2X2X2X2X2X2X5X5X8X8X5X8X8X8X8X8X8X2X2X8X8X7X2X8X8X8X8X8X8X7X8X2X5X7X7X2X7X2X2X8X2X2X8X8X8X2X2X2X7X2X2X2X2X2X2X2X2X2X2X2X2X2X2X2X2X2X2X2X2X2X2X2X2X2X2X2X2X2X2X2X2X2X2X2X2X2X2X2X2X2X2X2X2X2X2X2X1X1X2X1X1X2X2X2X1X3X3X1X3X1X1X1X1X1X1X4X1X1X1X1X1X1X1X1X1X1X1X1X1X1X1X1X1X1X1X1X1X1X1X1X1X1X1X1X1X1X1X1X1X1X1X1X1X1X1X1X1X1X1X1X1X:X:X:X:X:X:X:X:X:X:X-X-X:X:X:X:X:X-X:X:X:X-X:X-X-X-X:X-X-X-X-X-X-X-X-X-X-X:X-X-X-X-X,X,X,X,X,X,X,X,X,X,X,X,X,X,X,X,X-X-X-X-X-X-X-X-X-X-X-X-X-X-X-X-X-X-X-X-X=X=X-X-X-X-X-X",
"%X;X;X;X;X;X;X;X;X;X;X;X;X;X;X;X;X;X;X;X;X;X;X;X-X;X%X;X;X;X;X;X;X;X;X;X;X;X;X;X;X;X;X;X;X;X;X;X-X*X*X*X*X*X*X*X*X*X*X*X*X*X>X-X-X-X-X-X-X-X-X-X-X-X-X-X-X-X-X-X*X*X-X-X-X-X-X-X-X-X-X-X-X-X,X1X1X>X>X>X>X>X1X1X1X1X1X1X1X1X1X1X1X1X1X1X1X1X1X1X1X1X1X1X1X1X1X1X1X1X1X1X1X1X1X1X1X1X1X1X1X1X1X1X3X3X1X1X1X1X3X3X1X3X3X3X1X1X3X3X3X3X2X2X3X2X2X7X7X7X3X3X3X3X3X7X7X7X7X7X7X7X7X7X7X7X7X7X7X7X7X7X7X7X7X7X7X7X7X7X7X7X7X7X7X7X7X7X7X7X7X7X7X7X7X7X7X7X7X7X7X7X7X7X7X7X7X7X7X7X7X7X7X7X7X7X7X7X7X7X8X7X2X3X2X2X2X2X2X2X2X2X2X2X2X2X7X7X7X7X7X7X7X7X7X7X7X7X3X3X3X3X3X3X3X3X3X3X3X3X3X3X3X3X3X3X3X3X3X3X1X1X3X1X3X3X1X1X1X3X3X1X1X1X1X1X1X1X1X1X1X1X1X1X1X>X>X1X1X1X1X1X1X1X1X1X1X1X1X1X1X1X1X1X1X>X,X,X,X-X-X-X-X-X-X,X,X,X-X-X-X-X-X-X-X-X-X-X-X-X-X-X-X-X-X-X-X-X-X-X-X-X-X-X-X-X-X-X-X-X-X-X-X-X-X-X=X;X;X;X-X-X-X-X-X-X-X-X-X=X=X;X;X;X;X;X;X;X;X;X=X;X=X=X=X=X;X;X=X;X;X;X;X;X;X;X;X;X;X;X;X;X;X;X=X=X=X=X;X;X;X;X;X",
"%X%X%X%X%XUXUXUXUXUXUX%X%X%X%X%X'.'.'.'.'.'.%X;X;X'.`.'.].].].].%X%X%X%X%X%X%X%X%X%X%X%X%X%X%X%X&X&X&X&X&X&X&X&X&X&X&X&X&X&X&X=X&X&X&X&X&X&X&X&X&X&X&X&X&X&X&X&X&X&X&X&X&X=X=X=X=X&X&X=X=X&X=X,X,X*X&X*X*X>X>X,X>X>X>X>X,X,X,X,X>X>X>X>X>X>X,X,X>X>X>X,X,X,X,X,X>X>X>X>X>X>X>X>X,X>X,X,X>X>X1X1X1X1X,X>X,X>X1X1X3X1X3X1X3X3X3X3X3X3X3X3X3X3X3X3X7X3X3X3X3X3X3X3X7X7X3X3X3X3X3X7X7X7X7X7X3X3X3X7X7X7X7X7X7X7X7X7X7X7X7X7X7X7X7X7X7X7X7X7X7X7X7X7X7X7X7X7X7X7X7X7X7X7X7X7X7X7X7X7X7X7X7X7X7X7X7X7X7X7X3X3X3X3X3X3X3X3X3X3X3X3X3X3X3X7X7X7X7X7X3X3X3X3X3X3X3X3X3X3X3X3X3X3X3X3X3X3X3X3X3X3X3X3X3X3X3X>X>X>X>X>X,X>X>X1X3X1X1X>X>X>X>X>X>X,X>X>X>X>X3X>X>X*X>X>X>X>X>X>X>X>X>X>X>X*X>X>X>X>X>X*X>X*X*X*X=X=X=X=X*X*X=X=X*X*X=X=X=X=X=X=X=X=X=X=X=X&X=X=X=X=X=X=X=X=X=X=X=X=X=X%X%X%X%X%X;X%X%X%X%X&X=X=X%X[.].%X%X%X%X%X%X%X%X%X%X].%X].%X].].].].].W.].].].%X].].].].%X%X%X%X%X].].].].].].].].].].%X%X%X%X%X%X%X%X%X%X%X",
"W.W.W.W.W.!.!.!.W.W.W.W.W.W.W.W._._._._._._.`.{.{._.R._._._._._.`.`.`.`.`.`.`.`.{.{.`.`.`.`.{.{.].'.'.'.'.].].].'.'.'.'.].].].{.[.[.[.[.[.[.[.[.[.[.[.[.[.[.[.[.[.[.[.[.[.[.[.&X[.[.[.&X[.[.[.=X=X%X'.%X&X=X=X=X=X=X=X=X=X=X=X=X<X<X<X<X<X<X<X<X<X<X<X<X<X<X<X<X<X<X<X<X<X<X<X<X<X<X<X,X<X,X<X<X<X<X<X<X<X<X<X,X,X,X,X,X,X,X,X,X<X>X,X>X>X>X,X,X3X,X<X<X>X>X>X,X,X,X>X>X,X,X,X,X3X,X,X,X,X,X3X3X3X3X3X3X3X3X3X3X3X3X3X3X3X3X3X3X3X3X3X3X3X3X3X3X3X3X3X3X3X3X3X3X3X3X3X3X3X3X3X3X3X3X3X3X3X3X,X3X7X3X3X>X3X3X3X3X3X3X3X3X3X3X3X3X,X,X,X,X,X,X>X>X>X>X>X>X>X>X>X>X<X<X<X<X<X<X<X<X<X<X<X<X<X<X<X<X<X<X<X<X<X<X<X<X<X<X<X<X<X<X<X<X<X<X<X<X<X<X<X<X,X<X<X&X&X<X<X<X<X<X<X<X<X<X&X&X<X<X<X<X&X<X&X&X=X=X=X=X=X&X&X&X&X&X=X=X=X=X[.[.[.[.[.[.[.[.[.[.[.[.[.[.[.[.[.[.[.[.[.[.[.[.[.[.[.[.[.[.[.[.[.{.{.{.{.`.`.`.].{.`.{.{.{.{.`.`.`.Q.!.!.!.!.!.!.!.!.!.!.!.!.!.!.Q._.`.`.`.`.`.`._._._._._._._._._.W.W.W.W.W.W.!.W.W.W.W.",
"I.I.I.I.I.I.I.I.I.I.I.I.I.I.Y.Y.Y.R.R.R.R.Y.R.R._.Y.L.Y.R.Y.Y.Y.R.R._.R._.R._._._._._.R.R.R._._.W.W.W.W.R.W.W.W.W.W.W.R.W.W.W.`.`.{.{.{.{.{.{.{.{.{.{.{.{.{.{.{.[.'.'.'.'.[.[.[.[.'.[.[.[.'.[.=X=X].`.`.].].%X%X%X%X].].].%X%X=X=X=X&X&X&X&X&X=X&X&X&X&X=X=X=X=X&X&X&X&X&X&X&X&X<X<X<X<X<X<X<X<X<X<X<X<X<X<X<X<X<X<X<X<X<X<X<X<X<X<X<X*X=X<X>X,X,X<X&X&X<X<X<X<X>X>X<X>X<X>X>X>X>X>X>X<X<X>X>X>X>X>X>X>X>X,X,X>X,X,X,X,X>X>X>X>X,X>X,X>X>X>X,X>X,X>X>X>X>X>X>X>X>X>X>X>X>X>X,X,X>X>X>X,X,X>X<X,X3X3X>X>X>X>X,X>X,X,X,X>X>X>X>X>X>X>X<X<X<X<X<X<X<X<X<X<X<X<X<X<X<X<X<X<X<X<X<X<X<X<X<X<X<X<X<X<X<X<X&X<X<X<X<X<X&X&X&X&X&X&X&X&X&X&X&X&X&X=X=X<X<X<X&X[.&X&X&X&X[.&X&X&X&X&X[.[.[.[.[.[.[.[.[.[.[.[.[.[.[.[.[.[.[.[.[.[.[.[.[.[.{.{.{.{.{.{.{.{.{.{.{.{.{.].].].`.{.`.`.`.`.`.`.`.`.`.`.`.`.`._.{.{.`._.R._.`.`._._._._._._._.R.E.Y.Q.Q.Y.Q.!.Q.Q.Q.Q.Q.Q.Q.Q.Q.Q.Q.R.R.Q.Q.Q.Q.Y.Y.Q.Y.Q.Y.Q.Y.Y.I.I.Y.I.I.I.I.I.I.Q.",
"S.S.S.S.S.S.S.S.S.S.S.S.Z.A.A.A.I.I.I.I.I.I.I.!.!.I.I.I.I.I.I.I.I.I.I.I.I.I.I.I.!.!.I.I.I.I.!.!.!.!.!.E.!.!.!.!.E.!.E.!.E.!.!.W.W.W.W.W.W.W.W.W.W.W.W.W.W.W.W.W.W.W.W.W.W.W.W.'.W.W.W.'.W.W.%X%X%XW.W.W.`.W.].].].].].].].].].%X%X%X%X%X%X%X%X%X%X%X%X%X%X%X%X%X%X;X;X;X;X;X;X%X%X%X%X%X%X=X=X;X%X%X=X=X&X=X=X=X&X&X=X&X=X=X=X=X&X=X=X&X&X*X*X>X,X*X&X&X*X*X*X*X*X*X*X*X*X*X*X*X*X*X*X*X*X*X*X>X>X>X>X*X>X>X>X>X>X>X>X>X>X>X>X>X>X>X>X>X>X>X>X>X>X>X>X>X>X>X>X>X>X>X>X>X>X>X>X>X>X>X>X*X>X*X*X>X1X>X*X*X*X>X>X*X*X*X>X*X*X*X*X*X*X*X*X*X*X*X*X>X>X*X>X>X*X*X*X*X*X=X&X&X*X*X*X*X&X&X&X&X&X*X&X&X&X%X%X%X&X&X%X%X&X&X&X&X&X&X&X%X&X%X&X&X&X;X;X;X=X;X%X'.%X%X%X%X].].%X%X%X%X].].%X].].%X%X'.'.'.].].].].'.].W.W.W.W.'.'.'.'.'.'.W.W.W.W.W.W.W.W.W.W.W.W.W.W.W.W.!.!.W.!.!.!.!.!.!.!.W.!.E.!.E.!.!.!.!.E.I.E.E.W.W.W.!.!.!.!.E.!.E.E.E.E.E.E.E.E.E.R.R.R.R.R.E.E.I.I.I.I.I.I.I.I.I.I.I.I.I.I.I.I.A.J.A.J.A.J.A.J.A.J.J.",
"k.k.k.k.k.k.k.k.k.k.B.B.B.B.Z.S.k.^.^.^.^.^.I.I.I.^.k.^.^.^.^.I.I.I.I.I.I.I.I.I.I.I.I.I.I.I.I.I.I.I.I.I.I.I.I.E.E.E.I.I.I.E.!.!.!.!.W.!.W.!.W.W.W.!.W.!.W.!.W.W.W.W.W.W.W.W.W.W.W.W.W.W.W.W.W.%X].W.T.W.W.W.W.W.W.W.W.W.].].].%X].].].%X%X%X].].].].].%X%X%X%X%X%X%X%X%X%X%X%X%X%X%X%X;X;X;X;X;X;X;X;X;X;X;X;X;X;X;X;X;X;X;X;X;X&X&X&X&X&X=X-X*X>X*X&X&X*X*X*X*X*X*X*X*X*X*X*X*X*X*X*X*X*X*X*X*X*X*X*X*X*X*X*X*X>X*X>X*X*X*X*X*X>X*X>X*X*X*X>X*X>X*X>X*X>X*X>X*X*X*X*X*X*X*X*X*X*X>X*X*X>X*X*X>X1X-X*X*X*X*X*X*X*X*X*X*X*X*X*X*X*X*X*X*X*X*X*X*X>X>X>X*X*X*X&X&X&X=X&X%X&X=X;X=X&X;X&X%X&X&X&X;X;X;X;X;X;X;X;X;X;X;X;X;X;X;X;X%X%X%X%X%X;X%X%X%X;X;X%X`.'.'.%X%XW.W.W.W.W.W.W.W.W.W.W.W.UXW.W.W.W.W.W.W.W.W.W.W.W.W.W.W.W.W.W.W.W.!.W.W.W.W.W.W.!.!.!.!.!.!.!.!.!.!.!.!.!.!.E.E.!.!.!.!.I.I.I.I.!.!.I.I.I.I.I.I.I.I.!.!.I.I.I.I.E.E.E.E.E.E.E.E.E.E.E.E.E.E.E.E.I.I.I.I.^.I.I.I.^.^.I.I.k.k.^.S.J.J.J.J.J.J.J.J.B.J.B.",
"k.k.k.k.k.k.k.k.k.k.k.k.k.S.S.S.S.S.k.k.S.S.I.I.I.S.k.k.S.I.I.I.I.I.I.I.I.I.I.I.I.I.I.I.I.I.I.I.I.I.I.I.I.I.I.I.!.I.I.I.I.!.!.!.E.E.E.E.E.E.E.!.E.E.E.!.!.!.!.!.W.W.W.W.W.W.W.W.W.W.W.W.W.W.W.W.].W.!.W.W.W.W.].].].].].].].].].].'.].].].].'.'.].].].%X%X%X%X%X%X%X%X].].].%X%X%X%X%X%X%X%X%X%X%X%X%X%X%X%X%X%X&X;X;X;X;X;X;X;X%X%X&X&X&X=X=X=X-X&X&X%X&X&X&X&X&X&X&X&X&X&X*X*X&X&X&X*X&X&X&X&X>X>X>X>X>X>X>X>X>X>X>X>X*X*X*X&X>X*X*X*X*X*X>X*X*X*X*X*X*X*X*X*X*X*X*X*X*X*X*X*X>X*X*X*X*X*X>X>X,X>X&X&X&X*X*X*X&X&X&X&X*X&X&X&X&X&X&X&X&X&X&X&X&X&X*X*X*X*X*X&X&X;X=X=X&X&X&X%X&X%X&X&X&X&X&X%X%X%X%X%X%X%X%X%X%X%X%X%X%X%X%X%X%X%X%X%X].%X%X%X=X%X'.W.W.W.`.`.W.W.].].`.].W.W.W.W.W.W.W.W.W.W.W.W.W.W.W.W.W.W.W.W.W.W.W.W.W.W.W.W.W.W.W.!.!.E.!.!.!.!.!.!.E.E.!.!.!.!.I.I.I.I.I.I.I.I.I.I.I.I.!.!.I.I.I.I.I.I.I.I.I.I.I.I.I.I.I.I.I.I.I.I.I.I.I.I.I.I.I.I.I.I.I.I.S.S.k.k.k.k.k.k.k.S.S.k.k.k.J.J.J.J.J.J.S.k.S.S.J.",
"k.k.k.k.k.k.k.k.k.k.k.k.k.k.k.S.S.B.k.k.k.B.S.Z.S.B.k.k.N.S.S.S.S.S.S.S.S.S.S.S.S.S.S.S.S.S.S.S.S.A.S.S.S.S.S.S.I.I.S.S.I.I.I.I.Y.Y.Y.Y.I.I.I.I.Y.Y.Y.Y.Y.Y.Y.Y.E.E.Y.Y.E.E.E.E.E.E.E.E.E.E.R.W.].E.E.E.!.R.W.W.W.W.W.W.W.W.W.W.`.`.`.W.W.`.`.`.].`.`.`.`.`.`.].'.'.].].`.`.'.'.'.].%X].].'.'.%X%X%X%X%X%X%X%X%X%X%X%X%X%X%X=X;X%X%X&X&X&X&X&X&X=X&X%X%X%X&X&X&X&X&X&X&X&X&X&X&X&X&X&X=X&X&X&X&X&X&X&X&X&X<X&X&X&X&X&X&X&X&X&X&X*X*X*X*X&X&X*X*X*X*X&X&X&X&X*X&X&X&X&X&X&X&X&X&X*X&X&X&X&X*X*X&X<X&X&X&X&X&X&X&X&X&X&X&X&X&X&X&X&X&X&X&X&X&X&X&X&X&X&X&X&X&X&X&X&X&X&X&X&X&X%X%X%X%X&X&X&X%X%X%X'.'.'.%X'.%X%X%X%X%X%X%X%X%X%X'.'.'.'.'.`.].].].;X].'.`.W.`.`.`.W.W.`.`.`.`.W.W.W.W.W.W.W.W.W.W.W.W.W.W.W.W.E.E.W.!.E.E.E.E.E.E.E.E.E.E.E.U.U.I.E.E.E.E.E.Y.I.I.I.I.I.I.I.I.I.I.I.I.I.A.I.I.I.I.Q.I.I.S.S.S.S.I.I.I.I.I.I.I.A.A.S.S.S.S.S.S.S.S.S.S.S.S.S.S.S.Z.S.S.S.k.k.k.k.k.k.k.S.S.S.k.k.k.k.k.k.k.k.k.k.k.k.k.k.",
"j.j.j.j.k.k.k.k.k.k.k.k.k.k.k.k.k.k.k.k.k.B.B.B.Z.B.k.f.k.B.B.k.B.B.B.B.B.B.B.B.B.S.S.S.S.S.S.S.S.S.S.S.S.S.S.S.A.S.S.S.A.I.I.I.Y.Y.Y.I.I.I.I.I.I.I.I.I.I.I.Y.Y.Y.Y.Y.Y.Y.Y.Y.E.U.E.E.E.E.E.E.R.W.E.I.E.E.E.E.E.R.W.W.W.W.W.W.W.`.W.W.W.W.W.W.`.`.`.`.W.W.W.W.W.W.W.W.W.W.`.`.`.`.'.'.'.'.'.'.'.[.[.%X%X'.'.].].].'.'.'.'.[.%X%X[.[.[.%X%X%X&X&X&X&X%X'.'.%X&X&X&X&X&X&X&X&X&X&X&X&X&X&X&X&X&X&X&X&X&X&X&X&X&X&X&X&X&X&X&X&X&X&X&X&X&X&X&X&X&X&X&X&X&X&X&X&X&X&X&X&X&X&X&X&X&X&X&X&X&X&X&X&X&X&X*X&X&X%X&X&X&X&X&X&X&X&X&X&X&X&X&X&X&X&X&X&X&X&X&X&X&X&X&X%X%X%X%X%X%X%X'.'.[.[.'.'.[.'.'.'.'.'.'.'.'.'.'.'.'.'.'.'.'.'.'.'.'.'.'.`.'.`.`.`.`.`.].'.`.W.W.W.`.W.W.W.W.W.W.W.T.T.R.W.W.W.W.W.E.R.T.!.E.E.E.E.E.E.!.E.E.E.E.Y.E.E.E.E.E.E.U.I.I.I.I.I.U.I.I.Y.I.I.I.I.I.I.I.I.A.A.S.S.A.A.A.A.A.A.I.I.I.S.S.S.S.S.S.S.S.S.S.S.S.Z.Z.S.S.S.S.S.S.B.N.N.S.B.B.B.S.S.k.k.k.k.k.k.k.k.k.k.k.k.k.k.k.k.k.k.k.k.k.a.a.a.a.a.a.",
"a.a.a.a.a.j.a.a.a.a.a.a.a.a.a.f.f.f.f.f.f.f.k.k.k.f.f.f.f.k.k.k.k.k.k.k.k.k.k.k.k.k.k.N.N.B.N.N.N.N.N.N.N.S.S.S.S.S.S.S.S.S.S.S.C.C.C.C.S.S.C.S.C.V.S.V.S.S.S.C.C.C.C.C.C.C.I.I.I.I.I.I.I.I.U.E.R.U.I.I.U.I.I.U.U.U.E.E.E.E.E.E.T.T.T.T.T.T.T.T.R.R.T.T.T.T.T.T.T.T.T.T.T.T.W.W.W.W.W.T.T.T.T.`.`.`.'.`.'.'.'.'.'.'.'.'.'.'.'.'.'.'.'.'.'.'.'.'.[.'.'.'.'.'.'.'.'.'.'.'.'.'.'.'.'.'.'.'.'.'.'.'.'.%X%X[.[.%X%X%X&X&X&X&X&X&X&X&X&X&X&X&X&X&X&X&X&X&X&X&X&X&X&X&X&X&X&X&X&X&X&X&X&X&X&X&X&X&X&X&X&X&X%X'.'.'.%X%X%X%X%X%X%X%X'.'.%X[.[.[.[.[.[.[.[.'.'.'.'.'.'.'.'.'.'.'.'.'.'.'.'.'.'.'.'.'._.'.'.'.'.'.'.'.'.'.T.'.'.'.'.'._.T.T.T.T.T.T.T.W.W.`.W.T.T.T.T.T.E.T.T.T.T.E.E.E.E.U.U.U.U.U.U.U.U.I.I.I.U.U.U.U.U.E.Y.U.I.I.I.I.Y.I.I.I.I.I.I.C.S.I.I.C.I.S.S.V.S.S.S.S.S.S.S.S.S.S.S.S.N.N.S.N.S.S.S.S.S.k.N.S.N.N.N.N.N.N.N.B.B.B.B.B.k.N.k.k.k.k.k.k.k.k.k.f.f.f.a.a.f.a.a.a.a.a.a.a.a.a.a.a.a.a.a.a.a.a.p.p.p.p.p.p.",
"u.u.u.u.u.u.p.p.p.p.p.p.u.u.p.p.a.p.a.p.a.p.a.a.a.p.a.p.a.p.a.a.f.a.a.a.f.f.a.f.a.a.a.f.f.f.f.f.f.k.k.k.k.k.k.k.k.k.N.N.N.N.N.N.V.V.S.V.C.V.V.V.V.V.V.V.V.V.S.S.C.C.C.V.C.C.C.C.C.C.C.C.C.C.I.Y.I.C.C.C.I.C.C.I.I.I.I.I.I.I.U.U.U.U.U.U.U.U.U.U.E.U.E.U.U.U.U.U.U.U.E.E.E.E.E.E.T.T.T.E.T.T.T.T.T.T.T.T.T.T.T.T.T.T.T.T.T.T._.`._._._._._.'.'.'.'.'.'.'.'.'.'.'.'.'.'.'.'.'.'.'.'.'.'.'.'.'.'.'.'.'.'.'.'.'.'.'.'.'.'.'.'.'.'.'.'.'.'.[.%X'.'.'.'.'.'.'.'.'.'.'.'.'.'.'.'.'.'.'.'.'.'.'.'.'.'.'.'.'.'.'.'.'.'.'.'.'.'.'.'.'.'.'.'.'.'.'.'.'.'.'.'.'.'.'.'.'.'._._._._._._._._._._._._._._._._.T.T.T.T.T.T.T.T.T.T.T.T.T.T.T.T.T.T.T.T.T.T.T.T.T.T.T.U.U.U.U.U.U.U.U.U.U.U.U.I.I.I.I.I.I.I.I.I.I.C.C.I.I.I.I.C.C.I.C.C.C.C.C.C.C.S.C.C.C.C.S.S.V.S.S.S.S.C.V.V.N.N.N.N.N.N.N.N.k.k.k.N.N.N.N.N.N.N.k.k.f.f.f.f.f.f.f.f.f.f.f.f.f.f.f.f.f.f.f.f.f.a.a.a.a.f.f.a.a.a.p.a.p.a.p.p.p.a.a.a.p.p.p.p.p.u.u.u.u.u.u.u.N u.N N ",
"u.i.p.p.p.p.p.p.a.a.a.a.a.a.a.a.a.a.a.a.a.a.a.a.f.f.a.a.f.a.f.f.f.f.f.f.f.f.f.f.f.f.f.h.f.h.k.N.N.N.N.N.N.N.N.N.N.N.S.S.N.N.N.N.N.V.V.A.A.S.V.V.V.V.V.V.A.A.A.A.A.C.C.C.C.C.C.C.C.C.C.C.C.Y.Y.Y.Y.A.Y.Y.Y.I.Y.Y.Y.Y.U.U.U.U.U.U.R.R.R.R.R.Y.E.E.E.E.T.T.T.T.T.T.T.T.T.R.R.T.T.T.W.W.`.W.`.`.`.'.'.'.'.'.'.'.'.'.'.'.'.'.'.'.'.'.'.'.'.'.'.'.{.'.'.'.[.'.'.'.'.'.'.'.'.'.'.[.[.[.[.[.[.%X[.[.[.[.&X&X&X&X&X&X&X&X%X%X%X[.%X'.'.'.'.'.[.&X&X%X&X%X%X%X&X%X&X&X&X&X[.[.[.[.[.[.[.[.[.[.[.[.[.[.[.'.[.[.[.[.'.'.[.'.[.[.[.[.&X[.[.'.'.'.'.'.'.'.'.].'.'.'.'.'.'.'.'.'.'.'.'.'.'.'._.'.'.'.'.'.'.'.'.'.'.'.'.`.`.`.`.`.`.`.`.`.`.`.W.W.W.W.W.W.W.`.`.`.`.W.W.`.`.R.R.R.R.R.R.R.E.E.E.E.E.E.E.E.E.E.E.U.U.U.Y.Y.Y.Y.Y.Y.Y.Y.Y.K.C.C.C.S.S.S.C.C.C.C.C.S.S.C.C.C.C.V.V.S.S.S.S.S.B.N.N.N.N.N.N.B.B.B.B.S.S.N.N.N.N.N.k.N.k.k.k.N.m.m.B.k.h.k.f.h.f.f.f.f.f.f.f.f.f.f.f.a.j.j.j.a.a.p.p.a.a.a.a.a.p.a.p.a.p.a.p.p.p.p.p.p.p.p.",
"p.p.p.p.j.j.j.j.j.j.j.j.j.h.h.h.h.h.h.h.h.h.h.j.k.h.c.h.h.h.h.c.m.m.k.h.k.h.B.m.B.m.B.B.B.B.B.B.Z.Z.Z.Z.Z.Z.Z.S.S.A.A.A.S.N.N.N.S.S.A.A.K.K.A.A.A.A.K.A.K.Y.K.Y.K.Y.K.K.Y.Y.Y.Y.Y.Y.Y.Y.Y.Y.Y.Q.Y.Y.Y.Q.Q.Y.Y.Q.Y.Y.R.R.R.R.R.R.R.R.R.R.R.R.R.R.R.R.R.R.R.R.R.W.R.W.W.W.W.R.T.T.T.`.`.'.'.'.'.'.'.'.'.'.].].].].'.'.'.'.'.'.'.'.].].].].].].{.[.'.{.[.[.{.'.{.[.[.[.[.[.[.[.[.[.%X%X%X%X%X%X%X%X=X=X&X=X=X=X&X=X&X&X&X=X&X&X%X'.[.[.&X&X&X=X&X=X&X&X&X&X&X&X&X=X&X&X&X&X=X=X&X&X&X&X&X=X=X[.[.[.[.=X=X=X[.{.{.%X[.=X=X%X=X%X[.[.{.{.{.[.{.{.{.{.[.{.[.{.{.{.[.{.].].{.{.{.'.`.T.'.'.'.'.{.].].].].].'.'.'.'.`.`.`.`.`.`.`.`.`.`.`.`.`.W.`.`.`.`.`.`.`.`.].`.`._.W.R.`._.R.R.R.E.E.E.R.E.E.E.E.E.E.!.!.Y.Y.Y.Y.Y.I.Y.Q.Q.Y.Y.A.V.C.A.I.I.I.Y.Y.Y.I.Y.Y.K.K.A.A.A.A.A.A.A.A.A.A.A.S.A.A.A.A.K.A.A.Z.Z.Z.Z.Z.Z.Z.B.Z.Z.Z.Z.Z.Z.B.B.B.B.B.B.B.B.B.m.B.B.B.B.B.B.B.h.c.h.h.h.h.j.a.p.p.p.a.a.a.j.a.p.j.j.j.j.j.j.j.p.p.p.p.",
"N N u.u.u.u.p.p.p.p.p.p.a.a.j.j.a.a.a.j.a.a.p.p.a.j.j.h.a.j.j.j.h.f.f.a.a.f.f.f.f.f.f.h.h.h.h.h.B.B.B.B.B.B.N.N.B.B.A.Z.N.k.f.f.N.N.Z.S.A.A.S.Z.S.S.A.A.A.A.A.A.A.A.A.A.A.A.A.A.C.A.A.A.C.A.Y.Y.A.A.K.Y.Y.Y.Y.Y.Y.Y.Y.Y.Y.Y.Y.Y.Y.Y.R.Y.Y.R.R.R.R.R.R.R.E.E.R.R.E.E.R.R.E.E.U.U.U.U.T.R.R.R.W.W.T.T.W.T.W.W.W.W.W.T.W.T.W.W.W.`._._._._._._.`.`._.'.'.'.'._.'.'.'.'.'.'.'.'.'.'.'.'.'.'.'.'.'.'.'.'.'.'.'.'.'.'.'.&X&X%X&X'.'.'.'.'.'.[.[.[.[.[.[.{.[.{.[.{.[.{.[.[.[.[.[.{.[.[.'.[.[.[.[.{.'.'.].].{.{.].'.].].'.'.].'.].'.'.'.].].].'.].'.].'.].].{.].].].].'.`.`.].{.'._.T.T.T.T.T.T.`._.`._.W.R.W.T.W.T.T.T.T.T.T.T.T.T.T.T.T.T.T.T.T.T.T.T.T.T.T.T.T.E.U.U.U.U.T.U.U.Y.U.U.U.Y.U.Y.I.I.I.I.I.I.I.C.C.V.V.V.V.A.Y.Y.Y.A.V.N.V.N.V.S.A.A.A.A.S.A.A.A.A.A.S.Z.S.S.S.S.S.Z.B.B.B.B.Z.Z.Z.Z.Z.Z.B.B.B.B.B.B.N.k.B.B.B.B.B.m.m.m.h.h.h.h.h.f.f.f.h.h.h.h.h.f.f.j.j.j.h.j.a.p.u.N u.u.p.s.j.s.p.p.i.p.i.p.p.u.u.N u.u.N ",
"N N N N N N N N u.u.u.u.p.p.p.p.p.p.p.p.p.p.p.p.p.p.p.p.p.s.p.p.p.p.a.a.a.a.a.a.a.a.a.a.a.a.a.a.f.f.f.f.f.f.f.f.f.f.B.Z.B.f.f.f.b.b.N.N.N.B.N.N.B.B.B.B.B.B.B.B.V.V.V.Z.Z.A.A.A.A.A.A.A.C.C.C.C.A.A.A.A.A.A.K.K.K.K.K.K.K.Y.Y.Y.Y.K.Y.K.Y.Y.Y.Y.Y.Y.U.U.U.R.R.Y.Y.E.U.`.`.U.U.U.U.U.U.U.T.T.T.T.T.T.T.T.T.T.T.T.T.T.T.T.T.T.T.T.T.T.T.T.T.T.T.T._._.T.T._._._._._._._._._._._._._.T._.T._._._._._._.'._.'._.'._.'._.'.[.%X'.'._._.'.'.'.'.'.'.].'.'.'.'.{.'.'.'.'.'.'.'.'.'.'.'.'.'.'.'.'.'.'.'.`.`.`.`.'.`.'.`.`.`.'.`.`.`.`.`.`.`.`.`.`._.`.`.`.`.`.`.`.`.`.`.`.R.R.`.{.`.T.T.T.T.T.T.T.T.T.T.T.U.T.T.T.T.T.T.T.U.T.U.T.T.T.T.T.E.E.E.E.U.U.U.U.U.U.U.U.U.U.U.U.Y.U.U.U.U.I.I.I.C.I.I.I.I.C.C.C.S.V.V.V.C.C.C.S.V.V.V.Y.K.S.N.N.N.V.V.S.N.N.N.N.N.N.N.B.Z.Z.B.N.B.B.B.B.N.N.b.N.N.N.b.m.b.b.f.f.f.f.f.f.f.f.f.f.h.h.a.f.a.a.a.a.a.a.a.a.a.a.p.p.p.p.p.p.p.p.p.p.p.p.s.h.h.p.N N N u.u.p.p.p.p.u.u.u.N N N N C N N N ",
"N N N N N N N N u.u.u.p.p.p.p.p.p.p.p.p.p.p.p.p.p.p.p.p.p.s.s.s.p.p.a.a.a.a.j.a.a.a.a.a.a.a.a.a.f.f.f.f.f.f.f.f.f.f.B.Z.B.f.f.f.b.b.N.N.N.B.N.N.B.B.B.B.B.B.B.B.V.V.V.Z.Z.V.A.A.A.A.A.A.C.C.C.A.A.A.A.A.A.A.K.K.K.K.K.K.K.K.Y.Y.K.K.K.K.Y.Y.Y.Y.Y.Y.Y.L.U.R.Y.Y.Y.E.Y.`.`.U.U.U.U.U.U.U.T.T.T.T.T.T.T.E.T.E.T.T.E.E.T.T.T.T.T.T.T.U.T.T.T.T.T.T.T.T.T.T.T._._._.T._._.T._._._._._.T.T.T._._.`._._._._._.'.'._._.'.T._.[.=X'._._._.`.'.'.].`.].`.'.`.'.].].'.].'.'.'.'.`.'.`.'.`.'.'.'.'.'.'.].`.`.`.`.`.`.`.`.`.`.`.`.`.`.`.`.`.`.`.`.`.`.`.`.`.`.`.`.`.`.`.`._.`.R.R.`.].`.T.T.T.U.T.T.T.T.T.U.U.U.U.U.T.T.T.T.U.U.U.U.U.U.T.T.U.U.E.E.U.U.U.U.U.U.U.U.U.U.U.U.Y.Y.Y.Y.L.L.I.C.C.C.C.I.I.I.C.S.S.S.V.V.V.C.C.C.V.V.V.A.K.K.S.N.N.V.N.V.N.N.N.N.N.N.N.N.B.B.B.B.N.B.B.B.B.N.N.b.b.N.b.b.b.b.b.f.f.f.f.f.f.f.f.f.h.h.h.a.f.a.a.a.p.a.a.a.a.a.a.p.p.p.p.p.p.p.p.p.p.p.p.s.h.h.p.N N N N N p.p.p.u.u.u.N N N N C C N N N ",
"N N N N C C N N N N u.u.u.u.p.p.P P p.p.p.p.p.p.p.p.p.p.p.s.p.s.p.p.a.a.a.a.j.a.a.a.a.a.a.a.a.a.f.f.f.f.f.f.f.f.f.f.B.Z.B.f.f.f.b.b.N.N.N.N.N.N.B.B.N.N.B.B.B.B.Z.Z.Z.Z.Z.Z.S.S.S.S.S.S.A.S.S.V.A.A.A.A.A.A.K.A.K.K.A.A.K.K.K.Y.Y.K.K.K.Y.Y.Y.Y.Y.Y.Y.L.Y.Y.Y.L.Y.Y.Y.!.`.U.Y.U.U.U.U.U.U.U.T.T.U.U.U.U.U.U.U.U.E.U.E.U.E.E.E.T.U.U.U.U.T.T.U.T.T.T.T.T.T.T.T.T.T.T.T.T.T.T.T.T.T.T.T.T.T.T._.`._.T._._.`.W.`.W.'.T._.].{.'.T.T._._.'.'.'.`.`.`.`.`.`.`.'.`.`.`.`.`.`.`.`.`.`.`.`.`.`.`.`.`.`.`.`.`.`.`.`.`.`.`.`.`.`.`.`.`.`.`.`._.`.`._._._._._._._._._._._._._.R.R.`.]._.T.U.U.U.U.T.T.U.U.U.U.U.U.U.U.U.U.U.U.U.U.U.U.U.U.U.U.U.U.U.U.U.U.U.U.U.U.U.U.U.L.L.L.L.L.L.C.C.C.C.C.C.C.S.C.S.C.C.S.S.S.V.V.V.V.V.V.V.V.V.A.K.S.N.N.N.N.N.N.N.N.N.N.N.N.B.B.B.B.B.N.B.B.B.B.N.N.b.b.N.b.b.b.b.b.f.f.f.f.f.f.f.f.f.f.f.h.a.f.a.a.a.a.a.a.a.a.a.a.p.p.p.p.p.p.p.p.p.p.u.p.s.j.j.p.N N N N u.u.u.u.u.u.u.N N N N C C N C N ",
"N N N N N N N N N N N u.u.u.p.p.p.p.p.p.p.p.p.p.p.p.p.p.p.p.p.p.p.p.a.a.j.j.j.a.a.a.a.a.a.a.a.a.a.f.f.f.f.f.f.f.f.f.B.Z.B.f.f.f.f.N.N.N.N.N.N.N.B.B.N.N.B.B.B.B.Z.Z.Z.Z.Z.Z.S.S.S.S.S.S.A.A.S.V.S.S.S.S.A.A.A.A.A.A.C.A.K.K.K.Y.K.K.K.K.K.K.K.K.Y.Y.U.L.Y.Y.Y.L.Y.Y.Y.!.!.C.Y.L.U.U.U.U.U.U.U.U.U.U.U.U.U.U.U.U.U.U.E.U.U.E.E.E.U.U.U.U.U.T.U.U.T.T.T.T.T.T.T.T.T.T.T.T.T.T.T.T.T.T.T.T.T.T.T._.T.T.T.T.T.W.T.W.`.T.T.].{.'.T.T.T._.`.`.`.`.`.`._.`.`.`.`.`.`.`.`.`.`.`.`.`.`.`.`.`.`.`.`.`.`.`.`.`.`.`._.`.`.`.`.`.`.`.`.`.`.`._.`.`._._._._._.R.R._._._._._._.R.R.R.`.]._.U.U.U.U.U.T.U.U.U.U.U.U.U.U.U.U.U.U.U.U.U.U.U.U.U.U.U.U.U.U.U.U.U.U.U.U.U.U.U.L.L.L.L.L.L.L.C.C.C.C.V.V.V.V.C.V.C.V.S.S.S.S.S.S.S.S.V.V.V.V.A.A.V.N.k.N.N.N.N.N.N.N.N.N.B.B.B.B.B.B.N.B.B.B.B.N.N.b.b.N.b.b.b.b.b.f.f.f.f.f.f.f.f.f.f.f.f.a.a.a.a.a.a.a.a.a.a.a.a.p.p.p.p.p.p.p.p.p.p.u.p.s.h.h.p.N N N N u.u.u.u.u.u.u.N N N N N C N N C ",
"C C N N N N u.u.N N u.u.u.u.u.u.u.u.p.p.p.p.p.p.p.p.p.p.p.p.p.p.p.p.p.j.j.a.a.p.a.p.p.p.p.a.p.a.a.f.f.f.f.f.f.f.f.k.k.Z.B.f.a.f.f.N.N.N.N.N.N.N.N.N.N.N.N.N.N.N.Z.Z.V.S.V.S.V.S.V.V.A.A.A.A.S.A.S.S.S.S.A.A.A.A.C.C.C.C.C.A.K.K.K.K.K.K.K.K.Y.Y.K.Y.Y.C.Y.Y.Y.C.Y.Y.L.Q.!.C.L.C.L.L.L.U.U.U.U.U.U.U.U.U.U.U.U.U.U.U.U.U.U.U.U.U.U.U.U.U.U.U.U.U.T.T.T.T.T.T.T.T.T.T.T.T.T.T.T.T.T.T.T.T.T.T.T.W.T.T.T.T.T.T.W.T.W.T.T.'.].`.T.T.T.R.`.`.`._.`.`._._.`.`.`.`._.`.`.`.`.`.`.`.`.`.`.`.`.`.`.`.`.`._.`.`.`.`.`.`.`.`.`.`.`.`.`.`._.`.`.`.`.`._._._._._._._._._._._.R.E.R.`.`.R.U.U.U.E.E.T.U.U.U.U.U.U.U.U.U.U.U.U.U.U.U.U.U.U.U.U.U.U.Y.Y.U.L.L.L.Y.L.L.L.L.L.C.C.L.C.C.C.C.C.C.C.C.C.V.V.C.C.C.C.S.S.C.C.S.S.S.S.S.V.V.V.A.A.V.N.k.N.N.N.N.N.N.N.N.N.N.N.B.B.B.B.N.N.N.N.N.N.N.N.b.B.m.m.b.b.b.f.f.k.f.f.f.f.f.f.f.f.h.a.a.a.a.a.a.j.a.a.a.p.p.p.p.p.p.p.p.p.p.p.p.u.i.j.j.h.p.N N N N u.u.u.u.u.u.u.u.u.u.N N N N C C ",
"C C N C N N u.u.N N u.u.u.u.u.u.u.u.p.p.p.p.p.p.p.p.p.p.p.p.p.p.p.p.p.j.a.a.a.p.p.p.p.p.p.a.p.a.a.f.f.f.f.f.f.f.f.k.k.Z.B.f.a.f.f.N.N.N.N.N.N.N.N.N.N.N.N.N.N.N.Z.Z.V.S.V.S.S.S.V.V.S.S.A.A.S.A.S.Z.S.S.S.S.A.A.C.V.C.C.C.C.K.K.K.K.K.K.K.K.Y.Y.K.Y.Y.C.Y.Y.U.C.Y.Y.L.Q.R.C.L.C.C.L.L.L.U.U.U.U.U.U.U.U.U.U.U.U.U.U.U.U.U.U.U.U.U.U.U.U.U.U.U.U.T.T.T.T.T.T.T.T.T.T.T.T.T.T.T.T.T.T.T.T.T.T.T.T.T.T.T.T.T.T.T.T.W.T.T.'.].`.T.T.T.R._.`.`._._.`._._.`.`.`.`._._.`.`.`.`.`.`.`.`.`.`.`.`.`.`.`.`._._._._._._._._._._._._._._._._.`.`.`.`._._._._._._._._._._._.R.R.E.E.`.`.R.E.U.U.E.E.E.U.U.U.U.U.U.U.U.U.U.U.U.U.U.U.U.U.U.U.U.U.U.Y.Y.U.L.L.C.L.L.L.L.L.L.C.C.C.C.C.C.C.C.C.C.C.C.C.C.C.C.S.S.S.S.S.S.S.S.S.S.S.V.V.V.A.A.V.k.k.N.N.N.N.N.N.N.N.N.N.N.B.B.B.N.N.N.N.N.N.N.N.N.N.N.b.b.b.b.b.f.k.k.k.k.f.f.f.f.f.f.h.f.a.a.a.a.a.j.a.a.a.p.p.p.p.p.p.p.p.p.p.p.p.u.i.j.j.h.p.N N N N u.u.u.u.u.u.u.u.u.u.u.N N N N C ",
"C C C C u.u.u.u.u.u.u.u.u.u.u.u.u.u.u.p.p.p.p.p.p.p.p.p.p.p.p.p.p.a.a.j.a.a.a.a.a.a.a.a.a.a.a.a.f.f.f.f.f.f.f.f.f.k.N.Z.S.f.a.f.f.k.N.N.N.B.N.N.B.B.B.B.B.B.B.B.N.N.N.S.S.S.S.S.A.S.S.S.S.S.S.A.S.S.S.S.S.S.S.S.V.C.V.V.C.C.C.L.K.K.K.K.L.L.L.L.Y.Y.Y.C.Y.Y.U.C.Y.Y.K.Q.Q.C.L.C.L.L.L.L.U.U.U.U.Y.Y.Y.Y.Y.Y.Y.Y.Y.Y.U.U.U.U.U.U.U.U.U.U.U.U.U.U.T.U.T.T.T.T.T.T.T.T.T.T.T.T.T.T.T.T.T.T.T.T.T.T.T.T.T.T.T.T.T.T.T.E.T.`.].W.E.E.T.R._.`._._._.`._._._.`.`._._.R.`.`.W.W.W.W.W.W.W.W.R.W.W.W.W.W._._._._._._._._._._._._._._._._.`.`.`._._._._._._._._._._._._._.R.E.E.`.].R.U.U.E.E.U.U.U.U.U.U.U.U.U.U.U.U.U.U.U.U.U.U.U.U.U.U.U.Y.Y.Y.U.L.C.C.L.L.L.L.L.C.C.C.C.C.C.C.C.C.C.C.C.C.C.C.S.S.S.S.S.S.S.S.S.S.S.S.S.N.N.S.I.I.N.k.k.k.N.N.N.k.N.N.N.N.N.N.N.B.B.B.N.N.N.N.N.N.N.N.N.N.N.N.N.N.b.f.k.k.k.k.f.f.f.f.f.f.h.f.f.a.a.a.a.j.j.a.a.a.a.p.a.a.a.a.p.p.p.p.p.u.i.j.h.h.p.N N N u.u.u.u.u.u.u.u.u.u.u.u.N C N N N ",
"C C C C N u.u.u.N u.u.u.u.u.u.u.u.u.u.p.p.p.p.p.p.p.p.p.p.p.p.p.p.p.p.a.a.a.a.p.p.a.a.a.a.a.a.a.a.a.f.a.f.f.f.f.f.k.k.S.B.k.a.f.f.f.N.N.N.B.N.N.B.B.B.B.B.B.B.N.N.N.N.S.S.S.S.S.S.S.S.A.A.A.A.S.S.S.S.S.S.S.A.S.V.V.V.V.C.C.C.L.K.K.K.K.K.K.L.L.K.Y.K.C.L.Y.Y.C.Y.Y.L.Q.R.C.L.C.L.L.L.Y.U.Y.U.Y.Y.Y.Y.Y.Y.Y.Y.Y.Y.Y.Y.U.U.U.U.U.U.U.U.U.U.U.U.U.T.U.T.T.T.T.T.T.T.T.T.T.T.T.T.T.T.T.T.T.T.T.T.T.T.T.T.T.T.T.T.T.T.E.T.`.'.W.E.E.T.R._.`._._._._._._._.`.`._._.R._._.R.R.R.R.R.R.R.R.R.R.R.R.R.R._._._._._._._._._._._._._._._._._._._._._._._._._._._._._._._._.R.E.E.`.].R.U.U.E.U.U.U.U.U.U.U.U.U.U.U.U.U.U.U.U.U.U.U.U.U.U.Y.L.L.L.L.L.L.C.C.L.C.L.C.C.C.C.C.C.C.C.C.C.C.C.C.C.C.C.C.S.S.S.S.S.S.S.S.S.S.S.S.S.N.S.S.I.I.N.k.f.k.N.N.N.k.N.N.N.N.b.N.N.B.B.B.N.N.N.N.N.N.N.N.N.N.N.N.N.N.b.f.k.k.k.k.f.f.f.f.f.f.h.a.f.a.a.a.a.j.j.j.a.p.a.p.a.p.a.p.p.p.p.p.p.u.i.j.j.h.p.N N N N u.u.u.u.u.u.u.u.u.u.N N C N N N ",
"N C C C C C N N N N N N u.u.u.u.u.u.u.u.p.p.p.p.p.p.p.p.p.p.p.p.p.p.p.p.p.s.s.s.s.a.a.a.a.a.s.a.j.j.f.h.f.f.f.f.a.a.k.J.J.h.p.p.f.f.f.f.f.f.N.B.N.N.N.N.N.B.B.B.B.B.B.B.B.B.V.V.V.V.V.V.V.V.V.V.V.N.V.V.V.V.V.C.A.C.C.C.C.A.I.I.C.A.K.A.K.A.K.A.Y.Y.Y.I.K.A.K.Y.C.C.Y.Y.Y.Y.C.C.C.C.C.C.L.C.L.L.L.L.L.L.Y.Y.Y.Y.Y.Y.U.U.U.U.U.U.U.U.U.U.U.U.U.U.T.T.U.U.U.T.T.T.U.U.U.U.E.U.E.E.E.E.E.U.E.U.E.E.E.E.T.U.E.T.E.U.E.T.E.R.].R.U.T.T.T.T._.R._.T.T._._._._._._._.R.R.R.R.R.R.R.R.R.R.R.R.R.R.R.R.R._._._._._.R._._.R.R.R.R.R.R.R.R.R.R._.R._.R.R.R.T.R.T.R.T.T.T.R.E.R.R.!.`.!.E.Y.U.U.U.U.U.U.U.U.U.U.U.U.U.U.U.U.U.U.U.U.U.Y.Y.L.L.L.L.L.C.C.C.C.C.C.C.C.C.C.C.C.C.V.C.V.C.C.C.C.S.S.V.V.V.V.V.N.N.S.S.S.S.S.S.S.S.k.k.N.A.I.S.f.f.N.N.B.Z.B.N.N.N.N.N.N.N.N.N.N.N.N.N.N.b.b.f.k.k.N.N.N.m.b.b.f.h.h.h.h.h.h.h.a.a.a.a.a.a.p.a.p.a.s.a.p.p.p.p.p.p.p.p.p.p.p.p.p.p.i.p.j.j.j.i.C N N u.u.u.u.u.u.N N N N N N N N N N N ",
"N N C C C N N N N N N N u.u.u.u.N N N N P p.p.p.p.p.p.p.p.p.p.p.p.p.p.p.p.s.s.s.s.s.a.a.a.a.s.s.j.j.h.h.a.a.j.j.p.a.h.J.B.h.a.p.f.f.f.f.f.f.B.B.N.N.N.N.N.N.Z.Z.B.B.N.N.B.B.Z.Z.V.V.V.V.V.V.V.V.Z.Z.V.V.V.V.V.C.A.A.C.C.C.A.I.I.C.A.A.A.A.A.A.A.K.K.K.K.A.A.A.I.C.C.Y.Y.Y.Y.C.C.C.C.C.C.C.C.C.C.L.L.L.L.L.L.Y.Y.Y.U.U.U.U.U.U.U.U.U.U.U.U.U.U.U.T.T.U.U.U.U.U.T.U.U.U.U.U.U.E.E.E.E.U.U.U.U.E.E.U.E.T.U.U.T.E.U.U.E.U.R.].R.U.U.T.T._._._._._._._._._._._._._._.R.R.R.R.R.R.R.R.R.R.R.R.R.R.R.R.R.R.R.R.R.R.R.R.R.R.E.E.R.E.R.R.R.R.R.R.R.R.R.R.R.R.R.R.R.R.R.R.R.R.R.R._.!.Y.U.U.U.U.U.U.U.U.U.U.U.U.U.U.U.U.U.U.U.Y.Y.Y.U.L.L.L.L.L.L.C.C.C.C.C.C.C.C.C.S.V.V.V.V.V.V.C.C.C.C.C.C.S.S.S.S.S.V.V.N.N.N.N.S.S.N.N.N.k.S.A.I.S.f.k.N.N.B.Z.B.N.N.N.N.N.N.N.N.N.N.N.N.N.N.b.b.f.f.f.N.N.N.m.b.b.h.h.h.h.h.j.j.j.a.p.a.a.a.p.p.p.p.s.s.s.p.p.p.p.p.p.p.p.p.p.p.p.p.p.i.p.j.j.j.u.N N N N N u.u.u.u.N N N N N N N N N N N ",
"N N C C C N N N N N u.u.u.u.u.i.p.P N N p.p.p.p.p.p.p.p.p.p.p.p.p.p.p.p.p.p.s.s.s.s.p.p.a.p.p.s.h.h.h.h.a.a.a.a.a.a.c.J.c.j.a.a.a.f.f.f.f.f.N.B.N.N.N.B.N.N.N.N.B.B.B.N.N.B.Z.Z.Z.Z.V.V.V.V.V.V.V.V.V.V.V.S.V.A.A.A.C.C.C.A.A.I.C.A.A.A.A.A.A.A.A.A.K.K.A.A.K.I.C.C.Y.Q.Y.C.C.V.C.C.C.C.C.C.C.C.C.C.C.C.L.C.C.C.Y.U.Y.Y.Y.Y.U.U.U.U.U.U.T.T.T.U.U.U.U.U.U.U.U.U.U.U.U.U.U.U.E.E.U.U.U.U.U.U.U.U.U.E.E.U.U.E.U.U.U.U.U.E.].R.U.U.U.T.T._._._._._._._._._._._._.R.E.E.E.E.E.E.E.E.R.R.R.R.R.R.R.R.R.R.R.R.R.R.R.R.R.R.R.R.R.R.R.R.R.R.R.R.R.R.R.Y.R.R.R.R.R.R.R.R.E.Y.E.Q.!.Q.Y.C.I.I.I.I.I.I.I.I.U.U.I.I.I.I.I.I.C.C.C.I.C.C.C.C.C.C.C.C.C.C.C.C.C.C.S.S.V.V.V.C.V.V.V.V.V.V.V.V.C.C.C.C.C.C.C.S.N.S.N.N.N.N.N.N.S.N.N.S.A.I.S.N.N.N.N.B.B.N.N.N.N.N.N.N.N.N.N.N.N.N.N.N.b.N.b.k.f.b.N.N.f.f.f.f.h.h.j.j.h.j.j.a.j.j.a.a.a.a.a.a.s.s.s.p.p.p.p.p.p.p.p.p.p.p.p.p.p.i.i.j.j.j.i.N N N N N N N N N N N N N N N N N N N N ",
"N N C C C N N N N N u.u.u.u.u.u.i.p.N N N p.p.p.p.p.p.p.p.p.p.p.p.p.p.p.p.p.p.s.s.s.p.p.a.p.p.p.a.a.a.a.a.a.a.a.a.a.h.B.c.a.a.a.a.f.f.f.f.f.N.B.N.N.N.N.N.N.N.N.N.N.N.N.N.N.Z.Z.Z.Z.V.V.V.V.V.V.V.V.V.V.V.V.V.S.A.S.C.C.C.C.A.A.C.C.A.A.A.A.A.A.A.A.A.A.A.A.A.A.C.C.Y.Q.Y.L.C.V.C.C.C.C.C.C.C.C.C.C.C.C.C.C.C.C.I.C.I.I.Y.Y.Y.Y.U.U.U.U.U.U.U.U.U.U.U.U.U.U.U.U.U.U.U.U.U.U.U.E.U.U.U.U.U.U.U.U.U.E.U.U.U.U.U.U.U.U.U.R.].R.U.U.U.U.R.R._.R.R.R.R.R.R.R.R.R.R.R.E.E.E.E.E.E.E.E.E.E.E.E.E.E.E.E.E.E.E.E.E.E.E.E.R.E.E.E.R.R.R.R.R.R.R.R.R.R.R.R.R.R.R.R.R.R.R.R.E.E.E.R.!.Q.Y.C.I.I.I.I.C.C.I.I.I.I.I.I.I.I.I.C.C.C.C.C.C.C.C.C.C.C.C.C.C.C.C.C.C.C.V.V.V.V.C.C.V.V.V.V.V.V.V.V.C.C.C.C.C.C.C.N.V.S.N.N.N.N.N.N.S.N.N.S.A.A.S.N.b.N.N.N.N.N.N.N.N.N.N.N.N.N.N.N.N.N.N.N.b.b.k.k.f.f.f.N.f.f.f.a.h.j.j.j.j.j.a.a.j.j.a.a.a.a.a.a.s.s.p.p.p.p.p.p.p.p.p.p.p.p.p.p.p.i.i.p.j.j.u.N N C N N N N N N N N N N N N N N N N N ",
"C C C C C C N N N N N N u.u.u.u.u.N P N N N P p.N N P p.p.p.p.p.p.p.p.p.p.p.p.p.p.p.p.p.p.p.p.p.a.a.a.a.a.a.a.a.a.a.h.c.h.a.p.a.a.f.f.f.a.a.f.N.f.f.N.N.N.N.N.N.N.N.N.N.N.N.N.N.B.V.V.V.V.V.V.V.V.V.V.V.V.V.V.V.V.V.V.V.V.V.C.C.V.V.S.S.A.A.A.A.A.A.A.A.A.A.A.A.K.K.Y.Y.Y.K.V.C.V.V.V.C.C.C.C.C.C.C.C.C.C.C.C.C.C.C.C.C.I.C.U.U.U.U.U.U.L.U.U.U.U.U.U.U.U.U.U.U.U.U.U.U.U.U.U.U.U.U.U.U.U.U.U.U.I.U.U.U.U.U.U.I.U.U.U.E.].R.I.U.U.U.U.R.R.R.R.R.R.R.R.R.R.R.R.E.R.Y.Y.Y.E.E.E.E.U.U.U.U.Y.Y.Y.Y.Y.Y.Y.U.U.U.Y.Y.Y.Y.Y.Y.R.Y.Y.Y.E.Y.R.Y.Y.Y.Y.Y.Y.Y.Y.Y.Y.Y.Y.Y.E.Y.Y.R.!.R.U.C.C.C.C.C.C.C.C.C.C.I.I.I.I.C.C.C.C.C.C.C.C.C.C.C.C.C.C.C.C.C.C.C.C.C.V.V.V.V.S.S.V.V.V.V.V.V.V.V.V.V.V.V.V.V.V.V.N.N.N.V.N.N.N.N.N.N.N.N.S.A.N.N.b.b.N.N.N.N.N.N.N.N.N.N.N.N.N.N.N.N.b.b.f.f.f.f.f.f.f.f.f.f.a.a.j.j.j.j.a.a.p.p.p.p.p.p.a.a.a.p.p.p.p.p.p.p.p.p.p.p.p.p.p.p.p.p.p.u.u.i.p.p.u.N C C N C N C C C N N N N N N N N N N N ",
"C C C C C C N N C C C C N N u.N N N N N N N N N N N N N p.p.p.p.P N P P p.p.p.p.p.p.p.p.p.p.p.p.p.p.p.p.p.p.p.p.a.p.a.h.h.p.p.a.a.a.f.f.a.f.f.f.f.f.f.f.f.b.N.N.f.f.f.f.N.N.N.N.N.N.N.N.N.N.N.N.N.N.N.N.N.V.V.V.V.V.V.V.V.V.V.V.V.V.V.V.V.V.V.V.V.V.V.V.Z.Z.Z.V.A.C.A.Y.Y.C.V.C.C.V.V.V.C.C.C.C.C.C.C.C.C.C.C.C.C.C.C.C.C.C.C.C.U.U.L.L.L.L.L.L.U.U.U.L.L.L.U.L.C.C.U.U.U.U.U.U.U.U.U.U.U.U.U.U.I.U.U.U.U.Y.U.C.U.U.U.U.W.E.I.U.Y.U.U.U.U.U.U.U.U.U.U.U.U.U.U.U.U.U.U.U.U.U.Y.U.U.Y.Y.Y.Y.Y.Y.Y.Y.Y.Y.U.Y.Y.U.U.U.U.U.U.U.U.U.U.Y.Y.Y.Y.U.Y.Y.Y.Y.Y.Y.Y.Y.Y.Y.Y.Y.Y.Y.Y.R.R.U.C.C.C.C.C.C.C.C.C.C.C.C.C.C.C.C.C.C.C.C.C.C.C.C.C.V.V.V.V.C.C.C.V.V.V.C.V.V.V.S.V.V.V.V.V.V.V.V.V.V.V.V.V.V.V.N.N.N.N.N.N.N.N.N.N.N.N.N.N.S.S.N.b.b.b.N.b.N.N.b.b.f.f.f.f.b.b.b.b.f.f.f.f.f.f.f.f.f.f.a.f.a.f.a.a.a.a.a.a.p.p.p.p.p.p.p.p.p.p.p.p.p.p.p.p.p.p.p.p.p.p.p.p.p.p.p.u.u.u.u.u.p.p.u.N C C C C C C C C C C C C C C C C C C C ",
"C C C C C C C C C C C C C C N N C N N N N N N N N N N N N N P P N N N P p.p.p.p.p.p.p.p.p.p.p.u.p.p.p.p.p.p.p.p.p.p.p.a.a.p.p.p.p.a.a.a.a.p.f.f.f.f.f.f.f.f.f.f.f.f.f.f.f.f.b.b.b.b.b.b.b.b.b.b.b.b.b.b.N.N.N.V.N.N.N.N.N.N.N.N.N.N.N.N.N.N.N.N.N.N.N.N.N.N.N.N.V.V.V.V.V.V.V.V.V.V.V.V.V.V.V.V.C.C.C.C.C.V.V.V.C.C.C.C.C.C.C.C.C.C.C.C.C.C.C.C.C.L.C.C.C.L.L.L.C.C.C.C.L.C.U.L.U.U.U.U.I.L.U.L.C.U.U.L.U.Y.U.C.C.L.C.U.R.Y.C.L.Y.Y.L.Y.Y.C.C.C.L.C.L.C.Y.I.Y.Y.U.U.Y.Y.Y.Y.Y.Y.U.L.L.L.L.L.L.L.L.L.L.L.L.L.L.L.U.U.Y.U.Y.Y.Y.Y.Y.C.C.C.C.C.C.C.C.C.C.C.C.C.C.C.C.C.C.C.Y.Y.C.C.C.C.C.C.C.C.C.C.C.C.C.C.C.C.C.C.C.C.C.C.C.V.V.V.V.V.V.V.V.V.V.V.V.V.V.N.N.N.V.V.V.V.V.V.N.N.N.N.N.N.N.N.N.N.N.N.k.N.k.N.N.N.N.N.N.N.N.N.N.N.N.f.f.f.f.f.f.f.f.f.f.f.f.f.f.f.f.f.f.f.f.f.f.f.f.f.d.f.f.f.a.p.p.p.p.p.p.p.p.p.p.p.p.p.p.p.p.p.p.p.p.p.u.u.u.u.N N N N N N u.u.N N N N C N u.i.N N C C C C C C C C C C C C C C C C C C C ",
"n n n n C C C C C C C C C C C C C C C C C C N N N N N N N N N N N N N N N N p.p.u.u.u.u.u.u.u.u.u.u.p.p.p.u.u.u.p.p.p.a.p.p.p.p.p.p.a.a.p.p.d.f.f.f.f.f.f.f.f.f.f.f.f.f.f.f.b.b.b.b.b.b.b.b.b.b.b.b.b.b.N.N.N.N.N.N.N.N.N.N.N.N.N.N.N.N.N.N.N.N.N.N.N.N.N.N.N.N.V.N.N.V.V.N.V.V.V.V.V.V.V.V.V.V.C.C.C.C.C.V.V.V.C.C.C.C.C.C.C.C.C.C.C.C.C.C.C.C.L.L.C.C.C.L.L.L.C.C.C.C.C.C.C.L.L.L.L.C.C.C.C.C.C.L.Y.C.C.L.Y.C.C.C.C.C.Y.L.C.C.C.C.C.C.C.C.C.C.C.C.C.C.C.C.C.C.C.C.C.L.L.L.L.L.L.C.C.L.L.C.C.C.C.L.L.L.C.C.C.C.C.C.L.C.C.C.C.C.C.C.C.C.C.C.C.C.C.C.C.C.C.C.C.C.C.V.C.C.L.L.C.C.C.C.C.C.C.C.C.C.C.C.C.C.C.C.C.C.V.C.C.V.V.V.V.N.V.V.V.V.V.V.V.V.V.V.V.N.N.V.V.N.N.N.N.N.N.N.N.N.N.N.N.N.N.N.N.N.f.f.k.k.k.N.N.N.N.k.f.N.N.N.k.f.f.f.f.f.f.f.f.f.f.f.f.f.f.f.f.f.f.f.f.f.f.f.f.f.p.p.p.f.p.p.p.p.p.p.p.p.p.p.p.p.p.p.p.p.p.p.p.p.u.u.u.u.u.N N N N N N N N N N N N N C N u.i.N C C C C C C C C C C C C C C C C C n C n ",
"N N N N N N N N N N N N N N N N N N V V N N N N s.N N P s.s.j.h.p.p.p.p.s.s.s.s.s.s.j.j.j.j.j.j.p.p.p.p.p.a.j.j.j.j.j.h.h.h.h.h.a.a.a.j.h.h.B.B.k.k.B.N.b.b.f.f.N.N.N.f.b.B.B.B.B.B.Z.Z.Z.B.B.B.N.b.b.N.Z.Z.N.N.N.N.N.Z.Z.Z.Z.Z.Z.Z.Z.Z.Z.Z.Z.S.S.S.S.A.A.A.A.A.A.S.S.S.S.A.A.A.S.S.S.A.V.S.A.A.K.K.K.K.A.K.K.K.K.K.K.K.K.Y.Y.Y.Y.L.C.K.L.C.L.Y.Y.C.C.C.Y.Y.Y.Y.Y.Y.Y.Y.Y.Y.Y.Y.Y.Y.Y.Y.Y.Y.Y.Q.Y.Y.Y.Y.Y.Y.Y.Y.Y.Y.Y.Y.Y.Y.Y.Y.Y.Y.Y.Y.Y.Y.Y.Y.Y.Y.Y.Y.Y.Y.Y.Y.Y.Y.Y.Y.Y.Y.Y.Y.Y.Y.Y.Y.Y.K.Y.Y.Y.Y.C.C.U.Y.Y.Y.Y.Y.Y.Y.Y.Y.Y.E.Y.Y.Y.Y.Y.Y.Y.Y.Y.Y.Y.Y.Y.Y.I.I.Y.Y.Y.Y.Y.Y.Y.Y.Y.Y.Y.K.Y.Y.Y.Y.C.C.C.C.C.C.C.C.L.K.K.A.A.A.K.K.A.K.K.K.K.A.A.A.A.N.N.N.N.S.S.A.A.A.A.A.A.A.A.A.N.Z.Z.Z.Z.Z.Z.Z.Z.Z.Z.Z.Z.Z.S.S.B.B.Z.Z.Z.B.B.N.B.Z.B.B.B.B.B.B.B.B.B.B.B.B.B.B.N.N.B.B.B.N.f.f.f.h.h.h.h.h.h.m.B.h.p.p.p.p.a.a.a.a.a.a.a.a.p.p.p.p.p.p.p.p.p.p.s.s.p.p.p.p.p.p.p.i.p.i.s.i.u.N N N N V V N N N N N N N N N N V N N M ",
"V U V i.s.V V V V V i.V i.i.i.i.i.s.s.s.s.s.s.s.s.N N P p.s.s.j.h.h.h.h.h.h.h.h.h.h.h.h.h.h.h.h.h.h.h.h.h.c.B.B.h.h.h.c.c.c.B.c.B.B.B.B.B.B.B.Z.B.B.Z.Z.Z.Z.Z.Z.A.Z.Z.Z.Z.Z.Z.A.Z.A.K.K.K.A.A.K.A.N.N.N.S.A.A.A.A.A.A.A.A.K.A.A.K.K.A.A.A.A.K.K.K.K.K.K.K.K.K.K.Y.K.K.K.K.Y.Q.Q.Q.Q.Q.Q.Q.Q.Q.Q.Q.Q.K.K.Q.Q.Q.Q.Q.Q.Q.Q.Q.Q.Y.Y.Q.Y.Y.Q.Q.Y.Q.Q.Q.Y.C.Y.Y.Y.Q.Q.Q.Q.Q.Q.R.Q.R.Q.Q.Q.Q.Q.Q.Q.R.Q.Q.Q.Q.R.R.Q.Q.Q.Q.Q.R.Q.R.Q.R.Q.Q.Q.Y.Y.Q.Q.R.Q.Q.Q.Q.Q.Q.Q.R.R.R.R.R.R.R.R.R.R.Q.Q.R.Q.Q.Q.Q.`.!.R.Y.I.Y.R.R.R.R.R.R.R.R.R.R.Q.Q.Q.Q.Q.Q.Q.Q.Q.Q.Q.Q.Q.Q.Q.Q.Q.Q.Q.Q.Q.Q.Q.Q.Q.Q.Q.Q.Q.Q.Q.Q.Q.R.!.Q.R.Q.Q.Q.Q.Q.Q.Q.Q.Q.Q.Q.Q.K.Y.Q.Y.K.K.Y.Q.Y.A.S.N.S.A.A.Y.K.K.K.K.K.K.K.K.A.A.A.K.K.A.A.A.A.A.A.A.A.A.A.A.A.A.A.A.A.A.A.A.A.A.A.A.A.A.Z.Z.Z.Z.Z.Z.Z.Z.Z.Z.Z.Z.Z.Z.Z.Z.B.B.B.B.B.c.m.m.B.H.B.h.j.p.p.j.j.j.h.h.h.h.h.h.h.h.h.h.h.h.h.h.h.h.h.h.h.h.j.j.j.j.j.j.j.j.s.s.s.s.s.s.s.s.s.s.U s.i.i.i.i.V i.s.s.s.s.s.",
"N N V V N V N N N N N N N N i.N V V V V N N s.s.s.N C N p.p.p.p.s.s.s.s.s.j.j.j.j.s.j.j.j.j.j.j.j.j.j.j.h.h.h.h.j.j.j.j.j.j.j.h.h.h.h.h.h.h.h.h.h.h.m.B.B.B.Z.Z.B.B.B.B.B.B.Z.B.B.B.B.B.B.Z.Z.K.A.N.f.k.N.N.S.A.Z.Z.Z.A.A.A.A.A.A.A.S.S.A.A.A.A.A.A.A.A.A.A.A.A.A.A.A.A.A.A.K.K.K.K.K.K.K.K.K.K.K.K.K.K.K.K.K.Q.Y.Y.Y.Y.Y.Y.Y.Y.Q.Y.Y.Q.Q.Q.Q.Q.Q.K.C.V.K.Y.Y.Q.Q.Q.Q.Q.Q.Q.Y.Q.Q.Q.Y.Y.Y.Q.Q.Q.Q.Q.Q.Q.Q.Q.Q.Q.Q.Q.Q.Q.Q.Q.Q.Q.Q.Y.Y.Y.Y.Q.Q.Q.Q.Q.Q.Q.Q.Q.Q.Q.Q.Q.Q.Q.Q.Q.Q.Q.Q.Q.Q.Q.Q.Q.Q.`.Q.Y.C.C.C.Y.Y.Y.Y.Y.Y.Y.Y.Y.Y.Y.Y.K.K.K.Y.Y.Y.Y.Y.Y.Y.Y.Y.Y.K.L.Y.Y.Y.Y.Y.Y.K.K.Y.Y.K.K.Y.Y.Y.Y.A.I.A.A.A.A.A.A.A.A.A.A.A.A.A.A.K.K.K.K.A.A.K.A.Y.A.B.N.N.S.S.A.A.A.A.A.A.A.A.A.Z.Z.A.A.A.A.Z.Z.A.A.A.A.A.A.A.A.A.A.A.A.A.S.Z.B.Z.B.B.B.B.B.B.B.B.B.B.B.B.B.B.B.B.B.B.B.B.B.h.h.h.h.h.h.j.j.h.h.B.h.j.p.p.a.j.j.j.j.j.j.j.j.j.j.j.j.j.j.j.j.j.j.s.s.s.s.p.p.p.p.p.i.i.s.s.i.i.i.s.V s.s.U V V V N N N N N N V V V V V ",
"C C C N C C C C C C C C C C C C N N N C C N V s.s.N C C N N P p.P P P P p.p.p.p.p.p.p.p.p.p.p.p.p.p.p.p.p.p.p.p.p.p.p.p.p.p.p.p.a.a.p.p.p.p.a.a.p.p.f.f.f.f.f.f.f.f.f.f.f.f.b.b.f.f.b.f.b.b.B.Z.S.N.f.f.f.N.N.Z.N.N.B.B.B.B.B.B.B.B.N.N.B.B.B.Z.B.B.B.B.B.B.Z.Z.Z.Z.Z.Z.Z.Z.Z.S.S.S.Z.Z.Z.Z.Z.Z.A.A.V.V.V.V.A.A.A.A.A.A.A.A.A.A.A.C.A.I.A.A.Y.Q.Q.C.V.V.V.V.A.K.K.K.K.K.K.K.K.K.K.K.A.A.A.A.K.K.K.K.K.K.K.K.K.K.K.K.K.K.K.K.K.K.K.K.K.K.K.Y.Y.Y.Y.Y.Y.Y.Y.Y.Y.Y.Y.Y.Y.Y.Y.Y.Y.Y.Y.K.Y.Y.Y.Y.Y.Q.Q.Y.C.V.C.C.C.C.C.C.C.C.C.C.C.C.K.K.K.K.Y.Y.Y.K.Y.Y.Y.Y.Y.L.C.K.A.C.C.A.A.A.A.A.V.V.V.V.V.V.V.V.V.S.V.V.C.C.A.C.A.A.A.A.A.A.A.A.V.C.A.C.V.V.V.Z.A.S.N.k.N.N.N.N.B.N.B.B.B.B.N.B.N.N.N.N.B.N.N.N.N.N.N.N.N.N.N.N.N.N.N.N.N.N.N.f.f.f.f.f.f.f.f.f.f.f.f.f.a.a.a.a.f.f.f.f.f.a.f.a.p.a.p.p.p.p.a.j.c.h.p.p.p.p.p.p.p.p.p.p.p.p.p.p.u.u.u.u.u.u.u.u.p.u.u.u.u.u.N N N N N N N C C C N N N N N N C C C C C C C C C C C C C ",
"N N N N N N N N C C C C C C N N N N N C N N s.x.s.N C C N N N N P P p.p.p.p.p.p.p.p.p.p.p.p.p.p.p.p.p.p.p.p.p.p.p.p.p.p.p.p.s.s.p.p.p.p.p.a.a.h.a.a.a.a.f.f.f.f.f.f.f.f.f.f.f.f.f.f.f.f.b.b.B.A.A.N.f.N.N.N.B.Z.B.B.B.B.B.B.B.Z.B.B.B.B.B.Z.Z.Z.Z.Z.Z.Z.Z.Z.Z.Z.Z.Z.Z.Z.Z.Z.Z.Z.Z.Z.Z.Z.Z.Z.Z.Z.A.A.A.A.A.A.K.K.K.K.K.K.K.K.K.K.K.A.A.K.K.A.Y.Q.Q.Y.V.V.V.C.A.Y.K.K.K.K.K.K.K.A.K.K.K.K.A.K.K.K.K.K.K.K.K.K.K.K.K.K.K.K.K.K.K.K.K.K.K.K.K.K.K.K.K.K.K.K.K.K.K.K.K.K.K.K.K.K.K.K.K.K.K.Y.Y.K.Y.Q.Q.Y.C.C.C.C.I.C.Y.Y.Y.Y.Y.I.I.A.Y.Y.Y.Y.K.Y.Y.Y.Y.Y.Y.Y.Y.L.L.A.A.A.A.A.A.A.A.A.A.A.A.A.A.A.A.A.C.C.C.C.A.A.A.A.A.A.A.V.A.A.A.A.V.Z.A.V.V.V.Z.Z.Q.A.B.N.N.N.B.B.B.B.B.B.B.B.B.B.B.B.B.B.B.B.B.B.B.B.B.B.B.B.B.B.B.B.B.B.B.N.N.N.f.h.h.h.h.f.f.f.f.f.f.f.a.a.a.a.f.f.f.f.f.f.a.a.a.a.a.a.p.p.j.j.c.h.p.p.p.p.p.p.p.p.p.p.p.p.p.p.p.p.p.p.p.p.p.p.p.p.p.p.p.p.p.u.u.u.u.u.N N N N N N N N V N N N C C C C C C N N N C C ",
"N N N N N N N N N N N N N N N N N N N N N N s.x.s.N C C N N N N P P p.p.p.p.p.p.s.s.a.p.a.a.a.j.p.p.p.p.p.p.p.p.p.p.p.p.p.p.s.s.p.p.p.p.p.j.h.h.h.h.k.h.b.f.f.f.f.a.f.a.f.f.f.f.f.f.f.f.b.b.B.Z.A.N.k.N.Z.B.N.B.B.B.B.B.B.B.B.B.B.B.B.B.Z.B.Z.Z.Z.Z.Z.Z.Z.Z.Z.Z.Z.Z.Z.B.Z.Z.Z.Z.A.A.A.Z.Z.Z.Z.Z.A.A.A.V.A.A.A.K.A.A.A.A.A.A.A.A.Y.A.A.Y.K.K.Y.Q.Q.Y.V.V.V.C.A.Y.K.K.K.K.K.K.K.K.K.K.K.K.K.K.K.K.K.K.K.K.K.K.K.K.K.K.K.K.K.K.K.K.K.K.Y.Y.K.K.K.K.K.K.K.K.K.K.K.K.K.K.K.K.K.K.K.K.K.K.K.K.K.A.K.Y.Q.Y.C.C.C.C.C.C.Y.Y.Y.Y.Y.I.A.C.C.C.C.C.C.C.C.C.C.C.C.C.C.C.C.V.C.S.S.Z.S.A.V.C.A.A.A.A.A.A.A.A.V.C.C.C.V.V.V.V.N.N.N.N.N.N.N.N.V.V.V.V.Z.V.Z.Z.Q.A.B.N.N.B.B.B.B.B.B.B.B.B.B.B.B.B.B.B.B.B.B.B.B.B.B.B.B.B.B.B.B.B.B.B.B.N.N.b.B.h.h.h.k.h.f.f.f.f.f.f.f.f.f.f.f.f.f.f.f.f.a.a.a.a.j.a.p.p.j.j.B.h.a.p.p.p.p.p.p.p.p.p.p.p.p.p.s.s.s.s.s.s.s.s.p.p.p.p.p.p.p.u.p.u.i.i.u.N V N N N V V N N N N N C C C C N N N N N N ",
"M M n n C C C C C C C C C C N N C C C C C N V i.s.N C C N N N s.P P P P p.p.p.p.p.p.p.p.p.p.p.p.p.p.p.p.p.p.p.p.p.p.p.p.p.p.p.p.p.p.p.p.p.p.a.a.a.a.a.f.f.f.f.f.a.a.a.a.a.a.f.f.f.f.b.f.b.b.B.Z.S.k.f.k.N.N.N.N.N.N.N.m.m.B.B.B.B.N.N.N.N.B.B.B.B.B.B.B.B.B.B.B.B.B.B.B.B.B.Z.Z.Z.Z.Z.Z.Z.Z.Z.Z.A.Z.Z.Z.V.V.V.A.A.A.A.A.A.A.A.A.A.S.S.A.A.S.A.Y.Q.V.N.N.V.N.V.A.A.V.V.A.A.K.V.V.V.V.V.V.V.K.K.K.K.K.K.K.K.K.A.A.K.K.K.K.K.K.K.K.K.K.K.K.K.K.K.K.K.K.K.K.K.K.K.K.A.A.A.A.A.K.A.A.K.A.A.K.A.C.C.Y.Q.Y.C.V.V.C.C.C.C.C.C.C.C.C.C.C.L.L.L.L.K.K.K.K.L.L.K.K.K.K.L.L.V.V.V.V.V.V.V.V.V.V.V.V.V.V.V.V.A.A.A.A.A.A.A.A.A.V.A.A.V.V.V.V.V.V.Z.V.N.N.N.Z.A.A.N.b.f.N.N.B.B.B.B.B.B.B.B.B.m.m.B.B.B.B.m.B.N.N.N.N.N.N.N.N.N.N.N.N.N.N.N.f.N.k.h.h.k.h.f.f.f.f.f.f.f.a.a.f.a.a.f.f.a.a.p.p.p.p.p.p.p.p.p.j.B.h.a.p.p.p.p.p.p.p.p.p.p.p.p.p.p.p.p.p.p.p.p.p.p.p.p.p.p.u.u.u.N N N N N N N N N N N N N N C C C C C C C C C N N N M ",
"n M M M M C C C C C C C C C N N C N N N N N V i.p.N C C N N u.s.p.p.p.p.p.p.p.p.p.p.p.p.p.s.p.s.p.p.p.p.p.p.p.p.p.p.p.p.p.p.p.p.j.j.j.p.p.p.a.a.p.p.a.a.a.a.f.f.h.h.h.h.f.h.h.B.h.m.m.m.m.B.B.Z.A.N.f.f.N.N.N.B.B.B.B.B.B.B.B.B.B.B.B.B.B.B.B.Z.B.B.B.B.B.B.B.B.A.A.Z.Z.A.A.A.A.A.A.Z.Z.Z.Z.Z.Z.A.Z.A.A.A.A.A.A.A.A.A.A.A.A.A.A.A.S.S.A.S.V.S.Y.Q.S.N.N.N.N.V.A.V.K.K.K.K.K.K.K.K.K.K.K.K.K.K.K.K.K.K.K.K.K.K.K.K.K.K.K.K.K.K.Y.K.Y.Q.Q.Y.Y.K.K.K.K.K.K.K.K.K.K.K.K.K.K.K.K.K.K.K.A.K.K.K.S.A.Y.Q.Y.V.N.V.C.L.Y.C.A.L.C.C.S.C.C.C.V.C.V.C.V.C.V.C.C.C.C.C.V.C.V.Z.S.Z.S.S.S.A.S.A.S.A.S.A.S.A.S.V.N.V.N.V.N.V.N.V.V.V.V.V.B.V.B.V.Z.A.Z.Z.Z.Z.Z.A.A.N.b.k.N.B.B.Z.B.B.B.B.B.B.B.B.B.B.B.B.B.B.B.B.B.B.B.B.B.B.B.B.B.B.B.B.B.N.N.B.B.B.B.B.c.B.h.h.h.h.h.h.h.h.h.f.h.h.h.h.j.a.a.a.a.a.p.p.p.j.j.B.h.p.p.p.p.p.p.a.a.a.a.a.a.p.s.p.p.p.p.p.p.p.p.p.p.p.p.p.p.u.u.N V u.V u.N N N N V V V V V N N N N C C C C N N N N N ",
"C C C C C C C C n M N C C C C C C C C N C C N s.i.C C C C N p.u.u.u.u.u.u.p.p.p.u.u.p.p.p.p.p.p.p.p.p.p.p.p.p.p.p.p.p.p.p.p.p.s.s.s.s.p.p.p.s.s.s.p.a.a.a.a.a.a.a.a.a.a.a.a.a.a.h.a.h.h.f.a.m.J.B.f.d.p.f.h.B.B.B.B.M.M.M.M.M.B.B.B.B.B.B.Z.B.B.B.B.B.B.B.B.Z.Z.Z.Z.Z.Z.Z.Z.Z.Z.Z.Z.Z.Z.Z.Z.Z.Z.A.A.A.A.A.A.A.A.S.Z.Z.Z.Z.A.A.A.A.Z.S.A.A.Z.A.K.Q.V.N.b.N.Z.S.A.A.A.K.A.A.A.A.A.K.K.K.K.K.K.K.K.K.A.A.A.K.K.K.A.A.A.K.K.K.K.K.A.K.K.K.K.K.K.K.K.K.K.K.K.K.K.K.K.K.A.K.A.K.A.K.A.K.A.A.A.K.A.A.Y.Q.Y.C.N.V.V.C.A.C.A.C.A.C.A.C.A.A.A.A.K.A.A.A.A.A.A.A.A.C.A.A.A.S.S.S.S.S.S.V.N.S.S.S.S.S.S.S.S.S.B.S.B.V.N.N.N.B.B.V.N.V.B.Z.B.B.B.B.B.B.B.B.B.K.Q.f.f.N.f.B.B.B.B.B.B.B.B.B.B.B.B.B.M.M.b.b.b.B.B.B.B.m.b.b.b.b.m.m.m.m.m.b.h.k.h.h.h.h.h.h.h.h.h.h.j.h.j.f.a.a.j.j.j.j.j.p.p.p.p.p.s.s.s.p.p.B.c.p.N p.p.u.p.p.p.p.p.p.p.p.p.p.p.p.p.u.u.p.u.p.u.u.u.u.u.u.u.N N V N N N C C C C C C C C C C C C C C C C C C C C C ",
"C C C C C C C n M M N N C C C C C C C N N C u.s.i.C C C C u.i.u.u.u.u.u.u.u.p.p.u.u.p.p.p.p.p.p.p.p.p.p.p.p.p.p.p.p.p.p.p.p.p.s.s.s.p.p.p.p.s.s.s.s.p.p.p.p.p.p.a.a.a.a.a.a.a.a.a.a.f.h.f.a.h.J.B.f.d.p.a.h.m.B.B.B.B.B.M.M.B.B.B.B.B.B.B.B.Z.Z.B.B.B.B.B.B.Z.Z.Z.Z.Z.Z.Z.Z.Z.Z.Z.B.Z.Z.Z.Z.Z.Z.A.A.A.A.A.A.A.A.S.S.Z.Z.Z.A.A.A.A.S.Z.A.A.Z.A.K.Q.Z.b.b.N.Z.S.A.K.K.K.K.A.A.A.A.K.K.K.K.K.K.K.K.A.A.K.A.K.K.K.A.A.A.K.A.K.K.A.A.A.A.A.A.A.A.A.A.A.A.A.A.A.A.A.A.A.K.K.K.K.A.A.A.K.A.A.K.K.Z.A.Y.Q.Y.N.N.V.V.S.S.S.S.S.S.S.S.S.S.A.A.A.A.A.A.A.A.A.A.A.A.A.A.A.S.S.S.S.S.S.B.N.N.S.S.S.S.S.S.S.S.B.B.B.B.B.N.N.N.N.N.N.N.N.B.B.B.B.B.B.B.B.B.B.B.K.Q.f.f.N.f.B.B.B.B.B.B.B.B.B.B.B.B.B.M.M.b.b.b.m.m.B.m.m.b.b.b.b.b.m.m.m.m.b.h.h.h.h.h.h.h.h.h.h.h.h.j.j.j.j.j.j.j.j.j.j.j.s.p.p.p.s.s.s.s.p.p.B.c.p.N p.p.u.p.p.p.p.p.p.p.p.p.p.p.p.p.u.u.u.u.u.u.u.u.u.u.u.u.N N V N N N C C C C C C C C C C C C C C C C C C C C C ",
"C C C C C C C M M M M N N N C n C C N N N C V s.i.C C C C u.i.u.u.u.u.u.u.u.p.p.u.u.p.p.p.p.p.p.p.p.p.p.p.p.p.p.p.p.p.p.p.p.p.s.s.s.p.p.p.p.p.p.p.p.p.p.p.p.p.p.a.a.a.a.a.a.a.a.a.a.f.h.f.a.h.J.B.f.p.p.f.h.B.B.B.B.B.B.B.B.B.B.B.B.B.B.Z.Z.Z.Z.B.B.B.B.B.B.Z.Z.Z.Z.Z.Z.Z.Z.Z.Z.B.B.B.B.Z.Z.Z.Z.S.S.S.S.A.A.S.S.S.S.S.S.Z.S.A.A.A.S.Z.A.A.Z.A.K.Q.Z.b.b.N.Z.S.A.K.K.K.K.K.A.A.A.K.K.K.K.K.K.K.K.K.K.K.K.A.K.K.K.A.A.A.A.A.A.A.A.A.A.A.A.A.A.A.A.A.A.A.A.A.A.A.A.A.A.A.A.A.A.A.A.A.A.A.K.A.A.A.Y.Q.A.V.N.V.S.V.S.V.S.S.S.S.S.S.S.A.A.A.A.A.A.A.A.A.A.A.A.A.A.A.S.S.Z.S.S.S.S.N.N.S.S.N.N.B.N.N.N.B.B.B.B.N.N.N.N.N.N.N.B.N.N.N.N.B.B.B.B.B.B.B.B.K.P.f.f.N.f.N.B.B.B.B.B.B.B.B.B.B.B.B.B.B.N.b.b.m.m.m.m.m.m.b.m.b.b.b.b.m.m.m.h.h.h.h.h.h.h.h.h.h.h.h.j.j.j.j.j.j.j.j.j.j.j.s.p.p.p.s.s.s.s.s.s.c.c.p.N p.p.N p.p.p.p.p.p.p.p.p.p.p.p.p.u.u.u.u.u.u.u.u.u.u.u.N N N V N N N C C C C C C C C C C C C C C C C C C C C C ",
"C C C C C C C M M M N N N C C n C C N N N C V s.i.C C C C N i.u.u.u.u.u.u.u.p.p.p.u.p.p.p.p.p.p.p.p.p.p.p.p.p.p.p.p.p.p.p.p.p.s.s.p.p.p.p.p.p.p.p.p.p.p.p.p.p.s.a.a.a.a.a.a.a.a.f.a.f.f.a.a.h.J.B.f.p.p.f.h.B.B.B.B.B.B.B.B.B.B.B.B.B.B.B.B.B.B.B.B.B.B.B.B.B.Z.B.B.B.B.B.B.B.B.B.B.B.B.B.Z.Z.Z.Z.Z.Z.Z.B.B.Z.Z.S.S.B.B.Z.Z.S.A.A.Z.Z.A.S.Z.A.K.Q.Z.b.b.N.N.Z.A.A.A.A.A.A.A.A.A.A.A.A.A.A.A.A.A.A.A.A.A.A.A.A.A.A.A.A.A.A.A.A.A.A.A.A.A.A.A.A.A.A.A.A.A.A.A.A.A.A.A.A.A.A.A.A.A.A.A.A.K.A.Z.A.Y.Q.A.N.N.N.N.V.V.V.V.V.V.V.V.V.S.A.A.A.S.V.V.C.C.V.C.V.S.S.S.S.S.S.S.S.S.S.S.N.N.N.N.N.N.N.N.N.N.B.N.N.N.N.N.N.N.N.N.N.N.N.N.N.N.N.N.N.N.N.N.N.N.A.Q.f.f.N.f.N.B.B.B.B.B.B.B.B.B.B.B.B.B.B.N.N.N.m.m.m.m.m.m.m.m.b.b.b.b.m.m.b.m.h.h.h.j.h.h.j.j.h.h.h.j.j.j.j.j.j.j.j.j.j.j.s.p.s.s.s.s.s.s.s.s.c.c.p.N p.p.N p.p.p.p.p.p.p.p.p.p.p.p.u.u.u.u.u.u.u.u.u.u.u.u.N N N V N N N C C C C C C C C C C C C C C C C C C C C C ",
"C C C C C C C M N N C C N N N N N C N N C C V s.i.C C C C u.i.u.N N N N N i.p.p.P p.p.p.p.p.p.p.p.p.p.p.p.p.p.p.p.p.p.p.p.p.p.s.p.p.p.p.p.p.p.p.p.p.p.p.p.p.s.s.a.a.a.a.a.a.a.a.a.a.a.h.a.a.h.J.B.f.a.p.f.k.B.B.B.B.B.B.B.B.B.B.B.B.B.B.B.B.B.B.B.B.B.B.B.B.B.Z.B.B.B.B.B.B.B.B.B.B.B.B.Z.Z.Z.Z.Z.Z.Z.Z.Z.Z.Z.Z.Z.Z.Z.B.B.Z.A.A.A.Z.Z.A.Z.Z.A.P.P.Z.f.b.N.Z.Z.A.A.A.A.A.A.A.A.A.A.A.A.A.A.A.A.A.A.A.A.A.A.A.A.A.A.A.A.A.A.A.A.A.A.A.A.A.A.A.A.A.A.A.A.A.A.A.A.A.A.A.A.A.A.A.A.A.A.S.A.A.A.S.A.Y.Q.A.N.N.N.N.V.V.S.S.S.S.S.S.S.S.S.Z.Z.Z.V.Z.Z.Z.V.V.Z.Z.Z.Z.V.Z.Z.Z.B.B.B.N.N.N.N.N.N.N.N.N.N.N.N.B.B.B.B.B.B.B.B.B.B.B.B.B.B.B.N.N.N.N.N.N.N.N.A.K.f.f.N.f.N.N.B.B.B.B.B.B.B.B.B.B.B.N.N.N.N.N.b.m.m.m.m.m.m.h.h.m.h.h.m.m.m.h.h.h.j.h.h.j.j.j.j.j.j.j.j.j.a.j.j.j.j.j.j.j.s.p.s.s.s.s.s.s.s.s.c.c.p.N p.p.N p.p.p.p.p.p.p.p.p.u.N N N p.p.u.N N N u.u.u.u.N N N N V N N N C C C C C C C C C C C C C C C C C C C C C ",
"C n C C C C C n N N N C N N N N N C N N C C V s.i.C C C C u.i.u.N N N N N i.p.p.p.p.p.p.p.p.p.P p.p.p.p.p.p.p.p.p.p.p.p.p.p.p.s.p.p.p.p.p.p.p.p.s.p.p.p.p.p.s.s.j.a.a.a.a.a.a.a.a.a.a.f.a.a.h.J.B.f.a.p.f.f.N.N.B.N.N.B.B.B.B.B.B.B.B.B.B.B.B.B.B.B.B.B.B.B.B.B.B.B.B.B.B.B.B.B.B.B.B.B.Z.B.B.B.B.B.B.B.B.B.B.B.B.B.B.B.B.Z.A.Z.A.Z.Z.A.Z.Z.A.P.P.Z.b.b.N.N.Z.A.A.A.A.A.V.V.A.V.A.A.A.A.A.A.A.A.A.A.A.A.V.V.V.V.A.V.V.A.A.A.A.A.A.A.A.A.A.A.A.A.A.A.A.A.A.A.A.A.A.A.A.A.A.A.A.A.A.S.S.A.A.S.A.Y.Q.A.N.N.N.N.V.V.Z.V.V.V.V.V.V.V.V.V.V.V.V.V.V.V.V.V.V.V.V.V.V.Z.B.B.B.B.N.N.N.N.N.N.N.N.N.N.N.N.N.N.N.N.B.B.B.B.B.B.B.B.B.B.B.B.N.N.N.N.N.N.N.N.A.K.f.f.N.f.N.N.B.B.B.N.N.N.N.N.B.B.B.N.N.N.N.N.b.m.m.b.m.m.h.h.h.h.h.h.h.m.m.h.h.j.j.h.j.j.j.j.j.j.j.j.j.j.j.j.j.j.j.j.j.j.s.p.s.s.s.s.s.s.s.s.B.c.p.N p.p.N p.p.p.p.p.p.p.p.p.N N N N p.p.u.u.N N u.u.u.u.N N N N V N N N C C C C C C C C C C C C C C C C C C C C C ",
"C n C C C C C n N N n C n n N N N C C N C C V s.i.C C C C N i.N N N N N N V N N N p.p.p.p.p.p.p.p.p.p.p.p.p.p.p.p.p.p.p.p.p.p.s.p.p.s.s.p.p.p.p.s.s.s.p.p.p.p.s.a.a.j.a.a.a.a.a.a.a.a.j.a.p.h.J.B.k.a.a.f.f.N.N.B.B.B.B.B.B.B.B.B.B.B.B.B.B.B.B.B.B.m.m.B.B.B.B.B.B.B.B.B.B.B.B.B.B.B.B.B.B.B.B.B.B.B.B.B.B.B.B.B.B.B.B.B.B.Z.Z.A.Z.Z.A.A.Z.A.P.P.Z.f.b.N.N.Z.A.Z.Z.A.A.A.A.A.A.A.A.A.A.A.A.A.A.S.S.S.A.A.A.A.V.A.A.Z.S.S.A.A.A.A.A.A.A.A.A.A.A.A.A.A.A.A.A.A.A.A.A.A.A.A.A.A.A.A.S.S.A.A.V.A.Y.Q.A.N.N.N.N.V.V.Z.V.V.V.V.V.V.V.N.N.V.V.V.V.N.N.V.Z.Z.Z.V.V.V.Z.B.B.B.B.B.B.B.B.N.N.N.N.N.N.N.N.N.N.N.N.N.B.B.B.B.B.N.N.B.B.B.B.N.N.N.N.N.N.N.N.A.Y.f.f.N.f.N.N.B.N.N.N.N.N.N.N.B.B.B.N.N.N.N.N.b.f.f.f.f.h.h.h.h.h.m.m.m.m.m.h.h.h.h.j.j.j.j.j.j.j.j.j.j.j.a.j.j.j.j.j.j.j.s.p.p.s.p.p.s.s.s.s.B.c.p.N p.p.N p.p.p.p.p.p.p.p.p.N N p.p.p.p.u.u.N N N u.u.u.u.N N N V N N N C C C C C C C C C C C C C C C C C C C C C ",
"C n C C C C C n N N n n n n n C N C C N C C V s.i.C C C C N i.u.N N N N N V N N N p.p.p.p.p.p.p.p.p.p.p.p.p.p.p.p.p.p.p.p.p.p.s.s.s.s.s.p.p.p.p.s.s.s.p.p.p.s.s.a.a.a.a.a.a.a.a.a.a.a.j.a.p.h.Z.B.k.a.a.f.f.N.N.B.B.N.N.B.B.B.B.B.B.B.B.B.B.B.B.B.m.m.m.m.B.B.B.B.B.B.B.B.B.B.B.B.B.B.B.B.B.B.B.B.B.B.B.B.B.B.B.B.B.B.B.B.B.Z.Z.A.Z.Z.A.A.Z.A.P.P.B.f.b.N.B.Z.A.Z.Z.A.A.A.A.A.A.A.A.A.A.A.A.A.A.S.S.S.A.A.A.V.Z.A.A.Z.Z.S.A.A.A.A.A.A.A.A.A.A.A.A.A.A.A.A.A.A.A.A.A.A.A.A.A.A.A.A.S.S.A.A.V.S.Y.Q.A.N.N.N.N.V.V.V.V.V.V.V.V.V.Z.N.N.N.V.V.V.N.N.Z.Z.Z.Z.V.V.V.Z.B.B.B.B.B.N.B.B.N.N.N.N.N.N.N.N.N.N.N.N.N.B.B.B.B.B.N.N.B.B.B.B.N.N.N.N.N.N.N.N.A.Y.f.f.N.f.N.N.N.N.N.N.N.N.N.N.B.B.B.N.N.N.N.N.f.h.f.f.f.h.h.h.m.m.m.m.m.m.m.h.h.h.h.j.j.j.j.j.j.j.j.j.j.j.a.j.j.j.j.j.j.j.s.p.p.p.p.p.p.s.s.s.B.c.p.N p.p.N p.p.p.p.p.p.p.p.s.p.p.p.p.p.p.u.u.N N N N u.u.N N N N V N N N C C C C C C C C C C C C C C C C C C C C C ",
"C C C C C C C C C C n n n C C C C C C C N N N N N C C C C C C N C C C C C C C N N N P P P P P p.p.p.p.P N N P P p.p.p.P N P P N p.p.p.p.p.p.p.p.p.p.p.p.p.p.p.p.a.a.a.a.a.p.p.p.p.p.p.p.p.a.a.a.h.f.a.p.a.a.a.a.f.f.f.f.f.f.b.b.f.f.f.f.f.f.f.f.f.f.f.f.f.f.f.f.B.B.b.b.b.b.B.B.b.b.B.B.B.b.b.b.N.N.N.N.b.b.b.b.b.b.b.b.b.b.b.b.b.b.b.b.b.b.b.b.A.N.b.b.b.N.b.b.b.b.b.b.b.b.b.b.b.b.b.b.b.b.b.b.N.N.b.b.b.N.N.N.b.Z.Z.Z.N.N.N.N.N.B.Z.Z.Z.N.N.N.B.B.B.B.B.B.B.N.Z.Z.N.N.N.N.N.N.V.V.N.N.N.N.V.V.A.A.N.b.b.b.N.Z.N.N.N.N.N.V.Z.Z.N.N.N.N.N.b.b.b.b.b.b.b.b.b.b.b.N.N.b.b.b.b.b.B.B.B.N.b.B.B.B.B.B.B.B.B.B.B.B.N.N.N.b.b.b.b.b.b.f.b.b.b.b.b.N.N.S.B.N.b.N.N.N.N.b.b.b.b.b.b.b.b.b.b.b.b.b.b.b.f.f.a.a.a.a.a.a.a.f.a.f.f.a.f.f.d.p.p.a.p.p.p.p.p.p.p.p.p.p.p.p.p.p.p.p.p.p.p.p.p.p.p.p.p.p.p.p.p.p.p.p.p.p.p.p.N P P P P P P P P N N N N N N N N N N N N N N C C C C N N C C C C C C C C C C n n n n n n C C n n n n n ",
"n n n n n n n n C C n n n C C C C C C C C C N N C C C C C C C C C C C C C C C C C C N N N N P P P P N N N N P P P P N N N N P P N N P P p.p.u.u.p.p.p.p.p.p.p.p.p.p.p.p.p.p.p.p.p.p.p.p.p.p.p.p.f.a.p.p.a.a.f.a.f.f.f.f.f.f.f.f.f.f.f.f.f.f.f.f.f.f.d.d.f.f.f.f.b.b.f.d.d.d.f.f.f.f.f.f.d.d.f.f.b.b.b.b.b.b.b.b.b.b.b.b.b.b.b.b.b.b.b.b.b.b.b.b.A.N.b.f.b.b.b.b.b.b.b.b.b.b.b.b.b.b.b.b.b.b.b.b.b.b.b.b.b.b.N.N.b.N.N.N.b.b.N.N.b.b.b.b.b.b.b.b.N.N.N.N.b.b.b.b.N.N.N.N.N.b.N.b.N.b.N.b.N.b.N.N.S.V.N.b.f.b.b.N.b.b.b.N.N.N.N.N.N.N.N.N.b.b.b.b.b.b.b.b.b.b.b.b.b.b.b.b.b.b.b.b.b.b.b.b.b.b.b.b.b.b.b.b.b.f.f.f.b.b.f.f.f.f.f.f.f.f.f.f.f.f.f.f.N.b.f.f.f.f.f.f.f.f.f.f.f.f.f.f.f.f.f.f.f.f.f.f.f.f.f.f.f.f.f.f.d.f.d.p.p.p.f.a.p.p.p.p.p.p.p.p.p.p.p.p.p.p.p.p.P P P P N N N N P p.p.p.p.p.p.p.P N N N N N N C N N N N N N N N C C C C C C C C C C C C C C C C C C N N C C C C n n n C C C n n n n n C C C n n n n n ",
"n n n n n n n n n n n n n n n C n n n n C C C C C C C C C C C C C C C C C C C C C C N N N N P P N N N N N N P P s.p.N N N N p.p.p.p.p.p.p.p.p.N p.p.p.p.p.p.p.p.p.p.p.p.P P P P p.p.p.p.p.p.p.p.a.a.p.p.p.p.p.p.p.p.p.p.p.p.p.p.d.d.f.f.f.d.d.d.d.d.d.d.d.a.a.f.b.f.f.f.d.d.d.d.f.f.f.d.d.d.f.b.f.f.f.f.f.f.f.f.f.f.f.f.f.f.f.f.b.b.b.b.b.b.b.b.B.b.b.b.b.b.b.b.b.b.b.b.b.b.b.b.b.b.b.b.b.b.b.b.b.b.b.b.b.b.N.N.f.b.b.f.f.f.f.b.b.b.b.f.f.b.N.N.N.N.N.N.b.b.N.N.b.b.N.b.N.b.b.b.b.b.b.b.b.b.b.b.V.N.N.b.b.b.b.N.b.b.b.N.N.N.N.N.N.N.N.N.b.b.b.b.f.f.f.f.f.f.f.f.b.b.b.b.b.f.f.d.b.b.b.b.b.b.f.f.f.f.f.f.f.f.d.d.f.f.f.f.f.f.d.f.f.f.f.f.f.f.f.f.N.b.f.f.f.f.f.f.f.f.f.f.f.f.f.f.f.f.f.f.f.f.f.f.d.p.p.p.p.p.p.p.p.p.p.p.p.p.p.p.P p.p.p.p.p.p.p.p.p.p.p.p.p.p.p.p.p.P P p.p.p.p.P P p.p.p.p.p.p.P P P N N N N C N N N N N N N N C C C C C C C C C C C C C C C C C C C C C C n n n n C C C C C C n n n n n n n n z z z ",
"C C C C C C C C n C C C C C C N N N N N N N V V N N N N N N N N N N N u.N N p.s.s.N P P P p.p.p.p.p.p.s.s.s.g.g.h.s.s.s.s.p.P p.p.p.j.j.j.j.p.p.j.j.j.j.j.j.j.j.h.h.h.h.h.h.h.h.h.j.j.j.j.j.a.a.h.h.h.j.h.h.h.h.a.j.f.f.f.f.f.f.m.m.m.m.m.m.m.m.m.m.m.m.m.m.B.B.B.M.B.Z.B.b.f.b.B.B.B.B.M.M.B.Z.B.B.B.B.B.B.B.B.B.B.B.B.B.B.B.B.B.B.B.B.B.B.A.Z.K.A.B.B.B.A.Z.B.Z.Z.Z.Z.Z.Z.Z.Z.Z.Z.Z.Z.Z.Z.Z.Z.Z.Z.B.B.Z.Z.A.A.Z.B.B.Z.Z.N.N.N.Z.Z.Z.Z.Z.A.A.A.A.A.A.A.A.A.A.A.A.A.A.A.A.A.A.A.Z.A.A.Z.S.Z.Z.A.K.A.A.A.A.A.A.A.A.A.A.A.A.A.A.A.A.A.A.A.Z.Z.Z.B.Z.Z.Z.Z.Z.Z.Z.Z.B.B.B.B.B.B.b.b.m.B.Z.Z.Z.B.B.M.B.Z.B.B.Z.B.B.B.B.B.B.B.B.B.b.b.B.M.B.B.B.B.B.B.A.Z.B.B.B.B.B.B.b.M.M.M.M.M.M.M.N.M.N.M.M.M.M.m.m.h.h.h.h.h.h.h.h.h.f.f.f.a.a.p.p.p.a.j.j.j.j.h.a.j.j.j.j.j.j.j.j.h.h.h.h.h.h.h.j.j.j.j.j.j.j.j.s.s.s.s.p.p.s.s.s.p.p.p.p.p.p.p.s.U U U s.s.s.s.i.u.N N N i.i.N N N N V V N C n C C N N V V V V C n C C C C n n n n C ",
"V V V V V V V V V V V V V V V W W W s.s.s.s.s.s.s.s.s.s.i.s.s.s.s.s.s.s.s.x.x.x.x.x.g.g.g.g.l.l.g.g.g.x.c.c.c.c.x.g.h.F.c.p.N N s.s.h.h.B.c.h.h.h.h.h.h.c.F.F.c.H.H.H.H.H.H.H.H.H.H.B.F.m.h.F.F.B.J.J.B.B.J.J.J.J.J.H.H.H.H.J.J.J.J.J.J.J.J.J.J.J.J.J.J.J.J.J.P.J.Z.J.P.H.M.b.b.B.Z.H.H.H.J.Z.H.K.K.H.H.H.K.K.K.K.K.K.K.K.K.H.H.P.P.K.P.P.P.P.P.P.P.P.P.P.P.P.P.P.P.K.K.K.K.P.P.K.K.P.P.P.K.K.K.A.A.A.A.A.P.P.P.P.K.P.Q.Q.K.B.B.Z.A.A.K.K.K.K.P.P.Q.Q.Q.Q.Q.Q.Q.P.P.P.P.Q.P.Q.P.P.P.P.P.P.P.Q.P.Q.Q.Q.Q.Q.P.P.Q.Q.Q.Q.Q.Q.P.K.K.P.P.P.P.P.P.A.P.K.K.K.K.P.P.P.P.K.H.H.K.P.H.Z.M.m.Z.H.P.P.K.K.K.P.P.P.P.P.P.K.K.K.K.K.K.K.K.K.K.K.K.K.K.K.K.K.K.K.H.Z.J.J.H.Z.Z.H.H.H.H.H.H.H.H.K.H.H.H.H.H.H.H.J.J.J.J.J.J.J.J.J.J.J.J.J.B.h.a.p.a.h.h.h.h.c.B.B.B.B.B.B.B.c.B.h.h.c.c.c.c.c.c.F.c.c.c.c.c.c.c.h.g.g.g.g.g.g.g.g.g.x.x.h.g.g.g.x.x.x.x.x.x.x.x.s.s.s.s.s.s.s.s.s.s.s.s.x.s.V N C C N V V V V V V V V V W W W W W W W ",
"N N N N N N N N N N N N N N V V V V V V V V V V V N N N N N V i.V V V U U U s.p.s.U U U U p.p.s.p.p.p.p.p.s.g.g.s.p.g.F.c.p.C C p.p.s.j.h.h.h.h.j.j.j.j.j.j.j.j.h.h.h.h.h.h.h.h.h.h.h.h.j.h.h.h.h.h.h.h.h.h.F.F.h.c.m.m.m.m.M.M.B.B.B.B.B.B.B.B.B.B.B.B.B.B.B.B.B.M.B.K.H.b.d.f.b.M.Z.Z.Z.B.B.B.B.B.B.B.B.B.B.B.B.B.B.B.B.B.B.B.B.B.B.B.B.Z.Z.A.A.Z.Z.Z.Z.Z.Z.Z.Z.Z.Z.Z.Z.Z.Z.Z.Z.Z.Z.Z.Z.Z.Z.Z.Z.Z.Z.Z.Z.Z.Z.A.A.Z.A.Q.Q.B.f.f.b.N.A.A.P.P.A.Z.A.A.A.A.A.A.A.A.A.A.A.A.A.A.A.A.A.A.A.A.A.A.A.A.Z.Z.Z.Z.A.A.A.A.A.A.A.A.Z.Z.Z.Z.Z.Z.A.A.Z.Z.Z.Z.A.A.A.A.Z.Z.Z.Z.B.B.B.Z.H.J.M.f.f.M.H.P.K.H.K.P.Z.Z.Z.Z.J.Z.Z.Z.Z.Z.Z.J.Z.Z.Z.A.H.H.Z.Z.Z.Z.Z.Z.Z.Z.Z.Z.Z.Z.Z.M.Z.Z.Z.Z.Z.Z.Z.Z.Z.Z.Z.Z.Z.Z.Z.B.B.B.B.B.B.J.B.B.c.c.B.J.J.B.p.u.p.p.j.h.h.h.h.h.j.j.h.h.h.h.j.h.j.j.j.j.j.j.j.j.h.h.h.j.j.j.j.j.s.p.p.p.p.p.p.p.p.p.p.p.p.p.p.p.s.s.s.s.s.s.s.s.U U V V V V V V V V V s.s.s.N C C C N N V V V V V V V V V V V V V V V ",
"n n n n n n n n C C C C n C C C C C C C C C C C C C C C C C C C C C C C N N N N N N N N N N P P P P N N N N P P s.N p.c.c.P C C p.p.p.p.p.j.j.j.p.p.p.p.p.p.p.p.p.p.p.p.p.p.p.p.p.j.p.p.p.s.s.s.p.p.j.g.s.p.j.g.p.p.d.d.d.d.d.d.h.h.h.h.h.h.h.h.f.f.a.a.f.h.f.m.m.b.M.K.H.b.d.d.d.b.b.b.b.b.b.M.b.b.b.b.b.b.b.b.b.b.b.b.b.b.b.b.b.b.b.b.b.b.b.b.b.b.b.b.b.b.b.b.b.f.f.f.f.f.f.f.f.f.f.f.f.f.f.f.f.f.f.f.f.f.f.B.B.f.f.A.A.b.d.d.b.b.N.B.Z.B.B.B.b.b.b.b.b.b.b.b.b.b.M.M.M.M.M.M.M.M.M.M.M.M.M.M.b.b.b.b.b.b.N.B.N.N.B.N.N.N.b.b.b.N.B.N.N.f.f.f.B.B.N.N.N.B.N.m.b.b.n.M.H.Z.n.d.d.n.H.H.Z.Z.H.H.M.M.B.B.M.M.b.b.M.M.M.M.M.B.B.B.M.M.M.M.M.M.M.M.M.M.M.M.M.M.M.m.M.m.m.m.m.m.m.m.m.m.m.m.m.m.m.m.h.h.h.h.h.h.h.h.a.a.a.h.B.h.p.u.p.p.a.j.j.j.j.j.p.p.p.p.p.p.p.p.p.p.p.p.p.p.p.p.p.p.p.p.p.p.p.P p.s.P U U U U U P P P P P P P P N N N N N N V V N N N N N N C C C C C N V V C n C C C N N N N N N M n n n M n n C C C ",
"n C C C C C C C C C C C C C N N V N N N N N N N N N N N N N N N N N N N N V U U U U U U U U U p.U U s.P U U s.U s.N P l.c.P N P p.p.p.p.p.p.p.s.j.s.s.s.s.s.s.s.j.j.j.j.j.j.j.j.j.j.j.j.j.h.h.h.s.g.c.c.h.g.h.D.h.h.h.h.m.h.m.m.m.m.m.m.m.m.m.m.h.h.h.h.h.m.m.B.m.f.M.P.P.n.d.d.f.d.f.d.d.d.b.B.M.M.M.M.b.M.M.M.M.M.M.M.b.M.M.M.b.b.b.b.b.m.M.M.b.M.B.M.b.b.b.B.M.m.M.m.B.m.M.m.B.m.M.m.M.B.M.m.B.N.N.N.B.B.B.B.Z.f.f.A.K.B.f.b.b.b.b.b.N.N.B.B.B.B.B.B.Z.Z.Z.B.B.B.Z.Z.Z.Z.Z.Z.Z.Z.Z.Z.Z.Z.Z.Z.Z.B.B.B.B.B.Z.A.A.A.A.Z.Z.Z.Z.Z.B.B.B.B.B.B.B.B.B.B.B.B.B.B.B.B.B.B.Z.K.P.P.Z.n.d.n.M.Z.M.n.M.H.Z.Z.Z.Z.H.Z.Z.B.B.B.B.Z.Z.Z.Z.Z.H.H.H.H.H.H.H.H.Z.M.M.M.Z.Z.M.M.M.M.M.M.M.M.M.M.M.M.M.M.M.M.M.M.m.h.h.h.h.h.h.h.h.h.h.h.J.J.h.a.p.p.a.j.j.j.a.p.a.j.j.j.j.j.j.j.p.p.s.s.s.s.s.s.s.s.s.s.s.p.p.p.s.U s.U s.U s.U p.U p.U p.U p.U p.s.p.s.s.s.s.s.V V V V V V V V N C N V s.s.N n C C C N N N N N N N N N N N N M C C C ",
"m m n n C C C C n n C C C C C M M M M M N N N N N C C n C M N N N N V V V V N N N V V V N N N N P P U U P P P U P N U x.s.M C N P P p.p.s.s.s.s.s.s.j.s.s.s.a.j.j.s.j.s.j.j.j.j.j.j.j.j.j.j.j.j.j.j.j.j.j.j.j.h.j.j.j.j.j.j.j.j.h.n.n.h.h.h.h.h.h.n.h.n.n.h.h.f.m.m.a.H.H.p.p.p.a.a.h.h.h.h.h.n.n.m.b.m.b.n.b.m.b.m.b.m.b.n.b.m.b.n.b.m.b.m.b.n.b.m.b.m.b.n.b.b.b.b.b.b.b.b.N.B.N.N.N.B.B.B.N.N.B.B.B.B.B.N.b.b.B.B.N.Z.Q.B.f.f.f.b.N.B.B.N.B.B.B.B.B.B.B.B.B.B.B.M.B.B.B.B.B.B.N.N.N.N.N.N.M.M.B.N.N.B.B.B.B.B.B.M.N.b.N.N.N.B.B.B.B.B.B.B.B.B.B.B.B.N.N.N.N.B.M.M.b.Z.P.J.f.f.f.b.b.B.Z.Z.M.M.F.F.F.F.B.B.B.B.M.M.M.M.M.M.M.M.M.M.M.M.M.M.M.M.M.M.M.M.M.M.M.M.M.M.M.M.M.M.M.M.M.M.M.M.M.M.M.M.m.m.m.m.m.m.m.m.h.h.h.h.B.c.s.N N p.p.s.j.j.h.j.j.j.j.j.j.j.j.j.s.s.s.s.j.j.s.s.s.s.s.s.p.p.s.P U U U U P U P U P U P U U U P P U U U P U P I I U U N N N N N N N N C V s.W N n n n C C M M C C n n n n n n n n n n n ",
"m m n n n n C C n n C C C C C C M M M M N N N N N C C C M M N N N N V V V V N N V V V V V V V N P U U U P P U U P M U x.s.M C N P P p.p.s.s.s.s.s.s.j.j.j.s.a.s.s.s.s.s.j.j.j.j.j.j.j.j.j.j.j.j.j.j.j.j.j.j.j.h.j.j.j.j.j.j.j.j.h.n.n.n.h.h.h.h.g.n.h.n.n.h.h.h.m.h.j.H.J.p.p.p.p.a.h.h.j.j.h.n.n.m.m.m.m.n.n.m.m.m.m.m.n.m.m.m.n.n.m.m.m.m.n.n.n.m.m.m.m.n.n.b.b.b.b.b.b.b.N.N.N.N.N.N.B.N.N.N.B.B.B.B.B.N.N.b.B.B.b.Z.Q.B.f.f.f.b.N.B.B.N.B.B.B.B.B.B.B.B.B.B.M.M.B.B.B.B.B.B.b.b.N.N.M.B.M.M.B.B.B.B.B.B.B.B.M.M.b.b.N.N.B.B.B.B.B.B.N.B.B.B.B.B.N.N.N.N.N.N.B.B.N.Z.P.Z.f.f.f.b.b.B.Z.Z.M.M.F.F.F.F.F.F.M.M.M.M.F.F.M.M.M.M.M.M.M.M.F.F.M.M.M.M.F.F.F.F.M.M.M.M.M.M.M.M.M.M.M.M.M.M.M.M.M.m.m.m.m.m.F.F.F.c.x.h.h.h.B.c.s.N N p.s.s.j.j.g.j.j.j.j.j.j.j.j.j.s.j.s.s.j.j.s.s.s.s.s.s.p.p.s.U U U U U U U U U U P U U U U P P U U U U U P I I U U N N N N N N N N C V W W N n n C C C M M C C n n n n n n n n n n n ",
"m n n n m m C C n n C C C C C C N N N N N N M M N C C C C N N N N N V V V V V V V V V V V V V V P U U U P P U U P M U x.s.M C N P P U p.p.s.s.s.s.s.j.j.j.j.j.s.s.s.s.j.j.j.j.j.j.j.j.j.j.j.j.j.j.j.j.j.j.j.j.h.g.j.j.j.j.j.g.g.h.n.n.n.n.n.h.h.g.n.n.n.n.h.h.h.m.h.a.H.J.p.p.p.p.a.h.h.j.j.h.h.n.n.m.m.m.m.m.m.m.m.m.m.n.n.m.m.n.m.m.m.m.m.m.m.n.n.m.m.m.m.m.b.b.b.b.b.b.b.b.B.N.b.M.M.M.M.N.N.b.M.M.M.M.b.b.b.M.M.b.Z.P.B.d.f.f.b.b.B.b.b.M.B.B.B.B.B.B.B.B.B.B.B.B.B.M.M.B.B.b.b.M.M.M.M.M.M.B.B.B.B.B.B.B.B.M.M.b.b.M.M.B.B.M.M.b.N.b.b.M.M.M.M.b.b.N.N.N.M.B.B.N.Z.P.Z.f.f.d.b.n.M.Z.Z.M.M.B.F.F.F.F.F.F.F.M.M.F.F.F.M.M.M.M.M.M.F.F.M.M.M.M.M.F.F.F.F.F.M.M.M.M.M.M.M.M.M.M.M.M.M.M.M.M.m.m.m.m.m.F.F.h.h.x.h.h.h.B.h.s.N N p.p.j.j.j.g.j.j.j.j.j.j.j.j.j.s.s.j.j.j.j.s.s.s.s.s.s.p.s.s.U U U U U U U U U P P P P U U U P U U U U U P N N U U V N V V N V N N C V s.s.N n n n C C M M C C n n n n n n M M n n n ",
"m n n m m m C C n n C C C C C N N N N N M M M M M C C C C N N N N N V V V V V V V V V V V V V V P U U U P P U U P N U s.s.M C N P P U p.p.s.s.s.s.s.j.j.j.j.j.s.s.s.j.j.j.j.j.j.j.j.j.j.j.j.j.j.j.j.j.j.j.j.j.h.g.j.j.j.j.j.j.g.h.n.n.n.n.h.h.h.g.h.n.n.n.h.n.h.h.h.a.H.J.p.p.p.p.a.h.h.j.j.h.h.m.n.m.m.m.m.m.m.n.n.m.m.m.m.m.m.m.m.m.m.m.m.m.m.m.n.m.m.m.m.m.m.b.b.b.b.b.b.b.N.b.b.M.M.M.M.N.N.b.M.M.m.M.b.b.b.b.M.b.Z.P.B.d.f.f.b.b.B.b.b.M.B.M.M.M.M.N.N.N.M.M.b.b.b.b.M.M.M.b.M.M.M.M.M.M.M.b.b.b.b.B.B.B.B.M.M.b.b.M.M.M.M.M.b.b.N.b.b.M.M.M.b.b.b.N.N.N.M.B.B.N.Z.P.Z.f.f.d.b.n.M.Z.Z.M.M.M.F.F.F.F.F.F.F.M.M.F.F.F.M.M.M.M.M.M.F.F.F.M.M.M.F.F.F.F.F.F.M.M.M.M.M.M.M.M.M.M.M.M.M.M.M.M.m.m.m.m.m.c.F.h.h.h.h.h.h.B.h.s.N N p.p.s.j.j.j.j.j.j.j.j.j.j.j.j.s.s.j.j.j.j.s.s.s.s.s.s.p.p.s.P U U U U U U U U P P P P U U U U U U U U U P N N U U V N V V V V N N C V s.s.N n n n C C M M C C n n n n n n n M n n n ",
"m m m m m m n n n n C C C C C C N N M N N N M M N n n n n N N N V V V V V V V V V N V V V V V V P U U U P P U U P N U x.s.M C N P P s.p.p.s.s.s.s.s.s.s.j.j.s.s.j.j.j.j.j.j.j.j.j.j.j.j.j.j.j.j.j.j.j.j.s.j.j.h.g.h.j.j.j.j.h.h.h.h.h.g.h.h.h.h.g.h.h.h.h.h.h.g.h.h.j.J.H.p.p.p.p.a.h.h.j.j.h.h.m.m.m.m.m.m.m.m.n.m.m.m.m.m.m.m.m.m.m.m.m.m.m.m.m.m.m.m.m.m.m.m.b.b.b.b.b.b.b.N.b.M.M.M.b.b.b.b.b.b.B.B.B.b.b.b.M.M.b.Z.P.B.d.b.f.b.M.B.b.b.b.B.M.M.b.N.B.B.M.M.B.B.B.B.b.b.b.b.B.M.M.M.b.b.M.M.M.M.B.B.B.B.M.M.M.M.M.M.M.M.b.b.b.N.N.N.N.b.b.b.M.M.N.N.N.N.M.M.B.B.b.Z.P.A.d.d.d.b.n.M.M.H.M.M.M.M.F.F.F.F.F.F.M.F.F.F.F.M.M.M.F.F.F.F.F.F.F.M.M.M.F.F.F.F.M.M.M.M.M.M.M.M.M.M.M.M.M.M.M.M.M.m.m.m.m.m.c.h.h.h.h.h.h.c.B.c.s.N N p.p.s.j.j.j.j.j.j.j.j.s.s.s.s.s.j.j.j.s.s.s.s.s.s.s.p.p.p.s.P P U U U U U U U U U U U P U P U U U U P P P N N V V V V N N N N N M n V s.U N n n n C C N N C C n n n n n n n n n C n ",
"m m m m m m n n n n C C C C C C N N M M N N N N N n n n n N N N V V V V N V V V N N V V V V N N P U U U P P U U P N U x.s.M C N P P s.p.p.s.s.s.s.s.s.s.j.j.j.j.j.j.j.j.j.j.j.j.j.j.j.j.j.j.j.j.j.j.j.j.j.j.j.h.h.h.j.j.j.j.h.h.h.h.h.g.h.h.h.h.g.h.h.h.h.h.h.g.h.h.j.J.J.p.p.p.p.a.h.h.j.j.h.h.m.m.m.m.m.m.m.m.m.m.m.m.m.n.m.m.m.m.m.m.m.m.m.m.m.m.m.m.m.m.m.m.b.b.b.b.b.b.b.N.b.M.M.M.M.M.b.b.b.b.B.N.B.b.b.b.M.M.b.Z.P.B.d.f.f.b.M.B.b.b.b.B.b.b.b.b.b.b.b.b.b.b.b.b.b.b.b.b.B.B.M.M.b.M.M.M.b.b.b.b.b.b.b.b.M.M.M.M.M.M.b.b.b.B.N.N.N.b.b.b.M.M.N.N.b.N.M.M.B.B.b.Z.P.H.f.f.d.b.n.M.M.H.M.M.M.M.F.F.F.F.M.M.M.F.F.F.F.F.M.M.m.M.F.F.M.F.F.F.M.M.F.m.F.F.M.M.M.M.M.M.M.M.M.M.M.M.M.M.M.M.M.m.m.m.m.m.h.h.h.h.h.h.h.h.B.c.s.N N p.p.s.j.j.j.j.j.j.j.j.s.s.s.s.s.j.j.j.s.s.s.s.s.s.s.p.p.p.s.P U U U U U U U U U U U U P U P U U U U P U N N N V V V V N N N N N N n V s.W N n n n C C C C C C n n n n n n n n C C n ",
"n n n m n n n n n n C C C C C C N M M M N N N N N N n n M N N N V V N N V V V V N N V V V V N N P U U U P P U U P N U x.s.M C N P P U U p.s.s.s.s.s.s.s.s.s.s.s.j.j.j.j.j.j.j.j.j.j.j.j.j.j.j.j.j.j.j.j.s.j.j.h.h.h.h.j.j.h.h.h.h.h.g.g.h.h.h.h.g.h.h.h.h.h.h.g.h.h.j.J.J.p.p.p.p.a.h.h.j.j.h.h.m.m.m.m.m.m.n.n.m.m.m.m.n.n.m.m.n.n.m.m.m.m.n.n.m.m.m.m.m.m.n.n.b.b.b.b.b.b.b.M.M.M.M.M.M.M.M.M.b.M.M.M.M.b.b.b.M.M.b.Z.P.B.d.b.f.b.M.B.M.b.M.M.b.b.b.b.m.m.m.m.b.b.b.b.b.b.b.b.B.B.N.N.b.b.M.M.b.b.b.b.b.b.b.b.M.M.B.M.N.N.b.N.M.M.M.M.M.M.m.m.M.M.M.M.m.m.M.M.B.B.b.Z.P.H.f.d.d.b.m.M.M.H.M.M.M.F.F.F.F.M.M.M.M.M.F.F.M.M.M.M.M.M.M.M.M.M.M.M.M.M.M.M.m.m.m.M.M.M.M.M.m.m.M.M.M.M.M.M.M.M.M.M.m.m.m.m.c.c.c.c.h.h.h.c.B.c.s.N N p.p.s.j.j.j.j.j.j.j.j.s.s.j.j.s.s.s.s.s.s.s.s.s.s.s.s.p.p.U P U U U U U U U U U U U U P P U U U U U P U N N V V V N N N N N N N N C N s.s.N n n n C C C M C C n n n n n M n n C C C ",
"n n n n n n C C n n C C C C C C N N M M N N N N N N n M M N N N V V N N V V V V N N V V V V N N P U U U P P U U P M U x.s.M C N P P U U p.s.s.s.s.s.s.s.s.s.s.s.j.j.j.j.j.j.j.j.j.j.j.j.j.j.j.j.j.j.s.s.s.j.j.h.h.h.j.j.j.j.h.h.h.h.g.g.g.h.h.h.g.h.h.h.h.h.h.g.h.h.j.J.J.p.p.p.p.a.h.h.j.j.h.h.n.m.m.m.n.n.n.m.m.m.m.m.n.n.m.m.n.m.m.m.m.m.n.n.n.m.m.m.m.n.n.n.b.b.b.b.b.b.b.M.M.M.M.M.M.M.M.M.b.M.M.M.M.b.b.b.M.M.b.Z.P.B.d.b.f.b.M.B.M.b.M.M.b.b.b.b.m.m.m.m.b.b.b.b.b.b.b.b.N.N.N.N.b.b.M.b.b.b.b.b.b.b.b.b.b.M.B.N.N.N.N.N.M.M.M.M.M.M.m.m.M.M.M.M.m.m.M.M.M.B.b.Z.P.H.d.d.d.b.m.M.Z.H.M.M.M.F.F.F.M.M.M.M.M.M.M.M.M.M.M.M.M.M.M.M.M.M.M.F.M.M.M.M.m.m.M.M.M.M.M.M.m.M.M.M.M.M.M.M.M.M.M.m.m.m.m.m.h.c.c.c.h.h.h.h.B.c.s.N N p.p.j.j.j.j.j.j.j.j.j.s.s.s.j.s.s.s.s.s.s.s.s.s.p.s.s.p.U U P U U U U U U U U U U U P P P U U U U U P U N V V V V N N N N N N N N C N s.U N n n n C C C C C C M M n n n M M n C C C ",
"z z n n n n n n C n C C C C C C C M M M N N N M C C C M N N N M N N N N N N V V V V N N N N V V N N N N P P P P P M U l.l.P C M N N P U P P s.p.s.p.p.p.s.s.s.s.s.s.j.j.j.s.s.s.s.s.s.s.s.j.j.j.p.j.h.h.s.p.s.s.j.j.j.j.j.j.j.j.j.j.j.j.j.j.j.h.j.j.h.h.h.h.h.h.h.j.h.J.H.j.p.p.p.j.h.h.j.h.h.m.n.n.m.m.m.n.n.n.f.f.f.f.n.n.m.m.m.m.m.m.m.m.m.m.d.f.n.m.m.f.f.f.B.M.m.m.m.B.m.B.m.m.m.m.m.m.B.B.M.M.B.M.b.b.M.B.Z.b.b.H.P.M.d.d.d.b.M.B.Z.B.B.M.M.M.B.B.M.M.M.M.B.B.B.B.B.B.B.B.B.B.B.B.B.B.B.B.b.M.B.B.B.b.b.b.B.B.B.B.B.B.B.B.m.m.m.m.M.M.m.m.M.M.M.m.M.M.M.M.m.b.M.Z.P.H.m.d.d.d.m.M.M.M.M.M.M.F.H.F.F.M.M.M.M.M.M.M.M.M.M.M.m.m.m.m.m.h.h.h.m.m.F.F.F.m.m.m.m.m.m.m.m.m.M.M.n.n.m.m.m.m.m.m.h.h.h.h.h.h.h.h.j.s.s.c.J.c.p.C p.p.j.j.j.j.s.s.s.s.s.s.s.s.j.j.s.s.j.j.s.s.p.p.p.p.p.p.U U p.U N P P U p.U U U U U U U U U U U U U U U N N N N N N N N N N N N N C C V s.s.N n n C M N C C C C n n n n C C C n n n C ",
"n n n n n n n n C C C C C C C C C C C C C C C C C N M N N N N M N N N C N N V V N V V N N N N N P P U U P P U I N M U l.l.P C M N P U U U U s.p.p.p.p.s.s.s.s.s.s.j.j.j.s.s.s.s.j.j.s.s.s.j.j.j.p.j.h.h.h.j.j.h.h.h.h.h.h.h.h.h.h.h.h.h.h.h.h.h.h.h.h.h.h.h.m.m.h.j.h.J.J.j.p.p.p.a.j.j.j.j.h.h.f.f.h.f.n.n.h.h.f.f.f.f.n.n.h.n.m.m.m.m.n.n.n.n.n.n.n.b.f.f.f.n.m.m.m.m.m.m.m.m.m.m.m.m.m.m.m.m.m.M.M.m.b.b.b.M.Z.b.b.H.K.M.d.d.d.b.M.B.B.B.M.M.M.M.M.M.M.M.M.M.B.B.B.M.b.b.N.B.B.B.B.B.B.B.B.B.B.B.B.B.b.b.M.B.N.b.b.b.M.M.M.M.m.m.m.M.M.M.m.M.M.M.B.B.M.M.M.M.m.b.m.Z.H.H.M.d.d.d.m.M.M.M.M.M.H.H.H.H.F.F.F.M.M.M.F.F.F.F.F.F.M.F.F.F.F.m.m.m.F.F.F.F.m.m.m.m.M.M.F.F.F.F.M.M.m.m.m.m.m.m.m.m.m.m.m.m.c.c.F.F.h.j.j.c.J.B.s.N N p.p.s.s.s.s.s.s.s.s.s.s.s.j.j.s.s.s.s.s.p.p.s.p.p.U U U U U U P P U U U U U U U U U U U U U U U U U U V V V V N N N N N N N N N C N V s.s.N n n n C M C C C C N N M M M C C C M M M ",
"n n n n n n n n n n C C C C C C C C C C C C C C N N N N N N n C N N N N N N N V N N N N N V V V U U U U P P P P N M U x.x.P M N N P U U U U p.p.p.p.p.p.p.s.s.s.s.s.s.s.s.s.s.s.s.s.s.s.s.s.s.s.p.s.h.h.h.j.j.j.h.h.h.h.h.h.h.h.h.h.g.h.h.h.h.h.h.h.h.h.h.h.h.h.j.a.h.J.J.j.p.p.p.p.j.j.a.a.j.h.f.f.f.f.f.f.h.h.n.n.h.h.f.f.h.f.f.f.f.b.b.b.n.n.m.n.n.f.f.f.f.n.b.f.f.f.f.f.f.f.f.f.f.f.f.f.f.f.n.n.n.n.b.b.b.M.M.b.b.Z.H.M.d.d.d.b.M.M.M.M.M.M.M.M.m.m.M.M.M.M.M.M.M.M.M.b.b.b.M.M.B.B.B.B.B.B.B.B.B.b.b.b.b.M.N.N.b.b.b.M.B.B.M.m.M.M.M.M.M.M.M.M.M.M.M.M.M.M.m.b.m.Z.H.H.m.d.d.d.m.M.M.M.F.F.M.M.F.F.F.M.M.m.M.M.M.F.M.M.M.M.M.m.F.F.m.m.m.m.F.m.m.h.h.h.m.m.m.m.m.m.m.m.m.m.m.m.m.m.m.m.m.m.h.h.h.m.h.h.h.h.h.j.j.h.B.c.s.N N p.p.p.p.p.p.p.s.s.s.s.s.s.s.s.p.p.p.s.p.p.P P U U U U U U U U U U P P P U U U U U U U U U U U U U U U V V N N N N N N N N C N N N C N W W N n n C C M C C C C n M M n n n C C n n n ",
"z z n n n n n n n n n n n n C C C C n n n n n n N N N C C C C n C C C C C C C N C C C N N C N N N N N N N N N N N M P s.s.P M N N P U U U P U U P P P P P P P p.p.p.p.p.p.p.p.p.p.p.p.p.p.p.p.p.p.p.s.s.s.s.p.p.p.p.s.s.p.p.p.p.p.p.p.d.p.p.s.j.s.j.j.j.s.j.j.j.a.a.h.H.B.j.p.p.p.p.p.p.p.p.a.j.a.f.f.f.f.f.f.f.f.f.f.f.d.d.d.d.f.f.f.f.f.f.f.d.n.f.d.d.d.d.d.d.d.d.d.d.f.f.f.f.d.d.d.d.f.f.f.f.b.b.b.b.d.d.b.n.m.b.b.M.Z.n.d.d.d.b.b.m.M.n.b.b.n.n.b.b.b.b.n.n.b.b.b.b.b.b.b.b.f.f.f.f.f.f.f.f.M.b.b.b.b.b.b.f.b.b.b.b.b.b.b.b.b.b.b.b.b.b.b.b.n.n.b.b.b.b.n.n.b.b.b.M.Z.Z.b.d.d.d.n.m.M.m.n.M.h.h.n.n.g.g.g.g.g.g.g.g.g.g.h.h.g.j.j.j.g.j.a.a.h.g.j.a.j.g.j.j.a.a.j.j.g.d.d.d.d.d.d.d.g.d.d.d.j.j.j.j.j.j.j.j.s.p.p.s.h.h.p.N N p.p.p.p.p.p.p.p.p.p.p.p.p.p.p.P p.p.p.p.P P N P P P P P P I P N N N N N P P P N N N N N N N N N N N N N N C C N N C C C C C C C C n C N N C n n n C C C n n C n n n n n n n n n n n ",
"z z z z z z z z z z n n n n n n n n n n n n n n C C C n n n n n n n n n n n n C n n n n n n n C C C M M M M C C C C M P P M C M C M P P N M N N N N N N N N N N N N N N N N N N N N N N N N N N p.p.p.p.P N N N P P P P P P P N P P N P N N p.p.P P N N N N N N p.p.p.j.j.p.P P p.p.p.p.p.p.p.p.p.p.p.p.p.p.p.p.a.a.p.p.p.p.p.p.p.d.p.p.d.d.d.d.d.d.d.d.d.a.d.p.d.d.d.d.d.d.d.d.d.d.d.d.d.d.d.d.d.d.d.d.d.d.d.d.d.d.d.n.n.b.d.d.d.d.d.d.d.d.d.d.d.d.d.d.d.d.d.d.f.f.f.f.d.f.d.f.d.d.d.d.d.d.d.d.b.f.f.f.b.b.f.d.f.f.f.f.f.f.f.d.d.d.d.d.d.d.d.d.d.d.d.d.d.d.d.d.d.d.d.b.n.n.d.d.T d.d.d.d.d.d.n.d.d.d.d.d.d.T d.T p.T T d.d.d.p.p.p.p.p.p.p.P P p.p.p.p.p.p.p.P P P T T T T T T P P P P P P P P P P P P P P P P p.N N p.p.p.u.N C N N N N N N N N N N N N N N N N N N N N N N M N N M M M M M M M M M M M M M M C C C C C C M M n C C C n n n n n n n n t t t t n n n n C C n z z n C C n n n n z z 9 9 9 9 9 9 z z 9 ",
"z z z z z z n n n n n n n n C C n n n n n n n n n C n n n C n C n n n n n n n C n n n n n n C C M M M M M M M M C C M M M M M M C M N N M M M N N N N N N P P P p.p.p.p.p.p.p.P p.p.p.p.N N N N p.p.N N N P N N p.p.p.p.p.p.p.p.P P p.p.p.p.p.p.p.p.p.p.p.P P P P p.p.p.a.p.p.P p.p.p.p.p.p.p.p.p.p.p.p.p.p.p.p.p.p.p.p.p.p.p.p.d.d.p.p.d.d.d.d.f.d.d.d.d.f.d.d.d.a.d.d.d.d.d.d.d.d.a.a.d.d.d.d.d.d.d.d.d.d.d.d.d.d.d.b.b.d.d.d.d.d.d.d.d.d.d.d.d.d.d.d.d.d.d.d.d.f.f.f.f.f.d.d.d.d.f.f.f.f.f.f.b.f.d.f.b.b.b.f.f.f.f.f.f.f.f.d.d.d.d.d.d.d.d.d.d.d.d.d.d.d.d.d.d.d.d.d.b.b.d.d.T d.d.d.d.d.d.n.d.d.d.a.d.d.d.d.d.d.d.d.d.d.d.d.p.p.p.p.p.p.p.P p.p.P p.p.p.p.P p.p.p.p.p.p.p.p.p.T T T T p.p.p.T T T p.P P P P p.p.p.p.s.p.p.N N N N N N N N p.p.p.p.p.p.p.p.p.N N N N N N M M N N M M M M M M N N N M M M M M M N M M N M M M C C C C C C n n n n n n t t t t C n n n C C C n n n C C n n z n n n n z z 9 z z z z z ",
"m m M M M n n n M M C C N C N N N N N N N N N N C C C C C N V V N N N N N V V V N V V V V V V V U U U U U U U U U U U U U U p.U U U s.s.p.U p.p.p.p.p.s.s.s.s.j.j.j.j.j.j.j.j.j.s.s.j.s.j.j.j.j.j.p.p.p.p.s.h.h.h.h.h.h.h.h.h.h.j.j.h.h.h.h.h.h.h.h.h.h.h.h.h.h.j.h.h.h.h.h.h.j.h.h.m.h.h.h.h.h.h.h.m.h.m.m.m.m.h.h.m.m.m.m.m.m.m.m.m.m.m.m.m.m.B.n.d.d.h.m.M.m.m.m.m.m.M.M.M.M.m.m.m.m.m.m.M.M.M.M.M.M.M.M.M.M.n.M.M.M.M.M.M.M.M.M.M.M.M.M.M.M.M.M.M.M.M.M.M.M.B.B.B.B.B.B.B.B.Z.Z.B.B.Z.Z.B.B.Z.b.f.f.b.B.B.B.B.B.B.B.B.B.B.B.M.m.M.M.M.M.M.M.M.M.M.M.M.M.M.M.M.M.M.Z.Z.M.M.M.m.M.M.M.M.M.M.M.M.M.F.F.M.M.M.m.M.M.m.m.m.M.M.m.m.F.F.F.F.h.h.h.m.j.p.p.p.h.h.h.h.m.m.m.m.m.m.m.h.h.n.h.h.h.h.h.h.h.h.h.h.h.h.h.h.h.h.h.c.c.h.h.s.s.j.j.p.s.s.j.j.j.j.j.j.j.j.j.s.s.p.p.p.p.p.U p.p.U U U U U U s.U P N M N U U U U U U p.U U U U U V V V V N N N N C C C C C C V N N N N N V N N N V V V N N N N M M n n C C C n n n ",
"V V V V V V V V V V V V V V V V s.s.s.s.s.s.s.s.C C C N N V s.s.x.x.x.x.x.x.x.x.x.x.x.x.x.x.x.x.x.x.x.l.x.x.x.x.l.l.l.x.x.l.l.l.l.D.G.G.D.l.l.D.l.l.c.c.c.c.c.c.c.c.c.c.c.c.c.c.c.c.c.B.c.B.B.B.h.j.p.p.j.c.J.J.J.J.J.J.J.J.J.J.J.J.J.J.J.J.J.J.J.J.J.J.J.J.J.J.J.J.H.H.H.J.H.J.H.H.H.H.H.J.H.H.J.J.H.H.H.H.H.H.H.H.H.J.J.P.P.P.P.P.P.P.P.P.H.P.P.B.d.d.n.B.H.H.P.P.P.P.P.P.P.P.P.P.P.P.P.P.P.P.H.P.P.H.H.H.H.P.H.H.P.H.H.P.P.P.P.P.P.P.P.P.P.P.P.P.P.P.P.P.P.P.P.P.P.P.P.P.P.P.P.P.P.P.P.P.P.P.P.Z.f.d.b.Z.K.P.P.P.P.P.P.P.P.P.P.P.P.P.P.P.P.P.P.P.P.P.P.P.P.P.P.P.P.P.P.P.P.P.P.P.P.P.H.H.P.P.P.P.P.P.P.P.H.H.P.P.P.H.H.P.P.P.P.P.P.P.P.P.H.H.P.F.a.p.a.F.H.H.H.H.H.H.H.H.H.H.H.H.H.H.H.H.H.H.H.H.H.H.H.J.H.H.J.J.J.J.J.J.J.J.F.F.J.F.c.c.F.J.F.c.F.c.F.c.F.c.c.D.F.D.F.l.c.c.D.D.D.D.D.D.G.G.D.x.U N N U s.l.l.l.l.l.l.l.l.l.x.x.x.x.x.x.x.s.s.s.s.s.s.s.s.s.x.s.s.s.W s.s.s.s.x.x.x.x.s.s.W W W W W V V V V W W V ",
"z z z z z n n n m m C n n n C C M C n M n n N s.V z z n n C V n N C C C C M V I V N N N V V P P P P N N N P P U P P P P U U U U U P U U P P P P P P P U U U p.p.U U U U U P P p.p.s.p.p.j.p.p.J.B.P N P N p.s.p.p.p.p.p.p.p.p.s.p.p.p.p.s.s.a.a.a.a.a.a.a.d.a.a.a.a.d.a.d.a.d.a.d.a.d.a.d.a.a.a.a.p.p.p.a.a.a.d.d.d.d.d.d.f.f.n.n.n.d.d.m.h.f.H.H.n.p.p.a.d.d.f.n.n.n.n.n.n.n.n.n.n.n.n.n.n.n.n.b.b.b.b.b.b.b.b.b.b.b.b.b.b.b.b.b.b.b.b.b.b.b.b.b.b.b.n.n.n.b.b.b.b.b.b.b.b.b.b.b.n.f.d.M.b.f.H.P.Z.b.d.d.b.n.m.b.b.n.n.n.n.n.n.b.b.b.b.b.b.n.n.b.b.b.b.b.b.b.b.n.n.n.n.n.n.n.n.n.n.h.h.n.n.n.n.n.n.n.h.n.n.n.n.n.n.n.n.n.h.n.n.g.g.g.g.h.h.h.h.H.H.p.T d.d.m.H.M.F.M.M.F.M.M.m.m.m.m.m.m.m.m.m.m.m.m.m.m.m.D.D.m.F.m.m.F.D.m.m.h.h.h.h.h.h.h.h.h.h.c.c.c.h.g.g.s.x.s.s.s.s.x.x.s.s.s.s.s.s.s.s.l.D.C M P C I U U P P P U U U U I I I V I N N N V V V V V N N V N C M M M M C C C V V B B M C C m m m m m m m m n n n ",
"z z z z z n n n m m C n n n n C M C n M n n V s.V n z n n C V n M C C C C M V I V V P P V V P P P N N N N P P U P P P P U U U P P P U U P P P P P P P U U p.p.p.U U U U U P P P p.s.p.p.j.p.p.J.c.N N P N p.s.p.p.p.p.p.p.p.p.s.p.p.p.p.s.s.j.a.a.a.a.a.d.d.d.d.a.a.a.a.a.a.d.d.d.d.d.a.d.a.d.a.a.p.p.p.d.a.a.d.d.d.d.d.d.f.f.n.n.n.d.d.m.f.f.H.H.n.p.p.a.d.d.f.n.h.n.n.n.n.n.h.n.n.n.n.n.n.n.n.b.b.b.b.b.b.b.b.b.b.b.b.b.b.b.b.b.b.b.n.b.b.b.b.b.b.b.b.b.b.b.b.b.b.b.b.n.b.b.b.b.n.d.d.m.b.b.H.P.M.d.d.d.b.n.n.b.n.n.b.n.n.n.n.b.b.b.b.n.n.n.n.b.b.b.b.b.b.b.b.n.n.n.n.n.n.n.n.n.n.n.h.n.n.n.n.n.n.n.h.n.n.n.n.n.n.n.n.h.h.n.n.n.n.n.n.n.n.n.n.H.H.d.T d.d.M.B.M.F.F.F.F.M.M.m.m.m.m.m.m.m.m.m.M.m.m.m.m.m.D.D.m.F.F.F.F.D.m.g.g.g.g.g.g.g.g.g.g.l.l.l.l.g.g.s.x.x.s.s.s.s.x.x.s.s.s.s.s.s.s.s.l.D.M M P C I I U P P P U U U U I I I I I I N N I I V V V V V V C C M M B B C C C V B B B M C m m m m m m m m m n n n ",
"z z z z z n n n m m n n n n C C M n n M n n V x.V n n n z C V C M C C C C M V I N N P P N P P P P P N N N P P U U U U U U U P P P P U U P P P P P P U U U U p.p.U U U U U P p.p.p.s.p.p.a.p.p.J.c.N N u.N p.s.p.p.p.p.p.p.p.p.s.p.s.p.p.s.s.a.a.a.a.a.a.d.d.a.d.d.a.a.a.a.a.d.d.d.d.d.d.d.d.d.a.a.p.p.p.d.a.a.d.g.d.d.d.d.f.h.n.n.m.d.d.m.f.h.H.H.n.d.d.d.d.d.b.n.n.h.h.n.n.n.h.h.h.n.n.h.n.n.n.b.b.b.b.n.b.b.b.n.n.b.b.b.b.n.b.b.b.b.n.n.n.b.b.b.b.b.b.b.b.b.b.b.b.b.b.n.n.b.b.b.n.d.d.m.b.b.H.P.M.d.d.d.d.b.n.b.b.b.b.b.b.n.n.b.b.n.n.n.n.n.n.n.n.b.b.b.b.n.n.n.n.n.n.n.h.n.n.n.n.h.h.n.n.n.n.n.n.n.h.n.n.n.n.n.n.n.n.n.n.n.n.h.n.n.n.n.n.n.n.H.H.d.p.f.d.M.B.M.F.F.F.F.M.M.m.m.m.m.m.m.m.m.m.m.m.D.D.D.D.D.D.m.F.F.F.F.D.m.g.h.l.g.g.l.g.l.l.g.l.l.l.l.g.g.s.s.s.s.s.s.s.s.s.s.Y s.s.s.s.s.s.l.D.C C P C U I U U P P U U P U P P U I I I N N U U V V V V V V C C B B B B B M M B B B B M C m m m m m m m m m n m n ",
"z z z z z n n n m m n n n n C C M n n M n n V x.V n n n z C V C M C C C C N V I N N P P V V P P P P N N N N P U U U U U U U P P P P U P P P U U P P U U U U p.p.U U U U U P p.p.p.s.p.p.f.p.p.J.c.N N u.N p.s.p.p.p.p.p.p.p.p.s.s.s.p.p.p.p.a.a.a.a.a.a.d.d.a.a.d.d.a.a.a.a.a.d.d.d.d.a.d.d.d.a.a.p.p.p.d.a.a.d.h.d.d.d.d.f.h.n.n.m.d.d.m.h.h.H.H.n.p.d.d.d.d.d.n.n.n.n.n.n.h.h.h.n.n.n.h.h.n.n.b.b.b.b.b.n.b.n.n.n.b.b.b.b.n.b.b.b.b.n.n.b.b.b.b.b.b.b.b.b.b.b.n.b.b.b.b.n.b.b.b.m.d.d.m.b.b.H.P.M.d.d.d.d.b.n.b.b.b.b.b.b.b.n.b.n.n.n.n.n.n.n.n.b.b.b.n.n.n.n.n.n.n.h.h.h.n.n.n.n.n.n.n.n.h.h.n.n.n.h.n.n.n.n.n.n.n.h.n.n.n.n.h.n.n.n.n.n.n.n.H.H.d.p.d.d.M.B.M.F.F.F.F.M.M.m.m.m.m.m.m.m.m.m.D.D.D.D.D.D.D.D.m.F.F.F.F.m.m.g.g.g.g.g.l.l.l.l.g.l.l.l.l.g.g.s.s.s.s.s.s.s.s.s.s.Y s.s.s.s.s.s.l.D.C M P C P U U U U U U U P P P P U P I P N N U U V V V V V V M M M B B B M M M B B B B M C m m m m m m m m m m m n ",
"z z z z z n n n m n C C n n C C M M n M n n V x.V n n n z M V C M C C C C M V V N N P P P P P P P P N N N P I U U U U U U U P P P P P P P U U U P P P U U U U p.p.p.U U U U p.p.p.p.p.p.a.p.p.J.B.p.N p.N p.s.p.p.p.p.p.p.p.p.s.s.s.s.p.p.p.a.a.d.d.d.d.a.a.a.a.d.d.a.a.a.a.d.d.d.d.d.d.d.d.d.a.a.p.p.p.a.a.a.a.h.d.d.d.d.d.n.n.n.m.f.d.m.h.h.H.H.n.d.p.d.d.d.n.n.n.n.n.n.n.n.n.n.n.n.n.h.h.n.n.b.b.b.b.b.b.b.b.b.b.b.b.b.b.b.b.b.b.b.b.b.b.b.b.b.b.b.b.b.b.b.b.n.b.b.b.b.b.b.b.b.m.b.d.M.b.b.H.P.M.d.d.d.d.b.n.b.b.b.n.b.b.b.b.n.n.n.n.b.n.n.n.n.n.b.b.b.b.n.n.n.h.n.n.h.h.h.n.n.n.n.n.n.n.n.n.n.n.h.h.h.n.n.n.n.n.h.h.n.n.n.n.g.g.n.n.n.n.n.n.H.H.d.p.d.d.M.H.M.F.F.F.F.M.M.m.m.m.m.m.m.m.m.m.D.D.D.D.D.D.D.D.m.F.F.F.F.m.m.g.n.l.l.g.g.g.l.l.g.l.l.l.l.l.g.g.s.s.s.s.s.s.s.s.s.s.s.s.s.s.s.s.l.D.C M P C U U U U U U P P P P P P I I I P N N I I V V V V V V B B B B M M B B M B B B B M C C m m m m m m m m m m m ",
"z z z z z z n n m m C C n n C C M M n M n n V x.V z z n z M V n N C C C C N V I V V P P P P P P P P N N N N I U U U U U U U P P P P P P P P U U P P U U U U U U p.p.U U U U p.p.p.p.p.p.a.p.p.J.B.P N p.N p.s.p.p.p.p.p.p.p.p.s.s.s.p.p.p.p.a.a.d.d.d.d.a.a.a.a.d.d.d.a.a.a.d.d.d.d.d.d.d.d.a.a.a.p.p.p.a.a.a.a.h.d.d.d.d.d.n.n.n.m.f.d.m.h.n.H.H.n.d.p.d.d.d.n.n.n.n.n.n.n.n.n.n.n.n.n.h.h.n.n.b.b.b.b.b.b.b.b.b.b.b.b.b.b.b.b.b.b.b.b.b.b.b.b.b.b.n.n.b.b.b.b.b.b.b.b.b.b.b.b.b.M.f.d.M.b.b.H.P.M.d.d.d.d.b.n.b.b.b.n.b.b.b.b.n.n.n.n.b.n.n.n.n.n.b.b.b.b.n.n.h.h.n.n.n.n.n.n.n.n.h.n.n.n.n.n.n.n.n.h.h.h.n.n.n.n.h.h.n.n.n.n.g.g.g.n.n.n.n.h.H.H.d.p.d.d.M.H.M.F.F.F.F.M.M.M.m.m.m.m.m.m.m.m.D.m.D.D.m.D.D.D.m.F.F.F.F.m.m.g.g.l.g.g.g.g.l.l.g.l.l.l.l.l.g.g.s.s.s.s.s.s.s.s.s.s.s.s.s.s.s.s.l.D.C C P C U U U U U U P U P P P P I I I P N N I I V V V V V V B B B B M B B B C M B V B M C C m m m m m m m m m m m ",
"z z z z z z n n n n C C n n n n M M M M n C V x.V z n n n C V n C C C C C M V V V V P P P V P P P N N N N N P P P P U U U U I U U U U U P P P P P P U U U U U U p.p.p.p.p.P p.p.p.s.p.p.j.p.p.J.B.P N P N p.s.p.p.p.p.p.p.p.p.s.p.p.s.s.s.s.j.j.d.d.d.d.d.d.d.d.d.d.d.d.d.d.d.d.d.d.d.d.a.a.d.a.a.p.p.d.d.a.a.j.h.d.d.d.d.h.n.n.n.m.f.d.m.h.n.H.H.n.p.p.a.d.d.h.n.h.n.n.n.n.n.n.n.n.n.n.n.n.n.n.b.b.b.b.b.b.b.b.b.b.n.b.b.b.b.b.b.b.b.b.b.b.b.b.b.n.b.b.b.b.b.b.b.b.b.b.b.b.b.b.b.n.f.d.M.b.b.H.P.M.d.d.d.b.b.n.b.b.n.n.n.n.n.n.b.n.b.b.b.b.n.n.n.n.n.b.b.b.n.n.n.n.n.n.n.n.n.n.n.n.h.h.n.n.n.n.n.n.n.h.n.n.n.n.n.n.n.n.n.n.n.n.n.n.n.n.n.n.n.n.H.H.p.p.d.d.M.H.M.M.M.F.F.M.M.M.m.m.m.m.m.m.m.m.m.m.m.m.m.m.m.D.m.M.M.F.F.m.m.g.n.l.l.l.g.g.g.l.g.l.l.l.l.g.g.g.x.x.s.s.s.s.x.s.s.s.s.s.s.s.s.s.c.G.C C N C U U P P U P U U U U P U I I I P N N I I V V V V V V M M C C M C B B C V V V B C C m C m m m m m m m m m m ",
"z z z z z z n n n n C C n n n n M M n M n n V x.V z n n n C V n N C C C C M V V V V P P P P P P P N N N N N P P P P P U U U U U P U U P P P P P P P U U U U p.U p.p.p.p.p.U p.p.p.s.p.p.j.p.p.J.F.P N P N p.s.p.p.p.p.p.p.p.p.s.p.s.s.s.s.s.j.j.d.d.d.d.d.d.d.d.d.d.d.d.d.d.d.d.a.a.d.d.d.a.a.a.a.p.p.d.d.a.a.a.f.d.d.d.d.h.n.n.n.m.f.d.m.h.n.H.H.n.p.p.a.d.d.n.n.n.n.h.n.n.n.n.n.n.n.n.n.n.n.n.b.b.n.n.n.b.b.b.b.b.n.b.b.b.b.b.b.b.n.n.b.b.b.b.b.b.b.b.b.b.b.b.b.b.b.b.b.b.b.b.b.n.d.d.M.b.b.H.P.M.d.d.d.b.b.n.b.b.n.n.n.n.n.n.b.b.b.b.b.b.n.n.n.n.n.n.b.b.n.n.n.n.n.n.n.n.n.n.n.n.n.n.n.n.n.n.n.n.n.n.n.n.n.n.n.n.n.n.n.n.n.n.n.n.n.n.n.n.n.n.H.H.p.p.d.d.M.B.M.M.M.F.F.M.M.M.m.m.m.m.m.m.m.m.m.m.m.m.m.m.m.m.m.M.F.F.F.m.m.g.h.l.l.l.g.g.g.g.g.g.l.l.l.g.g.g.x.x.x.s.s.s.s.s.s.s.s.s.s.s.s.s.l.F.C C N C U P P P P P U U U U P U I I P P N N I I V V V V V V C C C C C C B M M V V V B C C m C m m m m m m m m m m ",
"n n n n n n n n n n n n n C C n C n M M n C V x.N n n C n C V M N N V V V V N N M N N P P I P P I I U U U I I I U U U U I I U U U U U U U U U U p.p.U p.p.p.s.s.p.p.p.p.p.p.p.p.p.p.p.s.p.p.s.h.c.p.N p.p.p.p.p.s.s.s.s.s.s.s.s.j.j.j.j.s.p.s.s.s.s.s.s.s.s.g.d.d.d.d.d.d.d.d.d.a.a.d.d.d.d.d.d.d.j.j.j.g.h.h.h.m.m.m.m.n.n.n.n.n.h.h.n.n.n.M.J.H.n.d.p.d.d.f.d.n.n.n.n.n.n.n.n.n.n.n.n.n.n.n.n.n.n.n.n.n.n.n.n.b.b.b.b.b.b.b.b.b.n.n.b.b.b.b.b.b.b.b.b.b.b.b.b.n.n.n.n.n.n.n.n.n.b.b.n.b.d.n.M.H.M.d.d.d.b.b.b.n.n.n.n.n.n.n.n.n.n.n.n.n.n.n.n.n.n.n.n.n.n.m.m.n.n.n.n.n.n.n.n.n.n.n.n.n.n.n.n.n.n.n.n.n.n.n.n.h.h.h.h.h.h.h.h.n.n.n.n.n.n.n.n.J.P.d.d.f.d.B.H.B.F.F.F.F.F.M.M.m.m.m.m.m.M.M.M.F.F.F.F.F.F.F.F.m.m.n.m.m.m.m.g.g.g.g.g.g.g.g.g.g.g.g.g.g.g.s.s.x.x.x.x.x.x.x.s.x.x.x.x.x.x.x.s.G.D.N N M M U P U U U U U U U U U U U I I I V V N N V V V V N N B B B B B B V V B B B M M C C m C m m m m m m m n n n ",
"z z z z z n n n n n n n n n n C n n n M C n V x.V n n n z C V C M M M M N N N N M M N N N P P P P P P P N N N N P P P P P P P P P P P P P U P P p.U U U U p.p.p.p.p.p.p.p.p.p.p.p.p.p.s.p.p.p.h.c.p.N N p.p.p.p.p.p.p.p.s.p.p.p.p.p.p.p.p.p.p.p.s.d.s.d.d.d.d.d.a.d.d.a.d.d.d.d.a.a.d.d.d.d.d.a.a.a.a.j.d.g.h.h.h.h.h.h.b.b.n.h.n.d.d.h.f.f.m.H.H.n.d.T d.d.d.d.g.d.d.n.n.n.n.n.n.n.n.n.n.n.n.n.b.n.b.b.b.b.b.b.n.n.n.n.b.b.n.n.n.n.n.n.b.b.n.n.n.n.n.n.b.b.n.n.b.n.b.b.b.b.b.b.n.b.b.n.b.d.b.M.P.M.d.T d.d.b.b.n.b.n.n.b.n.n.b.n.n.n.b.b.b.n.b.n.b.n.n.b.b.b.b.n.n.n.n.n.n.n.n.n.n.n.n.n.n.n.n.n.n.h.n.n.n.n.n.h.h.h.h.g.g.h.h.n.n.n.n.n.n.n.n.J.P.d.p.f.d.M.H.M.M.M.F.M.M.m.m.m.m.m.m.m.m.m.m.m.m.D.D.D.D.m.m.m.m.m.m.m.m.m.g.g.g.g.g.g.g.g.g.g.g.g.g.g.g.g.g.s.s.s.s.s.s.s.s.s.s.s.s.s.s.s.s.l.l.M N N C U P U U P P P U U U P P I I I P N N N N N N V N N N B B B B M M C C B M M C C m m m m m m m m m m m n n z ",
"z z z z z z n n n n n n n n C C n n n n C n N s.V n n n z n V M C C C C C C M M M M M N N N P P P P P N N N N N N N N P N N N N P P P P P P P P U P P P P U U p.p.p.p.p.p.p.p.p.p.p.s.s.p.p.s.c.F.p.N N p.p.p.p.p.p.p.p.p.p.p.p.p.p.p.p.U U U U d.d.d.d.d.d.d.d.a.a.a.a.d.d.d.d.d.a.a.d.d.d.a.a.a.a.a.a.d.d.d.d.d.d.d.d.d.d.d.d.d.d.a.d.d.a.n.M.H.m.p.T T d.d.d.d.d.g.g.n.h.h.h.n.n.n.n.n.n.n.n.b.b.b.b.b.b.b.b.n.n.n.n.b.b.n.n.n.n.n.n.b.b.b.b.n.b.n.n.b.n.n.n.b.b.b.b.b.b.b.b.n.b.b.b.b.d.n.M.P.M.d.T d.d.b.b.b.b.b.b.b.b.b.b.b.b.b.b.b.b.b.b.b.b.b.b.b.b.b.b.h.h.h.h.h.h.h.h.h.h.n.n.h.h.h.h.n.n.h.h.n.n.n.n.n.n.n.n.n.n.n.n.n.n.n.n.n.n.n.n.J.P.d.p.d.d.M.H.M.M.M.M.M.M.m.m.F.F.F.F.F.F.M.M.m.m.m.m.m.m.m.m.m.m.m.m.m.m.m.m.m.l.l.l.l.l.l.l.l.g.g.l.g.g.g.g.s.s.s.s.s.s.s.s.s.s.s.s.s.s.s.s.s.x.C N P C U P P P P P P P P P P P I I P I N N N N N N N N N N C C C C C C C C C C C C C C C m n n n n n n n n z z z ",
"z z z z z z n n n n n n n n C C C n n M n n N s.V n n n z n V M M C C C N N N N N N M M P P P P P P P P P P P P P P P P P P N N P P P P P P P P U U P P P U U p.p.p.s.s.s.s.p.p.s.p.s.s.p.p.j.c.B.s.N N p.p.p.p.s.p.p.p.p.s.p.p.p.p.p.p.p.p.p.p.d.d.d.d.d.d.d.d.d.d.a.d.d.d.a.a.a.a.d.d.d.a.d.a.a.a.a.j.d.d.g.h.d.d.d.d.d.d.d.d.n.d.d.f.d.d.n.H.H.m.d.T p.d.f.n.d.d.d.g.n.h.n.n.n.n.n.n.n.n.n.n.b.b.b.b.b.b.b.b.b.b.b.b.b.b.b.b.b.b.b.b.b.b.b.b.b.b.b.b.b.b.b.b.b.b.b.b.b.b.b.b.M.b.b.n.b.b.m.Z.P.M.d.T d.d.b.m.n.n.n.n.b.b.b.b.n.n.n.n.b.b.b.b.b.b.n.n.n.n.b.b.h.h.n.n.n.n.n.n.n.n.n.n.n.n.n.n.n.n.n.n.n.n.n.n.n.n.n.n.n.n.n.n.n.n.n.n.n.n.n.n.H.P.d.p.d.d.M.H.M.F.F.F.F.M.M.m.F.F.F.F.F.F.F.F.m.m.m.m.D.m.m.m.m.m.D.D.D.D.m.D.D.D.D.D.D.D.D.D.c.l.l.l.l.l.l.l.s.s.s.s.s.s.s.s.s.s.s.s.s.s.s.s.x.l.C M M M s.U U U U U U U U U P P I I I P N N N N N N N N N N M M M M M M M M B B C C C C m m m m m m m m m m n n n ",
"z z z z z z n n n n n n n C C n M C M M C n M W U C C C z M V M N C C C M M M N V V I I I I I I P U U P U U U U U P U P P P U U P P P P P P P P U U P P P P U p.p.s.s.s.s.s.p.p.s.p.p.j.p.p.j.F.B.s.N N p.p.p.s.p.p.p.p.p.p.p.p.p.p.p.p.p.p.s.s.d.d.d.d.d.d.d.d.d.d.d.a.a.a.a.a.d.a.a.a.d.d.d.a.a.j.a.a.h.h.h.f.h.h.h.h.f.h.h.h.n.n.n.n.n.d.n.H.H.M.d.T d.f.n.n.g.g.g.g.n.n.n.n.n.h.h.n.n.n.n.n.b.b.b.b.b.b.b.b.b.b.b.b.b.b.b.b.b.b.b.b.b.b.b.b.b.b.b.b.b.b.b.b.b.b.b.b.b.b.b.b.M.b.b.M.n.b.n.Z.P.Z.b.d.d.b.n.m.n.n.b.b.b.b.n.n.b.b.n.n.n.n.n.n.b.b.b.b.n.n.n.n.n.n.n.n.n.n.n.n.n.n.n.n.n.n.n.n.n.n.m.m.m.m.m.m.n.n.g.g.g.g.n.n.n.n.n.n.n.n.n.n.H.H.d.p.f.d.M.B.B.F.H.H.F.M.M.M.M.M.M.M.M.M.M.M.F.F.F.F.F.F.F.F.m.m.m.m.m.m.m.m.D.c.c.c.D.D.l.l.g.g.g.g.l.l.g.g.s.s.s.s.s.s.s.s.s.s.s.s.s.s.s.s.l.c.M M C M s.U U U U U U U U P P P U U I I I N N N V V N V N N C C C M C C M M B M M M C C C m n n n n m m m m n n n ",
"z z z z z z n n n n n n n n n C M C C M n n M W V n C M n n V n N N C C M N M N N N P P P I P P P U U P U U U U U U P P I U U U P P P P P P U U P P P P P P P p.p.p.p.p.p.p.p.p.p.p.p.p.p.P s.c.c.p.N p.p.p.p.p.p.p.p.p.p.s.p.p.p.p.p.p.p.p.s.s.d.s.d.d.d.d.d.d.d.d.d.d.a.a.a.a.d.d.d.d.d.d.d.a.a.a.a.a.a.a.a.f.h.h.h.h.h.h.h.h.n.n.n.n.h.d.n.H.J.m.d.p.d.f.n.f.d.g.g.g.g.h.g.n.f.f.f.f.g.g.g.g.b.b.b.b.b.b.b.b.n.b.b.b.b.b.n.n.b.b.b.n.n.n.n.n.n.n.n.n.b.b.n.b.b.b.b.b.b.b.b.b.n.b.b.b.b.d.b.M.P.M.d.d.d.b.b.b.n.n.n.b.n.b.n.n.b.b.b.b.n.n.b.n.b.n.n.b.n.n.n.n.n.n.n.n.n.n.n.n.n.n.n.n.n.n.n.n.n.n.n.n.n.n.n.n.d.d.d.d.d.d.d.d.g.g.g.g.g.g.h.h.M.H.d.d.f.d.m.m.m.m.M.M.M.m.n.n.n.n.n.n.n.n.n.n.m.n.m.m.m.m.m.m.g.g.g.g.g.g.g.g.g.g.g.g.g.g.g.g.s.s.s.s.s.s.s.s.s.s.U U U U s.U Y Y Y Y s.s.s.s.c.l.M M C M U P P P U U U U U P P P I I P P N M N N N V V V N N M M C M M C C M B C C C C C C m n n n n m m m m n n n ",
"z z z z z z z z z z z z z n n n n n n n n z n V N n n M n n M z C C C C C C C C C C M M M M P P N P N N N N N N N N N N N N N P P P N N N N N N N N N N N N P P p.p.p.p.p.p.p.p.P P P P P N p.h.h.p.N N p.p.P P p.p.p.p.p.p.p.P P P P P P P U U U U U U Y Y U U d.d.d.d.d.d.d.d.p.p.p.d.d.d.d.d.d.p.p.p.a.a.a.a.d.d.d.d.d.d.d.d.f.d.d.d.d.d.d.m.B.n.d.T d.d.d.d.a.d.a.d.d.d.d.d.d.d.d.d.d.d.d.d.d.d.d.d.d.d.d.d.d.f.d.d.d.d.d.d.d.d.d.d.d.d.d.d.d.f.d.d.d.d.d.d.d.d.d.d.d.d.d.d.d.d.d.d.d.d.d.m.H.M.d.d.d.d.d.d.b.b.b.b.d.d.d.d.d.d.d.d.b.b.b.b.d.d.d.d.d.d.d.d.d.d.d.d.d.d.d.d.d.d.d.d.d.d.d.d.d.d.d.d.d.d.d.d.d.d.d.d.d.d.d.d.d.d.d.d.d.d.d.d.n.H.p.p.f.d.f.d.d.d.g.g.d.d.d.d.d.d.a.d.a.a.a.a.d.d.d.d.d.d.s.s.d.d.d.d.d.d.d.d.d.U U U U U U U U U U U U U U U U U U U I U U U U U U U U U U U p.s.C M M M U M N N N N N N N N P P N M M M C C C M C C C C C C m m m m M M m m m m m M n n n n n z z z z z z z z z z ",
"9 9 9 9 9 9 9 9 z 9 9 9 9 9 z z n z n n z 9 n V C z n C z n n 9 n n n n n n M M M C C M M M M M M M M M M M M M M M M M M M M M N N N N N N N N M M M M M N N P N N N N N N N N N N N P N C P j.j.P N P T P P N P P P P P P P P P P P P P P P T T T T T T T T T T T T T T T T T T T T p.p.p.d.d.p.p.p.p.p.p.d.d.d.d.d.d.d.d.d.d.d.d.d.d.d.T d.f.M.d.T T d.d.d.T d.d.d.d.d.d.d.d.d.d.d.d.d.d.d.d.d.d.d.d.d.d.d.d.d.d.d.d.d.d.d.d.d.d.d.d.d.d.d.d.d.d.d.d.d.d.d.d.d.d.d.d.d.d.d.d.d.d.d.d.d.d.d.b.M.n.d.d.d.d.d.d.d.d.d.d.d.d.d.d.d.d.d.d.d.d.d.d.d.d.d.d.d.d.d.d.d.d.a.a.a.a.a.a.a.a.a.d.a.a.d.d.d.d.d.d.d.d.d.d.d.a.a.a.d.d.d.d.d.d.d.d.d.d.d.d.d.M.T p.d.T d.d.d.p.d.p.d.p.T T T T T T T T T T T T T T T T T T T T T T T T T T P P P P P P P P P P P P P P P P P P P P P P P P P P P P P P P P M P n M N M P M M M M M M M M M M M M M M M M M C M n n n n n n n n n n n n n n n n n n n z z z z z z z z z z z z z z ",
"8 8 8 9 8 8 8 9 z z 9 9 9 z z z z z z z z z z n z z z z z z z z n n n n z z n n n n C C C C M M M M M M M M M M M P P M M C M C M N N N M M M M P P P P P P P P P P P P P P P P P P P P P P P P U U T T T T T T P P P P P P T U U U p.U p.U p.T d.U p.U d.d.d.T d.T p.T p.T T T P T d.p.T T p.p.p.P P P P P P P P P P P P P T T T T T T T T d.d.d.d.d.d.d.d.d.d.T T T T T T T T d.d.d.p.p.p.T T d.d.d.T d.d.d.d.d.d.d.d.b.d.T d.d.d.b.b.d.d.d.d.d.d.d.d.d.d.d.d.d.d.d.d.d.d.d.d.d.d.d.d.d.d.d.d.d.d.d.d.d.d.d.d.d.d.d.d.d.d.d.d.d.d.d.d.d.d.d.d.d.d.d.d.d.d.d.d.T T T d.d.d.T d.T d.d.d.d.d.T T d.d.d.d.d.d.d.d.d.d.d.d.d.d.d.d.p.p.d.p.d.p.p.p.p.p.d.p.d.p.d.p.p.T T T T U U T T U Y U Y T T P P P P T T T p.p.T T T T T T T T P P p.U P P N N P P M M M M M M N N M M M N N N M M M M M M M M P N N N M N N N N N N N N N N N M M M M C C C C C C C C n n n n 9 z n n n n n n z z z z z z 9 9 z z z z z z z z z z z ",
"m m m m m m m m B B M M M V V V M M M M V V V V V V V V V V V V W W U U U U s.s.U U U U s.s.p.p.s.s.s.s.s.s.s.s.U s.s.U U P P P P U s.s.U U s.s.s.s.g.g.g.g.g.g.s.s.s.s.g.g.g.g.g.l.g.g.g.g.g.g.n.n.n.n.n.n.n.n.g.g.g.g.g.n.n.n.m.m.m.m.m.m.m.m.m.m.m.m.M.M.m.n.F.m.m.F.m.g.d.d.n.m.M.H.M.M.B.H.F.F.F.F.F.F.F.F.m.m.H.H.H.H.H.H.F.F.M.M.F.F.H.H.H.H.H.H.H.H.H.H.H.H.H.H.H.H.H.H.H.H.H.H.H.H.M.M.H.H.H.H.H.H.H.H.H.H.Z.M.H.M.d.b.M.Z.H.H.H.H.H.H.H.H.H.H.H.H.H.H.H.H.H.H.H.H.H.H.H.H.H.H.H.H.H.H.H.H.H.H.H.H.H.H.M.M.M.M.H.H.H.H.H.H.H.H.H.H.H.H.H.H.H.H.H.H.H.H.H.M.H.H.H.m.g.g.n.M.H.H.H.H.F.H.H.H.H.F.H.H.H.H.H.H.H.H.H.H.H.H.F.F.H.H.H.H.m.m.F.F.F.F.F.m.m.M.m.D.D.D.D.D.D.D.D.F.F.F.F.D.m.m.h.h.m.m.m.m.m.m.m.m.n.n.n.g.g.d.d.j.h.h.g.g.g.g.g.g.g.g.g.g.s.s.s.s.s.s.s.s.s.s.s.s.s.s.s.s.s.s.s.s.s.s.Y Y s.s.U U U U s.s.s.s.s.s.s.U U U U U U U U V V V N N V V V V M C n n n n C M N V V V M M M M M M M M B B B ",
"B B B B B B B B B B V V V V V V V V V V V W U U W W W W W W W W W W W W W W x.x.U U s.s.s.s.p.p.s.s.s.s.s.s.l.l.s.l.l.l.s.U U U U s.s.x.l.l.l.D.l.l.D.D.D.D.D.D.D.D.D.D.D.D.D.D.D.D.F.D.F.F.F.F.F.F.F.F.F.F.F.F.F.F.F.F.F.F.F.F.F.H.H.H.H.H.H.H.H.F.F.H.H.H.H.F.H.H.H.H.H.m.a.a.n.m.H.H.H.H.H.H.H.H.J.J.H.J.J.J.H.H.H.H.J.J.H.H.H.H.H.H.H.H.H.H.H.H.H.H.H.H.H.H.P.P.P.P.H.P.P.P.H.H.H.H.H.H.H.H.P.P.P.H.H.H.H.H.H.P.H.H.P.M.d.b.m.M.H.H.P.P.P.P.P.P.P.P.H.H.H.H.P.P.P.P.P.P.P.P.P.P.P.P.P.P.P.P.P.P.P.P.P.P.P.P.H.H.H.H.H.H.H.H.H.H.H.H.P.H.H.H.P.P.P.P.P.P.P.P.P.P.P.P.P.F.g.d.n.m.H.H.H.H.H.P.H.H.H.H.H.H.H.H.H.H.H.H.H.H.H.H.H.J.J.J.H.J.H.H.H.H.H.H.H.H.H.H.H.H.H.H.H.H.H.H.F.F.F.F.F.F.F.F.F.F.F.F.F.F.F.F.F.F.F.F.F.F.n.g.d.g.D.F.F.F.F.G.F.D.D.D.D.D.D.D.D.D.D.D.D.D.l.D.l.l.l.l.x.l.l.l.l.l.l.l.l.l.l.l.x.x.x.x.x.x.x.x.l.l.l.x.x.x.x.x.s.x.x.s.x.x.s.s.s.s.s.W V N C n n n M V V W W W V V B V V V V V W V W ",
"z z z z z z z z n n n n n n n n C C M M M M M M M M M M M M M M C C C C C C M M N N P P P P P P P P P P I U U U U U s.l.s.P M M P U s.s.s.s.l.l.s.s.g.g.s.s.g.g.s.s.g.g.s.g.g.g.g.g.g.g.g.g.g.g.n.n.n.n.n.n.n.n.n.n.n.n.n.n.n.m.m.m.m.m.m.m.m.m.m.m.m.m.M.M.m.n.F.m.F.H.H.g.T T p.d.d.d.d.d.f.n.g.g.g.g.g.g.g.g.h.h.h.h.h.h.h.h.m.m.n.n.m.n.m.M.m.m.m.m.m.m.m.m.m.m.m.m.m.m.m.m.n.n.n.n.m.m.n.n.b.b.n.n.n.n.b.b.n.M.m.H.P.M.d.b.d.d.m.M.M.M.M.Z.M.M.M.M.M.M.M.M.M.M.M.M.M.M.M.M.M.M.M.M.M.M.M.M.M.M.M.M.H.H.H.H.M.M.M.M.M.M.M.M.M.M.M.M.M.M.M.M.M.M.M.M.M.M.M.M.F.M.F.H.P.F.d.d.T d.g.m.m.m.m.M.M.M.m.m.m.m.M.M.M.M.m.m.m.m.M.M.m.m.m.m.m.m.h.h.h.h.h.h.h.h.n.n.m.m.m.m.m.m.m.m.h.h.h.h.h.h.g.g.h.h.g.g.g.g.g.g.g.g.m.F.F.m.g.T T p.g.h.c.c.c.D.l.l.l.l.l.g.g.g.g.l.l.l.l.l.l.l.s.s.s.s.x.s.s.s.g.g.x.x.x.x.x.x.s.s.s.s.s.s.s.s.s.s.U U U U U U U U U U U U V V V V V U V V M C n n C C C C C C C m m m m m m m m m m ",
"z z z z z z z z z z z z n n n n n n n n z n n n n n n z z z n n C C C C C C M C M M N N P N N N N N P P P U U U P P U l.s.M M M N P U U U U U s.Y Y U U Y Y Y Y Y Y Y Y Y Y Y Y Y Y Y Y Y Y Y Y g.g.Y Y Y g.g.g.g.g.Y g.g.g.g.g.g.g.g.g.g.g.g.g.g.g.g.g.m.m.g.g.g.d.n.H.F.d.P T d.d.a.a.a.d.d.d.a.a.d.d.d.d.d.d.d.d.d.d.a.a.a.a.g.d.d.d.d.f.n.n.g.g.h.n.n.n.h.h.d.d.g.g.g.g.g.g.g.d.d.d.d.d.d.d.d.d.d.d.d.d.d.d.b.b.b.H.P.M.d.b.d.d.m.M.M.M.M.M.M.M.M.M.M.M.M.M.M.M.M.M.M.M.M.M.M.M.M.M.M.M.M.M.M.M.M.M.M.M.M.M.M.M.M.M.M.M.M.M.M.M.M.M.M.M.M.M.M.M.M.M.M.M.M.M.M.m.M.H.P.H.g.d.d.d.n.m.m.n.n.m.m.m.m.m.m.m.m.m.m.m.m.m.m.m.m.m.h.n.m.m.n.n.n.h.n.h.n.n.n.n.n.n.g.g.g.g.d.d.g.j.n.n.m.m.n.n.g.g.n.n.m.g.g.g.g.g.U T d.h.F.m.d.P T U s.g.g.g.g.g.g.g.s.s.Y Y Y Y Y Y Y Y Y Y Y Y Y Y Y Y U Y U U Y Y U U U U U U U U U U U U U U U U U I I I V V N N N N N N N N M M N V W V M n z z n n n z z z n z z z z z z z z z z ",
"z z z z z z z z z z n n n n n n n n n n m m m C C C n n n n n n M M B B B B V N M N N P P N P P N P P P P I I U U P s.l.l.P C M P U U U U U U U Y Y Y Y Y Y Y Y s.s.Y Y s.g.g.g.s.s.s.s.g.g.s.g.g.g.g.g.g.g.g.g.g.g.g.g.g.g.n.n.n.n.n.m.m.n.n.n.n.g.g.n.m.m.n.g.n.d.n.H.H.d.T Y d.a.g.g.d.d.d.d.a.a.a.a.d.d.a.d.d.d.d.d.a.a.d.a.d.d.a.a.d.d.d.d.n.n.n.n.n.n.n.n.n.n.n.n.n.n.n.n.n.n.h.h.h.h.h.h.b.b.b.b.b.b.b.b.b.d.d.Z.P.M.T d.d.n.M.M.M.M.M.M.M.M.M.M.M.M.M.M.M.M.M.M.M.M.M.M.M.M.M.M.M.M.M.M.M.M.M.M.M.M.M.M.M.M.M.M.M.M.M.M.M.M.M.M.M.M.M.M.M.M.M.M.M.M.M.M.F.M.F.H.P.H.g.p.d.h.m.M.m.m.m.m.n.n.n.n.n.n.n.n.n.n.n.n.n.n.n.n.h.n.n.n.n.n.h.d.h.h.h.h.h.h.h.h.g.g.g.g.g.g.g.g.n.m.m.m.m.n.n.g.n.n.g.g.n.g.g.g.d.d.s.m.F.F.g.T U s.g.m.g.g.g.g.g.g.g.g.g.g.g.g.s.s.Y s.s.s.s.s.Y Y Y Y Y Y Y Y Y Y U U U U p.p.U U U U U U U U U U U U U U U U V V V V V V V V V V V W W V M z z n n n n n n n n n n z n n z z z z z ",
"z z z z z z z z z z z z z z n n n n m m m M C C M M M M M M M M M M C M M M N N C M M P N M N M P P P P P P P P P P U l.l.P M P P U U U U U U s.s.Y s.s.s.s.g.g.s.s.s.s.g.g.g.g.g.g.g.g.g.g.g.g.g.g.g.g.n.n.n.n.g.g.g.g.g.g.n.n.m.m.m.m.m.m.m.m.m.n.n.m.m.m.m.g.m.g.n.H.H.g.T d.T d.d.d.d.d.d.g.d.d.d.d.d.d.d.d.d.d.d.d.d.d.a.d.d.d.d.d.d.d.d.d.g.g.g.h.n.n.n.h.n.n.n.n.n.n.n.n.g.g.g.g.d.g.d.d.n.n.b.b.n.b.n.n.n.d.d.Z.P.m.T d.d.b.m.M.M.M.M.M.M.M.M.M.M.M.M.M.M.M.M.M.M.M.M.M.M.M.M.M.M.M.M.M.M.M.M.M.M.M.M.M.M.M.M.M.M.M.M.M.M.M.M.M.M.M.M.M.M.M.M.M.M.M.M.M.F.m.m.H.P.F.d.T d.d.n.m.m.n.h.n.n.n.g.h.n.n.n.n.n.n.g.h.n.n.n.n.h.h.h.h.n.g.d.g.g.g.g.g.h.h.h.h.m.m.m.m.m.m.m.m.g.g.g.n.n.g.g.g.g.g.g.g.g.g.g.g.j.d.j.m.G.F.j.P p.j.h.m.D.h.g.g.n.n.D.g.l.D.g.g.g.g.g.g.s.s.s.s.s.s.s.s.s.s.s.s.Y Y s.s.s.s.s.s.U U s.s.s.s.s.s.s.U U U U U U U I V V V U U V V V V V W W V n 9 z z n n C M M M n m m m m m m m n n n ",
"z z z z z z z z n z n n n n n C n n n n m m C C C C n n n n n n M M M M M M N N N N P P P P P P U U U P U U I I N M P x.s.M M M P I U U U U s.s.U Y Y Y Y Y Y Y Y Y Y Y s.s.Y g.s.s.s.s.s.s.Y s.g.g.g.g.g.g.g.g.Y Y Y Y Y g.g.g.g.g.g.g.g.g.n.n.g.g.g.g.m.m.g.g.D.Y g.G.H.Y P T T Y a.g.d.g.g.n.h.g.g.g.g.h.g.g.d.a.d.d.d.d.d.g.h.n.n.n.n.n.n.n.g.g.g.g.n.n.h.h.n.n.h.h.h.h.g.g.n.n.n.n.n.n.n.n.n.n.n.b.n.n.n.n.M.b.d.H.P.M.d.b.d.d.n.M.M.M.M.M.M.M.M.M.Z.Z.Z.Z.M.M.M.M.M.M.M.M.M.M.M.M.M.M.H.H.M.M.M.M.M.M.M.M.M.M.M.M.M.M.M.M.M.M.M.M.M.M.M.M.M.M.M.M.M.M.M.M.F.m.m.H.P.H.g.d.d.a.h.n.n.n.n.n.m.m.m.m.m.m.m.m.m.m.m.m.m.m.m.m.m.m.m.m.n.n.n.h.n.h.h.h.h.h.h.h.g.g.g.g.g.g.g.g.m.m.m.m.n.n.g.g.g.g.g.g.n.n.m.m.g.d.s.h.F.D.p.N P p.j.h.g.g.g.g.n.n.g.g.g.g.g.g.g.g.g.g.s.s.s.s.s.s.s.s.s.s.s.s.s.s.s.s.s.s.s.s.s.s.s.s.s.s.s.s.U U U U U U U U B B V V V V V V V V V W W W C z z z n n n n n n n n n n n n z z z z z ",
"z z z z z z z z z z n n n n n n m m m m m m C C C C C m m m n n m m m C C B N N N N N N N N P P P P P P P P P P P U P D.D.C M M P U p.U U U Y s.s.g.Y Y Y Y Y Y g.g.g.g.g.g.g.g.g.g.g.g.g.g.g.g.g.g.g.g.g.g.g.g.g.g.g.g.g.g.g.g.g.g.g.g.g.g.g.g.g.g.g.g.n.g.g.g.n.Y g.H.F.Y T T T Y d.d.g.g.d.a.g.g.d.d.d.d.g.g.d.d.g.g.g.d.d.d.d.d.d.d.d.g.g.g.g.d.d.d.d.g.n.n.n.n.n.n.n.n.n.h.h.n.n.n.h.h.n.n.b.b.b.n.n.b.b.b.M.d.b.H.P.M.d.d.d.b.m.M.M.M.M.M.M.M.M.M.M.M.M.M.M.M.M.M.M.M.M.M.M.M.M.M.M.M.M.M.M.M.M.M.M.M.M.M.M.M.M.M.M.M.M.M.M.M.M.M.M.M.M.M.M.M.M.M.M.M.M.m.F.M.g.F.P.H.d.T T d.n.m.n.n.n.n.m.m.m.m.m.m.m.m.n.m.m.m.m.n.n.h.n.n.n.n.n.n.n.n.n.n.n.n.n.n.n.n.g.n.n.n.n.n.g.d.g.d.d.d.d.d.d.d.n.d.d.d.d.d.g.g.g.m.j.j.G.G.s.P T d.g.m.m.m.n.D.n.D.D.D.D.D.D.g.g.g.g.g.g.g.g.g.g.g.g.s.g.Y Y Y Y Y U Y U s.s.s.s.x.s.s.s.s.s.U U U U U U U U U U U U U V V V V V N M V W V M z 9 z n n n n n n z z z n n n z z n n n ",
"z z z z z z z z z z n n n n n n C C m m m m C C C C C m m n n n m C m C C M N M M N N P N N P P P P P P P P P P P U P D.D.M M M P U p.U U U Y s.s.g.g.Y Y Y Y Y g.g.g.g.g.g.g.g.g.g.g.g.g.g.g.g.g.g.g.g.g.g.g.g.g.g.g.g.g.g.g.g.g.g.g.g.g.g.g.g.g.g.g.g.n.g.g.g.n.g.g.H.F.Y T T T Y d.d.g.g.d.a.g.g.d.d.d.d.g.g.d.d.g.g.g.g.d.d.f.f.d.d.g.g.g.g.g.d.d.d.d.g.h.n.n.n.n.n.n.n.n.h.h.n.n.n.h.n.n.n.b.b.b.b.n.b.b.b.M.b.b.H.P.M.d.d.d.b.m.M.M.M.M.M.M.M.M.M.M.M.M.M.M.M.M.M.M.M.M.M.M.M.M.M.M.M.M.M.M.M.M.M.M.M.M.M.M.M.M.M.M.M.M.M.M.M.M.M.M.M.M.M.M.M.M.M.M.M.M.m.F.M.g.F.P.H.d.T d.d.n.m.n.n.n.n.m.m.m.m.m.m.m.m.n.m.m.m.m.n.n.g.n.n.n.n.n.n.n.n.n.n.n.n.n.n.n.n.g.n.n.n.n.g.g.d.g.g.d.d.d.d.d.d.n.n.n.d.d.d.g.g.j.m.j.j.G.G.p.P T d.g.m.m.m.n.m.n.D.D.D.D.D.n.n.g.g.g.g.g.g.g.g.g.g.g.Y s.Y Y Y Y Y U Y Y s.s.s.s.x.s.x.s.s.s.U U U U U U U U U U U U U V V V V V N M V W W M z z z n n n n n n z z z z n n n n n n n ",
"z z z z z z z z z z n n n n n n m m n n m m m C C C m m m m n n m C C C C B M M N N P P P P P P P P P P P P P P P U P F.D.M M M P U Y Y U U Y s.g.g.g.g.g.g.g.g.g.g.g.g.g.g.g.g.g.g.g.g.g.g.g.g.g.g.g.g.g.g.g.g.g.g.g.g.g.g.g.g.g.g.g.g.g.g.g.g.g.g.g.g.n.g.g.g.n.Y g.G.F.Y T T T Y d.d.g.g.d.d.d.b.d.b.d.d.b.b.d.d.d.d.b.b.b.b.g.f.g.g.g.g.g.g.g.g.d.d.d.d.n.n.n.n.n.n.n.n.n.n.n.n.n.n.n.n.n.n.b.b.b.b.n.b.b.b.M.b.b.H.P.M.d.d.d.b.m.M.M.M.M.M.M.M.M.M.M.M.M.M.M.M.M.M.M.M.M.M.M.M.M.M.M.M.M.M.M.M.M.M.M.M.M.M.M.M.M.M.M.M.M.M.M.M.M.M.M.M.M.M.M.M.M.M.M.M.M.m.F.M.g.F.P.H.d.d.d.d.n.m.n.n.n.n.m.m.m.m.m.m.m.m.n.m.m.m.m.n.n.g.n.n.n.n.n.n.n.n.n.n.n.n.n.n.n.n.n.n.n.n.n.n.b.d.n.n.n.n.n.n.n.n.n.d.b.n.d.d.g.n.j.m.j.j.J.J.p.P T d.g.m.m.m.m.m.n.D.D.D.D.D.D.n.g.g.g.g.g.g.g.g.g.g.g.Y g.Y Y Y Y Y U Y Y s.s.s.s.x.x.x.x.s.s.U U U U U U U U U U U V U V V V V V B M B W W M z 9 z n n n z n n z z n n n n n n n n n ",
"z z z z z z z z z z n n n n n n m m n n m m m C m m m m m m n n m m C C C B N N N N P P P P P P P P P P P P P P U U P F.D.M M M P U Y Y U U Y g.g.g.g.g.g.g.g.g.g.g.g.g.g.g.g.g.g.g.g.g.g.g.g.g.g.g.g.g.g.g.g.g.g.g.g.g.g.g.g.g.g.g.g.g.g.g.g.g.g.g.g.n.n.g.g.g.n.Y g.G.F.Y T T T Y d.d.g.g.d.d.b.b.d.d.d.d.b.b.d.d.d.d.b.b.b.b.g.g.g.g.g.g.g.g.g.g.d.d.d.d.n.n.n.n.n.n.n.n.n.n.n.n.n.n.n.n.n.n.b.b.b.b.n.b.b.b.M.b.b.H.P.M.d.d.d.b.m.M.M.M.M.M.M.M.M.M.M.M.M.M.M.M.M.M.M.M.M.M.M.M.M.M.M.M.M.M.M.M.M.M.M.M.M.M.M.M.M.M.M.M.M.M.M.M.M.M.M.M.M.M.M.M.M.M.M.M.M.m.F.M.n.F.P.H.d.d.d.d.n.m.n.n.n.n.m.m.m.m.m.m.m.m.n.m.m.m.m.n.n.g.n.n.n.n.n.n.n.n.n.n.n.n.n.n.n.n.n.n.n.n.n.n.b.d.n.n.n.n.n.n.n.n.n.n.b.b.b.g.g.g.j.m.j.j.J.J.p.P T d.g.m.m.m.m.m.n.D.D.D.D.D.D.n.n.g.g.g.g.g.g.g.g.g.g.Y g.Y Y Y s.Y U Y Y s.s.s.s.x.x.x.x.s.s.U U U U U U U U U U U V V V V V V V B M B W W M z 9 z n n n z n n n n n n n n n n n n n ",
"z z z z z z z z z z n n n n n n m m m n m m m m m m m n n n n n m C C C C B N N M M N P N N N N P P P P P P P P I U P F.D.M M M P U Y Y Y Y Y g.g.g.n.n.g.g.g.g.g.g.g.g.g.g.g.g.n.n.n.n.n.n.n.n.g.g.g.g.g.g.g.g.g.g.g.g.g.g.g.g.g.g.g.g.g.g.g.g.g.g.g.n.n.g.g.g.n.Y g.G.F.Y T T T Y d.d.g.g.g.d.b.d.b.b.d.d.d.b.b.b.b.b.b.d.d.d.g.g.g.g.g.g.g.g.g.d.d.d.d.g.g.n.n.n.n.n.n.n.n.n.n.n.n.n.n.n.n.n.b.b.b.n.n.b.b.b.m.d.b.H.P.M.d.d.d.b.m.M.M.M.M.M.M.M.M.M.M.M.M.M.M.M.M.M.M.M.M.M.M.M.M.M.M.M.M.M.M.M.M.M.M.M.M.M.M.M.M.M.M.M.M.M.M.M.M.M.M.M.M.M.M.M.M.M.M.M.M.m.F.M.n.F.P.H.d.d.d.d.g.m.n.n.n.n.m.m.m.m.m.m.m.m.n.m.m.m.n.n.n.h.n.n.n.n.n.n.n.n.n.n.n.n.n.n.n.n.n.n.n.n.n.n.b.d.n.n.n.n.n.n.n.n.n.n.n.d.n.g.g.g.j.D.j.j.J.J.p.P T d.g.m.m.m.M.M.n.F.D.D.D.n.n.n.g.n.g.g.n.n.g.g.g.g.g.Y Y Y Y Y s.Y U s.Y s.s.s.s.x.x.x.x.s.s.U U U U U U U U U U U V V V V V V V B M B W U M z z z n m n z n n n n n n n n n n n z z ",
"z z z z z z z z z z n n n n n n m m m m m m m m m m n n n n n n m m C C C B N N M M N P N N N N P P P P P P P P I U P D.D.C M M P U Y Y Y Y Y g.g.g.n.g.g.g.Y Y g.g.g.g.g.g.g.g.n.n.n.n.n.n.n.n.g.g.g.g.g.g.g.g.g.g.g.g.g.g.g.g.g.g.g.g.g.g.g.g.g.g.g.n.n.g.g.g.n.Y g.G.F.Y T T P Y d.d.g.g.g.d.b.b.d.b.d.d.b.b.b.b.b.b.b.d.d.d.g.g.g.g.g.g.g.g.g.d.d.d.d.g.g.n.n.n.n.n.n.n.h.h.h.h.n.n.n.n.n.n.b.b.b.n.n.b.b.b.m.d.b.H.P.M.d.d.d.b.m.M.M.M.M.M.M.M.M.M.M.M.M.M.M.M.M.M.M.M.M.M.M.M.M.M.M.M.M.M.M.M.M.M.M.M.M.M.M.M.M.M.M.M.M.M.M.M.M.M.M.M.M.M.M.M.M.M.M.M.M.m.F.M.h.F.P.H.d.d.d.d.g.m.n.h.n.n.m.m.m.m.m.m.m.m.n.m.m.m.n.n.n.h.n.n.n.n.n.n.n.n.n.n.n.n.n.n.n.n.n.n.n.n.n.n.b.d.n.n.n.b.n.n.d.d.n.n.n.n.n.g.g.g.j.h.j.j.J.J.p.P T d.g.m.n.M.M.M.n.F.D.D.D.n.n.n.n.g.g.g.n.n.g.n.g.g.g.Y Y Y Y Y s.Y U s.Y s.s.s.s.x.x.x.x.s.s.U U U U U U U U U U U V V V V V V W B B B W U M z z z n m n z z n n n n n n n n n z z z ",
"z z z z z z z z z z n n n n n n C C C C m m m m C m n n n n n n C C C C C B N M M M P P N N N P P P P P P P P P P U P D.D.C M M P U Y Y Y Y Y Y g.g.g.g.Y Y Y Y g.g.g.g.g.g.g.g.g.g.n.n.n.n.g.g.g.g.g.g.g.g.g.g.g.g.g.g.g.g.g.g.g.g.g.g.g.g.g.g.g.g.g.n.n.g.g.g.n.Y n.G.F.Y T T P Y d.d.g.g.g.d.d.d.d.d.d.d.d.d.b.b.b.b.d.d.d.d.d.d.d.d.g.d.g.g.g.d.d.d.d.g.g.n.n.h.h.n.n.n.n.h.h.n.n.n.n.h.h.n.b.b.b.n.b.b.b.b.M.d.b.H.P.M.d.d.d.b.m.M.M.M.M.M.M.M.M.M.M.M.M.M.M.M.M.M.M.M.M.M.M.M.M.M.M.M.M.M.M.M.M.M.M.M.M.M.M.M.M.M.M.M.M.M.M.M.M.M.M.M.M.M.M.M.M.M.M.M.M.m.M.M.h.F.P.H.d.d.d.d.n.m.n.n.n.n.m.m.m.m.m.m.m.m.n.m.n.n.n.n.n.h.n.n.n.n.n.n.n.n.n.n.n.n.n.n.n.n.n.n.n.n.n.n.b.d.n.b.b.b.n.n.n.d.n.n.n.n.n.g.n.n.j.c.j.j.F.F.s.N T d.g.n.n.n.M.M.n.F.D.D.n.n.n.n.g.g.g.g.n.n.n.n.g.g.g.Y g.Y Y Y Y Y U s.U s.s.s.s.s.x.x.s.s.s.U U U U U U U U U I I B B B B B B V B B B W W m z z z z m z z z m z n z z n n n n z z z ",
"z z z z z z z z z z z z n z n n C C C C m m m m C m m m n n n n C C C C C C N M M M P P P N P P P P P P P P P P P U P D.c.C M M P U s.Y U U Y Y g.Y g.Y g.Y g.g.g.g.g.g.g.g.g.g.g.g.g.g.g.g.g.g.g.g.g.g.g.g.g.g.g.g.g.g.g.g.g.g.g.g.g.g.g.g.g.g.g.g.g.g.n.g.g.g.n.Y n.F.F.Y T P P U d.s.g.s.g.d.d.d.d.d.d.d.d.d.d.d.g.d.d.d.d.d.d.d.d.d.d.f.g.g.g.d.d.d.d.g.g.n.n.h.h.h.n.n.n.n.n.n.n.n.h.h.n.n.b.b.b.n.n.b.b.b.m.d.b.H.P.M.d.d.d.b.m.M.M.M.M.M.M.M.M.M.M.M.M.M.M.M.M.M.M.M.M.M.M.M.M.M.M.M.M.M.M.M.M.M.M.M.M.M.M.M.M.M.M.M.M.M.M.M.M.M.M.M.M.M.M.M.M.M.M.M.M.m.M.M.h.F.P.H.d.d.d.d.n.m.n.n.n.n.m.m.m.m.m.m.m.m.n.n.n.n.n.n.h.h.n.n.n.n.n.n.n.n.n.n.n.n.n.n.n.n.n.n.n.n.n.g.b.d.n.d.b.d.n.g.n.n.n.n.d.d.n.g.g.n.g.D.j.j.F.F.p.N T Y g.n.n.n.M.M.n.F.D.D.n.n.n.n.g.g.g.g.g.g.g.g.g.g.g.Y g.Y Y Y Y U U s.U s.s.s.s.s.x.x.s.s.s.U U U U U U U U U U B V B B B B B V B B B W W m z z z z m z z z m z z z z z z n n n z z ",
"z z z z z z z z z z z z z z z n n n n z z n n n z n C M C n n n C C C C C N N N C C M M N N P P P P P P P P P P U M P g.g.N C N P P P P p.U s.s.j.g.g.g.g.g.g.g.s.s.s.s.s.s.s.s.s.s.s.s.U s.s.g.U Y s.s.s.s.s.s.l.l.g.g.s.s.s.s.s.s.g.s.g.s.g.s.g.s.g.s.g.s.g.s.g.g.n.l.n.g.Y U U U Y s.s.s.Y d.U Y U Y d.p.p.p.U p.d.d.d.p.p.p.d.g.g.g.g.d.g.g.d.d.g.d.d.d.g.n.g.j.g.g.g.g.g.g.n.n.n.n.n.n.n.n.n.n.n.n.n.n.n.n.n.n.m.H.H.H.m.d.h.h.n.n.M.M.M.H.M.M.M.M.M.M.M.M.M.M.Z.Z.M.M.M.M.Z.Z.Z.Z.M.M.M.M.n.n.M.M.m.m.M.M.M.M.M.M.M.M.M.M.M.M.M.M.M.M.M.M.F.M.M.M.M.M.m.m.m.m.M.H.H.H.m.d.d.a.d.n.n.n.n.n.n.n.n.n.n.n.n.g.g.g.g.g.g.g.g.g.g.g.g.g.g.g.n.g.M.m.g.g.g.g.n.g.d.d.d.d.d.d.d.d.d.g.d.g.d.d.d.d.d.d.d.d.d.d.g.g.n.g.g.m.F.m.d.P d.d.d.g.g.n.n.n.g.g.n.n.g.g.g.n.s.s.s.s.s.s.Y Y Y U U U U U Y s.g.s.p.U U U s.s.U s.s.s.p.U U U U U V V V V V V V V V V V V V B M m m M V B n z z z z z z z z z z z z z z z z z m m m ",
"z z z z z z z z z z z z z z z z n n n n n n n n n n n n n n n n m n m m C C M N C C M M M N P P N N N N P P N N P M P g.s.P C N N P P P P p.p.p.p.p.p.p.s.d.s.p.U U U U U U U U P U U U P P U p.P U U P P P P P P P P P P P P P U U U U U U U U U U U U U U U U U s.s.s.s.p.U P P P U U U U U U U U p.p.p.p.p.p.U U p.p.p.p.p.p.T d.d.d.d.T d.d.d.d.g.g.g.g.d.d.s.d.d.d.d.d.d.g.d.d.b.b.n.n.n.n.d.d.d.d.d.d.d.d.d.d.g.m.F.F.n.d.d.d.d.h.n.n.m.m.n.n.n.n.n.n.n.n.n.n.m.m.n.n.n.n.m.m.m.m.m.n.n.b.d.n.n.M.m.n.n.b.d.d.d.d.d.d.d.d.g.g.g.g.g.n.n.g.n.n.n.n.m.n.g.g.g.g.n.M.H.F.g.d.d.a.d.d.g.g.g.g.Y Y Y Y Y Y U T d.d.p.p.p.p.p.p.d.d.d.d.d.d.d.d.d.d.T d.d.d.d.Y d.Y Y Y d.d.d.d.d.d.d.d.d.d.d.d.d.d.d.d.d.d.d.d.g.d.d.g.m.m.d.T d.s.g.g.g.g.Y Y Y Y Y Y Y Y Y Y U U U U U U U P P P P P P P U U P N N N N N N N N N P U P N N N N N N N N N N N M M N N M M M M m n n m B M n z z z z z z z z z z z z z z z z z z z z ",
"8 8 8 8 9 9 9 z z z z z 8 z z z z z z z z z z z n n n n n n z z z z z z z z n M n n M M M C M M C M M C C C C C C M C U U C M M C C C N N N N N P P P P P P P P P N N M M N N N C M P M M M M M P P P P P P N N U U U U P P P P M M M M M M M M N N P P M M M M M P P P P P M M M M M P P P P P P P P P P P P P P P P P P P P P P T T T P P T T T T T Y d.d.T T T T T P T T T T T T T T T T T T T T T T T T T T T T p.d.d.d.d.T p.p.d.d.d.d.d.d.d.d.d.d.d.d.d.d.d.d.d.d.d.d.d.d.d.d.d.d.d.d.d.d.d.d.d.d.d.d.T T d.d.d.d.d.d.d.d.T T p.p.p.p.p.T T d.d.d.d.d.d.d.d.T T d.g.d.d.T d.d.T p.T T d.d.d.d.d.d.d.d.d.d.P P P P P P P P T T T T T T T T T P P T Y Y T T T T T T T T T T T T T T T T T T T T T T T T T T P P P T d.d.T T Y Y Y T T T M M M M T T T T M M M M M M M M M C M M C C C M M M C C C C M M C C n n C C M n n n n n n n n n z z z z z z z z z z z z z z z z z 8 z z z z z z z z 9 9 9 9 9 9 9 9 9 9 9 ",
"9 9 z z z z z z z z z z z z z z z z z z z z n n n n n n n M M M n n z z n M C C C C C M M M N N M M M M M M M M M C M U U N M P N N N N N N P P P P P P T T T P P P P P P P P P M P P P P M M N U P P P U P P U N N N N N N N N P P P P P P P P P P P P P P P P P P U U U P P M P P P P U U U U U p.p.p.p.p.p.p.U p.U U U U U U T Y d.Y T T d.d.g.T P T d.g.d.T d.d.d.d.d.d.d.s.d.d.d.d.d.d.d.d.d.d.d.d.d.d.d.d.d.a.d.d.g.g.d.d.d.d.d.d.d.d.d.d.a.a.a.a.a.a.a.a.d.d.d.d.d.d.d.d.b.b.d.d.d.d.d.b.d.d.d.d.d.d.d.d.d.d.d.d.d.d.d.d.d.d.a.a.a.a.d.d.d.a.d.d.g.g.g.g.d.d.d.d.g.g.d.d.d.d.d.d.d.d.a.d.T T T T Y Y Y Y d.d.p.p.p.p.p.p.d.d.Y d.Y T T T Y T T T T d.d.d.d.d.Y Y Y Y d.d.Y d.T T T T Y Y Y Y Y Y d.d.d.d.T T T T d.g.d.Y Y Y Y Y Y T T T T T T T T T T T P P P P P P M M M M M M M M N N N N C C C M N N C C C C C C C n n n C C n n n n n n n n n n n z z z z z n z z 9 z z z z z z z z z z z z z z z z z z z ",
"m m m m m m M M m m m m m B B B V V V V V V V V M M n n M V U V U V U U U U U s.U U s.s.s.s.s.s.p.p.s.s.s.s.s.U s.p.s.x.g.s.s.g.s.g.g.g.s.g.g.g.g.g.g.g.g.g.g.g.l.l.l.l.g.l.g.g.s.l.l.l.x.g.g.x.s.P N U s.p.s.l.g.g.g.g.g.g.g.g.D.D.D.D.D.D.D.D.D.D.D.D.D.D.D.D.l.D.D.D.D.D.l.g.g.g.g.l.D.D.D.D.F.F.F.F.F.F.F.F.F.F.F.F.F.F.F.F.F.F.F.F.F.F.F.H.H.g.T Y n.F.M.F.G.G.F.F.F.F.M.F.H.H.H.H.H.H.H.H.H.M.M.M.M.H.H.H.H.H.M.M.H.H.H.H.H.H.H.H.H.H.H.H.H.H.H.H.H.H.H.H.H.H.H.H.H.H.H.H.H.H.H.H.H.H.H.P.H.M.b.d.n.M.H.H.H.H.H.H.H.H.H.M.H.H.H.H.H.H.H.H.H.H.H.H.H.H.H.H.H.F.F.F.H.H.H.H.H.H.H.F.M.M.M.H.M.F.F.F.F.F.F.F.G.G.G.G.F.F.F.F.F.F.F.F.F.F.F.F.F.g.Y T Y g.m.F.F.F.F.F.F.F.F.F.F.F.F.F.F.F.F.F.F.F.F.F.F.F.F.F.F.F.m.m.F.F.M.M.n.D.D.D.D.D.m.m.n.n.n.n.n.n.n.n.g.l.l.l.x.s.s.s.s.s.s.s.s.x.x.x.x.s.U N N P U s.s.s.s.s.s.s.s.U U V V s.U U U V V W W W W W W U B B B V V V B M B B B B B B B B B B B B B B B B B B B ",
"m B B B B B B B B B B B B B B B W V V V V V U U V M n n M U W W W W U U U W s.x.s.s.s.s.s.s.s.x.s.s.s.s.s.s.s.s.s.s.s.s.s.s.g.g.g.g.g.g.g.g.g.g.l.l.g.g.n.n.n.l.D.c.l.c.c.c.c.c.l.c.D.c.l.l.D.F.l.P N p.g.s.g.D.D.D.D.F.F.F.F.G.D.D.D.D.D.D.D.D.D.D.D.D.D.D.D.D.D.D.F.D.F.F.D.D.D.D.D.D.D.D.D.D.F.F.F.F.G.G.G.G.G.G.G.G.F.F.F.F.H.H.H.H.F.H.H.H.H.m.Y T g.F.H.H.H.G.G.G.H.H.H.H.H.H.H.H.H.H.H.H.H.H.H.H.H.H.H.H.H.H.H.H.H.H.P.P.P.H.H.H.H.H.H.H.H.H.H.H.H.H.H.H.P.P.P.P.P.P.P.P.P.P.P.H.P.P.P.P.P.H.b.d.b.M.H.P.P.P.P.P.P.P.P.P.H.H.H.H.H.H.H.H.H.H.P.P.P.P.P.P.H.H.H.H.H.H.H.H.H.H.H.H.H.H.H.H.P.P.P.P.H.H.H.H.H.G.G.G.G.G.G.G.H.H.H.H.H.H.H.H.H.F.g.T Y g.F.M.F.F.F.F.F.M.F.F.F.F.F.F.F.F.F.F.F.F.F.F.F.F.F.F.H.H.F.F.F.F.F.F.n.D.D.F.F.F.F.F.D.D.F.F.F.F.D.D.D.l.l.l.l.l.x.x.l.l.x.x.l.l.l.l.G.x.s.N N U s.x.x.x.x.x.x.x.s.s.s.s.s.s.s.W W W W W W W W W W W W U U W V V B B B B B B B B B B B B B B B B B B B B B ",
"z z m m m m m m m m m m m m m m B B M M M M M B W M z z m B B B M M M M B B I I I I I I U U U U U U U U U U U U U U U I I I U P p.p.p.p.U U U U Y U U Y Y Y Y Y s.s.s.s.s.s.s.s.s.s.s.p.p.s.l.D.D.P M U p.U U g.P P P P P U U U s.s.s.s.s.s.s.s.s.s.s.s.s.s.s.s.g.s.s.s.s.g.g.g.s.s.s.s.s.s.g.g.g.g.g.g.g.g.g.g.g.g.g.g.g.g.g.g.n.n.n.g.g.n.M.F.M.n.T T Y g.m.M.D.m.m.g.n.n.n.m.n.n.M.M.n.n.n.n.M.M.M.M.M.M.M.M.M.M.F.F.M.F.F.M.F.F.H.F.F.F.F.F.F.M.M.M.F.F.F.F.M.M.M.M.M.M.M.M.M.M.M.M.M.M.H.H.P.M.d.T d.n.M.M.m.n.m.n.n.m.n.n.M.M.M.M.M.M.M.M.M.M.M.F.M.M.M.m.M.M.M.m.m.m.m.m.m.m.m.m.m.n.n.n.n.n.n.n.g.g.g.g.g.g.g.g.g.g.g.g.n.n.n.n.n.n.n.n.P.F.g.T T d.g.m.g.g.g.g.n.n.g.n.g.g.g.g.n.n.n.n.g.g.g.g.g.g.g.g.g.n.n.n.n.g.g.g.s.s.s.g.g.g.g.g.s.s.s.g.g.s.s.s.Y U s.s.U U U U U U U U U p.p.s.D.x.U N C N I U V I I I I V N N N N N N M M M M M M M M M M m m m M M M m m m m m m m m m m m m z c m m n z z z z z z ",
"z z m m m m m m m m m m m m m m B B M M M B B B W M z z z n m n n n m m m m M M N M P P P P P P I I I I I I I I I U I M M N P N U p.U U U U U U U U U U U U P P U U U U U U U U p.p.p.P P p.l.D.D.P C P P N N U U p.p.p.p.p.s.s.U U U U U U U U U U U U U U U U p.U U U Y Y s.s.s.s.U U U Y s.s.s.s.s.s.s.s.s.s.s.s.s.s.s.s.s.s.g.g.g.s.d.g.n.m.H.m.d.T Y g.g.n.g.g.g.g.g.g.g.n.g.g.n.n.n.n.n.n.n.n.n.n.n.n.n.n.n.n.m.m.m.m.M.M.m.m.m.m.m.M.M.M.m.n.n.n.m.m.m.m.n.n.n.n.n.n.n.n.M.m.n.n.n.m.M.M.P.M.d.T d.b.n.n.m.m.m.m.m.m.m.m.n.n.n.n.n.n.n.n.n.n.n.n.h.g.d.d.n.n.n.n.g.d.d.g.d.g.n.n.n.n.d.d.n.n.n.n.n.n.n.n.d.d.d.d.d.d.d.d.Y d.d.g.g.g.g.g.H.M.d.T T T T d.d.d.d.d.d.d.d.d.d.d.d.d.d.d.d.d.d.d.d.d.Y d.d.d.d.g.g.g.g.g.g.g.U Y Y Y Y Y U U U U Y Y Y Y U U U U U U U U P P U U P P P P U U x.s.I C M C C M C M M M M C C C C C C C C n n n n n n n n n z z m m m m n n n n n n n n n n z z z z z z z z z z z z z ",
"z m m m m m m z m m m m m m m m B m m m m m B W B z z z z z B z n n m n m m M B B M P P N P P I U U I I U U U U U U U U U U U U U U U U U P P P P U U U P P P P U U U U U U U U P p.P P p.U p.G.F.P N P P U g.p.p.U U U U U U U s.p.p.p.U U U U U s.s.s.U U U U s.s.Y Y Y Y Y Y Y Y Y Y Y s.Y Y g.g.g.g.g.g.g.g.g.g.g.g.g.g.g.g.g.Y g.n.g.Y n.G.H.g.T T Y Y g.n.g.g.g.g.g.g.g.n.n.n.n.n.n.n.n.n.n.n.g.g.g.n.n.n.n.n.m.m.m.m.n.n.m.m.m.m.n.n.m.m.n.n.n.m.m.m.n.n.m.M.n.n.n.n.n.n.M.M.n.n.M.n.n.H.P.M.b.d.d.d.b.n.n.n.n.n.n.n.n.n.h.n.n.n.n.n.n.n.n.n.n.n.h.h.n.n.n.n.h.n.n.n.n.n.n.n.n.n.n.n.n.n.n.n.n.n.n.n.n.n.n.n.n.n.n.g.g.s.n.g.g.g.g.g.g.n.H.H.T T Y T g.g.g.g.g.g.g.g.g.g.g.g.g.g.g.g.g.g.g.g.g.g.g.g.g.g.g.g.Y Y Y Y g.g.Y s.s.Y Y Y U U U U U U U U U U U U U P P P P P P P P P P I P P l.G.C C V M N N N N N N N N N N m n n M M C C m m m m m m m m m m m m m m m n n z n n n n n z z z z z z z z z z z z z ",
"z m m m m m m z m m m m m m m m B m m m m m B W B z z z z z B z m n m m m m M B B M P P N P P I U U U U U U U U U U U U U U U U U U U U U P P P P P P P P P P P U U U U U U U U P p.P P p.U p.G.F.P N P P U s.p.U U U U U U U U s.p.p.p.U U U U U p.s.s.U U U U s.s.Y s.Y Y Y Y Y Y Y Y s.s.s.s.g.g.g.g.g.g.g.g.g.g.g.g.g.g.g.g.g.Y g.n.g.Y n.G.H.g.T T Y Y g.n.g.g.g.g.g.g.n.n.n.n.n.n.n.n.n.n.n.g.g.g.g.n.n.n.n.n.n.n.m.m.n.n.m.n.m.m.n.n.m.m.m.n.n.m.m.m.m.m.m.M.n.M.n.n.n.n.M.M.n.n.M.n.n.H.P.M.b.d.d.d.n.n.n.n.n.n.n.n.n.n.h.h.n.n.n.n.h.h.n.n.n.n.h.n.n.n.n.n.h.h.n.n.n.n.n.n.n.n.n.n.n.n.n.n.n.n.n.n.n.n.n.n.n.n.n.g.g.s.g.g.g.g.g.g.g.n.H.H.T T Y T g.g.g.g.g.g.g.g.g.g.g.g.g.g.g.g.g.g.g.g.g.g.g.g.g.g.g.g.g.g.Y Y g.s.Y s.s.Y Y Y U U U U U U U U U U U U U U P P P P P P P P I I P P l.G.C C V M N N N N M N N N N N C n n M M C C m n m m m m m m m m m m m m m n n n n n n n n z z z z z z z z z z z z z ",
"n m m m m m m z m m m m m m m m m m m m m m B W B z z z z z B z n n m m m m M M B B M M M M P U I I U U I I I I I I I I I I I I U U U I I I P P P P P P P P U P U U U U U U U U P p.P P p.U p.G.F.P N P P U s.U U U U U U U p.p.Y Y p.Y U U Y Y Y Y s.s.U U Y Y s.s.s.s.s.s.Y Y Y Y s.s.s.s.s.s.g.g.g.g.g.g.g.g.g.g.g.g.g.g.g.g.g.g.g.g.g.Y n.H.H.g.T T Y Y g.n.g.g.g.g.n.n.n.n.n.n.n.n.n.n.n.n.n.n.g.g.g.n.n.n.n.n.n.n.n.n.n.n.m.n.m.m.n.m.m.n.m.m.n.n.m.m.m.m.M.M.M.m.M.M.n.M.M.M.n.n.M.n.n.H.P.M.d.d.d.d.n.n.n.n.n.n.n.n.n.n.n.h.n.n.n.n.n.h.h.h.n.n.n.n.n.n.n.n.n.n.n.n.n.n.n.n.n.h.n.h.h.n.n.n.n.n.n.n.n.n.n.n.n.n.n.g.g.g.g.g.g.g.g.g.g.n.H.H.T T Y T g.g.g.g.g.g.g.g.g.g.g.g.g.g.g.g.g.g.g.g.g.g.g.g.g.g.g.Y Y Y g.g.g.s.Y s.s.s.Y U U U U U U U U U U U U U U P U P P P P P P P I I I P l.G.C m B M M M M B M M M M B B C M M M M C m m m m c m n m n n n n n n m m n n z z n n n n n n z z z z z z z z z z z ",
"z m m m m m m z m m m m m m m m m m m m m n B W B z z z z z B z n n m m m m M M B B M M M P P U I I I I I I I I I I I I I I I I U U U I I I P P P P U P P U U U U U U U U U U U P p.P P p.U p.G.F.P N P P U s.U U U U U U U U p.Y Y Y Y U Y Y Y Y Y s.s.Y Y Y Y s.s.s.s.s.s.s.s.Y Y s.s.s.s.s.s.g.g.g.g.g.g.g.g.g.g.g.g.g.g.g.g.g.g.g.g.g.Y n.H.H.g.T T Y Y g.n.g.g.g.g.n.n.n.n.n.n.n.n.n.n.n.n.n.n.g.g.g.n.n.n.n.n.n.n.n.n.n.n.m.m.m.m.m.m.n.n.m.m.n.n.m.m.m.m.M.M.m.m.M.M.M.M.M.M.n.n.M.n.n.H.P.M.d.d.d.d.n.n.n.n.n.n.n.n.n.n.n.n.n.n.n.n.n.n.h.h.n.n.n.n.n.n.n.n.n.n.h.n.n.n.n.h.n.h.h.h.n.n.n.n.n.n.n.n.n.n.n.n.n.n.n.g.g.g.g.g.g.g.g.g.g.n.H.H.T T Y T g.g.g.g.g.g.g.g.g.g.g.g.g.g.g.g.g.g.g.g.g.g.g.g.g.g.g.g.g.g.g.g.g.g.p.s.s.s.Y U U U U U U U U U U U U U U P U P P P P P P I I I P I l.G.C m B M M M M B M M M B B B C M m M M C m m m m v m n n n n n n n n n n n n z z z n n n n n z z z z z z z z z z z ",
"z m m m m m m z m m m m m m m m m m m m v z B W B z z z z z B z m z m m m m M M B B M M M P I U I I I I I I I I I I I I I I I I U U U I I I P P P P P P P P U U U U U U U U U U U s.P P p.P p.G.F.P N P P U s.U p.p.U U U U p.p.Y Y U U U p.Y Y Y Y U U U U Y Y s.s.s.s.s.s.s.s.s.s.s.s.Y Y s.s.Y Y Y Y n.g.g.g.Y Y g.g.Y Y Y Y g.Y g.n.Y Y n.G.G.g.T T Y Y g.n.g.g.g.g.n.g.g.g.n.n.n.n.n.n.n.n.n.n.n.g.g.n.n.n.n.n.n.n.n.n.n.n.m.m.n.n.n.n.m.m.n.n.n.n.m.n.n.n.n.n.n.n.n.n.n.n.n.M.n.n.F.n.n.H.P.M.d.T d.d.b.n.n.n.n.n.n.n.n.n.n.n.n.n.n.n.n.n.n.n.n.n.n.n.n.n.n.n.n.h.h.n.n.n.n.n.n.n.n.n.n.n.n.n.n.n.n.n.n.n.n.n.n.n.n.n.g.Y n.g.g.g.g.g.g.g.G.H.P T Y P Y Y Y Y g.g.Y Y Y Y g.g.g.g.Y Y g.g.Y Y Y Y Y Y Y Y Y Y Y Y g.Y Y Y Y U U p.p.p.U P U U U U P P P P U U U U U I I I I P P I P I I I l.G.C m B n M M M M B B B M M M m M M M m m m n m m m m v v z z n n n n n n n n z z n n n n n n z z z z z z z z z z z ",
"z m m m m m m z m m m m m m m m m m m m v z B W B z z z z z m z m z m m m m M M B B M M M I I U I I I I I I I I I I I I I I I I U U U I U I P P P P U U P P U P U U U U U U U U U s.U P p.P p.G.F.P N P P U s.U p.p.U U U U p.p.Y Y U U p.p.Y Y Y Y U U s.p.Y s.s.s.s.s.s.s.Y s.s.s.s.s.Y s.s.g.Y Y Y Y n.n.g.g.Y Y g.g.Y Y Y Y g.Y g.g.Y Y n.G.G.g.T T Y Y g.n.g.g.g.g.g.g.g.g.n.n.n.n.n.n.n.n.n.n.g.g.g.n.n.n.n.n.n.n.n.n.n.n.m.m.n.n.n.n.n.m.n.n.n.n.m.m.n.n.n.n.n.M.n.n.n.n.n.M.n.n.F.n.n.H.P.M.d.T d.d.b.n.n.n.n.n.n.n.n.n.n.n.n.n.n.n.n.n.n.n.n.n.n.h.n.n.n.n.n.h.h.h.n.n.n.n.n.n.n.n.n.n.n.n.n.n.n.n.n.n.n.n.n.n.n.n.g.Y n.g.g.g.Y g.g.n.G.H.P T Y P Y Y Y g.g.g.Y Y Y Y g.g.g.g.Y g.g.g.Y Y Y Y g.g.Y Y g.g.g.g.g.g.g.g.Y U U U p.p.U P U U P P P P P P U U U U U I P P P P P P P I I I l.G.C m B n M M M M M M M M M M m M M M m m m m n n m m v v z z z z z z n n z z z z n n n n n z z z z z z z z z z z z ",
"z m m m m m m z m m m m m m m m m m m m v z B W B z z z z z m z m z m m m m M M B B M M M I I U I I I I I I I I I I I I I I I I U U U I U P P P P U U P P P P P U U U U U U U U P p.P P p.U p.G.F.P N P P U s.U p.p.p.U U U U p.Y U U U s.s.s.s.Y U U U s.s.s.s.s.s.Y Y Y Y Y Y s.s.Y Y Y Y s.g.g.g.Y Y n.n.Y Y Y Y n.n.g.g.Y Y g.Y g.n.Y Y n.G.H.n.T T Y Y g.n.g.g.g.g.g.g.g.g.n.n.n.n.n.n.n.n.n.g.g.g.g.n.n.n.n.n.n.n.n.n.n.n.n.m.n.n.n.n.m.m.n.n.n.n.m.m.n.n.n.n.M.M.n.n.n.n.n.M.n.n.F.n.n.H.P.M.b.d.d.d.b.b.n.n.n.n.n.n.n.n.h.n.n.n.n.n.h.n.n.n.n.n.h.h.n.n.n.n.n.h.n.n.n.n.n.n.n.n.n.n.n.n.n.n.n.n.n.n.n.n.n.n.n.n.n.n.g.g.n.g.g.Y Y g.g.n.G.H.T T Y P Y Y Y Y g.g.g.g.Y Y g.g.Y Y Y Y g.g.g.g.Y Y g.Y g.g.g.g.g.g.g.g.g.g.Y U p.p.p.p.U P P P P P P P P P U U U U P P P P P P P P P P I I l.G.C m B n M M M B B M M M M M m M M M m m m m n m m z v v v z z z z z z z z z z n n n z z z z z z z z z z z z z z z ",
"z m m m m m m z m m m m m m m m m m m m v z B W B z z z b z m z m z m m m m m B B B B B B B I I I I I I I I I I I I I I I I I I U U U I U P P P P I I P P P P P U U U U U U U U U s.U P U U U G.F.P N P P U s.U p.p.p.p.U U U p.U U U U s.s.s.s.U U U U s.s.s.s.s.s.Y Y Y Y Y Y Y Y Y Y Y Y s.g.g.g.g.Y n.g.Y Y Y Y n.n.g.g.g.g.g.Y g.g.Y Y n.F.H.g.T T Y Y g.g.g.g.g.g.g.g.g.g.n.n.n.n.n.n.n.n.n.g.g.g.g.n.n.n.n.n.n.n.n.n.n.n.n.n.n.n.n.n.m.m.m.n.n.n.m.n.n.n.n.n.M.M.n.n.n.n.n.M.n.n.F.n.n.H.P.M.b.T d.d.b.n.n.n.n.n.n.n.n.n.n.h.n.n.n.n.n.h.n.n.n.n.n.n.n.n.n.n.n.n.n.n.n.n.n.n.n.n.n.n.n.n.n.n.n.n.n.n.n.n.n.n.n.n.n.n.g.g.n.g.g.Y Y g.g.g.G.G.T M Y P Y Y Y Y g.g.g.g.g.g.g.Y g.Y g.Y g.g.g.g.g.g.g.g.g.Y g.g.g.g.g.g.g.g.U p.p.p.p.p.U P P P P P P P P U U U U P P P P I P P P P P I I I z.z.C m M n M M B B M M M M B B n M M M m m m m n m n z m v m m z z z z z z z z n n n n z z z c z z z z z z z z z z z ",
"z z z z z z z z m m z z z z m m m m m z z m B W B z 8 9 z z m m m m m m m m m m m m m m m m m m M M M M B B B B M B B B N N N N U I I I I I U U I I I I I I I I U U U U U U U I I U U U P I s.x.D.U C M P P P U U U P P P U U U p.p.p.U p.p.p.p.U U U U p.p.U U P P U U p.s.s.s.g.s.U P P U p.g.g.y.y.y.y.y.y.y.y.y.y.y.y.y.y.Y g.s.g.g.g.s.g.D.H.Y M M P P P g.Y Y Y Y Y Y Y Y n.n.n.g.n.g.n.n.D.D.D.D.n.n.n.n.n.n.n.D.D.D.D.n.M.M.n.n.n.n.n.M.M.M.M.M.M.M.M.M.n.n.n.n.n.n.n.n.M.n.n.n.n.g.m.H.P.M.d.T T n.n.n.m.n.M.n.M.n.n.n.n.n.n.n.n.n.n.n.M.n.n.n.m.n.m.n.n.n.n.n.n.n.n.n.n.n.n.n.n.n.n.n.n.n.n.n.n.n.n.n.y.y.Y Y Y y.y.Y g.Y Y s.s.U Y g.H.D.Y M M P Y g.g.g.g.g.g.s.s.s.d.Y s.Y s.Y d.Y Y Y U U U U Y Y U Y Y s.s.Y Y U s.s.U U U U U U U U U U U U U U U U U U U I I V P M N B N M N C z.z.n z m z C M M M B M B M C n n n n n z z n n m n n m n m n m z z z m m z z z z z z z z z m m z z z z z 9 z 9 z z q ",
"z z z z z z z z m m z z z z m m m m m z z m B W W m 9 z m m m B m m m m m m m m m m m M B B B B M M M M B B B I N B B B N N N N I I V V I I U U U U U U U U U U U U U U U U U U I U U U I U x.G.G.p.N N U U U U s.s.s.s.s.s.s.x.s.s.s.s.s.s.s.s.s.s.s.s.s.s.s.s.U U p.p.s.s.s.s.s.s.p.U U U p.s.n.n.n.n.n.n.n.n.n.n.n.n.n.n.n.n.g.s.s.g.g.s.g.D.H.s.M P U U U g.n.n.n.n.n.n.n.n.D.D.D.n.n.D.D.D.D.D.D.D.D.D.D.D.n.n.n.n.n.n.n.n.n.n.n.n.M.M.M.n.n.n.M.M.M.M.M.m.m.m.n.n.m.m.M.M.F.m.n.m.n.n.F.H.P.M.n.T Y n.n.n.n.n.M.M.n.n.n.n.n.n.n.n.n.n.n.n.n.n.n.n.n.n.n.n.n.n.n.n.n.n.n.n.n.n.n.n.n.n.n.n.n.n.n.n.n.n.n.n.n.n.n.n.n.n.n.n.g.Y Y s.s.U Y l.G.D.Y P P U s.g.g.g.g.g.g.g.g.s.s.s.s.s.s.s.g.s.s.Y Y s.s.s.s.s.s.s.s.s.Y Y Y U p.p.U U U U U U p.p.s.s.U U U U U U U U U U I I I I I I U I V V z.z.C n M n V V V V V V V M M M M M M M m M M M n n z z n n n n z z z z z z z z z z z z z z n m z z z z 9 9 9 9 q q q ",
"m m m m m m m m m m c c c c m m m m m m m m B W B z 9 z z z z m m m m m m m m m m m m m m m m m B B B B I I I I V I I I I I V V I V V V I I I U U U U U U I U U I I I I I I I I I U U U U U x.x.D.U M M P I U U U U U U U U U U s.s.Y Y s.s.s.s.s.s.s.s.s.s.s.s.U U U U U U U U U U U s.s.s.s.Y Y Y Y Y Y Y Y Y Y Y Y Y Y Y Y Y g.Y U s.s.Y s.D.G.s.P P U U Y g.n.n.n.n.n.n.n.n.n.n.n.n.n.n.n.D.n.n.n.n.n.n.n.n.n.n.n.n.n.n.n.g.g.n.m.M.F.F.m.n.n.n.n.n.n.n.n.n.n.g.g.g.g.g.g.g.n.g.g.n.n.g.m.H.H.F.g.T T d.g.n.n.n.n.n.n.g.g.g.n.n.n.n.n.n.n.n.n.n.n.n.n.n.n.n.n.n.g.g.g.n.n.n.n.n.n.n.n.n.n.n.n.n.n.n.n.g.g.Y g.n.g.g.n.n.n.g.Y U U Y U P U s.G.D.Y P P U Y s.d.s.s.s.s.s.d.Y d.d.d.d.s.s.s.Y s.U U U U U U U s.s.Y U U U U U U U U U U U U s.U U U U U U U U U U U U I I V V V V V V V V N N x.z.n n M n M M M M M M M M C n m m m m m m m m n n z z n n n n z z z z z z m m m m m z z n z m m z z z 9 z z z 9 9 9 ",
"m m c c c c m m c z z z z z z m z z z z z m B W B z z z z z z z z z z z z z z z z z m m m m m m B B M B B B I I B B B B B B N N V V V V V I I I V V V V V V I I I I I I I I I I I I I U U U x.x.x.U M M N I U U U U I I I U U U U U U U U U p.p.U U U U U U U U U U U U U U U U U U U U U U U U Y Y Y Y Y Y Y Y Y Y Y Y Y Y Y Y Y U U s.Y U s.D.G.s.P P U U Y g.g.n.n.n.g.g.g.g.n.n.n.g.g.g.g.n.g.g.g.g.g.g.g.g.n.n.n.D.n.n.n.n.g.g.g.n.n.n.g.g.g.g.g.g.g.g.g.g.g.g.g.g.g.g.g.g.g.d.g.n.g.g.n.F.H.F.s.T U d.g.g.g.g.g.g.g.g.g.d.d.d.d.d.d.d.n.d.d.d.d.d.d.d.d.Y g.Y Y Y Y Y g.n.g.g.g.g.g.g.n.n.Y g.g.g.g.g.Y Y Y Y Y Y g.Y Y Y Y P U U U P U s.F.l.Y P P U Y s.Y d.d.s.s.d.Y U d.d.d.d.Y Y d.U U U U U U U U U s.Y U U U U s.s.U U U U U U U U U U U U U U U U U U I I I I V V M M C C C C M M W x.n n M z M M n n M M M n n n z z n n n n n n n n z z z n n n n z z z z m m m m m m z z z z z z z z z z 9 9 9 9 9 9 ",
"9 9 9 9 9 9 9 9 9 9 9 9 9 9 9 9 9 z z z z z m m m z z z z z z z z z z z z z z z z z z z m m m m m m m m m m m m m m C C M M M m C C M M M M M M B V V V B B B V I I I I I I I I M I I I I U U x.x.U N C M I I I U U U U U U U U U U U U U U U U U U U U U U U U U U U U U U U U N M M M M N P I U Y Y Y Y Y Y Y Y Y Y Y Y Y Y Y U U U s.U U Y l.D.s.P P U U Y s.Y Y Y Y Y Y Y Y Y Y Y Y Y Y Y Y Y Y Y Y Y Y Y Y Y Y Y Y Y Y Y Y Y Y U U P P U U Y Y Y Y Y Y U Y d.d.Y Y Y Y Y Y s.Y Y s.Y Y s.D.G.D.s.U Y s.s.s.s.s.s.s.s.s.Y Y Y Y Y Y Y Y Y Y Y Y Y Y Y Y Y Y Y Y Y Y Y Y Y Y U U P P P P Y Y Y Y Y Y Y Y U U Y Y Y Y Y Y Y Y U P P U U P U s.D.g.U P P P U U U U U U U U P P U U P U U U U U U U U U U U U U U U U U U U s.s.I I P P N M M M U U U U U U U U I U I I I I N B M M M C C C C M V x.n n M n M C n M M M M C n n n n n n n n n n z z z z z z z z z z z z z z z m z z z z z z 9 9 9 9 9 9 9 9 9 9 7 7 7 ",
"9 8 8 8 7 7 9 9 9 9 8 8 8 8 7 9 8 9 z 9 9 9 z z z z z z z z 9 z z z z z z z z z z z z z z z z z b b n n z n n n M M M M n n n n M M M C M M m m m C m C m m m M M M M M M M M M M M M M M M M I P P M M M M M M C C M M M M M M M M M M M M M M M M M M M M M M M M M M M M M M M C M M M M N P M M M M M M M M M M M M M M M M P M M P P M P Y Y P M M M M P P M M M M M M M M M M M M M M M M P P P P P P P P M P P P P P P P U P P N N P P P M M P P P P N N P T T P P P P P T P P T P M P U l.s.P P U U P P P P P U P P P P P P T P T P T P T T T P T P T P P P P P P M M M P M M M M M P U M M P P P P M M M M M M M M M M M M M P M M M U Y P M M M M M M P P P P P M M M M M M M M M M M M M M M M M M M M M M M M M P P N M M M M M C M M M M M M M M M M M M M M M M n M M n n n n n n C U 9 z C z n n n n n n n n n z z z z z z z z z z z z z z z z z z z z 9 9 z z z 9 9 9 9 9 9 8 8 8 8 8 8 8 8 8 8 8 8 8 ",
"9 9 9 9 9 9 9 9 9 9 9 9 9 9 9 9 z z z z z z z m z z z m z z z z z z z z z z z z z z z z z z n n m m m m m m m m m m m m m m C C M M M B I I B B M M M M M M M M M M M M M M M M M M M M I I I I I I I M M I I M M M M M M M M M P M M M M M M M P P P P P P P P P P M M M M M M P P P P U U U U P P P P P P P P P P P P P P P P P P P U P P U g.Y U P P P P U U P P P P P P P P Y P P P P P P Y Y U U U U U U U p.p.U U U I P P U U U U p.s.s.g.P P P P U P P P U U U U U U U U Y U U s.U P P s.g.s.U U s.s.U P U U U U U U P U U U Y U Y U Y U Y U U U U U Y U P U U U U P M M P U U U U U U Y P I I U U P P P P P P P P P P P P P P U P P P Y s.U P P P P P P P P P P P P P P P P P P P P P P P P P P P P P P M M M M M M M M I I I I I I I U M M M M B B M M M M M M M M m m M M m m m m m n M W z z B z m m n m m m m n z z z z z z z z z z z z z z z z z z z z z z z z z z z z z z n z z z z z z z 9 9 9 9 9 9 9 ",
"m m m m q q q q m m m m m m m m B B B B B B B B B m B W W B B W W W W W W W W W W W W W W W W W I U U U U W U W U U U U U U V I U U U W W W U U ! W W W W W W W x.x.x.x.x.x.x.x.x.l.l.l.l.x.l.l.x.G.G.z.x.G.x.! l.l.l.l.l.x.x.z.l.l.l.l.l.l.l.l.l.l.l.l.l.l.l.x.l.D.l.l.l.s.s.s.U s.x.l.x.l.l.x.l.l.l.l.l.l.l.l.D.D.D.D.D.D.D.D.D.D.D.D.D.D.F.G.G.G.F.D.D.F.F.D.F.F.F.F.F.F.F.F.H.F.F.F.F.F.F.G.G.G.G.G.G.G.G.G.G.F.D.D.l.x.s.U s.s.l.D.F.F.G.F.D.D.F.F.F.F.F.F.G.G.G.G.G.G.G.G.G.G.G.G.G.D.D.G.G.G.G.G.J.G.F.D.D.D.F.F.F.D.D.c.G.G.G.G.G.G.G.G.F.F.D.D.D.D.F.D.l.D.G.G.D.l.s.U s.s.l.D.D.D.x.l.D.D.D.D.F.D.D.l.l.l.D.D.D.c.D.D.D.D.D.D.D.l.D.G.G.G.D.D.D.D.D.D.D.D.D.D.D.D.l.g.D.D.D.D.D.D.D.D.l.l.l.l.l.l.l.l.l.l.l.l.l.s.Y U U U U ! x.l.x.x.l.l.l.l.l.l.l.l.! ! x.x.x.x.x.W W W W W W W W W W z.B W x.W W W W W W W W U V V V V V V V V V V M M M M B M B M B B B B m m z z m m B B B B B B B B B B m m m m m m m ",
"m m m m m m m m m m m m m m m L W W W W W W W W W W W W W W W W W W W W W W W W W W W W W W W W W W ! W W W W W W W B z.z.m m n B U W z.z.x.x.z.z.z.z.z.z.z.z.z.l.l.l.l.l.l.x.x.z.z.G.D.D.D.z.z.x.x.D.G.G.G.G.G.x.z.z.G.G.G.G.G.D.D.G.G.G.G.D.G.D.D.D.D.D.D.D.D.D.l.l.G.G.s.P P U s.l.D.D.D.x.x.G.G.G.G.G.G.G.G.G.G.G.G.G.G.G.G.G.G.G.G.G.G.G.G.G.G.G.G.G.G.G.G.G.G.G.G.G.G.G.G.G.G.G.G.G.G.G.G.G.G.G.G.G.G.G.G.G.l.x.G.J.l.U U s.x.G.G.G.G.G.G.G.G.G.G.G.G.G.G.J.J.J.J.J.J.J.J.J.J.J.J.J.J.J.J.G.G.G.G.G.G.G.G.G.G.G.G.G.G.G.G.G.G.G.G.G.G.G.G.G.G.G.G.G.G.G.G.G.G.l.G.P.G.U I I s.x.G.G.G.D.l.G.G.G.G.G.G.G.G.D.D.G.G.G.G.G.G.F.F.F.G.F.F.F.D.G.G.G.G.G.G.G.G.F.D.D.D.D.D.D.G.G.G.G.G.D.D.D.D.D.D.D.D.D.D.D.D.l.s.l.s.D.G.M M M I l.G.G.G.x.l.x.x.x.x.x.l.l.l.l.l.l.l.l.l.z.! z.z.z.z.z.z.x.x.W W z.z.z.z.W W W W W W W W W W W W W W W W W W W W W W W W W W W B B W W W B z z m m B B W W B K K K K K K K K m m m ",
"9 9 q q 9 9 9 9 9 9 9 9 q q q q m m m m m m m m m m m m m m m m m m m m m m m m m m m m m m m m B B B B B B B B B B m z.z.z z z M B U U U U U U U U U U U U U I I I I I I I U U U U U U U U U U U I U U U U U U U U U U U ! W U s.s.s.s.s.Y s.s.s.s.U U Y U U U l.s.s.D.D.U M M M U s.l.l.x.x.s.U U U s.x.x.x.x.x.x.x.x.x.x.x.x.g.g.g.g.g.g.g.g.g.g.g.g.g.g.g.g.g.g.g.g.g.g.g.g.g.g.g.l.l.g.l.l.s.x.x.x.l.l.x.x.l.s.x.G.G.x.P P U s.l.D.D.l.l.l.l.l.l.l.l.l.l.l.l.l.l.l.D.D.l.l.l.l.l.l.l.D.l.l.l.l.l.l.l.l.l.l.l.l.c.c.c.c.l.l.l.l.l.l.c.l.l.l.x.l.l.l.l.l.l.l.l.l.x.D.J.D.P N N U s.x.l.l.x.s.s.s.s.s.s.s.s.s.s.s.s.s.s.s.s.s.s.s.g.g.g.s.s.Y s.s.s.s.s.s.s.s.s.s.s.s.s.s.s.s.s.s.s.s.s.s.s.U U U U U U p.U U Y U s.U x.D.M M M I U Y U U U U U U I I I I I I I U U I U I B B I I V V V V V B B B B B B B B B m m m m m m m m m n n n n m n n n m m m m m m m B m m B W W m 9 z z m B B B B B m m m m m m m m m m q ",
"9 q q q q q 9 9 9 9 9 9 9 q q q z z z z z z z z z z z z z z z z z z z z z z z z z z z n m m m m v v m m m m m m m m z x.x.z z z m M B I B B B B B B B B B B B B I I I I I I I I I I I I I I I I I I I I I I I U U U U U U U U U U U U U U U U U U U U U U U U I Y U U D.D.U M M M I U x.Y Y Y U U U U U Y Y s.s.U U U U U U U U s.s.s.Y s.s.s.s.s.s.s.s.Y Y Y s.s.s.s.s.s.Y s.s.s.s.s.s.s.g.g.g.Y Y s.s.s.s.s.s.s.U s.G.J.l.P N P U x.l.l.l.s.s.x.x.x.x.x.x.x.x.l.l.l.l.D.D.D.D.l.D.l.l.D.D.D.l.x.x.x.x.l.l.x.x.l.l.l.l.l.l.l.l.g.l.l.l.l.l.l.l.s.s.s.g.g.l.l.l.l.l.s.l.G.D.P M M N U U s.s.s.s.s.s.U U Y Y s.s.U p.U s.U U U U Y Y s.s.Y Y U U U U U U U U U U U U U U U U U U U U U U U U U U U U U U P P I I U P U P l.D.M M M I M M M M M I I I I I M M M M I I I I I I M M M M m m B B m m m M M B m m m m m m m m m m m m z z z z z z z z z z z n n n n n m z z m B B z 8 9 z z m m m m m m m m m m m m m q q q ",
"q q q q q q q q q q 9 q q q t t m m m m m m m m m m m m m m m m m m m m m m m m m m m m m m m m m v B B B B m m m m n z.z.n n n M B I I B B B B U U U U U U U U I I I I I U U U W W W U U U U U U U U U U W ! ! U U U U U U U U Y Y Y U U U U U U U Y U U U U U Y U Y G.G.U M M M U Y x.Y Y Y Y s.s.Y s.s.s.s.s.s.s.s.s.s.s.s.s.g.g.s.g.g.g.g.g.g.g.g.s.g.g.g.g.g.g.g.g.g.g.g.s.g.g.g.g.g.l.l.l.s.s.s.x.x.s.s.s.x.U s.G.J.l.U U P U l.l.l.x.s.x.l.l.l.l.l.l.l.D.D.D.D.D.D.D.D.D.D.D.D.D.D.D.D.D.D.l.l.l.l.l.l.l.l.l.l.l.x.x.x.x.l.l.D.D.D.D.l.l.l.l.l.l.l.D.D.D.D.c.s.l.H.D.I P N P U U s.s.s.s.s.s.s.s.s.s.s.s.s.s.s.s.s.s.s.s.s.s.s.s.s.s.Y Y U U Y Y Y U Y U s.U U U s.s.s.s.U s.s.s.s.s.U U U U U U U U U U U P U U D.G.M M I I I M M M I I U U U U U I I I I I I I I I B B B B B B B B B B B B B B B B m m m m m m m m m m m m m m m m m m m m m m m m m m m z z B W W m 9 9 z z m m m m m m m m m m m m m m m q ",
"9 9 q q q q q 9 9 9 9 9 9 9 9 9 z z z z z z z z m m m m m n m m n n z c z z z n z z n m m m m m z c v v m v v z m B c z.z.n m m B B I I B B B I I I I I I I I I I I I I I I I U U U U U U U U U U U U U U U U U U U U U U U U U U U U U U U U U U U U U I U I I Y U ! G.G.U M M I U Y x.Y Y U Y Y Y Y Y Y Y s.s.Y Y Y Y Y Y Y Y Y Y Y s.s.s.Y Y s.s.s.s.s.s.s.s.s.s.Y U Y Y s.s.s.s.Y U s.s.s.s.Y Y s.s.s.s.Y Y D.Y g.G.G.l.U s.U Y l.l.l.l.l.l.l.l.l.l.l.l.l.l.D.D.D.D.D.D.n.D.D.D.D.D.D.D.n.D.l.l.l.l.l.l.l.l.l.l.l.l.l.l.l.l.D.D.D.D.D.D.D.D.g.l.g.l.l.D.D.l.D.D.s.l.G.D.U U P P U U Y Y s.s.s.s.s.s.s.s.s.s.Y Y Y Y Y Y Y Y Y Y Y s.Y Y Y U P P P P P P P P U U U U U U U U U U U U U U U U U U U U I I I U U U s.U D.G.M I M M I I I I I I I I I I I I I M I I I I I I M M M M B B B B m m m m m m m m m m m m v v v v v m n n n n n n n n n n n n n n n n m z z m W W m z z z n m B B B m m m m m m m m m m m m ",
"9 9 9 9 9 9 9 9 9 9 9 9 9 9 9 9 z z z z z z z z m m m m m n m m n n z c z z n n z z m m m m m m z v c v m v v z m m z z.x.z n z m B B B B B I I I I I I I I I I I I I I I I U U U U U U U U U U U U U U U U U U U U U U U U U U U U U U U U U U U U U U I U U I U I U D.D.U M M I U U Y U U U U Y Y Y Y Y s.s.s.Y Y Y Y Y Y Y Y Y Y s.s.s.Y Y Y s.s.s.s.s.s.s.s.s.s.Y Y U U s.s.s.s.Y Y s.s.s.s.Y s.s.s.s.s.s.Y D.U Y G.G.g.P U P U s.l.l.g.g.l.l.l.l.l.l.l.l.D.D.D.D.D.D.D.D.D.D.D.D.D.D.D.D.D.D.l.l.l.l.l.l.l.l.l.l.l.l.l.l.l.D.D.D.D.D.D.D.D.D.D.D.D.D.D.D.D.D.l.s.l.J.D.P P P P P U U Y Y Y s.s.Y s.s.s.s.s.Y Y Y Y Y Y Y Y Y s.s.s.s.Y Y U U U U U U U U U U U U U U U U U U U U U U U U U U U U U I I I U U P U P D.G.M M M M I I I I I I I I I I I I I I I I I I I I M M M M B B B B m m m m m m m m v c n n v v v v v v m m m m n n m m n n m n n n z z m z z m W W m 9 z z m m B B B B m m m m m m m m m m q ",
"z z z z 9 9 9 9 z z 9 9 9 z z z m m m m m m m m m m m m m m m m m m m m m m m m m m m m m m m m m v m B B B m m m m z z.x.z z z m B B B B B I U U U U U U U U U I I I I I U W W W W ! ! W ! W W I U U U W W U W W W W W U U U U U U U U U U U U U U U U U U U U U I U x.x.I M M M U U U U I U U s.g.g.g.g.g.l.l.g.g.g.g.g.g.g.g.s.s.s.s.s.s.s.s.s.s.s.s.s.s.s.s.s.s.s.s.s.s.s.s.s.s.s.s.s.s.x.x.g.g.g.g.g.g.g.g.g.P Y H.H.g.P P P Y g.g.g.l.l.D.F.D.D.F.D.D.D.D.D.D.D.D.D.D.D.D.D.D.D.D.D.D.D.D.D.D.D.D.D.D.D.D.D.D.D.D.D.D.D.D.D.D.D.D.D.D.D.D.D.D.D.D.D.D.D.D.g.g.s.D.H.F.P M P P P Y Y Y Y Y g.g.g.g.g.g.g.g.g.g.g.g.g.g.g.g.s.s.s.g.s.s.s.Y U U U U U U U U U U U U U U U U U U U U U U U U U U U U U U U U U P U P l.D.M M M M I I I I I I U U I I U I I I I I I I I I B B B B B B B B m m m m B B m m m m m m m m m m m m m m m m m m m m m m m m m n n n z z z m B W m 9 z z m m B B B B m m m m m m m m m m t ",
"9 9 9 9 9 9 9 9 9 q 9 9 9 q z z z z z z z z z z z z z z z z z z z z z z z z z z z z z z z m m m c m m m m m m m m m z z.x.z z z m B B B I I U W I B I B I B I I I I I I I I I I I I I I I I I I I I U U U U U U I I I I I I I I I U U I U U U U I I I I I I I I ! U U l.l.U M M I U U U U U U U U U U Y Y Y Y Y U U U U U Y Y Y Y U Y U Y U Y U Y U Y U Y U Y U Y U Y U U U U U Y U Y U Y Y Y Y Y Y Y g.g.Y Y Y g.U g.H.H.l.M M P Y Y D.D.D.D.D.D.D.D.D.D.D.D.D.D.D.D.D.D.D.D.D.D.D.D.D.D.D.D.D.D.D.D.D.D.D.D.D.g.l.l.l.D.D.D.D.n.D.D.D.D.D.D.D.D.D.D.D.n.Y g.Y g.l.s.D.J.F.U P P P U s.s.s.s.Y Y Y Y Y Y Y Y Y Y Y Y Y Y Y Y Y U Y Y Y Y Y U U P P P P P P P P U I U U U U I U I U U U U U I I P M P P P M P M U I U I l.G.C M M I I I M M I I I I I I I B B B B I I B I B M m m M m m m m m m v m m m m v z z z z z z z z z z z n n z n n n n n n n z z z z z m z z m W W m 9 9 z z m m m m m m m m m m m m m m m m ",
"9 9 9 q 9 q q q q q q q q q q q q z z 9 z z z z m m m m c c m c z z z m m m m m z n z z z z z z c z z z z z z z n m z z.W z z z z z m m B B B B B B V V U V V B I I I I I I I I I I I I E E E I I I I I I I I I I I I I I I I I I I I I I I I I W W W W U W W W ! I W G.G.I M B I I I I U U U I U U U U U U U U U U U U U U U U Y U U U U U U U s.W s.W s.! s.Y Y Y Y Y Y ! Y ! ! ! ! ! ! ! ! ! Y Y Y Y Y Y Y Y Y Y Y D.G.D.M T Y Y Y ! y.D.D.D.! ! ! ! ! ! D.D.D.D.D.D.D.D.D.D.D.l.D.g.D.l.D.l.g.g.g.g.Y Y Y Y Y Y Y Y Y Y Y Y l.! l.! l.! D.D.D.l.l.D.D.D.D.! l.l.! l.~.G.U P M U s.s.s.s.s.s.Y Y g.Y g.Y Y Y Y Y Y Y Y Y Y Y U U U Y Y Y U U Y Y Y U U U U U U U U U U U U U I I I I I I I I I U U U U U U U Y U Y U D.G.M M M M I U I I I I B B B B B M B B I I I B B B B B B B B B B B B B m m m m m m m m m m m m m m m m m m m m m m m m m m m m m m m m m z z m W K m 9 9 9 t m m m m L m m m A m m c q q q q ",
"9 9 q q q q q q q q q q q q q q q q z 9 9 z z z z z c c c c c c z z z z z z m m n n z z z z z z n n n n n n n n m m n z.W z z z m m m M B B M M B B B B B B B B I I I I I I E E I I I I I E E E I I I I I I I I I I I I I I I I I I I I I I I I I I I I I I I I ! I W G.G.U B I I I I I U W W U U U U U U U U U U U U U U U U U W U U U U U ! ! U U U U U U U Y Y Y Y ! ! ! ! ! ! ! ! Y ! ! ! ! y.y.! ! y.! ! Y ! ! ! D.~.D.M I I Y ! y.y.y.D.D.D.D.D.D.D.D.D.D.l.l.l.l.l.l.l.n.D.D.D.D.D.D.D.D.D.D.D.D.D.D.D.D.D.D.l.l.l.l.l.l.D.D.D.D.D.D.D.D.D.D.D.D.D.D.D.! ! ! ! z.~.G.U I M I s.s.s.s.s.p.Y Y Y Y Y Y Y Y Y Y Y Y Y Y Y Y I I I I I I I I Y Y U I I I I I U I I I I I I I I I I I I I I I U U U U U Y U U U I Y U x.G.M M M M I I I I I I B B I I B B B M B B B B B B B B m m m m m m m m m m m m m m m m m m m m m m m m n n m m m m m m z z z z z z n z z z z m K K m 8 9 9 q m m m m m A A A A A A c q A A A ",
"9 9 q q 9 9 q q q q q q q q q q q q 9 9 9 9 z q z z z z z z z z z z z z z z z z m m m m m m m m m m m m m m m m m m m z.x.z z z m M M B B M M M B B B B B B B B I I I I I I I I B I I I I I I I I I I I I I I I I I I I I I I I I I I I I I I I I I I I U U U I ! I W G.G.U M I I I U U W ! ! ! U U U U U U U U U U U U U U U U W U U U U U U ! U U U U U U U U Y Y Y Y ! ! Y Y Y Y Y Y Y Y Y Y ! ! D.l.! ! Y Y D.! Y D.G.D.M T I Y y.D.D.D.D.y.D.D.D.D.D.D.D.D.D.D.D.D.D.D.D.D.D.D.D.D.D.D.D.D.D.D.D.D.D.D.D.D.D.D.D.D.D.D.D.D.D.D.D.D.D.D.D.D.D.D.! D.D.D.D.! ! ! ! z.~.G.I I M I s.s.s.p.p.p.Y Y Y Y Y Y Y Y Y Y Y Y Y U U Y U U U U U U U U U U U U U I I I I I I I I I I I I I I I I I I I U U U U U U U U U I U I l.G.m M M M M I I I B B I I V V B B B B m m m m m m m m m m m m m m m m m m m m m m m m m m m m m m m m n n z z z z z z z z z z z z z z c z z m K K z 8 7 9 t m m m m m A A A A A c q q A A A ",
"9 9 q q 9 q q 9 q q 9 9 9 9 9 q q q 9 9 9 9 z z z z z c z z z z z z z z z z z n m m m m m m m m m m m n m m m m n m n z.x.z z n m m M B B B B M B B B B B B B B I I I I I I I I I I I I I I U I U W W W U U U U I I I I I I I I I I U I U I U I U U U U U U U U ! I U G.G.I M M I I U U ! ! x.x.U U U U U U U U U U U U U U U U U U U U U U U U ! U U U W W W Y Y Y Y Y Y Y Y Y Y Y Y Y Y Y Y Y Y Y Y Y Y Y Y Y l.Y Y D.G.D.M M T Y D.D.D.D.D.D.l.l.D.y.D.y.D.D.D.D.D.D.D.D.D.D.l.l.l.l.l.l.g.g.Y g.g.g.g.g.g.Y D.D.D.D.D.D.D.D.y.D.D.D.! ! y.y.! Y Y ! D.D.! Y ! ! W ! G.G.I I I I U s.s.p.p.p.Y Y Y Y Y Y Y Y Y Y Y Y Y Y Y U U U U U U U U U U U U U U U U U I U I I I I I I U U I I I I I I I I I I U U U U U I U I l.G.M M M M M I M I B B I I V V V V B B B B B B B B B B B B B B B B m m m m m m m m m m m m m m m m m m m m m m m m m m m m m m m m m c m z z m K K z 8 7 9 t m m m m q q q c c q q q q q q q ",
"8 8 q q q q q q q q q q q q q 9 q 9 9 9 9 9 9 q z z z z c c z z z z z z c c c m c c c c m m m m n n n n n n n n n m n z.x.z z z n m m M B B B B B B B B B B B B I I I I I I I B V I U I U U U U W W W W W W W W I I I I I I I I U U U U U U U U U U U W U W U U ! I U G.G.U M M I I U U ! ! x.x.U U U U U U U U U U U U U U U U U U U U U U U U ! x.! ! ! ! x.s.Y Y Y Y Y Y Y Y s.Y g.Y Y Y s.Y Y Y Y Y Y Y Y U l.l.Y D.G.l.M M U Y D.D.D.D.l.l.l.l.l.l.l.l.l.l.Y Y Y Y Y Y Y Y l.l.l.l.l.l.l.l.! ! l.l.l.l.! ! l.l.l.D.D.D.l.l.l.l.l.l.! ! ! ! ! ! ! ! l.l.! Y ! ! W l.~.G.I I M I U s.U U U U s.Y Y Y Y Y Y Y Y Y Y Y Y Y Y Y U U U U U U U U U U U U U U U U I I I I U U I I U U U U U U U U U U I I I I U U U I U I z.G.M I M M I I I M B B V V V B B M M M B B m m B B B B B B B B B B B B M m m B B M B m m m m m m m m m c c c c c c m m m m m m m m m m m z b m L L z 8 8 9 m m m A A q m c c c c c q q q q q ",
"7 8 0 0 q q 9 9 q q q q 9 9 q q 9 9 9 9 9 9 9 9 z z z z c c c c z z z z c c c c c c c c c c c c z n n n z n z n n m z z.W z z z z n m m B B B B B B B B B B B B U U U U U U U U B I I I U U U U U U I I I I U U U U U U U U W U U U U U U U U U U U U U U U U U x.U U G.G.U M I I I I U U Y U U U U U U U U U U U U U U U U U U ! ! U U U U ! ! ! ! U W U U U U g.g.g.g.s.s.s.s.Y Y Y Y Y Y Y Y g.g.l.l.l.g.g.Y l.l.s.D.H.D.P U U Y l.D.D.l.l.s.l.l.l.l.l.l.l.l.l.l.l.l.l.l.l.l.l.l.l.l.l.l.l.l.l.l.l.D.l.l.l.l.l.l.l.D.D.D.l.l.l.l.l.l.l.l.l.l.! ! ! l.D.D.l.! ! ! ! z.~.G.I I M I U U U U U U Y Y Y Y Y Y Y U U U Y Y Y Y Y U U U U U U U U U U U U U U U U U I I I I U I I I U U I I U U U U U U U U U U U U I M U I l.G.M M M M M I M B B B V V B B M M M M B B B B B B B B B B B B m m m m m m m m m m m m m m m m m m m m c m c c c c c m c c m c c m c c z z z m K L z 8 8 9 q m A q q q A A A A A c c c A A A ",
"7 7 8 8 9 q q 9 q 9 8 8 8 8 8 8 q 9 9 9 9 9 9 q 9 9 z z z z z z z z z z z z z z z z z z z z z z z z z z z z z z z m z W W 9 z z z z m m m m m m m m m m m m m M B B V V V V B V C C C B B B B B I I I I B B B I I I I I I I I I I I I I I I I I U U U U I I I I s.I U D.D.I C M N P P I U U U U U U U U U U U U I I U U U U U U U U U U U U U U U U U U U U U U Y Y Y Y Y Y U U U U U U U U U U Y s.Y Y s.Y Y U Y Y Y D.G.D.M U P U s.g.s.Y Y Y Y Y s.s.s.s.Y Y ! ! ! ! ! ! ! ! Y Y Y Y ! ! ! ! ! l.l.l.Y ! ! ! Y Y Y Y Y Y Y Y Y Y Y Y Y Y ! ! ! Y Y Y ! ! Y U ! ! W ! ~.D.I M M I U U U U U U Y Y Y Y U U U I I I I I U U I U I U I I I I I I U U I U I I I I I M I I I I I I I I I I I I I I U I I I I B B B B M B B ! z.n m n M I I M M B B B B m m m m m m m m m m m m m m m m m m m m m m m m m m m m m m n n z z z z z z z z z z z z z z z z z z z z z z z 8 8 z K K z 8 8 9 q q q q q q q q q q c q q q q q q ",
"7 7 7 8 9 q q q 9 9 8 8 8 8 8 8 q 9 9 9 9 9 9 q 9 9 z z z z 9 9 z z z z z z z z z z z z z z z z z z z z z z z z z z z W W 8 z z z c m m m m m n m m m m m m m m m C C m C C C C C C C C C C C M B B B B B B B B B B B B B B B B I I I I I I I M I I I I I I I I U M P l.l.M z M M N P P I I I I I I I I I I I I M M I I B I I I I I I I I I I I U U U U U U I I I U U U P P P P U U U P U I P P P P P P P P M M P P P g.G.g.M M M U U Y U U U U P P P P P P P I M I I I I I I I I I I I I I I I U U U U T T I I U U U I I I I I I I I I I I I I U U U U Y U U I U U I ! G.! M M M I U U U U I U I I U U I I I I I I I I I I I I P P P P P P P P I I P P P P M M M M M M M M M M M M M M I I M M B B M M m m m m M m B m W z.b m n M I B M M B B m m m m m m m m m m m m m m m m z z z z z z z z z z z z z z z z z z z z z z z z z z z z z z z z z z z z z z z z 8 8 8 b K K z 8 8 8 9 q q q q q q q q q 0 0 8 8 8 8 8 ",
"7 7 7 7 7 7 7 7 7 7 7 7 7 7 7 8 7 7 8 7 9 9 8 8 9 9 9 9 9 9 9 9 8 8 8 8 8 8 8 8 8 8 8 8 8 8 8 8 8 9 9 8 9 9 z z 8 z z z z z z 8 9 8 b 8 z z z z z z z z z z z z z z z n z z z z z z z z n n n z m m m z z m m m b b b b b b z z n n n n n n n n n n M M M M M M C C M M M M C M M M M M M M M M M M M M M M M M M M M M M M M m I m n M B M M M M I U I M I M n M M M M M M M M M M M M M M M M M M M M M M M M M M M M M M M M M M M M M M M M M M M M M M M M M M M M M M M M M M M M M I M M M M M M M M M n M M M M M M M M M M M M M M M M M M M M M M M M M M M M M M M m M n n n n M M M M M M M M M M M M M M M M M M M C C C M C M M M M M M C M M M z M M n n n n n n n n n n n n n n z z z n z b b b b b b b b b b b b b b b b b z z z z z z 9 9 9 9 z z z z z z 9 9 9 9 9 9 9 9 z z z z z z z z z z 8 9 8 8 8 8 8 8 z 8 8 8 8 8 8 8 8 b 8 8 b 8 b b 8 8 8 8 8 8 8 8 8 8 7 7 7 7 7 7 7 7 7 7 7 7 7 7 7 7 7 ",
"7 7 7 7 7 7 7 8 7 7 7 8 8 0 8 9 q 9 9 9 9 9 9 9 9 9 9 8 9 9 9 9 z z z b z z z z z z z z z z z c z z z z z z z z z z z c c z z z z z z z z z z z z z z z z z c m m C C C C C m C C m n m C C C m n m n n m B B B B B B B B B B M M M M M I I M M M M I I I I I I I I I I I I I P P P I I I I U I I I I I I I I I I I I I I I I I I M M I I I I I M I I M M U U M I I P I I I U U U U U U U U U U I I I I I I I I P I U U U U I I U U U U U U U U I U U U U U U U U U U U U U U U U U I I U U U U I I M M M M M M M I M M I I I I I I I I M M M M I I I I I I I I I I I I I I I I I I I I I I I I I I I I U U I I I I I I U I I I I I I I I I P M P M M n M M P M M M M M M M M M M M I M I M M M B B B B B B B B M M B B B B B B B B B B m m m m m m m m m m m m m n m m z z z z z z z z z z m m m z z z z z z z z z z z z z z z z z z z z z z z z z z z z z z z 9 9 b b q 9 9 8 9 q q q q 8 7 7 8 8 8 8 8 7 7 7 7 7 7 ",
"q q q q q q c c A A A A A A A A A t m t m m m m m m 9 9 z m m B B B B B B K K K K K K K K K E E W W W W W W W W W W W W W W W W W W W W W W W E W W W W W W W W W W W W W U W U W W W W W W W x.I B B B B W W W W W W W W W W W l.l.x.x.l.l.l.l.x.x.x.x.l.l.l.l.l.l.x.x.x.x.l.l.l.x.l.l.l.l.l.x.l.l.l.l.l.l.l.l.l.l.l.l.l.l.l.l.D.l.! z.D.l.D.G.! W I I U l.z.l.z.x.x.x.D.D.G.G.G.G.G.G.G.G.G.G.G.G.G.G.G.G.G.G.D.D.G.G.G.G.G.G.G.G.G.G.G.G.G.G.G.G.D.D.G.G.G.G.G.G.G.G.G.G.G.G.G.G.z.G.D.D.G.G.D.l.U U U x.l.x.x.D.D.x.D.D.G.G.G.z.G.G.x.x.x.x.l.l.l.l.x.x.x.x.l.l.z.D.D.D.l.z.z.z.D.D.z.l.l.D.l.l.l.l.l.l.l.l.l.l.l.l.l.l.l.l.x.x.x.x.x.z.z.z.x.W I m C U x.x.x.z.! ! ! ! ! ! ! ! ! ! ! ! ! ! ! ! W ! ! W ! W W W W W W W W W ! ! W W W W W W W W W W W W W W W W W W W W W W W W W W W W W W W W m z z m B W W W W W U U V B K K K B K K B B B B B B B B B B K K K K K L m m L L A A A A A m c A A A A c A c c c c ",
"A A q q A A A A A A L L L L L L m m m m m m L L K m 9 q m m K W E W K K E E W W W W W W W W W ! W W W W W W W W W W W W W W W W W W W W W W W W W W W W W W W W x.W x.W x.W x.W x.W x.W x.W x.z.W B B B W W W z.! ! ! ! ! ! ! ! l.l.l.l.l.l.l.l.l.l.l.l.l.l.l.l.l.l.x.x.x.x.x.l.x.l.x.x.x.x.x.x.D.D.z.z.z.z.D.D.G.G.G.G.D.G.G.D.G.G.G.G.G.G.G.~.G.! I M W D.G.G.G.G.G.G.G.G.G.G.G.G.G.G.G.G.G.G.G.G.G.G.G.G.G.G.G.G.G.G.G.G.G.G.G.G.G.G.G.G.G.G.G.G.G.G.G.G.G.G.G.G.G.G.G.G.G.G.G.G.G.G.G.G.G.~.~.G.! U U x.G.G.G.G.G.G.G.G.G.G.G.G.G.G.G.G.G.G.G.G.G.G.G.G.G.G.G.G.G.G.G.G.G.G.G.G.G.G.G.G.G.G.D.z.z.D.D.D.D.D.D.D.D.D.D.D.D.D.G.z.z.z.z.z.z.z.z.l.U M B U z.z.l.l.l.l.l.l.l.l.l.l.l.l.l.l.l.l.l.z.z.z.z.! z.! ! ! ! ! ! ! ! ! ! ! ! ! W W W W W W W W W W W W W W W W W W W W W W W W W W W W z.W B m z m B W W W W W W W W W E E E K K K K K K K B B B B B K K K K K K K K K m m L m m L A A A A A A A A A A A A A ",
"0 0 8 8 0 0 0 0 0 0 0 0 0 q q q q q t q 9 q m m m 9 7 8 9 q m m B v v v v B B B B v v v v B B B B B B B B B B B B B K K K K K K K K K B K K K K B B B B B B K B K W V K V W V W B V V B B V W W W B b m B B B U B B B I I B B B I I I I I I I I I I I I I I I I I I U U U U U I U U U U U U U U U U U U U U U U ! ! ! ! W W W W W U U ! ! U ! D.G.! n n I ! ! ! ! ! ! ! ! ! ! ! ! ! ! ! ! ! ! ! l.! ! ! l.! l.! l.! ! ! ! ! ! ! ! ! ! ! ! ! ! ! ! ! ! ! ! ! ! ! ! ! ! ! ! ! ! ! l.! ! z.! ! ! G.~.x.I M M I U x.! ! ! ! ! ! ! ! U U U U U U U U U U U U ! ! ! ! W W U U U U W W ! ! ! ! ! ! W W U U W W W U U U U U W W U U U U W W U W U W W W l.! I m m B I I I I I I I I I I I I I I I I I I I I I I B B B B B B B B B B B B B B B B B B B B B B B B B B B B B B B B B B m m m m m m m m m m W B m z z z z m m m m m m m m m c c c c c c c c c c c c c c c c z c c c x b b b q q q q q q q 0 q q q q q q q q 8 8 8 ",
"7 7 7 7 7 8 0 0 7 7 7 7 0 8 0 0 9 9 9 9 9 9 t m m 9 7 8 9 9 z m c c c c c c v v c c c c c c v v v v v v v v v v B B B B B B B B B B B B B B B B v v v v v B B B B B B B B B B B m B B B M B W W z.B b z m m m B B B B B B B B B B B B B I B B B B B I B B B B B I I I I I I I B I I I I I I I I I I I I I I I I U U U U U I I I U I I U I I U l.~.! n n B U W ! I W W W U W W W W W W W W W W W ! ! W ! ! ! ! ! ! W W W W W W ! W W W W W W ! ! W W W W W W W W W W W W W W W W ! W ! ! ! I ! G.~.x.I M M I I I U U U U U U U U U U U U U U U U I I I I I I I I I I I I I I I I I I I I I I I I I I I I I I I I I I I I I I I I I I I I I I I W z.! I m m v B M B M M M M M B B M M M M M M M B m B m m m v v v v m v m m m m v m m m m m m m m c c c c m m c c m m m m m m z z z z z z z z z z W B m z z z z z z z z z z z z z z c z z b b b b b b b z z z z z b b b b 0 0 0 8 8 8 0 8 8 7 7 7 7 7 7 7 7 8 8 8 7 7 7 ",
"0 0 0 0 0 0 0 q 0 0 0 0 0 0 q q 9 q q q 9 9 m L L 9 8 9 m z q m v c c c c v v B v v v v v v B B B B B B B B B B K K K K K K K B B B B B B B K K B B B B B B B K K K B B B B K K B K K B B B W z.z.B z z B m m K B B B B B B B B I I I I I I I I I I I I I I I I I I I I I I I I I I U I I W W W W W W W W W W W W W W W W W W W W W W ! I I ! G.~.! B B I I ! ! ! ! ! ! ! ! ! ! ! ! ! ! ! ! ! ! ! ! ! ! ! ! ! ! ! ! ! ! ! ! ! ! ! ! ! ! ! ! ! ! ! ! ! ! ! ! ! ! ! ! ! ! ! ! ! ! l.! ! l.! I ! G.J.x.I M M U U U ! s.x.x.! ! W ! W U U U W W ! ! U U U U U U U U U U U I I I U W U U I I W W W W W W W W W W W W W W W W W W W W W W W I I W W ! G.! I v m B I I I I I I I I I I I I I I I I I B B B B B m m m m B B m m m m m m B B B B m m m m m m m m m m m m m m m m m m m m m m m m m m m m W W B m z z z m z z z z z z c z c c c c c c c c c c c c c c c c b b b b b b 0 0 0 q q q q q 0 8 0 0 0 0 0 0 0 0 8 8 8 ",
"w w w 7 8 0 0 0 8 8 0 0 0 0 0 0 7 w q 9 7 9 q L L 9 7 9 z 9 9 z b c c c c c c c c c c c c v v v v v B v B v B v B K K K K K B B B B B B B B B B v v B B B B B B B B B B B B B B B B B B m m W W z.m 8 z m z m B B B M m M M M B I I I I I I I I I I I I I I I B I I I I I I I I I I I I I I U W W W W W I I I I I I I I I I I I I I I I I B I z.G.U M B I I I ! W W ! ! ! ! ! ! ! ! ! ! ! ! ! ! ! ! ! ! ! ! ! ! ! ! ! ! ! ! ! ! ! ! ! ! ! ! ! ! ! ! ! ! ! ! ! ! ! ! ! ! ! ! ! ! ! W W ! ! I ! G.G.x.M M M U U I I I I I I U U U U I I I I I I I U U U U U U U U U U U I I I U W I I I I I I I I U U W W I I I U W W W W I I I U W W I I I W ! ! z.! B b b v I I B B I B I B I B I B I B I B I B B B B m m m m m m m m m m m m m m m m m m m m m m m c z m m m c m m m m m m z z m m m m m m m m z.W B z z z z z z z z z z z z z c c c c c c z z z z z z b b b b b b b b 0 0 8 8 0 0 q 0 q 0 8 8 8 8 8 8 8 8 8 8 7 7 8 ",
"w w w w w w 0 0 0 0 0 0 0 0 0 0 7 q 8 8 q 8 0 L q 7 7 8 7 0 A c v v v v v v v v v c c c c v v v v v B G B v B v B G B G B G B B B B B B B B B B B B B B B B B B B B B B B B B B B K B B W B B z.W z z z z m B B B B B B B B B B B B I B I B I B I B I B I I I B I B I I I I I I I I I I I I I I I I I I I I I I I I I I I I I I I W I I W I I z.~.W z z B I W ! ! ! ! ! ! ! ! ! ! ! ! ! ! ! ! ! ! ! ! ! ! ! ! ! ! ! ! ! ! ! ! ! ! ! ! ! ! ! ! ! ! ! ! ! ! ! ! ! ! ! ! ! ! ! ! ! ! ! ! ! ! ! I D.~.l.I M M I U U ! ! ! ! Y Y Y Y ! ! Y Y U U Y Y Y Y U U ! ! Y W U U W U U I I I I I I I I I U I I I I I I I U U W W W I I I I I I I I I I I I I G.z.M v m z U B B B I B I B B B B B B B B B B B B B B B B B B m m m m m M M M M m m m m m m m m m m m m m m m m m m m m m m m m m m m m m m m m W z.z 8 c 8 c c m c m c m c z z c c c c c c c c c c c c c c c c b b b 0 0 0 b b b 0 0 0 0 0 b 0 0 0 0 0 0 0 0 0 0 0 0 ",
"w w w w w w 0 0 0 0 0 0 0 0 0 0 7 q 8 8 q 0 0 L q 7 7 8 7 0 A x v v v v v v v v v c c c c v v v v v G G G v v v G v G G v v v B B B B B B B B B B B B B B B B B B B B B B B B B B K B B W B B z.W z z z z m B B B B B B B B B B B B B B B B B B B B B B B I I B B B B B I I I I I I I I I I I I W I I I I I I E I I I I E E I I I W I I W I I z.~.W m m B I W W ! ! ! ! ! ! ! ! ! ! ! ! ! ! ! ! ! ! ! ! ! ! ! ! ! ! ! ! ! ! ! ! ! ! ! ! ! ! ! ! ! ! ! ! ! ! ! ! ! ! ! ! ! ! ! ! ! ! ! ! ! ! I D.~.! I M M I U U ! ! ! ! Y Y ! ! ! ! ! ! I I W W ! ! W I ! W ! W U U U U U I I I I I I I U I U U I I I I I I U U W W W I I I I I I I I I I I I U G.z.M M m z U m B B V B B B B B B B B B B B B B B B B B B B B m m m m m B m B B m m v m m m m m m m m m m m m m m m m m m m m m m m m m m m m m ! z.z 8 c 8 c c c c c c c c z c c c c c c c c c x c c c c c c b b b b 0 0 0 b b b 0 0 0 0 0 b 0 0 0 0 0 0 0 0 0 0 0 0 ",
"w 7 7 7 w w 8 0 0 0 0 0 0 0 0 0 7 0 8 8 q 0 0 L q 7 7 8 7 0 A x v v v v v v v v v c c c c v v v v v v v v v v v v v v v v v v B B B B B B B B B B B B B B B B B B B B B B B B B B K B B K B B z.W z z z z m K B B B B B B B B B B B B B B B B B B B B B B I I I I I B B B B I I I I I I I I I I I I I I I I I E E E I I E E E E I W I I W I I z.~.W z z B I W W ! ! ! ! ! ! ! ! ! ! W ! ! ! ! ! ! ! ! ! ! ! ! ! ! ! ! ! ! ! ! ! ! ! ! ! ! ! ! ! ! ! ! ! ! ! ! ! ! ! ! ! ! ! ! ! ! ! W W ! W I D.~.! I m M I I I ! ! ! ! W W W W W W W W W W W W W W W W W W W W U U U U U I I I I I U U U U U U I I I I I I U U W W U I I I I I I I I I I I I U G.z.m m m z U m B B B B B B B B B B B B B B B B B B B B B B B m M m m m m m m m m m v v m m m m m m m m m m m m m m m n m m m m m m m m m m m m ! ~ z 8 c b c c c c c c c c c c c c c c c c c c x x x c x x c b b b b b 0 0 0 b 0 0 0 0 0 0 0 0 0 0 0 0 0 0 0 0 0 0 0 ",
"w 7 7 7 w w 8 0 0 0 0 0 0 0 0 0 7 q 8 8 q 0 0 L q 7 7 8 7 0 A x v v v v v v v v v c c c c v v v v v G G v v v v v v v v v v v B B B B B B B B B B B B B B B B B B B B B B B B B B K B B K B B z.W z z z z m K B B B B B B B B B B B B B B B B B B B B B B I B B I I B B I I I I I I I I I I I I E I I I I I I E E I I I E E E E I W I I W I I z.~.W z z B I W W ! ! ! ! W ! ! ! ! ! ! ! ! ! ! ! ! ! ! ! ! ! ! ! ! ! ! ! ! ! ! ! ! ! ! ! ! ! ! ! ! ! ! ! ! ! ! ! ! ! ! ! ! ! ! ! ! ! W W ! W I D.~.! I m M I I I W W W W W W W W W W W W W W W W W W W W W W W W U U U U U I I I U U U U U U U U I I I I I I U I W W U I I I I I I I I I I I I U G.z.m m m z U m B B B B B B B B B B B B B B B B B B B B B B B m M m m m m m m m m v v v m m m m m m m m m m m m m m m n m m m m m m m m m m m v ! ! z 8 c z c c c c c c c c c c c c c c c c c c x x x c x x x b b b b b 0 0 b b 0 0 0 0 0 0 0 0 0 0 0 0 0 0 0 0 0 0 0 ",
"w 7 7 7 w w 8 0 0 0 0 0 0 0 0 0 7 0 0 0 q 0 0 L c 7 7 w 7 0 A c c v v v v v v v v c c c c v v v G G G v G G G G v v v v v v G B B B B B B B B B B B B B B B B B B B B B B B B B B K K B K B B ! ~ c z z z v K B B B B B B B B B B B B B B B B B B B B B B B B B B B B B I I B B I I I I I I I I U I I I I I I I I I I I I I I I I W I I W I I z.~.W m m B I W W ! ! ! ! ! ! ! ! ! ! ! ! ! ! ! ! ! ! ! ! ! ! ! ! ! ! ! ! ! ! ! ! ! ! ! ! ! ! ! ! ! ! ! ! ! ! ! ! ! ! ! ! ! ! ! ! ! ! W W ! W I D.~.! I M M I I I W W W W W W W W U U U U W U U U U U W W W W U U U U W U U U U U U U U U U U U U I E E E E E E I E E E I E I I I I I I I I I I E z.z.v v m z K m B B B B B B B B B B B B B B B B B B B B B B m v B B v v v m m m m m m m m m m m m m m m m m m m v v v c v v v v v v v v v v v v W ~ z 8 c 8 c z v v v z c z z z b b b b b x b b b b b b b b b b b q q 0 0 0 0 0 0 0 0 0 0 0 0 0 0 w 0 0 0 0 0 0 0 0 0 ",
"w 7 7 7 w w 8 0 0 0 0 0 0 0 0 0 7 0 0 0 q 0 0 L c 7 7 7 7 0 A c c v v v v v v v v c c c c v v v v G G v v G v v v G v v v v v v B B B B B B B B B B B B B B B B B B B B B B B B B K B B K B B ! ~ c z z z v K B B B B B B B B B B B B B B B B B B B B B B B B B B B B B I I B B I I I I I I I I U I I I I I I I I I I I I I I I I W I I W I I z.~.W m m B I W W ! ! ! ! ! ! ! ! ! ! ! ! ! ! ! ! ! ! ! ! ! ! ! ! ! ! ! ! ! ! ! ! ! ! ! ! ! ! ! ! ! ! ! ! ! ! ! ! ! ! ! ! ! ! ! ! ! ! W W ! W I D.~.! I M M I I I I I I I W I I I U U U U W U U U U U W U W W U U U U W U U U U U U U U U U U U I E E E E E E I I E E I I E I I I I I I I I I I E z.z.v v m z K m B B B B B B B B B B B B B B B B B B B B B B m m B B v v m m m m m m m m m m m m m m m m m m m m v v v v v v v v v v v v v v v c ~ ~ z 8 c 8 c z v v v z c z z z b b b b x x b b b b b b b b b b b q 0 0 0 0 0 0 0 0 0 0 0 0 0 0 0 0 0 0 0 0 0 w 0 0 0 ",
"7 7 7 7 7 7 0 0 0 0 0 0 0 0 0 0 7 0 0 0 q 0 0 L x 7 7 7 7 0 A c c v v v v v v v v c c c c v v v v v v v v v v v v G v G v v v v B B B B B B B B B B B B B B B B B B B B B B B B B K K B K B B ! ~ c z z z v K B B B B B B B B B m m m B B B B B B B B B B B B B B B B B B B I B B B I I I I I I I B B B B B B U U U U U B B V I B E B B W B B z.~.W z z B B E W W W W W W W W W W W W W W W W W ! ! ! ! ! ! ! ! ! ! ! ! ! ! ! ! ! ! ! ! ! ! ! ! ! ! ! ! ! ! ! ! ! ! ! ! ! ! ! ! ! ! W W ! W E z.~.! B m v I W E I I W W W W I I W U W W W W U U U U U U W W W U U W W E E I I I I I B B I I I I I I E I E E I I I I I I I I I I I I I I I I I I z.z.c c m z K m B B B B B v B v B v B v B v B B m B B B B m m m m m m m m m m m m m m m m m m m m m m m m m m m v v v v v v v v v v v v v v v c ~ ~ z 8 c 8 c b v v v v v z z z b b b b x b b b b b b b b b b b b q q q 0 0 q 0 0 0 0 0 0 0 0 0 0 0 0 0 0 0 w 0 0 0 0 ",
"7 7 7 7 7 w 8 0 0 0 0 0 0 0 0 0 7 0 0 0 q 0 0 L x 7 7 8 7 0 A c c v v v v v v v v c c c c v v v v v v v v v v v v v v G v v v v v B B B B B B B B B B B B B B B B B B B B K B K B K B B K B B ! ~ c z z z v K B B B B B B B B B m m m B B B B B B B B B B B B B B B B B B B I I B B I I I I I I I B B B B B I U U U U U B B V I B E B B W B B z.~.W z z m B E W W W W W W W W W W W W W W W W W ! ! ! ! ! ! ! ! ! ! ! ! ! ! ! ! ! ! ! ! ! ! ! ! ! ! ! ! ! ! ! ! ! ! ! ! ! ! ! ! ! ! W W ! W W z.~.! B m v I W I E I W W W W I I W W W W W W U U U U U U W W U U W U W E E I I I B I I B I I I I I I I I E I I I I I I I I B I B I I I I I I I E z.z.c c m z K v B B B B B v v v v v v v v v v v B B B B B m m m m m m m m m m m m m m m m m m m m m m m m m m m v v v v v v v v v v v v v v v c ~ ~ z 8 c 8 c b v v v v v z z z b b b b x b b b b b b b b b b b q q q 0 0 0 q q 0 0 0 0 0 0 0 0 0 0 0 0 0 0 0 0 0 0 0 ",
"7 7 7 7 7 7 7 7 w w w w w w w w 7 0 0 0 w 0 A L A 7 O 0 c 0 0 c x x x x x x c c x c c c c x x x c c v v c v v c c c c v G K K G c c v v v B B v v B v v B B B K B B K K K K K K B B K K v v K ~ ~ v b c v z z v B v B B B B B B B B B B B B B B B B B B B B B B B B K B m B B K B B B B B B I I B B B B B B I I I I I I I I I I W B B W E m W G.G.W m z m B B W ! ! ! ! ! ! ! ! ! ! ! ! ! ! ! ! ! W W W W W W W W W ! W W ! ! W ! ! E E W ! ! W ! ! ! ! ! ! ! ! ! ! ! ! ! ! ! ! W W ! W W W ! ! ~.! v z z B I E E E W I W W W W U U U U U U U U U U I I U U U U B B E W I I B B B B I E E E B B W E E E E E E E B B I I E E B B v I I I I I E E v.! m z z B B B B G G B K K G G v v v v v v v v B B B B B B B B z c c v v c v B z z m m c z z z z z z z z z z z c v v v v c c z c c c c c c v v L A b w 8 8 8 b b b b x x b b x x x x x x b b q 0 0 0 q b b b b w 0 0 0 0 0 q q q 0 0 8 0 7 7 7 7 7 7 7 7 7 7 7 7 7 7 ",
"0 0 0 7 w 0 0 0 0 0 0 0 0 0 0 0 7 w 0 7 7 w q L A 7 O 0 q 0 0 q b b b b x x x x x x x x b b b b v v v v v v v v G v v v v v v v c c v v v v v v v v v v v v v v v v v v B B B B K K K K B v K ~ ! B z v B v c B v v v v v v v v B B B B m m B B B B B B m m B B B B B m c m m B B B B B B B I I B B B B B B B B B B B B B B B B E B B W I m E z.z.E m z v B B W I I I I I I E E I I I I I I I E I I B B I E W W I I I I I I I B W E I I W ! ! ! W W W W W W W W W W W W W W W W W W ! W W W ! ! G.! v b z v I I I I I I I I I I I I I I I I I I I I I I I I I B B I E B B B B B B I I E E E B B B B B B B B B B B B B B B B B B B I I I B B I E z.! B z c B B B B v v v G G G v v v v v v v v v v v v v c c c c c m m m c c c c z m m m z z c m m m m m m v m v c c c c c c z z v v v c v v v B L K x 0 8 8 b x x b x x x x b x q x b b b b 0 8 0 0 0 0 b b b 0 q q q q 0 0 0 0 q 0 7 7 7 8 0 0 7 7 7 7 7 7 7 7 7 7 7 ",
"7 7 7 7 7 w w w 7 7 7 7 7 7 7 7 O O O O O O 8 q q 7 O 7 0 7 O w 8 8 8 8 8 0 0 8 8 8 0 0 8 8 8 8 8 b b b b b z b b b b b b b b b b z b c z z z z z z b b z z z c z z c c c c c c c c v v c z v K E c b z c c c v c c c c c c c c c c c c c c c c c c c c c c z c c c m c z z c m v c v v m m m m m v m v m v m v m v m v m v m m B c m B m z B W W B z z c m v m m m m m m m m m B B m m B m m B v v v v m B B B m m m m m m m m m m z v m B B B B B B B B B B B m m m m B B B B m B B B m m B B ! E v z z v v v v v v v v v v m m m m m m m m m B B B m m m m m B B B m m m B B m m v c m m c m v v v v v v v v m m m m v v v v v v B v v v v v ~ E c c c v v v c c c c v v c c c c c c c c c c c c c c c c c c v v c c c c c c z z z z z z z m z z z z z z z z z c c c c z z z z z z z z z c c v x 0 8 w w 8 8 0 0 0 8 8 8 8 8 w w 8 8 8 8 8 8 w w w w w w 8 w 0 0 0 w 7 7 7 7 0 7 7 O O O 7 7 7 7 7 7 7 7 7 7 7 7 7 ",
"O O O O O O O 7 O O O O O O O O O O O O O O 7 8 0 7 O 7 7 O O 7 7 8 8 8 w w w 8 8 8 w w w w 8 w % % 8 8 8 8 8 8 8 8 8 8 w w 8 b 8 8 8 8 8 8 8 8 b 8 8 8 8 b b b b b b b b b b b b b b z b 8 b c c 8 8 8 b 8 b z b b z z z z z z z z z z z z z z z z z z z z z z z z z z z z z m z z z z b b b z z z z z z z z z z c z c z c c z z z z z z z z B B z z z z z z z z z b z z z z z m m z m m m z z z z z z z z z z z z z m m m m m z z z z z b z z z z z z z z z z z z z z z z z z z b z b z z z z E v z z z v v v z z z z z z z z z z z b z z z z z z z z z z z z z z z z z c m m z z z z z z z z z z c c z z z z z z z z z z z z z z v z b b z z B v z z z z z 9 z b z z z z z z b b b b b b b b z z z z z z z z z z z z z z z z 8 z z z 8 8 z z z z z z z z z b b z z z z b b b b 8 8 8 8 8 8 8 8 w 8 % % % % % 7 8 8 % % % % % 7 8 8 8 8 7 % % w w w w 8 8 8 7 7 7 7 7 7 7 7 7 7 7 7 O O O O O O O O O O O 7 7 7 7 O ",
"7 7 7 7 7 w w w 7 7 7 7 7 7 w w 7 8 8 8 7 7 0 q q q 0 q q 0 0 0 0 0 q q q q 0 0 q q q q 0 0 0 q 8 8 8 0 0 0 q q w 0 b 0 8 8 0 b b c c c c c x b c c c c c c v v c c c c c c c c c c c v c c c v v c c c v c v v v v v v c c v v c m m m m m m m m m m m m m m m m m m B B z z m m m B m B m v v v v v v v v v v v v v v v v v v v z z m m c m B B m z m m z z m m m m m m m m m B m m m m m m m B B m B m B B B B m m I B v z v B B B B B B m m m m m m m m m m v v m m m m m m B B B B B B B I E I B v v B B B v v v v v v v v v v m v B v m v B B B B B B B B B v z z c c c z v v c c c v B B B v v B v v v v v v v v v v v v v v v v c c z c K B v v v v v b c c c c c z z z z z z z c c c z c c z z z z z z c b b b c z z 8 z z m B m m c z z z z z z z z c c c c c c x b b x c b b b b b c b q 0 0 0 0 0 0 0 0 0 0 0 0 0 0 0 q q q q q 8 8 8 8 8 8 0 0 0 0 8 7 7 0 q q 0 7 O 7 0 q 0 7 7 7 7 7 7 7 w 0 0 0 0 0 0 ",
"q q q q q q q A A A A A A A A A A A A A A A A L L L L L L L L L L L L L L L L L L L L L L L L L K L L L L L L L L L L L A x b b K E E E E E E E E E E K E E E E E E E E E E E E Q E E Q Q E E ~ ~ ~ Q ~ ~ ~ ~ ~ ~ ~ ~ ~ ~ ~ ~ ~ ~ z.z.z.z.z.z.z.z.z.z.z.z.z.z.z.W W W z.W m z c W W W ~ z.! ! ! ~ ~ ~ ~ ~ ~ ~ ~ ~ ~ ~ ~ ~ ~ ~ ~ ! ~ ~ z.z.z.z.z.z.z.z.z.z.W W z.z.z.z.z.z.z.z.z.z.z.z.z.z.z.z.z.z.z.z.z.z.G.G.~.z.! z.G.z.W m B W W z.z.z.z.z.z.z.z.z.z.z.z.z.z.z.z.z.z.z.z.z.z.z.z.G.z.z.z.z.~.z.! ~ ~ ~ z.z.z.z.z.z.z.z.z.z.z.z.z.z.z.z.z.z.~ z.z.z.z.z.z.z.z.v.z.! ~ ~ W K c W W W W ! ~ ~ ! ~ ! ~ ~ ! ! ! ! ~ ~ ~ ~ ~ ~ ~ ~ ~ ! ! ! ~ ~ ~ ~ ~ ~ ~ ~ ~ ~ ~ ~ ~ ~ ~ ~ ~ ~ W W W W W W ~ ~ W W ~ ~ W W W W W W ~ ~ W ~ ~ L v b m E W z.~ W W W W W W W W W W W E E E E E E E E E E E K K K E K L L L L L L L L L L L L L L L L L L L L L L L A A A A L A A A A A A A A L A q 7 O 0 A L L A A A q q q q q A A A A A A ",
"q q q q A A A A A A A A A A A A A A A A A A A A A L L L L L L L L L L L L L L L L L L L L L L L L L L L L L L L L L ~ Q L c b b K K E E E E E E E E K K E E E E E E E E E E E E ~ E E ~ ~ Q E ~ ~ ~ ~ ~ Q ~ ~ ~ ~ ~ ~ ~ ~ ~ ~ ! ! z.z.z.z.z.z.z.z.z.z.z.z.z.z.z.W W W z.z.B z m W W W z.z.z.! ! ~ ~ ~ ~ ~ ~ ~ ~ ~ ~ ~ ~ ~ ~ ~ ~ z.z.z.z.z.z.v.z.z.z.z.z.z.z.z.z.z.z.z.z.z.z.z.z.z.z.z.z.z.z.z.z.z.z.z.z.z.z.~.~.z.~ z.~.~.W B B B W z.z.z.z.z.z.z.z.v.z.z.z.z.z.z.z.z.z.z.z.z.z.z.z.z.z.z.z.v.~.z.v.v.v.v.v.~.~.~.~.~.~.~.~.~.~.v.v.v.v.v.v.v.v.v.v.v.v.v.v.v.v.~.v.v.v.v.z.K c K K W W ~ ~ ! ! ~ ~ z.z.z.z.~ ~ ~ ~ ~ ~ ~ ~ ~ ~ ! ~ z.~ ! ! ~ z.~ ~ z.z.~ ~ ~ ~ ~ z.z.z.z.z.z.z.z.z.z.z.z.z.z.~ ~ ~ ~ ~ ~ ~ ~ ~ ~ ~ ~ ~ z.~ K v m B W W W W W W W W W W W W W E ~ ~ ~ ~ ~ Q E E E E E E E E E E L L L L L L L L L L L L L L L L L K K K L L L A A A L L L A A A A A A L L L q 7 O 0 q A A q q A q q q q q q A A A A A ",
"0 0 0 0 0 0 q q q q q 0 q q q q q 0 0 0 0 0 0 0 0 q x q q q x x x x x x x x x x x x x x x x x x x x v v v A v v x K L L K b 8 8 b b c c c v v v v v v v v v v v v v v v v v v v K G v K E K v K v G G v c v v v v v v v v v v v v v v v v v v v v v v v v v v v m m K z.~ B c B m v B K E E E K K G G G G G G G K K K K K K K K K K B B K E K B K B K K B B B K E K E K E K E K B B B B B B B B B B B v v B B B v c E z.z.K z c c B E W E E K K E E E E K K K K K E E E K K K E E W W W E E W ~ E E E E E E ! ~ E E E E E E E E E E E E E E K K K K K K K K K K E E W ~ z.W B 8 z z c B K K K K B G K K K G B G v v v v v v v v v v B B v v B K v B K K m v v K c c c c v v v v v c c c c c c c v v v v v v c v z b c K ! E v b b z z c c c c v B B m B m B m v v v v v v v v c v v v v v v v v q 0 0 0 q q q q x x x x q q q q b x x x c x q 0 q q q q q q q q 0 0 q A L A 0 O O 7 0 0 7 O O 7 7 7 7 7 w 0 0 0 0 0 0 ",
"0 0 0 0 0 0 0 0 0 0 0 0 0 0 0 0 0 0 x 0 0 0 x 0 x 0 x 0 x 0 x 0 q q q q q q q q q q q 0 0 q q x F c c c v G c c v G x ~ Q % w w q q b b z c v v c c c c v v v v v v v v v v v v v v v v v v v v v G v G v G v A G G G G G G v v v v v v v v v v v v v v v B B B K c G 1.~ B z z c v B G v v G G K K K K G K K K K K K K K K K K K K E E E I I B I I I I I I I I I B I B I B I B I B I B I B I K E v ^ v ^ G E E b E v ~ ~.E b b c v E E E E E E E E E E E E E E E E E E E E E E E E E E E E E E E E E E E E E E E E E E E E E E E E E E E E E E E E E E E E E E K ~ K Q ~.~ z c z z v B K B K K K K K G K G B G B G B G K G B B B B B B B B B B B B B B B B B B B B B B B v v v c c v v v v c c c c v c v c v c v c v v ~ ~ x z b z c v v v v c c v c v c v m v c c c c c c c c c c c v v c c c z x z x b b b b q x x x z b b 0 0 0 0 0 0 0 0 0 0 0 0 0 0 0 0 0 0 w 0 q D D 0 O O O 7 w 7 7 w w w w w w w w w w w w w ",
"0 0 0 0 0 0 0 0 0 0 0 0 0 0 0 0 x 0 x 0 0 x x x x x x x x x x x 0 0 0 0 0 0 0 0 0 0 0 0 0 0 q A F v c c G v c c A G x ~ Q w w w q q q b z z v v v v c c v v v c v v v v v v v v v v v v v v v v v G G G G G A A A A G G G G G G v G G G G v v v v v v G v G G G G x G 1.~ v z z c v K G v G G G K K K K G K K K K G K K K K K G K E E E E E E ^ ^ ^ ^ ^ ^ ^ ^ ^ E E ^ ^ ^ ^ E E E E E ^ ^ ^ ^ ^ ^ ^ ^ ^ ^ ^ ^ E b E v ~ ~.E b b v v K E E E E E E E E E E E E E E E E E E E E E E E E E E E E E E E E E E E E E E E E E E E E E E E E E E E E E E E E E E E E E K Q K Q ~.~ z c z c v G K G G G K K K K K G G G G G G G G G G G v B B B B B B v B B B B B B B B v v v v G v v c c c v v v v c c v v v v v v v v v c v v ~ ~ x x b z c v v v v c v v v v v v v v v c c c c c v v c c c c v c c c z z z c b b b b q x x c z b b b 0 0 0 0 0 0 0 0 0 0 0 0 0 0 0 0 0 w 0 q L L 0 O O O w w 7 7 w 0 w w w w w w w w w w w ",
"0 0 0 0 0 0 0 0 0 0 0 0 0 0 0 0 x x x 0 0 x x x x x x x x x x x x x x x 0 x x x x 0 0 0 0 x x F F v c c G G c c A A c ~ L % w w q q q q x x c c c c c c v v c c v v v v v v v v v v v v v v v v G G G G v G G G G v v v G G G G v v G G G G v v v v v G v G G G G x G 1.~ v z z c v B v v G G G K K K K K K K K G G K K K K K G K K E E E E ^ ^ ^ ^ ^ ^ ^ ^ ^ ^ E ^ ^ ^ ^ ^ E E E E E ^ ^ ^ ^ ^ ^ ^ ^ ^ ^ ^ E E b E v ~ ~.^ b x v v K E E E E E E E E E E E E E E E E E E E E E E E E E E E E E E E E E E E E E E E E E E E E E E E E E E E E E E E E E E E E E K Q K Q ~.~ z c z c v G v v G G G G G G G G G G G G G G G G G G v v v v G G G G G G v v v v v v v v v v G v v c c c c c v c c c v v v v v v v v v c v v ~ ~ x x b x c v v v v c v v v v c c c v v c c c v v v v c c c c v c c c b b x x b b b b b b b x c b b b 0 0 0 0 0 0 0 0 0 0 0 0 0 0 0 0 0 w w q L D 0 O O 7 w w 7 7 w 0 w w w w w w w w w w w ",
"0 0 0 0 0 0 0 0 0 0 0 0 0 0 0 0 0 x x 0 0 x x x x x x x x x x x x x x x x x x x x 0 0 0 0 x x F F v c c G G c c F A c ~ L % w w 0 q q q x x c c c c c c c v c c v v v v v v v v v v v v v v v v G G G G v G G G v v v v G G G G v v G G G G v v v v v G G G G G G x G 1.~ v z z c v B v v G G G K K K K K K K K G G K K K K G G G K E E E E ^ ^ ^ ^ ^ ^ ^ ^ ^ ^ E E ^ ^ ^ ^ ^ E E E E ^ ^ ^ ^ ^ ^ ^ ^ ^ ^ ^ E E b E v ~ ~.^ b x v v K E E E E E E E E E E E E E E E E E E E E E E E E E E E E E E E E E E E E E E E E E E E E E E E E E E E E E E E E E E E E E K Q K E ~.~ z c z c v K v v G G G G G G G G G G G G G G G G G G v v v v G G G G G G G v v v v v v v v v v v v c c c c c c c c c v v v v v v v v v c v v ~ ~ x x b x c v v v v c v v v v c c v v c c c c v v v v c c c c c c c c b b x x b b b b b b b x x b b b 0 0 0 0 0 0 0 0 0 0 0 0 0 0 0 0 0 w w q L L 0 O O 7 w w 7 7 w 0 w w w w w w w w w w w ",
"0 0 0 0 0 0 0 0 0 0 0 0 0 0 0 0 0 0 0 0 0 0 0 x x x x x q q q q x x x x x x x x x x x x x x x F G v c c A A c c F A x Q L % w w 0 0 q q q x c c c c v v c c c c v v v v v v v v v v v v v v v v G G G G G G G G v v G G G v G G G G G G G G G v v v v G G G G G G x G 1.~ v b b v v G v v v G G G G K K K G G G K K K K K K K K G G K K E G v v ^ ^ ^ ^ ^ ^ ^ ^ ^ ^ E E ^ ^ ^ ^ ^ ^ ^ ^ ^ ^ ^ ^ ^ ^ ^ ^ ^ ^ E E b ! v ~ ~.^ b x v v K E E E E E E E E E E E E E E E E E E E E E E E E E E E E E E E E E E E E E E E E E E E E E E E E E E E E E E E E E E E E E G Q K E ~.! z c z c B K G v G G G G G G G G G G G G G G G G G G v v v v v v v v G G v v v v v v v v v v v v v c v v v c c c v c v v v v v v v v v c v v ~ ~ b b b x c v v v v c v v v c v v v v c c c c v c c c c c c c c x b b c c c c c c c c b c c c c c c b 0 b x 0 0 0 0 0 0 0 0 0 0 0 0 0 0 0 0 q A A q O O % 7 7 7 7 w 0 w w w w w w w w w w w ",
"0 0 0 0 0 0 0 0 0 0 0 0 0 0 0 0 0 0 0 0 0 0 0 x x x x x q q q q x x x x x x x x x x x x x x x c F v c c A A c x F A x Q L % w w 0 0 q q q x c c c c c c c c c c v v v v v v v v v v v v v v v v v v G G G G G G G G G G v v G G G G G G G G G G v v v G G G G G K x G 1.~ v b b v v G v v v G G G K K K K G G G K K K K K K K K G G K K G G v v ^ ^ ^ ^ ^ ^ ^ ^ ^ I I E ^ ^ ^ ^ ^ E ^ ^ ^ ^ ^ ^ ^ ^ ^ ^ ^ ^ E E b ! v ~ ~.^ b x c v K E E E E E E E E E E E E E E E E E E E E E E E E E E E E E E E E E E E E E E E E E E E E E E E E E E E E E E E E E E E E E G Q G E ~.! z c z c B K G v G G G G G G G G G G G G G G G G G G v v v v v v v v G G v v v v v v v v v v v v v c v v c c c c c c v v v v v v v v v c v v ~ ~ b b b x c v v v v c v v c c c c v c c c c c v c c c c v c c c x b b c c c c c c c c b c c c c c c x b b b b 0 0 0 0 0 0 0 0 0 0 0 0 0 0 0 q A A q O O % 7 w 7 7 w 0 w w w w w w w w w w w ",
"0 @ @ @ 0 0 0 0 0 0 0 0 0 0 0 0 0 0 0 0 0 0 0 x 0 0 x 0 0 0 q q x x x x x x x x x x x x x x x c F c c c A A c x A A x Q L % 7 7 0 0 0 q q x x x x x c c c c c c v v v v v v v v v c c c c v v G v v v v G G G G G G G G v v v v G G G G G G G G v v v G G G G G K v G 1.~ G b z c v G G v v G G K K K K K K G K K K G G K K K K v G K K K v v v v v ^ ^ ^ ^ ^ ^ ^ ^ K K K K G K K K K E B B G G G G G G G G E E b E v ~ ~.E b x c v K E E E E E E E E E E E E E E E E E E E E E E E E E E E E E E E E E E E E E E E E E E E E E E E E E E E E E E E E E E E E E K Q G E ~.! z z z v B G G v v G v v v G G G G G G G G G G G G G G G G G G G G G G G G v v G G G v G v v v v v c v v c c c c v v v c c c c c c c v c G v ~ ~ b b b b c c v v c c c c c c A A x c c c c c c c c c c c c c c x x b c c c c c x c c x c c c c c c x b b b b x x 0 0 0 0 b b b b b 0 0 0 0 q A A q O O % w w 7 7 w 0 w w w w w w w w w w w ",
"0 @ @ @ 0 0 0 0 0 0 0 0 0 0 0 0 0 0 0 0 0 0 0 x 0 0 0 0 0 0 0 q x x x x x x x x x x x x x x x c F c c c A A v x c A x Q L % 7 7 0 0 0 q q x x x x x c c c c c c v v v v v v v v v c c c c v v G v v v v v G G G G G G G v v v v v G G G G G G G v v v G G G G G K v G 1.~ G b z v v G G v G G G K K K K K K K K K K G G G K K K v v K K K v v v v v ^ ^ ^ ^ ^ ^ v v K K K K K K K K K E B B K K G G G G G G E E b E v ~ ~.E x x c v K E E E E E E E E E E E E E E E E E E E E E E E E E E E E E E E E E E E E E E E E E E E E E E E E E E E E E E E E E E E E E G Q G E ~.~ z z z v v G G v v v v v v G G G G G G G G G G G G G G G G G G G G G G G G v G G G G v G v v v v v c v v v c c c v c c c c c c c c c v c G v ~ ~ b b x b c c v c c c c x x c A A c x x c c c c c c c c c c c c x x b c c c c c c c c x c c c c c c x b b b b x x 0 0 0 0 b b b b b 0 0 0 0 q A A q O O % w w 7 7 w 0 w w w w w w w w w w w ",
"$ $ $ $ $ $ $ $ 0 0 0 0 e e e e e e e 0 0 0 0 0 0 0 q q q q q x Z Z Z Z Z Z x x A A x x x x A F c c c c F A A A A x L 1.L 0 O w 8 0 q q q q x x c c v v v v c c c c c c c c c c c c F F F c c v v v v v v v v v v v v v v v v v v v c c c v v G v v v G G G v v K x v v.v.v 8 c c v v v G G G G G G G G G G G G K K K K G K K K v G G G G G G G v v K B ^ E E E E E E E E E E E E E E E E E E E E E E E E E E E G v v ~ ~.E b v c v E E E E E E E E E E E E E E E E E E E E E E E E E E E E E E E E E E E E E E E E E E E E E E E E E E E E E E ~ E E E E E K G E E K ~ ~.~ v c z c v v v v v v v v v v G G G G G G G G G G G G v G G G G G v v v v v v v v v v G G v v G G G G v v v c c c c c b c c c c v v v G b x K ~ ~ K 8 x x c G K G G v v A A A A A x x c c c c c c c c c v v v v v x c c c c c c c c c c x c c c c c c x x x x x x x x 0 0 0 0 0 b b q 0 7 7 0 A A 0 O O O 7 w 0 0 0 0 7 7 w w w 7 7 O 7 7 7 ",
"$ $ $ $ $ $ $ $ $ $ $ $ 0 0 0 0 0 e 0 0 0 0 0 0 0 0 0 q 0 q q q 0 x x x x x x x x x x 0 x x x A x x x x x F A A x 0 D L L 0 O 7 w 0 q q q q x x q q b b b b b x b x x x x c c c x x c x c c c c c c c c c c x x v v v v v v v v c c c c c v v v c c v v v c c c v x v 1.1.v 8 b z c v v G G G G G G G G G G G G v G v v G G G G v v v v G G v v B v B B ^ E E E v v G G K K K E K K v v K K K E G E E G G E E G ^ G ^ ~ ~.E b v c v K E E E E E E E E E E E E E E E E E E E E E E E E E E E E E E E E E E E E E E E E E E E E E E E E E E E E E E E E E E E K G E E K Q ~.! c z z c v v v v v v v c c c v v v v v v v v v v v v v G G G G G v v v v v v v v v v v v v v v c v v c c c c c c c c b b b b b c c x c b b K ~ ~ v 8 x x c G G G v v x x c c x x x q x x x x x x x x x x x x x x b b b b x b b b b b b b b b x b b b 0 0 0 0 0 0 0 0 0 0 b 0 0 0 b 0 0 7 7 0 A A 0 O O O 7 w 0 0 0 0 w w w w w 7 7 O 7 7 7 ",
"w 0 0 0 w w w w @ @ @ @ 0 0 0 e e e 0 0 0 0 0 0 0 0 0 q q q q q q q A q x q x q x 0 0 0 x 0 A A x x x x x x A A q 0 A L L 0 7 7 0 0 q q q 0 q q 0 0 0 0 x 0 0 0 b x x x x x x x x x x x x x x x c c c c c c c c c c v v v v v v v v c c v v G G v v v v v c c x v x v 1.~ v 8 b c c v v G G G G G G G G G G G G G G v v v v G G K K B K G G G G K K E E E E E E E K K K K K K K K K K K K K K K G E E G G E E G G G G ~ v.E x c c v E E E E E E E E E E E E E E E E E E E E E E E E E E E E E E E E E E E E E E E E E E E E E E E E E E E E E E Q E E E E E E G E E K Q ~.~ c z b z v v v v G G v v v v G v G G v v v v v v v v v G G G G v v v v v v v v v v v v v v v c c c c v v v v c c c c c c c c b b b b b b b K ~ ~ v 8 8 b c F G F c x x x x x q q 0 0 x x x x x x x x x x x x x x b b b b b b x x x 0 b 0 b b b 0 b 0 0 0 0 0 0 0 0 0 0 0 0 0 0 0 0 0 0 7 w q D A 0 O O O 7 7 0 0 0 0 w w w w w 7 7 7 7 7 7 ",
"0 0 0 0 e e e e w @ @ 0 0 e e e e e 0 0 0 0 0 0 0 0 q q q q q q e e q q q e q q q 0 0 0 0 e A A x x x c x A A A q q A L L q w w 0 0 q q 0 0 0 q x x x x c c A A x x x x x x c c x x x x c c c c F c v c v G v F v F v F v F v v v v v v v G G G G G G G v v c x G x G 1.1.v b z c v v G G G G G G G G G G G G G K K K K K K K K K K K K K K K K K K E E E E E E K K K K K K K K K K K K K K K K K E E K K E E K G G G ~ v.E x c v K E Q Q E E Q Q Q E E E E E E E E E E Q Q Q Q E E E E E E E E E E E E E E E E E E E E E E E E E E E E E E E E E E E E E E E G E E K Q v.~ v c b z v v v v G G G G G G G G G G v v v v G G G G v v v G G v v v c v v v v v v v v v v v v v v v v v v v v c c v v v v v c v c c c b c K ~ ~ K b 8 b x c c c x x x A A A A A q q x x x x c c c c x x A F c c x x x x x x x x x q x 0 x x x 0 b 0 0 0 0 0 0 0 0 0 0 0 0 0 0 0 0 0 0 w 0 q L A 0 % O O O 7 w w w w w w w w w 7 7 7 7 7 7 ",
"@ @ @ @ @ @ @ @ @ @ @ @ @ @ @ @ $ $ 0 0 0 0 w w 0 0 0 0 0 0 0 0 0 0 0 0 0 0 0 0 0 0 0 w 0 0 0 0 0 b 0 0 q 0 0 q 0 0 q D A q w 7 0 0 0 0 0 0 0 q x x x x x x x x x x x x x x x x x x x x x Z Z Z c c c c c x c c x x x x c x c c c c c c c c v v v G G G v c c x G x G ~ ~ v z c c c c v v G G G v v v v v v v v G G G G G G v v v v v v v v v v v v v v v v v v v v v v v v v v v v v v v v v v v G G v v G G v K E E ~ v.Q v v c v K E E K K E K K K K K K K K K K K K K K K K K K K G K K G G K K K K K K K K G G G G K K K K K K K K K K K K K K K K K K K v K G v G ~ W z z b z v v v v G G v v v v v c c v c c v v v v v v x c v v v v c x c c c c c c c c c c c c c c c c c c c c c c c c v v c x x x b b x x b L L L A 0 8 b b x x x x 0 x x q q q q 0 0 q q 0 0 0 0 x x q q x x x 0 0 0 0 0 0 0 0 0 0 0 0 0 0 0 0 0 0 0 0 w 0 w 0 w w w 0 w 0 w 0 w w w w w 0 q A q 0 7 O O % 7 7 7 7 7 7 7 w w 7 7 O O 7 7 7 ",
"O O O O O O @ O @ @ @ @ @ @ @ @ O % % % O O O O O O 7 7 % 7 7 7 O O O O O O O O O O O O O O w w w w w w w w w w 0 0 0 q q 0 7 O 0 0 0 0 w w 0 0 0 w w w w w 8 8 0 0 0 0 0 0 0 x x 0 x x 0 0 0 0 0 0 0 0 0 0 0 0 0 0 0 0 0 0 0 0 0 b x b b b x x x x x x x b b x v x x E E c b z z z b b x x x x c c x x x x x x b b b b b b b b b b b b b b b b b b b x b x c c c c c c x x c c c x c c x c c c x v v x x v v x v v v G Q K x v x c v v v v v v c c c c v c v v v v v v c c c c v v v v v v v v v v v v v v v v v v v v v v v v c c c c c c c c c c c c v v c b v c b c W K z z b z c v v c x v b b b b b b b b b b b x x x x x x x x x x x x x x x x x x x x x b b b b b b b b b b b b b b b 8 b b b 0 0 0 q q q 0 8 b A A c 8 8 b b x b b 0 0 0 0 0 0 0 0 0 0 0 0 0 0 w w 0 8 0 0 0 0 0 w w w 0 0 0 0 0 0 0 0 0 0 0 0 w 7 7 7 7 7 7 7 7 7 7 7 w w w w w 7 7 7 7 % O 7 0 0 w O O O O % 7 7 7 O 7 7 7 7 7 O O O O O O ",
". . . . . . . . O O O O O O O O O O O O O O O O O O O O O O % % O O O O O O O O O O O O O O O w % % % w w w 7 7 7 7 w 0 0 0 7 O w w w 7 7 7 0 0 7 w w w w w w w % % $ $ $ % 0 $ $ $ 0 0 0 0 0 0 w 7 w 7 w 7 w 7 w 0 w 0 w 0 w w 0 x b x x b b b x b b b b b b x v x b v G x b z z z b b b x x x b b b b b b b b b b b b x x x x b b b b b b b b b b b b b b b c b x b b b b b b x x b b b b b b b c c b b x c b b c x b G v x x x c v c c b x x c c c c x x c c x x x x x x x x x x x x x x x x c c c c c c c c c c c c c c c c b b b b b b x x x b b b c c b x x x 8 x E K z z z z c c c x x x b b b b b b b b b b b b b b b b b b b x x b b x b b b b b b b b b b b b b b b b 8 8 b b b b b 8 8 8 8 8 0 0 0 0 q 0 w 8 b x x 0 8 0 0 0 0 0 0 0 w w 0 0 w 0 7 7 w w w w w w w w w w w w w w w % 7 7 7 7 7 7 7 7 7 7 7 7 7 7 O O O O O O O O O O O O 7 7 7 7 7 7 7 % O % w w w 7 O O O 7 O O O O O O O O O O O O O O O ",
"O O O O O O O O @ @ @ @ @ @ O O O O % % O O O O O O O % % @ @ @ w O O O O O O O @ O O O O O @ w % % % 0 0 0 0 0 0 0 w w 0 0 w O w w w % O O 7 0 0 0 0 0 0 0 0 0 $ $ $ 0 0 0 0 0 0 0 0 0 0 0 0 0 0 0 0 0 0 0 w w 0 0 0 0 0 0 0 0 0 b b b b b b c 8 x b b b x b b v x x v v x x c v c c x x x x x c c c c x x c x c x c x x x x c b b b b b x c c c x c c c c v v c c c c x c x c c c c c x c x c x c c x x c c x c v b x K G c G c v v v c b x x c c c c x x x c c x c x c x c x c c c v v v c c c c c c c c c c v v v v v v v v x x x x x x x x x x b x c c x b x x 8 x E E c c b z c c b x x x c c c c x c x x b b b b b b b b x x b b b x x x x x x x x x x x b b b b b b b b b b b b b b b b 0 0 0 0 0 b b b x 0 w w b x x x 0 0 0 0 0 0 0 0 0 0 0 0 0 0 w % 0 0 0 0 w w w w 0 0 0 0 w w % % 0 w w w w w w w 0 0 w w @ % O O O O O O O O O O O O O O O O O O 0 w % % w 0 0 0 O O O % O O O O O O O O O O O O O O O ",
"e e e e e e e e e e r r D D D D Z Z F D D e Z D A w w 0 0 D L D D D D D D D D D D D D D D D D D D D D D D D D D L L L L J L L L D D D D D D D D L L L L L L L L Q Q Q Q Q Q Q Q J Q J L Q L Q 1.L 0 0 x x J L L L L L Q Q Q 1.Q Q Q Q Q Q Q Q Q Q 1.~ Q ~ Q ~ ~ Q Q Q Q ~ ~ ~ ~ ~ ~ ~ ~ ~ ~ ~ ~ ~ ~ ~ ~ ~ ~ ~ ~ ~ ~ ~ 1.~ ~ ~ ~ 1.1.~ ~ 1.~ ~ ~.1.K b x K Q ~ v.1.v.v.v.1.1.1.1.1.1.1.1.v.v.v.v.v.1.1.1.1.1.v.v.v.1.v.v.v.v.v.v.v.v.v.v.v.v.v.v.v.v.v.v.v.v.v.v.v.v.v.v.v.v.v.v.1.v.1.1.v.1.~ v.v.~ v c G Q ~ 1.1.1.v.v.1.1.1.1.1.1.1.1.1.1.1.1.1.1.1.1.1.1.1.1.1.1.1.1.1.1.1.1.~ ~ ~ ~ ~ 1.1.1.~ ~ ~ ~ ~ ~ ~ ~ ~ ~ ~ ~ ~ ~ ~ ~ 1.~ ~ ~ ~ ~ ~ ~ ~ 1.x x K G ~ ~ ~ ~ ~ ~ Q Q Q Q ~ ~ ~ ~ Q Q Q Q Q Q Q Q L L L L L L L L Q Q Q L L Q L Q L Q L Q L L L L L L L L Q Q Q L L Q L Q L L L L Q L L L Q 1.0 @ 0 0 D D D D L L L L L L D J D J D D D D F D F D F D F D A A D A A A A A A A A A A A A A r r D r r D D r A A A ",
"e e e e e e e e e e e e e e e e e e Z D e 0 e D e @ % @ @ e D Z Z Z D Z Z Z Z Z D D D Z Z Z Z D Z D D D F F F D D D D D D D D D F F F F F F D D F F F F F F F D F F D D J J J J F J J F L J J 1.L 0 0 0 0 F L J D D J J J L L L L L L L L L L L L L L L L L L L G G R R R E E E K R R R R E E E K R R R R E E E E E R R R E E E E Q E K E K K 1.1.K b b G E Q ~ Q ~ ~ ~ Q Q Q Q Q Q Q Q Q Q Q Q Q Q Q Q Q Q 1.1.1.1.1.1.1.1.1.1.1.1.1.1.1.1.1.Q 1.1.1.1.1.1.1.1.~ ~ 1.1.1.1.1.1.Q 1.~ ~ 1.Q E 1.v.~ v c c K ~ ~ Q Q Q Q Q Q Q Q Q Q Q Q Q E E Q Q Q Q Q Q Q Q Q Q Q Q Q Q Q Q Q E E E E E E E E Q Q Q Q Q Q Q Q Q Q Q Q Q Q Q Q Q Q E E E E E Q ~ 1.x b G v E E E E E E R R R R E E E E R R R G L L L L L L J L J J J J L L L L D D D D J J J D J J J J J J J J F F J J J J F F F F F F F F F F J 3.0 % 0 0 D D F F D F D D D D D D D D D D D D Z Z D D D D D D r r e r r r r r r r r r D D D D r r D D r r r r e e e ",
"@ @ @ @ w w w w @ @ 0 0 0 0 0 0 0 0 0 0 0 $ e D e O O O O $ Z 0 0 e e e e e e e e e e e e 0 e e 0 e e e Z Z Z e e e e e e e e e Z Z Z Z Z e e Z Z e Z Z Z Z Z Z Z Z Z Z Z Z Z Z Z F Z Z F Z F 1.L 0 % 0 0 x D A x x x x A A A A A A A A A A A A F F F F F F F F G G G G G G G G G G G G G G G G G G G G G G G G G G G G G G G G c G v c v c c Q 1.G x 8 x G G E E E E E E E E E R E G G E E R E E R G G G E E E E E E E E E E E L L L L L L L L L L L L L L L L E E E E E E E E E E E E Q E G ~ 1.E c b x G E E K K G G G G G G G G G G G G G G G G G G G G G G G G G G G G G G G G G G G G G G G G G G G G G G G G G G G G G G G G G G v G G G ~ 1.x x v b G G G G G G G G G G G G G G G G G G A A F F F F A A A A A A A A A A A A A A A A A A A A A A A A A A Z Z Z Z Z Z Z Z x x Z Z Z Z 0 e J 3.$ O @ @ e e Z Z Z D Z Z D Z Z Z Z Z Z e e e e e Z e Z Z Z Z e e e e e e e e e e e e e e e e e e e e e e e e 0 0 0 ",
"@ @ @ @ @ @ @ @ @ @ @ @ @ @ @ @ 0 $ $ 0 @ $ e D e O O O O @ 0 @ $ $ $ $ $ $ $ $ $ $ $ $ $ $ $ $ 0 0 0 0 e e 0 0 0 0 0 0 0 $ 0 $ 0 e e e e e e e e 0 0 0 0 0 0 0 0 0 0 Z 0 Z Z Z 0 Z Z 0 F x Z Q L 0 % 0 0 0 A 0 0 x x x x x x A 0 0 0 0 0 0 0 0 x x x x x x x x x x x x x x x x v v G G G G G G G v G G G G G G x x x x x x x x c G c x v x c Q 1.G 8 8 b c G G G G G G G G G G G G G G G G G G E R G G G E E E G G G G G G G G L L L L L L L L J J J J G J G G E E E E E E E E J R G G E G G ~ v.Q c b b v G G G K G G G G G G G G G G G G G v v v v G G G G G G G G G G G G G G G G G G G G G v G G v v v v v v v v v v v v v G G G v G G G G ~ 1.b x c x v v x x x x x x x x x x c c x x x x A A A x x x x 0 x x 0 0 0 x x x x 0 0 x x x x 0 Z e x x x x x x 0 0 x x x x 0 0 0 0 0 0 0 0 0 0 J 3.@ O @ % 0 0 e e e e e e e e e e e e e e e e e e e e e e e e e e e e e e e e e e e e e e e e e e e e e e e e e e 0 ",
"@ @ @ @ @ @ @ @ @ @ @ @ @ @ @ @ 0 @ @ $ @ @ e J e % O O . @ 0 @ $ @ @ $ $ $ $ @ @ $ @ $ $ $ $ $ 0 0 0 0 e 0 0 0 0 0 0 0 0 0 0 0 e e e e e 0 0 0 e e e e e e 0 e x x x x Z Z Z Z 0 Z 0 0 Z 0 Z Q L 0 0 0 $ 0 x 0 x x x Z x x A A q x q q e e x x x x x x x x x x x x x v x x v v G G G G G G G G G G G G G G G G v v v v G v v v v G v c G v v ~ 1.G 8 8 b v G K G G G G G G G G E E E E R R R R E E G G G E E E G G G G R R R G E K E K E E E K K K G G G G K G E E E E E E E E G E G G E R G ~ v.Q v b b v G G G G G G G G G G G G G G G G v v G G G G G G G G G G G G G G G G G G G G G G G G G G G G v v G G G G v v G G G G G G v G G G G G ~ ~ b x c b v G v x x x v v v v x x x x G v v c F F F A A x x x x x x x Z x x x Z Z Z Z Z Z Z Z Z Z Z Z Z Z Z Z 0 0 0 Z Z x x 0 0 0 0 Z x 0 0 0 L 3.@ O @ % e 0 e e e e e e e e Z e e e e e e e e e e e e e e e e e e e e e e e e e e e e e e e e e e e e e e e e e e ",
"@ @ @ @ @ @ @ @ w w @ @ @ @ @ @ 0 @ @ $ @ @ e D Z @ O O O @ 0 @ $ $ $ $ $ $ $ $ $ $ $ $ $ $ $ $ 0 0 0 e e e e 0 e e e e 0 e 0 0 e e e e e 0 0 e Z e Z Z Z Z Z Z Z Z Z Z Z Z F F x A x 0 Z Z Z Q Q 0 0 0 % 0 x 0 0 0 x 0 0 0 0 0 q q q q 0 e Z x x x x x c c x c x x v v G G v G x x x x x x x x x x x x x x x x x x x x x x x x c G v v G v G ~ 1.G 8 8 x v G E G G R R E E E E G G G G G G G G E G G G G E E E E E E E E E E E G G K K E E E K L K E E E E E E K E E R G G G G E E G G Q E E 1.v.~ v b x v G G G G G G G G G G G G G G G G v x G G G G G G G G G G G G G G G G G G G G G G G G G G G G G G G v G G G G G G G G v v v v v G G G ~ ~ b x c b G G G G G G G G G G G G G G G G G G F F F F F A F A F F F F F F F Z A A A A A A A A Z Z A A Z Z Z Z 0 Z Z Z Z Z Z Z x 0 Z Z Z Z x e J 3.@ O @ @ e e Z e e Z Z Z D A Z Z Z e Z Z e e e e Z Z Z Z Z Z e e e e e e e e e e e e e e e e e e e e e e e e e e e ",
"@ @ @ @ @ @ @ @ w w @ @ @ @ @ @ $ @ @ $ @ @ 0 F e % O O O @ e @ $ $ $ $ $ $ $ $ $ $ $ $ $ $ $ $ 0 0 0 0 e e 0 e e e e e 0 0 0 0 e e e e e e e e e e e e e e e e Z Z Z Z Z Z Z Z Z F Z Z F Z Z Q L 0 $ 0 % 0 x 0 0 0 0 0 0 0 0 0 e e e e e e Z Z x x x x Z Z Z Z x x x x F F F F x x x x F F x x x x x x x x x x F F F F F F x x x G v x G v G ~ 1.G x % x G G R E J R R R R R R G G G G G G G G G G G G G R E R E E E E E E E E R R R R R R R R R E R R E R E R G G R R R R J J E Q G G E R R 1.v.Q c b b c G G G G G G G G J G G G G G G G G x G G G G G G G G G G G G G G G G G G G G G G G G G G G G G G G G G G G G G G G G v v v v G G G G Q ~ x x x x x v G G F F G G G G G G F F G G F Z F F F F x x A x A A F F Z Z Z Z Z Z Z Z Z Z Z Z Z Z Z Z Z Z Z Z Z x Z Z Z Z x x x Z Z Z Z Z x e D Q @ O @ @ e e Z Z Z Z D D D D Z Z Z Z Z Z Z e e e e e e e e e e e e e e e e e e e e e e e e e e e e e e e e e e e e ",
"@ @ @ @ @ @ @ @ w @ @ @ @ @ @ @ @ @ @ $ @ % $ Z e O O O O @ e @ $ $ $ $ $ $ $ $ $ $ $ $ $ $ $ $ $ 0 0 e 0 0 0 0 0 0 0 0 0 0 0 0 e 0 0 0 0 0 0 0 e e e e 0 0 0 e 0 0 Z x Z Z Z Z Z F Z Z F Z Z Q Q 0 % $ % $ 0 0 0 0 0 0 0 x 0 0 0 0 0 0 0 0 0 0 x x x x x x x x x x x x x x x x x x x x F x x x x x x x x x x x G G G F G G G F x G x x G x G ~ 1.G x 8 x x G G G G G G G G G G G G G G G G G R R R G G J E E E R R R R R R R E R R R R R R R R G R R R R R R R G G R R R R J J E Q G G E G G 1.v.Q c 8 x c G G G G G G G G G G J J J J J G G G G G G G G G G G x x F F F F F x x x x F F F x x v v v v x x x v G G v v v G G G G G G G G G G G Q 1.x % x % x x x x x x x x x x x x x x x x x x c x Z x x x x x x x x x x x x x Z Z Z Z Z Z Z x 0 x x x x x 0 0 0 0 0 0 0 0 0 0 0 0 Z Z x x x 0 D L @ . @ @ e e Z Z D D D D D D Z Z Z Z Z Z e e e e e e e e e e e e e e e e e e e e e e e e e e 0 e e e e e e e e 0 0 ",
"@ @ @ @ @ @ @ @ @ @ @ @ @ @ @ @ @ 0 @ @ 0 @ $ D e O O @ O @ 0 @ $ $ $ $ $ $ $ $ 0 0 0 0 $ $ $ $ $ $ $ 0 0 e e e 0 0 e e e e e 0 0 0 0 0 0 0 e e e e 0 0 0 e e e 0 0 0 0 x Z x 0 0 Z Z x Z 0 Z 1.Q $ % $ % 0 Z x Z Z x 0 0 0 0 0 e e Z Z Z Z x Z x x x x Z Z Z Z x x x x x x x x x x F x F x F F F F x x x x x F x x x x F F x x x G x x G x G Q 1.G x % x v G R G G J J J J J J J J J J J J G G G G J J G G G G J J R R R R R R R R R R R R R R R R R R R R G G R R R R R R R R J G R G J R R Q ~.E 8 v % G G G J J G G G G G G F F F F F F F F F F F F G F F F G G G G G G G G F F F F F F F G v G G G v v v v v v x G G G G G G G G G G G G G ~ ~ x % x x x v F F x x x x F F x x x x F F x x Z Z Z Z Z Z Z Z Z Z Z Z Z Z x Z Z Z Z Z Z Z Z Z e e Z Z Z Z 0 e 0 0 x x x x x 0 0 x x 0 0 $ 0 0 J Q @ % $ @ 0 e e D A D D A Z e e e e e e e e e e e e e e e e e e e e e e e e e e e e e e e e e e e e e e e e e r r e ",
"@ @ @ @ @ @ @ @ @ @ @ @ @ @ @ @ @ 0 @ @ 0 @ $ D e O O % O @ 0 @ $ $ $ $ $ $ $ $ 0 0 0 0 $ $ $ $ $ $ $ 0 0 e e e 0 0 e 0 e e 0 e 0 0 0 0 0 0 e e e 0 0 0 0 e e e 0 0 x x x x 0 0 0 Z Z 0 Z 0 Z 1.Q $ % $ % 0 Z x x x x x 0 0 0 0 e e Z Z e e x x x x x x Z Z Z x x x x x x x x x F F F F F F x x F F F F x x F x x x x x F F x x x G x x G x G Q 1.G x % x v G G G G J J J J J J G G J J J J G G G J J J J G G G J J R G R R R R R R R R R R R R R R R R R R G G R R R R R R R R J G G G J R R Q ~.E 8 v % G G G J J G G G G G G F F F F F F F F F F F F G F F F G G G G G G G G F F F F F F F F G G G G v v v v v v x G G G G G v G G G v G G G ~ ~ x % x x x F F F x F x x F F x x x x F F x x Z Z Z Z Z Z Z Z Z Z Z Z Z Z x x Z Z Z Z Z Z Z Z e e Z Z Z Z 0 0 0 0 0 0 x x 0 0 0 0 x 0 0 $ $ $ J Q @ % 0 @ 0 e Z D D D D Z Z e e e e e e e e e e e e e e e e e e e e e e e e e e e e e e e e e e e e e e e e e e e e ",
"@ @ @ @ @ @ @ @ @ @ @ @ @ @ @ @ @ 0 @ @ 0 @ $ D Z O O % O @ $ @ $ $ $ $ $ $ $ $ $ $ $ $ $ $ 0 0 0 0 $ 0 0 e 0 0 0 0 0 0 0 0 0 0 e 0 e e 0 e e e e e 0 0 0 0 e e Z Z x x Z Z Z Z 0 Z Z 0 Z 0 Z 1.Q $ % $ % 0 Z x x Z Z x Z Z 0 Z e e e e e e x x x x Z Z Z Z x x x x x x x x x x F F F F F x x x F F F F F F F F x x x x F x x x x G x x G x G ~ 1.G % % x x G G G G G J J J J J G G G G J J G G G G J J J J G G R J R J G G G R R R R R R R R R R R R R R R R R R R R R R R R R J R G J J R R Q ~.Q % v % G G G J J J G J J F F F F G G G G G F F F F F G G F F G G G G G G G G F F F F F F F G G G F F F F G G F x G F F G G G G G G G F F J G ~ 1.x % x % x F F F F F F F F F x x x x F x x x Z Z Z Z Z Z Z Z x Z Z Z Z x x x Z Z Z Z Z Z Z Z 0 e x x Z x x 0 0 0 0 x 0 0 0 0 0 0 0 0 0 $ $ $ J Q @ % 0 @ 0 e Z Z D D Z Z e e e e e e e e e e Z Z Z e e e e e e e e e e e e e e e e e e e e e e e e e e e e e e e e ",
"@ @ @ @ @ @ @ @ @ @ @ @ @ @ @ @ @ 0 @ @ 0 @ $ D e O O @ O % 0 @ $ $ $ $ $ $ $ $ $ $ $ $ $ 0 0 0 0 0 $ 0 0 e 0 0 e 0 e 0 0 0 0 0 e e e e e e e e e e 0 0 0 0 e e x 0 0 0 0 x x x 0 Z x 0 Z 0 Z 1.Q $ % $ % 0 Z x x Z Z x Z Z Z Z e e e e e e x x Z Z Z Z Z Z x x x x x x x x x x x x x x x x x x x F x x x x x x x x x x F x x x x G x x G x G Q 1.G % x x x G R G G J J J J J J G G G G J J G G G G J J J J J J J J J J J J J J R R R R R R R R G G G G G G G J G R R J R R R R J J G J J J R Q ~.Q % x % G G G G G G G F F F F F F G F G G G G F F G G G G F F F F F F F F F F F F F F F F F G G G F F F F G G G G G F F F G G G G G G F F G J ~ 1.x % x % x F x x x x x x x x x x x x F F x x x x Z Z x x x x x x x x x x x x Z Z Z Z Z Z Z Z 0 0 0 x Z Z x x 0 0 0 x 0 0 0 0 0 0 0 0 0 $ $ $ J L @ % $ @ 0 e e Z D D Z Z e e Z Z Z e e e e e Z Z Z Z e e e e e e e e e e e e e e e e e e e e e e e e e e e 0 e e e ",
"@ @ @ @ @ @ @ @ @ @ @ @ @ @ @ @ @ 0 @ @ 0 @ $ D e O O @ O % 0 @ $ $ $ $ $ $ $ $ $ $ $ $ $ $ 0 0 0 0 0 0 0 0 0 0 0 0 0 0 0 0 e e 0 0 e e e e e e e e 0 0 0 0 0 e x x 0 0 0 0 x x 0 Z x 0 Z 0 Z Q J $ % $ # $ Z Z Z Z Z Z Z Z Z Z Z Z e e e e Z Z Z Z Z Z Z Z Z Z x x x x Z Z Z Z F F F F F F Z Z F F F F F F F x F F F F F F Z x x G x x G x G Q 1.G % % x x G R J J J J J G G G J J J J J J J J G G G J J J J J J J J J J J J J G G G G G J G G J J J J J J J J J J G G G G R R J J J J J J R Q ~.E % F % G G G G G G G F F F F F F F F F F F F F F F F F F F F F F F F F F F F F F F F F F F G G F F F G G G G G G G G F F F F F G G G x G G J ~ 1.x % x % x F x F F F F x x x x F F F F x Z x F F F F x F F F x x x x x x x Z Z Z Z Z Z Z Z Z Z Z Z Z Z Z Z Z 0 0 0 0 0 0 x x x x 0 0 0 0 0 0 J L @ O 0 @ e e e e Z D Z Z e e Z Z Z e e e e e Z Z Z e e e e e e r 2 2 2 2 e e e e e e 2 2 2 e 2 2 r r e e 2 2 2 2 2 ",
"@ @ @ @ @ @ @ @ @ @ @ @ @ @ @ @ @ 0 @ @ 0 @ $ D e O O @ O @ 0 @ $ $ $ $ $ $ $ $ $ $ 0 0 $ $ 0 $ 0 0 0 0 0 0 0 0 0 0 0 0 0 0 e e 0 0 e e e e e e e e 0 0 0 0 0 e 0 0 0 0 0 0 0 0 0 Z x 0 Z 0 x Q J $ % $ # $ Z Z Z Z Z Z Z Z Z Z Z Z e e e e Z Z Z Z Z Z Z Z Z Z x x x x Z Z Z Z x x x x x x x x x x x x x x x x x x F F F Z Z Z x G x x G x F Q 1.G % % x x G R J J J J J J G G J J J G J J J J G G J J J J J J J J J J J J J J J J J J J J J J J J J J J J J J J J J J J J G J J J J J F J R Q ~.E % F % G G G F G F G F F F F F F F F F F F F F F F F F F F F F F F F F F F F F F F F F F F F F F F F G G G G G G G G F F x x F G G G x F G G ~ 1.x % x % x F x x x Z x x x x F x F F F F F Z x x x x x x x x x d d x x x x x Z Z Z Z Z Z Z Z Z Z Z Z Z Z Z Z 0 0 0 0 0 0 x x 0 x 0 0 0 $ 0 0 J L @ O 0 @ e e e e Z Z e Z e e Z Z Z e e e e e e e e e e e e e e r r r 2 2 e e e e e e 2 2 2 2 2 2 2 2 e 2 2 2 2 2 2 ",
"@ @ @ @ @ @ @ @ @ @ @ @ @ @ @ @ @ 0 @ @ 0 @ $ D Z O O @ O @ 0 @ $ $ $ $ $ $ $ $ $ 0 0 0 $ $ $ $ $ $ 0 0 0 e e e 0 e 0 0 e e e e 0 0 0 0 e 0 e e 0 0 0 0 0 0 0 0 0 0 0 0 0 0 0 0 $ Z 0 0 Z $ x Q J $ % $ @ $ Z 0 Z Z Z Z 0 0 x 0 e e e e e e Z Z Z Z Z Z Z Z Z Z Z Z x x x x x x x x x x x x x x x x x x x x x x x x x x x x Z Z x F x x F x F Q 1.G % % x F G G J G J J G G G G J J J J J J J J J J J J J J J J J J J J J J J J J J J J J J J J J J J J J J F F J J J J J J J J J J J J F J R Q ~.E % F % G G G F F F F F F F F F F F F F F F F F F F F F F F F F F F F F F F F F F F F F F F F F F F F F F F F F F G F F x x x F F F F x x F G Q 1.x % x % x F x x Z Z x x x x x x x x F x F F x x x x x x x x d d x x x x x x Z Z Z Z e e e e Z Z e e e e Z Z x x 0 0 0 0 x x x x 0 0 0 $ 0 0 J J @ @ 0 @ e e e e e Z Z e e e Z e e e e e e 0 0 0 e e e e e e e r r r 2 2 2 e e e e 2 2 2 2 2 2 2 2 2 e 2 2 < < < < ",
"O O O O O O O O O O O O O O O @ @ $ @ @ 0 @ $ D Z O O @ O @ 0 @ $ $ $ $ $ $ $ $ $ $ 0 0 $ $ $ $ $ $ $ 0 0 e e e e e 0 0 0 e e e 0 0 0 0 0 0 0 0 0 0 0 0 0 0 0 e e 2 $ $ 0 0 0 2 $ Z e 0 Z $ Z Q Q $ % $ % $ Z 0 0 0 x x x 0 0 0 e e e e e e Z Z Z Z Z Z Z Z Z Z Z Z x x x Z Z Z Z Z Z Z Z x x x Z Z Z Z Z Z Z Z Z Z Z Z Z Z Z Z x F x x F x F Q 1.G % % x F G R G G J J J G G G J J J J J J J J J J J J J J J J J J J J J J J J J J J J J J J J J J J J J J F F J J J J J J J J J J J J F J R R ~.E % F % G G G F F F F F F F F F F F G G G F F F G G F F F F F Z Z Z Z F Z Z Z F F F F F F F F Z Z Z Z Z Z Z Z F F G Z Z Z Z Z Z Z Z Z Z Z F F 1.1.x % x $ Z Z x Z Z Z x Z x Z x Z x Z x Z F Z Z Z Z Z Z Z Z Z x x Z Z x x x x x e e e e e e e Z e e e e e Z e Z e 0 e 0 e x e 0 0 0 0 0 $ $ 0 J J @ @ 0 @ e e e e e Z Z e e e e e e e e 0 0 $ $ $ 0 0 e e e e e r r r 2 2 e e r r r 2 2 < < < 2 2 2 2 e 2 2 < < < < ",
"O O @ @ @ @ @ @ @ @ @ @ @ @ . . . . . O @ @ $ 2 @ @ @ @ @ @ @ @ @ @ @ @ @ @ @ @ O O @ @ @ @ O @ $ $ @ @ @ @ @ @ @ $ $ $ @ $ $ $ $ $ $ $ @ @ $ $ $ @ @ $ $ $ $ $ $ $ $ $ $ $ $ $ # @ $ @ $ $ $ e F 0 % O % 0 0 0 0 0 0 0 0 0 0 0 0 0 0 0 0 0 0 0 % $ $ $ $ $ $ % Z Z x x x $ $ $ @ $ % % % $ x Z 0 0 0 0 x x Z Z $ $ $ $ 0 0 0 0 x x x x x x x x G F x x x x x x x x x x x x x x x x x x x x x x x x x x x x x x x F x $ Z F x x x x x x x x F F x x x x x x x x x x x x Z Z Z Z x x x x Z Z Z Z G G x x x x x x x x x x x x x x x x x x x x x x x x x x x x x x Z x x Z Z 0 $ $ % $ x x x 0 $ $ x x x x x x x x x x 0 0 $ $ $ $ 0 0 0 0 0 0 0 0 A Z x 0 0 0 0 x x x x x x 0 Z $ x $ x $ x $ $ $ $ $ $ $ $ $ @ @ % @ $ $ $ @ % @ 0 $ @ @ @ $ 0 $ @ @ $ @ $ @ @ @ $ $ $ $ $ $ $ $ $ $ $ $ $ $ $ $ e e e e $ @ @ @ @ @ @ @ @ @ @ @ $ @ $ $ $ $ $ $ @ @ @ @ @ @ @ @ @ @ @ @ @ @ @ @ . @ @ @ @ @ @ @ @ @ @ @ @ @ @ @ @ @ @ ",
". . . . . . . . . . . . . . . . . . . . . . @ @ . . . . . . . . . . . . . . . . . . . . . . O O @ @ O @ O O O O O O @ @ O O O O @ @ @ @ O O O O O O O O O O @ @ @ + + + + + + + O . . O + + + @ 0 % O O O % O O % % % % % % % % @ % % % % % % % % % $ % % $ % O % % % % % O O % @ @ % % % % % % % % % % % % # # # # # # $ $ # % % % % % % x x % x x % % % x x % % % % % % % % % x x x x x x x % % % x x x x x x $ x % % x x % $ x x x x x x x x % % % x x x % x # % % % # # # # # # # % # $ $ $ F x x x x % % % % % x x x x % % x x x x % % % % x x x x x x x $ $ % % $ $ % % $ % $ $ $ $ % % % $ $ $ $ $ $ $ $ $ $ $ $ % % % % % % % % % % % % 0 0 0 $ % % % 0 % % $ $ $ % % % % % % % % % % % O O O O O O O O . . O @ O O O O O O O O O @ @ @ @ @ % @ @ @ @ @ @ @ @ @ @ @ % % O O @ @ O O @ @ @ @ @ @ @ + . . . . . + O O O O O O O O O O O O . . O O O O . . . . . . . . . . . . . . . . . . . . . . . . . . . . . ",
"O O @ @ @ @ @ @ @ . @ @ @ @ @ @ w @ @ @ @ @ @ @ @ @ @ @ @ @ @ @ @ @ @ @ @ @ @ @ @ @ @ @ @ @ w 0 e 0 0 0 0 $ $ $ $ $ e e $ @ O O $ e e e e $ $ $ 0 $ 0 0 0 e e e e 2 2 2 2 2 2 2 2 2 2 2 2 2 e e D e 0 0 0 0 0 0 0 0 0 0 0 0 0 0 Z Z x x x Z Z x 0 Z Z Z Z Z Z 0 x x $ x 0 @ @ $ e e Z Z Z x x Z Z e e Z Z Z Z Z Z Z Z Z Z Z Z Z x x x F F F G G G G x x x x F x x x x x x x x x F F G G G G G G x x x x F F F F F G Z Z J F $ x F G J J G F F F F F F F F F F F F Z F F Z F Z Z Z Z F Z Z F F F R R J J F F F G F F F F F F F F G G G G G G G G G G G G G G G G F Z 0 Z Z x 0 0 0 x Z F Z Z Z Z Z Z Z Z Z Z Z Z Z Z Z Z Z Z Z Z 0 0 0 x x x 0 0 Z F Z Z 0 0 Z Z Z Z Z Z Z Z x x x x x x x x x 0 0 0 0 0 0 0 0 0 $ $ 0 e 0 0 @ @ @ @ $ $ e e e e e e e e e e e e e e e e e 0 0 0 0 0 e 0 0 $ 0 0 e e e e 2 @ @ @ @ @ @ @ $ $ $ $ @ @ @ $ @ @ $ @ @ @ @ @ $ $ $ @ @ @ @ @ < @ @ @ @ @ @ @ @ @ @ . @ @ @ @ @ @ @ @ @ @ @ ",
"e e e e e e e e w e e e e r r r D D e e e e e e S S S S D S Z Z S S S S D D D D D D r r r D D D D D D D D D D D Z Z D D D e $ $ e D D J J J J J J J J J J J J J J D J J J J J J J J J J J J ;.Q Q L L J L L L D L J L J L J L J J J J J J J J J J Q Q Q Q Q Q J 1.R J Q J Z 0 e D J Q Q 1.Q 1.1.3.Q 3.3.3.3.3.3.1.1.1.1.1.1.1.1.1.1.1.1.1.1.~ 1.1.1.1.1.~ ~ 1.~ 1.1.1.1.1.1.1.1.1.1.1.1.1.1.1.1.1.1.1.1.1.1.1.1.1.1.1.1.1.Q Z Z R R Q 1.1.1.1.1.1.1.1.1.1.1.1.1.1.1.1.1.1.1.1.1.1.1.1.1.1.1.1.1.1.1.1.1.1.1.1.1.1.1.1.1.1.1.1.1.1.1.1.1.1.1.1.1.1.1.1.1.1.1.1.1.1.1.Q 1.1.Q F F F J Q Q 1.1.1.1.Q Q Q Q Q Q Q Q Q Q Q Q Q Q Q Q Q Q Q Q J Q Q Q Q Q Q Q J J J Q J Q Q Q Q Q J J Q Q J J Q J J J J J J L L L Q Q L J J L L D Z e e Z D J J L J J J J J J J J J J D D D D D D D D D D D D D D D D D D D D D D D D D D D D D D D D S S S S S S S S S S D S D Z Z Z r r r r r r w @ @ w e e r r e e e e e e e e e e e e e ",
"w w w w w w w w e e e r r r r r e e 2 2 2 e e e e e e e r r r e S Z Z Z S S Z Z e e e e e e r D Z S S S D S D Z e e D J D $ @ @ e e S D D D D D D D D D D D D J D D D D D D D D D D D D D D J J J J J J J J D D D D D D D D D D J J J J J J J J F J J D D J J F R J J 1.Q e @ @ Z D J Q Q Q Q Q Q 3.3.3.3.3.3.3.1.3.3.3.3.3.3.1.1.1.Q Q ~ Q Q Q 1.1.1.1.~ 1.~ 1.1.1.1.1.~ 1.~ 1.1.1.1.1.1.1.1.1.1.1.1.1.1.1.1.1.1.1.1.1.1.Q x Z F J R 1.1.1.Q Q 1.1.1.1.1.1.1.1.1.1.1.1.1.1.1.1.1.1.1.1.1.1.1.1.1.1.1.1.Q Q Q 1.1.1.1.1.1.1.1.1.1.1.Q Q Q 1.1.1.Q Q ~ 1.~ 1.Q 1.3.Q Q 1.1.Q F 0 Z Z F J J J Q Q J J J Q J J J J J J J J J J J J F F F F F F F F F J J F F F F J F J J J J F F F F F F F F F F F D D D D D D J J J D D J Q J e @ $ e D J J J J J J J J J J J J J D D D D D D D D D D D D D D D D D D D D D D D D D D D D D D D S S S S S S S D D S S S S D D S S D r r r D r < . . @ < e r r r e 2 2 2 2 2 2 e e r r e ",
"@ @ @ < @ @ @ @ @ @ @ @ @ @ @ @ @ @ @ @ @ @ 2 2 @ @ < 2 2 2 2 2 2 2 $ $ 2 2 2 $ 0 0 0 $ e e e e e e e e e e e e 2 $ e J S @ O + @ $ e e 2 $ $ 2 e e e e e e e e e e e e e e e e e e e e e e e Z Z Z Z Z e e Z Z e e e e e e e e Z Z Z Z Z Z Z Z 0 Z Z e e Z Z 0 Z Z F 3.Q 0 O @ e e F F F Z Z F F F F D F D F F F F F F F F F F J J J J J F J F J J R R J F J R J J J J J J J J J J J J J J J J G G G G G R R R R R J 1.1.J $ $ d F F H F F F F F F F F F F F H F F F F F F F F F F F F F F F J H H H H H H H F H H H H F F F F F F J F F F F F F F F F F F F F Z Z F Q 1.J Z # $ 0 Z F Z Z Z Z Z Z Z Z F F F F Z Z Z Z Z Z Z Z Z Z Z Z Z Z Z Z 0 Z Z Z 0 $ 0 Z Z Z Z Z Z x 0 0 0 0 0 0 0 0 0 0 0 0 0 0 e e e e e $ e D J D e @ O $ Z D D Z S S D D D D D D D D S S Z Z S S S S D D D D D D D D S S S S S S S S S S S S S S S S S Z Z Z S S S S S S S S S S S r r e r r D r < . . . @ < < < @ @ @ @ @ @ < < @ @ @ @ @ ",
"@ @ @ @ @ @ @ @ @ @ @ @ @ @ @ @ @ @ @ @ @ @ 2 2 @ @ 2 2 2 2 2 @ @ @ @ @ @ @ @ @ @ $ @ @ @ 0 e e 2 2 2 e e e e e $ $ Z ;.J 2 + @ $ $ e 2 $ $ $ 2 $ 2 2 $ $ 2 e e 2 2 2 2 2 2 2 2 2 2 2 2 2 2 2 e e e e 2 $ 2 e e e 2 e 2 e 2 e e Z Z Z Z Z Z Z Z 0 Z Z Z Z Z Z 0 Z Z Z 3.3.e @ $ e e F F F Z Z F F F F F F F F F F F F F F F F F F F F F F F F F F F J H F F F H F F F F F F F F F F F F F F F F F F J J J J J J F J J 1.1.J $ x d d F F F F F d d F d F F F F F F F F F F F F F Z Z Z Z Z F F F F F F F F F F F F F F F F F F F F F F F F F F F F F F F F F F Z Z e Z Q 1.J Z $ $ 0 Z Z Z 0 0 0 Z Z Z Z Z Z Z Z Z Z Z Z Z Z Z Z Z Z Z Z Z Z Z Z $ e Z Z 2 $ 0 e Z Z Z Z Z Z 0 0 $ $ $ $ $ $ $ $ 0 0 0 $ $ $ $ $ $ @ $ Z J J e @ O $ Z D F Z Z D D D D D D D D D D D D D D D D D D D D D D D D D S S S D S S D S S S S S S S S S S S S S S S S S S S S S S S S e r 2 r r D D r @ . + @ < < < @ @ @ @ @ @ < < < @ @ @ @ ",
"@ @ @ @ @ @ @ @ @ @ @ @ @ @ @ @ 2 < @ @ @ @ @ < @ 2 2 2 2 2 2 2 @ @ @ @ @ @ @ < @ @ @ @ @ @ 0 0 $ $ $ $ 2 2 e e @ @ Z Q J e @ $ $ $ e 2 $ 2 e Z 2 2 $ $ $ 2 e e e e e e e e e e e 2 2 2 2 2 2 e 2 2 2 2 $ 2 2 Z e Z Z Z e e 2 2 Z Z Z Z Z Z Z Z Z F F F Z F F Z F Z F 1.3.e @ 0 0 e Z F F F J J F F F D F F F F F F F F F F F F R R H H H H F F F H R R H H H R H H H H H H H H H F H H H H H H R G G G G G G R J J J 1.1.J $ Z d d d F F H F F F F F F H H H H J J J J J J J J F F F F F F F F F F F F F F F F F F F F F F F F F H H H H H H H F F F F F F F F F Z F Q 1.J Z # $ $ Z Z Z Z Z Z Z Z Z Z Z Z Z Z Z Z Z Z Z Z F F Z Z F F F Z Z Z $ Z Z Z Z Z e Z Z Z Z Z Z Z Z Z Z Z Z Z Z Z Z e e e e e e e e e 0 $ $ Z L L e + + $ F D D Z Z D D D D D D D D D D D D D D D D D F F D F Z Z F D S S S S S Z Z Z Z Z Z Z Z Z Z S S S S S S S S S 2 2 d d d d d 2 r r r e D r < . .   . @ < 2 2 2 @ @ @ @ < < < @ @ @ @ ",
"@ @ @ @ @ @ @ @ @ @ @ @ @ @ @ @ @ @ @ @ @ @ @ @ @ @ @ @ @ @ @ @ @ @ @ @ @ @ @ @ 2 < @ @ @ @ $ $ 2 $ $ $ $ $ $ @ 2 e $ ;.J + @ + @ $ $ $ $ $ 2 2 2 $ $ $ $ 2 2 2 2 2 2 2 2 2 2 2 2 2 2 2 2 2 e e 2 2 2 2 d d d 2 2 2 2 2 d d d d Z Z Z Z Z Z Z Z Z Z Z Z Z Z Z Z Z x F 3.3.Z $ @ @ e F F F F F F F F F F F F F F F F F F F F F F F F H H F F F F F F F H H F F F F F F F F H H H H H H H H H H H R R R R J J R R F J J 1.1.J # $ d d F F F d d H F F F F H H H F F F F F F F F F F F F F F F F F F F F F F H H H F F H F H F F F F F F F F F F F F F F F F F F F Z F Z D 1.J # $ # $ Z Z Z Z Z Z Z Z Z Z Z Z Z Z Z Z Z Z Z Z Z Z Z Z Z Z Z Z Z Z d d d d Z Z Z Z e Z Z Z Z e e e e e $ 2 2 2 2 e e e e 2 2 e e @ e e 2 e Q J $ @ + 2 S F F D H J F J J J J H D D D D D D D D D D D F F F F D D S Z S S S Z Z Z S S S S S S Z Z S S S S S S S S S d d d d S d d 2 e r r < S ;.+ .   . + < < < @ @ < < < < @ @ @ @ @ @ < ",
"@ @ @ @ @ @ @ @ @ @ @ @ @ @ @ @ @ @ @ @ @ @ @ @ @ @ @ @ @ @ @ @ @ @ @ @ @ @ @ @ 2 $ @ @ @ @ $ $ 2 $ $ $ $ $ $ @ $ e $ ;.J + @ + @ $ $ $ $ $ 2 2 2 $ $ $ $ 2 2 2 2 2 2 2 2 2 2 2 2 2 2 2 $ 2 e e 2 2 2 2 d d d d 2 2 2 2 d 2 d Z Z Z Z Z Z Z Z Z Z Z Z Z Z Z Z Z Z x F 3.3.Z $ @ @ e F F F F F F F F F F F F F F F F F F F F F F F F H H F F F F F F F F H H F F F F F F F H H H H H H H H H H H R R R R J J R R F J J 1.1.J # $ d d F F F d d H F F F F H H H F F F F F F F F F F F F F F F F F F F F F F H H F F F F F F F F F F F F F F F F F F F F F F F F F Z D Z D 1.J # $ # $ Z Z Z Z Z Z Z Z Z Z Z Z Z Z Z Z Z Z Z Z Z Z Z Z Z Z Z Z Z Z d d d d Z Z Z Z e Z Z Z Z e e e e e 0 0 2 2 e e e e e 2 e e e @ e e 2 e Q J $ @ + 2 S F F D H J F J J J J H F D D D D D D D D D D F F F F D D D S S S S Z Z S S S S S S S Z Z S S S S S S S S S d S d d S d d 2 r r r < S ;.. .     + < < < @ @ < < < < @ @ @ @ @ @ < ",
"@ @ @ @ @ @ @ @ @ @ @ @ @ @ @ @ @ + + , @ @ @ @ , , , , @ @ @ @ , , , , @ @ @ @ $ $ @ @ @ @ @ $ 2 $ $ $ $ $ $ @ $ 2 $ ;.J + @ + @ $ 2 2 $ $ $ 2 2 $ $ $ $ 2 2 2 2 2 2 2 2 2 2 2 2 2 $ $ $ 2 e e Z Z e e e Z e e Z e e e e e e e Z Z Z Z Z Z Z Z Z Z Z Z Z Z Z Z Z x F 3.3.Z $ @ @ e F F F F F F F F F F F F F F F F F F F F F F F F H H F F F F F F F F F F F F F F F F F H H H H H J J H H H H J R R R R J R R F J J 1.1.J # $ d d F F F F F F F F F F F F F F F F F F F F F F F F F F F F F F F F F F F F F F F F F F F F F F F F F F F F F F F F F F F H F F Z F Z D 1.J # $ # $ Z Z Z Z Z Z Z Z Z Z Z Z Z Z Z Z Z Z Z Z Z Z Z Z Z Z Z Z Z Z d d d d d d d Z e e e e e e e e e e e e e e e e e e e e e e e @ e e $ e Q J $ @ + 2 Z F F D H J J J J J J H F D D D D D D F F F D F F F F D D S S Z S S Z Z S S Z Z S S S Z S S S S S S S S S S S S S S S S 4 2 r 2 S 2 S ;.+ +   + + @ 2 2 @ + , + + , @ @ , , + + + ",
"@ @ @ @ @ @ @ @ @ @ @ @ @ @ @ @ + + + + @ @ @ + , , , , @ @ @ @ , , , , @ @ @ @ $ @ @ @ @ @ @ @ $ $ $ $ $ $ $ @ $ 2 $ ;.J + @ + @ $ 2 2 $ $ $ 2 2 $ $ $ $ 2 2 e 2 2 2 2 2 2 2 2 2 2 2 $ $ 2 e e Z Z e e e e e e Z e e e e e e e Z Z Z Z Z Z Z Z Z Z Z Z Z Z Z Z Z x F 3.3.Z $ @ @ e F F F Z F F F F F F F F F F F F F F F F F F F F H H F F F F F F F F F F F F F F F F F H H H H H J J J H H H J R R R R R R R F J J 1.1.J # $ d d F F F F F F F F F F F F F F F F F F F F F F F F F F F F F F F F F F F F F F F F F F F F F F F F F F F F F F F F F F F H F F Z D Z D 1.J # $ # $ Z Z Z Z Z Z Z Z Z Z Z Z Z Z Z Z Z Z Z Z Z Z Z Z Z Z Z Z Z Z d d d d d d d 2 e e e e e e e e e e e e e e e e e e e 0 e e e @ e e 2 e Q J $ @ + 2 Z D F D F J J J J J J H F D D D D D D D F F D F F F F D D S S Z Z S Z Z S S Z S S S S Z S S S S S S S S S S S S S S S S 2 2 r 2 S 2 S ;.+ +   + + @ 2 2 @ @ + + + + @ @ , + + + + ",
"+ + @ @ @ @ + + @ @ @ @ @ @ @ @ , , + @ @ @ + + , , @ @ @ + + + @ @ + , , , @ @ @ @ @ @ @ @ @ @ $ $ @ @ 2 2 $ @ $ 2 $ ;.J + + + @ $ 2 2 2 2 $ 2 2 2 2 2 $ 2 2 2 2 2 2 2 2 2 2 2 2 $ $ $ 2 2 2 e Z Z e e e e e e Z Z e e e e e e Z Z d d d Z Z d d d Z Z Z Z d d Z Z F 3.3.Z $ + $ 2 F D S S S F F F F F F F F F H H H H F F F H F F F F F F F F F F F F F F F F F F F F F F J J J J J J J J J J H R R R R H R R F H J 1.1.J # $ d d F F F F F F F F F F F F F F F F F F H H H H F F F F F F F H F F F F F F F F F F F F F F F F F F F F F F F F F F F F F F F F d D Z D 1.>.# $ $ $ d Z Z Z Z Z Z Z Z Z Z Z Z Z Z Z Z Z Z Z Z Z Z d d d d d d d d d d d d d d 2 e e e e e e e 2 2 2 2 2 2 2 2 2 2 e 2 $ 2 e 2 @ 2 e $ e >.J $ + + $ S F F F F J H J J J J H F F F F F F F F F F F H H H F F H S S Z Z S S S S S Z Z S S S Z S S Z Z S S S S S S Z S S S S Z e e r e S 2 S ;.+ + . + + @ < < < @ @ + + + + , , , , , , ",
"+ + @ @ @ @ + + @ @ @ @ @ @ @ @ , , @ @ + + + , + + @ @ , , + + @ + + , , , @ @ < < @ @ @ @ @ @ 2 $ @ @ 2 2 $ $ 2 2 $ ;.J + + + @ $ 2 2 2 2 $ 2 2 2 2 2 $ 2 2 2 2 2 2 2 2 2 2 2 2 $ $ $ 2 2 2 e Z Z e e e e e e Z Z e e e e e e Z Z d d Z Z Z Z d d Z Z Z Z d d Z Z S >.3.Z $ @ $ 2 F D S S S F F F F F F F F F H H H H F F F H F F F F F F F F F F F F F F F F F F F F F F J J J J J J J J J J H R R R R R R R F H J 1.1.J # $ d d F F F F F F F F F F F F F F F F F S F F F F F H F F F F F H F F F F F F F F F F F F F F F F F F F F F F F F F F F F F F F F d D Z D 1.>.# $ $ $ d Z Z Z Z Z Z Z Z Z Z Z Z Z Z Z Z Z Z Z Z d d d d d d d d d d d d d d d d 2 2 e e e e e e 2 2 2 2 2 2 2 2 2 2 e 2 2 2 e 2 @ 2 e $ e >.J $ + + $ S F F F F J H J J J J F F F F F F F F F F F F H F H F F F S S Z S S Z Z S S S S S S Z Z S S Z Z S S S S S Z S S S S S Z e e r 2 S 2 S ;.+ + . + + @ 2 2 < @ @ + + + + + + + @ , , ",
"+ + @ @ @ + + + @ @ @ @ @ @ @ @ , @ @ @ , , , , + @ @ @ , , , + , , , , + + @ @ < < 2 2 @ @ < @ 2 2 $ $ 2 2 $ $ 2 2 $ ;.D + + + @ $ 2 2 $ $ $ 2 2 2 2 2 $ 2 2 2 2 2 2 2 2 2 2 2 2 $ 2 2 2 2 2 e Z e e e e e e e Z e e e e Z Z e Z d d d Z Z Z Z d d Z Z Z d d d d d S >.3.Z $ @ $ 2 F F S Z S F F F F F F F F F F F H H F F F F F J J J J J J J J J J J J J J J J F F F F F J J J J J J J J J J H R R R R H R R F H J 1.1.J # $ d x F F F F F F F F F F F F F F F F S S S F F F H H F F F F H H F F F F F F F F F F F F F F F F F F F F F F F F F F F F F F F F d D Z D 1.>.# $ $ $ d Z Z d Z Z Z Z Z Z Z Z Z Z Z Z Z Z Z Z Z d d d d d d d d d d d d d d d d 2 d Z e e e e e 2 2 2 2 2 2 2 2 2 2 e 2 2 2 e 2 @ 2 e $ e >.J $ + % d S F F F F H H H J J J H F F F F F F F F F F F F F F F F F S S S S S S S S S S S S S S S S S S Z Z Z Z Z Z Z Z Z Z Z S Z Z e r 2 S 2 S ;.+ + . + + , 2 2 < @ < < + + + + @ @ @ @ , ",
"+ + @ @ @ @ + + @ < @ < @ @ @ , + + @ @ , , , , + + @ @ , , , , , , , , + + + , < 2 2 2 @ @ @ @ 2 2 $ # 2 2 $ $ 2 2 $ ;.D + + + @ $ 2 2 2 2 $ 2 2 2 $ $ $ 2 2 2 2 2 2 2 2 2 2 2 2 2 2 2 2 2 2 e e e e e Z Z e e Z e e e e Z e e d d d d Z Z Z Z d d Z Z Z d d d d d S >.3.Z @ @ @ 2 Z F S Z S F F F F F F H F F F F F F F F F F F F J F J F J F J F J F J F J F F F F F F F J J J J J J J J J J H H H R H H J R F F J 1.1.J # $ d x F F F F F F F F F F F F F F F S S S S S F S F S F S F S F F F F F F F F F F F F F F F F F F F F F F F F F F F F F F F F F F d D Z D 1.>.$ $ $ $ d Z d d Z Z Z Z Z Z Z Z Z Z Z Z Z Z Z Z Z d d d d d d d d d d d d d d d d d d Z Z Z e e e 2 2 2 2 2 2 2 2 2 2 e 2 2 2 e 2 @ 2 e $ e >.J $ + % $ S F F D F H H H J J J H F D D D D D D D D D D F F F F D D S S S S S S Z S S S S S S S Z S Z Z r r r S S S r e r r r S e e e e 2 r < S ;..       + < < < < + + < @ , @ @ @ < @ < , ",
"  .   . . + . . + + + + + + + , , , , , , , , , , < 2 , + + + < 2 2 , , , , , , + + + + + + + + + + + + + + + + 2 + 2 S S +   + + + + # $ # 2 2 # $ # $ # # # # 2 2 2 2 2 2 2 2 2 2 2 2 2 2 2 2 Z e e 2 e e e 2 2 2 2 2 $ $ e 2 2 2 2 2 2 d Z Z 2 2 2 2 2 2 2 2 2 $ $ J 3.e . @ @ 2 Z D Z Z Z Z S S S S S S S S S S S S S S S S F F F F F F F F J F F F J J J H F F F F F F F F F F F F F F F F F F F F F J H S F D F 3.1.F # $ # $ F F F F F F F F F F F F F F F S F F F S F S F S F S F Z F S F D D F F D F F S S F F F F F F F F F F F F F F Z Z Z Z Z Z Z Z $ $ Z J 3.J Z @ $ $ 0 Z Z Z e e 2 2 2 2 2 2 2 2 2 2 2 2 2 2 2 2 2 2 2 2 2 2 2 2 Z 2 d Z Z Z d 2 2 2 2 2 2 2 2 2 2 2 2 2 2 2 2 $ 2 2 2 2 $ $ $ $ Z 2 $ Z >.>.Z + . # Z D F Z S D D D D D D D D D S S S S S S S S Z Z S S S S S S d d S S S S S d S S S S S S S S r r r r r r r r r r r r r r r r 2 < 2 r r r < + . . + @ < < @ @ @ @ @ @ @ @ @ @ @ @ < ",
"< < < < < < < < < < < < < < 2 2 < < < < < < < < , < 2 , + + , 2 2 2 2 2 , , , , 2 2 2 2 2 2 2 2 2 2 2 2 2 2 2 2 4 2 4 ;.S 2 + , 2 2 2 2 2 d 2 2 2 2 2 2 2 2 2 2 2 2 2 2 2 2 2 2 2 2 2 2 2 2 e 2 2 2 $ $ 2 2 2 2 2 2 2 2 2 2 e 2 d Z Z Z Z Z Z Z Z Z Z Z Z d Z Z Z 2 e >.1.S + $ $ e Z Z Z Z S S S S S S S S S S S S H H S S S S F F F F F F F F F F F F F F F F F F F F F F F F F F F F F F J H F J F D F J J S F H J 3.1.J $ d 2 Z F D F F F D D D D D D F F F D F F D D D D D F F F F D D D D Z Z Z e e Z S D F S F F F F F F F F F F F F F F Z Z Z Z Z Z F F Z Z F J 3.3.F $ x Z Z F F F F F Z Z Z Z Z Z Z Z Z Z Z Z Z Z Z Z e e e Z Z Z Z Z e 2 2 $ d Z d 2 S S Z Z Z Z Z d Z Z Z Z d 2 2 2 2 2 d d 2 Z 2 2 2 $ # 2 J J 2 + # e D J F D D J D D D D D D D S S S S S S S S S S S S S S S S S 2 2 2 d 2 d d d d d S S d d 2 2 2 r r r r r r r r r r r r r r r 2 < 2 r r r < + @ @ < < 2 2 < < @ @ @ @ @ @ @ @ @ @ + ",
". . . . + + . .     . + . + + + . .       . . . < < 2 2 , + , 2 2 2 2 2 2 2 < 2 + + + + + + + + + + + + + + + , , + , 4 2 +   + + + + + # # + + + + + + + + + + + + , + + + + + + + @ @ + + + @ $ 2 2 2 2 2 2 2 @ @ $ $ $ $ $ $ $ # # # $ 2 2 2 # # # # # # # # 2 $ $ D >.2 . @ $ 2 2 2 2 2 2 2 d d d d d d d d d d d d d d d d d d d d d d d d S S S S S S S F d d d d Z Z Z Z Z Z Z Z Z Z Z Z d d d d d S d 2 d d d J 3.F # $ $ $ $ e Z Z Z Z Z Z e e Z Z Z Z Z e Z Z e e e e Z Z Z Z Z Z Z Z 2 Z Z e 2 2 Z S d d d d d d d d Z $ 0 $ $ $ $ $ $ $ $ $ $ $ $ $ $ $ e F J F e @ # # # $ $ $ $ $ $ $ 2 2 2 2 2 2 # # $ $ $ $ $ $ + # $ $ $ $ $ $ Z 2 $ $ d d d 2 2 $ # # # # # # # # # # # + + + + + + + + + + + 2 # + 2 D S 2 + . + 2 2 2 2 2 2 Z Z Z Z Z Z Z Z d d d d S S S S d d Z Z d 2 2 d 2 2 2 2 2 2 2 d 2 2 2 2 2 2 2 2 2 2 2 2 2 2 2 2 2 2 2 2 2 2 2 2 < < < 4 r r < +     . + + + . + + + , + + + + + + + + ",
", , + + + + + + + + + + + + , < . . . . . . + +     + + + + + + + + + + + + + + + + + + + + + + + + + + + + + + + + , 2 2 + + + + + + + # # # # + + + + + + + + 2 2 < , , , < < 2 2 @ @ @ @ @ @ + + $ 2 $ $ @ $ $ $ 2 2 2 2 2 2 $ $ # 2 2 2 2 2 2 $ 2 2 2 2 $ 2 2 2 $ Z ;.e + 2 2 2 2 2 2 2 2 2 d d d d d d d d d d d d d d d d d d d d d d d d $ $ d d $ $ $ $ d d d d 2 d d d 2 2 2 d 2 2 2 2 2 d d 2 d S d 2 d d d F >.F 2 d d Z $ $ $ e Z Z Z Z e e Z Z Z Z e Z Z Z Z Z e e Z Z Z Z Z Z Z Z + 2 2 2 2 $ $ 2 S S d S S d S d Z Z Z Z Z Z Z Z Z Z Z Z Z Z Z Z $ $ Z F F D Z # $ $ $ $ $ $ e 2 $ 2 2 2 2 2 2 2 $ 2 $ $ $ $ $ $ $ $ $ $ $ 2 2 2 2 $ $ $ $ 2 $ $ 2 2 2 2 $ 2 2 $ # $ $ $ $ # # + # # # # # # # # + + + # 2 d $ + + + 2 2 $ $ $ $ # # # # @ @ @ $ + + + + + + + + + + + + + + + + 2 # + + + + 2 2 + + + + + + + + + + +         + + +         . . . . . + , + +   . + + < < , + + . . . . + + + + . . . ",
"                              .                                                                             + + + + + , , +   + + + + + + + + + + + + + + + + +   + + +   + + + + + + + + + + + . . + + + + + + + + + + + + + + + + + + + + + + + + + + + + + + @ + . @ e @   + $ @ + + + + @ @ + + + # # # + + # # # # # # # # + + + + + + + + . + # # # # + + # # # # # # # # # # # # # # # # # # # # # $ # # # # # # S d # # # # # # % # # # # # # # # # # # # # # # # # # # # # # # # # # # . + $ $ $ + # $ # # # # # # # # # # # # # # # # # # # # # # # # # # # $ Z Z # % # # # # # $ $ $ # # # # # # # # # # # # $ $ # # + + + + @ @ $ $ + + + + $ $ + + + + + + + + + + + + # + + + + + + + + + + + + + .     + # # +   . + + + + + + + . . . . . . . . + X X                           + + + + + + + + X X X X X X                                                         + + + .                           ",
"                          . . . . . . . . . . . + + + + + , , , , < < < < < , , + + + + + + + + + + + + , , , , + + + , , + + + 2 2 # # # # + + 2 2 2 2 2 2 # # , , , + , , + + < < @ @ @ @ @ 2 $ @ + + $ 2 2 e 2 2 2 $ 2 2 2 2 $ $ # $ 2 2 2 2 2 2 2 2 2 2 2 2 2 2 + $ S 2 + 2 e 2 2 2 2 2 2 2 $ $ $ $ 2 2 $ 2 2 2 2 2 2 2 2 2 2 2 2 2 2 2 2 2 2 2 $ 2 S Z S Z d d d d d d d d d d d d d d d d d d d d d d d $ d d 2 d H H d d S Z Z d d d Z Z Z Z Z Z Z Z Z Z Z Z Z Z Z Z d d d Z d d d d d d d 2 2 2 2 Z Z S d d d d d d d d d d d d Z Z d d d d d d d d Z Z d d d Z S S Z d Z Z d Z d d d d $ $ $ $ $ $ $ $ $ $ $ $ 2 2 $ $ $ $ $ 2 2 2 2 2 d 2 2 2 2 2 2 2 $ 2 $ $ 2 2 2 2 $ 2 2 2 2 2 # # # # # # $ $ # # 2 2 2 2 2 2 2 2 $ $ $ $ $ $ $ $ 2 2 2 2 2 2 2 2 2 2 2 2 2 2 2 2 2 2 2 2 2 2 2 2 2 2 # + + + # 2 2 2 2 2 2 2 2 # < < < < , , , , < < < < , , < < + , , , < < < < . + + + + + +   + + + , + + + + , + + ",
"r r r r r r r r r r r r r r r r r r r r r r S S 2 , , 2 2 4 2 2 4 r 4 r 4 4 4 4 S S S S ;.;.S S S S S S ;.;.;.;.S S ;.S ;.;.;.;.;.;.;.;.-.-.H H ;.;.;.;.;.;.;.;.;.;.;.;.;.;.;.;.;.;.;.;.>.>.Q Q D 2 + # 2 S J S ;.;.;.;.;.;.;.;.;.>.;.;.>.>.>.>.>.>.>.>.<.<.<.<.3.3.;.;.3.3.>.3.3.3.>.>.3.3.3.3.3.3.3.3.3.3.3.<.3.3.3.3.3.3.3.3.3.3.3.3.3.3.3.3.;.S 2 2 D ;.>.>.1.1.1.1.<.<.<.<.1.1.1.1.1.1.1.1.<.<.<.<.<.1.1.<.<.1.3.<.1.1.<.1.1.1.1.1.1.1.1.1.1.1.1.1.1.1.1.1.1.1.1.1.1.1.1.1.1.1.1.1.1.1.1.1.3.J d 2 Z H >.>.1.1.1.1.1.1.1.1.1.1.1.1.1.1.1.1.1.1.1.1.1.1.1.1.1.1.1.1.1.1.1.1.3.3.1.1.<.3.3.3.3.<.>.>.3.3.<.<.>.>.>.>.>.>.>.>.>.>.>.>.>.>.>.>.;.S d 2 2 S S ;.>.;.;.;.>.>.>.>.>.>.>.>.;.;.>.>.;.;.;.;.>.>.;.;.-.H H H H H H H >.;.;.;.;.;.>.>.H H H H J J H H ;.;.;.;.J J J J S S S S S S S S S S 2 2 2 2 d S S S S S S S S S S S S S S S S S S S S S S S S r r r r r 4 r r r r S S ;.S S S S 4 4 4 4 4 4 4 4 4 4 4 ",
"2 2 2 2 2 2 2 2 2 2 2 2 2 2 4 2 4 4 4 4 2 2 2 2 + + + + , 2 2 2 2 2 2 2 2 2 2 2 2 2 2 2 2 2 2 2 2 2 2 2 2 2 2 2 2 2 2 2 2 4 4 4 S S d Z 2 2 2 2 d Z d d d d 2 2 d d d d Z S S S 2 2 2 e e Z Z S J 2 + + 2 S J S S S S S S S S S S S S S S S S S S S S S S S S S J H d d J H S J H D S D H ;.J H H H H H H H H H H H H H H H H H J J J J J ;.;.;.;.S + + d ;.>.>.;.>.>.>.>.>.>.>.>.>.>.>.>.>.>.>.>.>.>.>.>.<.<.H <.3.;.H <.<.>.<.>.>.1.1.3.>.>.>.>.>.>.>.>.>.>.>.1.1.>.>.>.>.>.>.1.1.1.3.3.3.3.3.1.;.2 + 2 H 3.1.<.<.3.3.1.1.1.1.>.>.>.>.>.>.>.>.3.3.3.3.3.3.1.1.>.>.>.>.>.>.>.>.>.>.3.3.3.3.>.>.<.>.>.>.>.>.>.>.;.;.;.;.>.>.>.>.;.;.;.;.>.>.>.>.>.H 2 + + 2 J ;.;.;.;.;.;.;.>.>.;.;.;.;.;.;.;.-.;.;.;.;.;.;.;.;.;.;.;.;.H H H -.H S S S D H H J H H H H J J H H S S S S S S S S H H H H J J S S ;.S 2 + + # S H S S S S S S d d r r r r 4 r r r r r r r d d d d r r 4 4 2 4 r S 2 2 4 4 4 2 2 2 2 2 2 2 2 2 2 2 2 2 2 ",
"+ + + + , + + + + + + , , + + + + < , + < + , S 2     + + + + + + + + + + + + + + + + + + + + + + + + + + + + + + + , + + + + + # # # + + + $ $ # + + + 2 2 # # # # # # # # # # + 2 + $ $ + @ ;.D # + + + 2 d d d d d d 2 2 2 d d d d 2 2 2 2 2 2 2 2 2 2 d d d d d d d d d d d S S d S d d d d Z Z d d d d Z Z S d d d d S S S d S S S S d 2 ;.3.S + + 2 2 Z S H F F F F F F F H F F H F H H H H H H H H H H H H H H H H H H H H H H H H H H H H H H H H H H H H H H H H H H H H H H H H H R >.1.D 2 $ # 2 J ;.>.>.>.>.R R R R >.>.>.>.>.R >.>.>.>.>.>.>.>.R R R R R R R R R R R R R R R R R J H H J J J H J J H H H H H H H H H H H H H H H H 3.>.+ + + + ;.S H -.-.-.-.-.H S S S S S S H H H H H H -.-.-.H H S S H H H H H H S S S S S S D S S S S S S S S S S S S S S S S S S S S S S S S d -.H + + + + 2 2 2 2 2 2 2 2 2 2 2 2 2 2 2 2 2 2 2 2 2 2 2 2 2 2 < 2 2 2 2 2 < < < < < < , < < < < < < < < < < < < < < ",
"+ + , + + + + + + + + , + + + + + < , + < + , S 2     + + + + + + + + + + + + + + + + + , , + + + + + + + + + + + + , , + + + + 2 2 # # + + $ $ # + + + 2 2 # # # # # # # # # # + 2 + $ $ + @ ;.S # + + + 2 d 2 d d d d 2 2 2 2 d d d d 2 2 d d 2 d 2 2 d d d d d d d d d d d d S S S S d d d d d Z Z d d d d S d d d d d S S S d S S S D d d ;.3.S + + $ 2 Z S H H F F F F F F H F H H F H H H H H H H H H H H H H H H H H H H H H H H H H H H H H H H H H H H H H H H H H H H H H H H H H R >.1.D 2 $ # 2 J ;.>.>.>.>.R R >.>.>.>.>.>.R >.>.>.>.>.>.>.>.>.R R R H R H R H R H R :.R :.R H R R J H J J J J H J H H H H H H H H H H H H H H H H 3.>.+ + + + ;.S H -.-.-.-.H H S S S S S S S H H H S S S H H H S S S S S H H S H S S S S H S D S S S S S S S S S S S S S S S S S S S S S S S S d -.H + + + + 2 2 2 2 2 2 2 2 2 2 2 2 2 2 2 2 2 2 2 2 2 2 2 2 2 2 2 2 2 2 2 < < < < , < < , , < < < < < < < < < < < < < ",
"+ + , + + + + + + + + + + + + + + < , + < + < S 2     + + + , + + + + + + + + + , + + + + , + + + + + + + , + + + + + , + + + + 2 2 # # + + # 2 2 2 + + # # # # 2 # # # # # # # # $ + $ $ + $ >.S # + + + 2 d d d d 2 2 2 2 2 2 d d d d d d d d k k k k d d d d d d d d d d d d d d d d d d d d d d d d d d S S S d d d d S S S d S d d H d d >.<.S # + 1 2 d H H H H H H H H H H H H H H H H H H H H H H H H H H H H H H H H H H H H H H H H H H H H H H H H H H H H H H H H H H H H H H H H >.1.S 2 2 # 2 -.;.>.>.>.>.>.>.>.>.>.>.>.>.>.:.>.:.>.>.>.>.>.>.>.:.:.:.H :.H :.H :.:.:.:.:.H :.H H H H H H H H H H H H H H H H H H H H H H H H H H 3.;.+ + + , ;.S H -.-.-.-.-.S S H H S S S S S S H -.-.-.-.-.S S S S S S S S S S S S S S H S S S S S S S S S S S S S S S S S S S S S S S S S S S -.-.+ + + + d 2 2 2 2 2 2 2 2 2 2 2 2 2 2 2 1 1 2 2 2 2 2 2 2 2 2 2 2 2 2 2 2 , 2 2 2 , , , , , 2 2 2 2 , , 2 2 2 2 2 ",
"+ + + + + + + + + + + + + + + + + < , + < + , S 2     + + + , + + + + + + + + + , + + + + + + + + + + , , , + + + + + + , + + + 2 # # # + + # 2 $ 2 # # # # # # # # # # # # # # # $ + $ $ + $ >.S # + + + 2 d d d 2 2 2 2 2 2 2 d d d d d d d d k k k k d d d d d d d d d d d d d d d d d d d d d d d d d d S S S d d d d S S S d S S d H d d >.<.S # + 1 d d H H H H H H H H H H H H H H H H H H H H H H H H H H H H H H H H H H H H H H H H H H H H H H H H H H H H H H H H H H H H H H H H :.1.S 2 2 # 2 -.;.>.>.>.>.>.>.>.>.>.>.>.>.:.:.>.>.:.>.>.>.>.>.:.:.:.:.:.:.:.:.:.:.:.:.:.:.:.:.:.:.H H H H H H H H H H H H H H H H H H H H H H H H 3.>.+ + + , ;.S -.-.-.-.-.-.S S H S S S S S S S S S S S S S S S S S S S S S S S S S S H H S S S S S S S S S S S S S S S S S S S S S S S S S S S ;.-.+ + + + d 2 2 2 2 2 2 2 2 2 2 2 2 2 2 2 2 2 2 2 2 2 2 2 2 2 2 2 2 2 2 2 2 , 2 2 2 2 , , , , 2 2 , , , , 2 2 2 2 2 ",
"+ + + , + , + + + + , + + + + + + < + + < , < ;.2     + + + , + + + + + + + + + + + + + , , + + + , , , , , , + + + , , , , + + # # $ # # # # # $ $ $ # # # # # # # # 2 2 2 # # # $ + $ 2 + $ >.S # + # + 2 d 2 2 2 2 2 d 2 2 2 d d d d d d d d 2 2 2 d 2 d d d d d d d d d d d d d d d d d d d d d d d d d d d S d d d d S S S d H H d H d d >.<.S # # # d d H H H H H H H H H H H H H H H H H H H H H H H H H H H H H H H H H H H H H H H H H H H H H H H H H H H H H H H H H j H H H H H H :.1.S 2 2 + 2 H ;.>.>.>.>.>.>.>.>.>.:.:.:.:.:.:.:.:.:.:.:.:.:.:.:.:.:.:.:.:.:.:.:.:.:.:.:.:.:.:.:.H H H H H H H H H H H H H H H H H H H H H H H H 3.;.+ + + , ;.S ;.-.-.-.-.-.S S H H S S S S S S S S S S S S S S S S S S S S S S S H H H S S S S S S S S S S S S S S S S S S S S S S S S S S S S ;.-.+ + + + 2 2 2 2 2 2 2 2 2 2 2 2 2 2 2 2 2 2 2 2 2 2 2 2 2 2 2 2 2 2 2 2 2 , 2 2 , , 2 2 , , 2 2 2 2 , 2 2 1 2 2 2 ",
"+ + + , , , + + + + , + + + + + + < + + < , < S 2     + + + , + + + + + + + + + + + + + , , + + , , + + , , + + + + , , , , + + # # $ # # # # # $ $ # # # # # # # # # # # # # # # $ + $ 2 + $ >.S # + + + 2 2 2 2 2 2 2 d 2 2 2 2 d d d d d 4 4 2 2 2 d 2 d d d d d d d d d d d d d d d d d d d d d d d d d d d S d d d d S S S d H H d H d d >.<.S # # # d d H H H H H H H H H H H H H H H H H H H H H H H H H H H H H H H H H H H H H H H H H H H H H H H H H H H H H H H j j j j H H j H H :.1.S 2 2 + 2 -.;.>.>.>.>.>.>.>.:.>.:.:.:.:.:.:.:.:.:.:.:.:.:.:.:.:.:.:.:.:.:.:.H :.:.:.:.:.:.H H H H H H H H H H H H H H H H H H H H H H H H H S 3.;.+ + + , ;.S S -.-.-.-.-.S S H H S S S S S S -.S -.-.-.-.-.H S S S S S S H S S H H H S S S S S S S S S S S S S S S S S S S S S S S Z S S S d ;.-.+ + + X 2 2 2 2 2 2 2 2 2 2 2 2 2 2 2 2 2 2 2 2 2 2 2 2 2 2 2 2 2 2 2 2 1 , 2 2 , , 2 2 2 2 2 , 2 2 , , 1 1 1 2 2 ",
"+ + + + + + + + + + + + + + + + + < + + < + , S 2     + X + , + + + + + + + + + + + + + , + + + + + + + + + + + + + + + + + + + # # + + # + 2 2 # + # # # # + + # # # # # # # # # $ # $ $ + $ >.S # + + + 2 d 2 2 2 d d d d 2 2 2 2 g g g g 4 4 4 2 2 4 4 g g d d d d d d d d d d d d d d d d d Z Z d d d d d d S d d d d S S S d H H d H d d >.3.F # # k d d H H H H H H H H H H H H H H H H H H H H H H H H H H H H H H H H H H H H H H H H H H H H H H H H H H H H H H H j j j j H H j j H :.1.S 2 2 + 2 H ;.>.>.>.>.>.>.>.:.>.:.:.:.:.:.:.:.:.:.:.:.:.:.:.:.:.:.:.:.:.H H H :.:.:.:.:.:.H H H H H H H H H H H H H H H H H H H H H H H H H S 3.;.+ + , , ;.S S -.-.-.-.-.-.S -.-.-.-.S S S -.-.-.-.-.-.-.-.-.S S -.-.-.-.-.H S H S S S S S S S S S S S S S S S S S S S S S S S S d d S S S S ;.H + + + + 2 2 2 2 2 2 2 2 2 2 2 2 1 1 1 1 1 1 1 1 1 1 1 1 1 1 1 1 1 1 2 2 1 1 , , , , 2 2 2 2 , , 2 , , , 2 , 1 1 1 ",
"+ + + + + + + + + + + + + + + + + , , . , , , ;.4     +   + , . +     . + + + + + + + + , , + + + + + + + + + + + + + + + + + + # 2 # + + + 2 2 2 + + + # # + + # # # # # # # # # $ # # 2 + $ ;.H # + + + # d 2 d d d d d d 2 2 4 2 g g g 4 4 4 4 4 4 4 4 g g g d d d d d d d d d d d d d d d d d d S d d d d d S d d d d d S H d H H d H d d >.3.S # # k d d H H H H H H H H H H H H H H H H H H H H H H H H H H H H H H H H H H H H H H H H H H H H H H H H H H H H H H H j j j j H H j j H :.1.H 2 1 # d H ;.>.>.>.>.>.>.>.:.>.:.:.:.:.:.:.:.:.:.:.:.:.:.:.H :.:.:.:.:.:.:.:.:.:.:.:.:.:.:.:.H H :.:.:.:.:.:.H H H H H H H H H H H H H H H H 3.;.+ + + , -.S ;.-.-.-.-.-.-.S -.-.-.-.S S S -.-.-.-.-.-.-.-.-.S S -.-.-.-.-.H S S S S S S S S S S S S S S S S S S S S S S S S S d d d S S S d ;.;.+ + + X 2 2 2 2 2 2 2 2 2 2 2 2 2 1 2 1 1 1 2 1 2 1 2 1 2 1 1 2 1 1 2 1 1 1 , , , , 2 2 2 2 , , , , , , , , , , , ",
"+ . + . . . . . + , + , + , + , , , , , , 6 < r <   ,   . ,   . 6 6 . . . . . . . . 6 6 . . . . , , , , , , , , , , , , , , , , + + + + + + # + + + + + + + + + 2 2 2 2 2 2 2 2 # # + + 2 # 2 ;.-.2 # 2 1 2 d 2 d d d d d d d d g g g g g g g g g g g g g g g d d d d d d d d d d d d d d d d d j j d j j j j j d j d j d j d d d S d d H d H 3.3.S # # d d S H H H H H H H H H H H H H H j j j H j H H H H H H H H H H H H H H H H H H H H H H j j j j H H j j H H j j j H H H H j H H H j H >.<.-.k # # d H >.:.:.:.:.:.:.:.:.:.:.:.:.:.:.>.:.:.:.>.>.:.>.:.H -.-.H H -.-.-.-.H H H H H H H H :.:.:.:.-.-.-.-.-.-.:.:.-.-.-.-.H H H H H H H H >.>.2 2 2 2 H S -.-.-.-.-.-.g g g g -.-.[ g g g S H S S H H H H H H H H H H H H S S S H H H S S S S H H S S S S S S S S S S S S S S S S S d S d ;.;.+   +   < 2 < 2 2 2 2 2 2 2 2 2 2 2 2 2 2 2 2 2 2 2 2 2 2 2 2 2 2 2 2 2 2 2 2 2 2 < 2 2 2 2 , , , , , < < < , , , ",
". . . . . . . . , , , , + + , , , , , , , 6 5 4 5   6     ,   . 6 6 6 6 . 6 6 6 6 6 6 6 . . . . , , , , , , , , + + + + + + + + + + + + + + # # + + + + 2 2 + + # # # # # # # # # 2 + + 2 + 2 >.-.# + # 2 2 d k k d d d d d d d g g 4 4 4 4 4 4 g g g g g g 4 g d d d d d d d d d d d d d d d d d d d d d d d j d d d d d d d d d S d d S d S >.>.S # # 2 d S S H H H H H H H H H H H H H j j d j j S S S S S S H H H H S S S S H H H H H H H H H H H H H H H H j j j j H H H H H H H H H H H >.<.H d # # d H :.:.:.:.:.:.:.:.:.:.:.:.:.:.:.>.>.:.:.>.>.>.:.:.H -.H H H -.-.-.-.H H H H H H H H -.:.:.:.-.:.-.-.:.:.:.:.-.-.-.-.H H H H H H H H 3.>.2 $ $ $ J H -.-.-.-.-.-.-.-.-.-.-.-.-.[ g g S H S S H H H H H H H H H H H H S S S S H H S S S S H H S S S S S S S H S S S S S S S S S S d d ;.;.+   .   < 2 < < < < < < < < 2 2 2 2 2 2 2 2 2 2 2 2 2 2 2 2 < < < , < < < < < < < , < < < < , , , , , , , , , , , ",
"6 6 + + , , , , , , , , , , , , , 6 , , , 6 , 4 5   ,     ,   , , , . , . . , , , , 6 , . 6 , , + + + + + + + + + + + + + + + + 2 2 2 2 , 2 2 2 # + + 2 2 2 2 2 + + + + + + + + + 2 + + 2 + 2 ;.-.2 + 2 + 2 d 2 2 2 k 2 2 2 2 2 4 4 4 4 4 4 2 4 4 4 g g g g g g d d d d d d d d d d d d d d d d d d d d d d d d d d d d d d d d d S d d S d d >.>.S # # 2 d d S H H H H H H H H H H H H H H d d S S d S S H H H H H H H H H S S H H H H H H H H H H H H H H H H H H H H H H H H H H H H H H H >.<.-.d # 1 d H -.:.-.-.-.;.;.;.-.-.-.:.:.-.;.;.;.>.>.>.>.>.:.-.-.-.-.H H -.-.-.-.H H -.-.H H H H H H -.-.H H -.-.H H H H H H H H H -.H H H H H H 3.>.# # # # -.-.-.-.-.-.-.-.-.-.-.-.-.;.-.-.S g S S S S S S S S S S S S S S S S S S S S S S S S S S S S S S S S S S d S S S S S S S S S S S S d ;.;.+   +   < 2 < < < 2 < < < < 2 2 2 2 2 2 2 2 2 2 2 2 2 2 2 2 < < < < < < < < < < < < < < < < , , , , , , , , , , , ",
"6 6 + + , , , , , , , , , , , , 6 . , , , , , r 4   6     ,   , , , . . . . , , , , , . . . 6 , + + + + + + + + , , , , , , , , 2 2 2 2 , 2 2 2 # + 2 2 2 2 2 2 2 , 2 , 2 , , , 2 , + , 2 , 2 ;.-.2 + 2 + 2 d 2 k d d d d 4 d 4 4 4 g 4 4 4 4 4 4 4 g g g g g g d d d d d d d d d d d d d d d d d d d d d d d d d d d d d d d d d S d d S d d >.3.S # # 2 d d H H H H H H H H H H H H H H H j j S S S S S H H H H H H S H S S H H H H H H H H H H H H H H H H H H H H H H H H H H H H H H H H >.1.:.k # 1 j H :.>.>.:.>.>.>.>.>.>.>.>.>.>.>.>.>.>.>.>.>.>.:.-.-.;.;.;.;.;.;.-.-.-.-.-.-.-.-.-.-.H H H -.H H -.-.H H H H H H H H -.-.-.-.;.;.;.;.3.>.# + + # ;.;.-.-.-.-.-.-.-.-.-.-.-.-.-.-.-.-.S S S S S H S S S S S S S S S S S S S S S S S S S S S S S S S S S S d d S S S S S S S S S S d d ;.;.+ + , + < 2 2 < 2 < < < < < 2 2 2 2 2 2 2 2 2 2 2 2 2 2 2 2 < < < < < < < < < < < < < < < < , , , , , , , , , , , ",
"6 6 , , , , . 6 , , , , + + + + . . , , , + < r 4 . ,     < . , , + , , , , , , + + + + , , , , + + + + + + + + , , , , , , , , 2 2 2 2 , , 2 2 # # + 2 2 2 2 2 2 , , , , , , , 2 , , , 4 , , ;.;.1 + , + , d 4 4 4 d 4 d 4 d d 2 2 2 2 2 2 2 2 2 2 2 2 2 2 d d d d d d d d d k d d d d d d d d d d d d d d d d d d d d d d d d k S d d S d d >.3.H 2 # # 2 d H S S S S H S S H S S S d S d d d S d d d d S H H H H H H S S S S H H H H S S S S S S S S S S S S H H H H H H H H H H H H H H H >.1.-.1 + # d H -.-.-.-.-.;.-.-.-.-.-.-.-.-.-.-.-.-.-.-.-.-.H H H H -.-.H H H H H H -.-.-.H H H H H H H H H H H H H H H H H H H H H S S H H H H H <.>.# + + # H H S S ;.;.H H -.-.S ;.;.;.-.S S S S S S S S S S S S S S S S S S S S S S S S S S S d d S S S S d d d d d g d g d g S S S S S S d 4 S ;., + < + < 2 2 2 2 2 < < 2 2 2 2 2 2 2 2 2 2 2 2 2 2 2 2 2 2 < < < , < < < < < < < , < < < < , , , , , , , , , , , ",
". . . . . . . . . . . . . . . . , . . , + . , 4 < . ,   . < . , . . . . . . . . . . . . . . . + , , , , , , , , , , , , , , , , # # # # + + + + + + + + # # 2 , 2 , , , , , , , , , , , 2 + , ;.-.2 , 2 + , 2 2 2 2 2 2 4 4 4 4 2 2 2 2 2 2 2 2 2 2 2 2 2 2 2 2 k k k k d d d 2 k k k k k k k k d k 2 2 2 2 2 k 2 2 2 2 k k k k 2 d d d d 2 2 -.>.S # # # 1 d S d d d d d d d d d d d d d d k k d d k k k d d d d d d d d d d d d d d d d d d d d d d k d d d d d d d d d d d d d d d j d d j H <.H 1 + # 2 H H H S H S H S H S S S S S S S S S S S S S H S d d S S S S d S d d S S S S S S S S d d d d d d d d d d d d d d d d d d d d d d d d -.-.# # # + S d d 4 d d d d d d d d d d d d d 2 d d d d d d d d d d d d d d d d d d d d 2 2 2 2 k k d d d d k 4 4 4 4 2 4 2 2 2 4 4 4 4 4 2 2 2 r ;.+ + 2 + < < , < < < < < < < , , , , 2 2 2 2 , , , , 2 2 < 2 , , , , , , , , , , , , , , , , , , , , , , , , , , , ",
"    . .                     . . + . + +     + 2 <   +     <   . .   . . X X X X         + + + + + + + + + + + + + + + + + + + + + + + + + + , , X X X X + + , , , , , , , , , , , , , , ,     4 4 , , , + + , , , , , , , , , , 2 2 2 2 2 2 2 2 + + # # # # # 2 # 1 1 1 1 # 1 1 1 1 1 1 1 1 1 1 1 2 2 2 2 2 2 2 2 2 2 2 2 2 2 1 # 1 1 1 2 # # d H k # 1 1 # # 1 1 1 1 1 1 1 1 1 1 1 1 1 2 2 2 2 1 1 1 1 1 1 1 1 1 1 1 1 1 1 1 1 1 1 1 1 1 1 1 1 1 1 1 1 1 1 1 1 1 1 1 1 1 1 1 1 1 1 1 1 1 1 2 d S 2 2 + # 2 2 2 2 2 2 2 2 2 2 2 1 1 1 1 2 2 1 1 1 1 1 1 2 1 1 1 2 2 2 2 2 2 2 2 k k k k k k k k 2 2 2 2 2 2 2 2 2 2 2 2 2 2 2 2 2 2 2 2 2 2 2 2 d d + 2 2 X 2 + 2 2 2 2 2 2 2 2 2 2 2 2 2 2 # , 2 2 2 2 , , 2 , 2 2 1 1 1 1 1 1 , , , , , , , , 2 1 1 1 2 2 2 2 , , , , , , , , , , , , , , , + 2 S + + 2 X , + , , , , , , , , , , , , , , , , , , , , , , , , + + + + + + + + + + + + + + + + , , , , + + + , . . + ",
"                                +             , ,   .     ,                                     + + + + + + + + X X + + + + + + X X X X X X + + X X X X + + + + + , , , , , , , , , X , ,     4 4 X + ,     , + * , + + + , , + + + + + + + + + + + + + + + + + X X X X # # X # # , , , , # # , # 2 2 2 + + + + 2 + + + + # 2 2 X , # # 1 X X g k 1 # 1 1 # X X + + + + + + + + , , , , + + + + X X X X # # # # # # # # # # # + , , , , , , , , , , , , , , , , # # # # # # # # # X X # # + # 2 2 2 2 2 + + + + + + + + + + + + , , , , , , , , , , , , , , + + # # # # # # # # # # # # # # # 2 # + + + + # + + # # + + + + + , X X X X X X X X , 2 X 2 , X , o + + + + + + + + + + + + + + + X X X X X X X X X X X + + + + + + X X X X X X X X X X + + + + X X X                               , 4     ,   + X + + + + + + + + + + + + + + + + + + + + + + + +                                                       ",
"6 6 6 6 6 6 6 6 6 6 6 6 6 6 6 , + + + + + + + + + + + + + + , , , * * X X * * * X X X X X X X . + , , , , , , 2 2 + , 2 2 + + 2 , 1 1 1 , , 2 1 1 1 1 1 1 1 1 1 4 4 5 5 4 4 4 4 1 1 1 1 1 1 5 5 , , , , , , , , , , , , , , , , , , 2 2 2 2 2 2 2 2 2 2 2 2 2 2 d , , g g , X 2 , 1 g g g 2 2 g 2 2 2 2 4 4 4 4 4 4 4 2 2 4 4 4 2 k k k 1 1 k k k k k k k k k 1 1 4 4 4 4 4 4 4 4 4 4 4 4 4 4 4 k k k g g k k k 1 1 X g g X , + , 4 g g 1 1 1 1 4 4 4 4 2 1 1 1 k k k k k k k k k 1 1 1 1 k k 2 2 2 2 2 2 2 2 2 2 2 2 2 2 2 2 2 1 1 1 1 1 1 1 1 1 1 4 4 4 4 2 2 k k # 2 S d # 1 2 k d d d 2 2 2 2 2 2 2 2 2 2 2 2 2 2 2 2 2 2 2 2 2 2 2 2 2 2 4 1 1 1 1 1 1 1 2 2 2 2 2 2 2 2 2 2 2 2 2 2 2 2 2 1 1 1 1 1 1 1 1 1 1 4 , 4 g X 1 X , 1 4 4 1 1 , 1 1 1 1 , , , , , , , , , , , , , , , , , , , , 1 2 1 , 2 2 2 2 + + + , , , , , , , , , , , , , 2 2 2 2 , , , , , +   + , < , .   + , < , , + + , , , , , , , , , , , ",
"4 4 4 4 4 4 4 4 4 4 4 4 4 4 4 4 4 4 4 4 4 4 4 4 4 4 4 4 4 4 4 4 4 4 4 4 4 4 4 4 4 4 4 4 4 4 4 4 4 4 S d 4 4 d S ;.S S ;.S , , 1 2 g g [ g g -.-.g S S -.[ [ g g -.-.-.-.-.-.-.-.-.-.-.-.-.-.-.-.;.;.<.<.;.;.;.;.;.;.;.;.;.;.;.;.<.<.<.<.<.<.<.<.<.<.<.<.<.<.<.<.<.-.-.<.>.g , 1 d g -.-.-.-.-.-.<.<.<.<.<.<.<.<.<.<.<.<.<.<.<.<.<.<.<.<.<.<.<.<.<.<.<.<.<.<.<.<.<.<.<.<.<.<.<.<.<.<.<.<.<.<.<.<.<.<.<.<.<.<.<.<.<.<.>.1.<.H -.g g -.>.;.-.<.<.<.<.<.<.<.3.<.3.3.<.<.<.<.<.<.<.<.<.<.<.<.<.<.<.<.3.3.3.3.3.3.3.3.3.3.3.3.3.3.3.<.<.<.<.<.<.<.<.<.<.<.<.<.<.<.<.<.<.<.>.>.1.>.d S d d H -.;.;.;.>.<.<.<.<.<.<.<.;.<.<.<.<.<.<.<.<.<.<.<.<.<.<.<.<.<.<.<.<.<.<.<.<.;.<.<.<.<.<.<.<.<.<.<.<.<.<.;.;.;.;.;.;.;.;.;.;.-.-.-.g -.-., 4 1 4 g -.-.-.-.-.-.-.-.-.[ [ [ [ -.-.-.-.-.-.-.-.-.-.-.-.-.-.{ -.-.-.-.-.S S S S S S S S S S S S S S S S S S S S d S S S d 4 4 4 -.4 4 4 r r 2 , , < 4 4 4 4 4 4 4 4 4 4 4 4 4 4 4 4 4 ",
"5 5 5 5 5 5 5 5 5 4 4 4 4 4 4 4 4 4 4 4 4 4 4 4 4 4 4 4 4 4 4 4 g g g g 4 4 g g g g g g g g g g 4 4 d 4 4 4 4 4 S S S ;.S , + + 1 4 g g g g g -.g g g g g g g g -.-.[ -.-.-.-.-.-.-.-.-.-.-.-.-.g g { { g g g g g g g g { { g g g g d g g g g g S S g g g g g g ;.-.-.<.<.4 , , 4 g g -.-.-.-.-.d d d d d S S S d d d d S S S S g [ [ [ j j j j [ [ [ [ [ [ [ [ -.-.-.-.-.-.-.-.-.-.-.-.-.-.-.-.H H -.-.-.-.H -.j -.H <.<.g 1 X 1 d -.-.-.>.<.<.-.-.-.-.-.-.-.-.-.:.:.:.:.:.:.:.-.-.-.-.-.:.:.-.-.-.-.-.-.-.-.-.-.-.-.-.-.-.-.-.-.-.-.-.-.-.-.-.H -.-.-.-.-.-.H ;.-.H H >.S + + 2 d H -.;.>.>.>.H -.-.-.-.-.H S H S H S H S H H j j j j j j j [ j j g g g g j g g g g g g g g g g g g g g d d d g g g g g g g g -.-.-.g -.-.* 1 , 4 g -.-.-.-.-.g g g g g g g g g g g g 4 4 4 4 d g g d 4 4 4 4 S g S g g g g g d d d d d d g d 4 4 4 4 4 4 4 4 4 4 4 4 4 4 4 4 r 4 2 4 S S 2 , + , 2 4 4 4 4 4 4 2 2 2 2 2 2 2 2 2 2 ",
"      6 6 6     6 6 6 , , , , , , , , , , , , , , , , , , , 1 1 , , , , , , , , , , , 1 , , , , , 2 2 2 , + , , , + 2 S 4 +   X , 1 4 g 4 1 1 1 1 1 4 4 4 4 1 1 4 4 1 4 4 4 4 4 g 4 g g 4 4 4 4 4 4 4 4 4 4 4 4 4 4 4 4 4 4 4 4 1 1 1 1 2 1 2 2 d g d g d g d g g 2 g >.-.1 X X X , 1 1 1 1 1 4 1 2 2 2 2 2 2 2 2 2 2 2 2 2 d d g k k k k k k k 1 k 1 1 1 1 1 1 k k k k k k k k k k k k k k k k k k g g g g k k k g g <.<.g k X X 1 g g k g g g g g g g g g g g j j j j j j j j j j j j j j j j d d d d d d d d d d d d d d d d g g g g d d d d g g g g g g d d g H d H >.H # + # 2 d S H S S H S H H H H j g g g g g g d g d g g g g j g g g g g g g g g g g g g g g g d g d g 4 4 4 4 2 4 2 4 4 4 4 4 4 4 4 4 4 5 g 4 -.-.X , , , 1 4 1 1 1 1 1 1 1 1 1 , , , , , , , , , , , , , , , , , , , , , 2 2 2 , , , 2 2 2 2 2 2 2 , , , , , 2 2 2 2 , , , 2 , , , , + + + < 4 4 ,     + , , + + + + X X + + + X X X X X X ",
"6 6 6 6 6 6 6 6 6 6 6 * * * , , 1 1 1 1 1 1 1 1 , , , , , , 1 1 , , , , , , , , , * * * * * * , , 2 2 2 , + , , + + 2 ;.S , X + , 1 4 k 4 1 1 1 1 4 4 4 1 1 1 1 1 k k 4 k 4 k g k k k k k k k k g g g g g g g g g g g g g g g g g g g g g g g g g g g g g g g g g 1 g ,.,.g * , - , 1 1 1 1 1 1 4 2 2 2 d d d d 2 d d d d d S g g k k k k k k k k k k k k k k k k k k k k k k k k k k k k k k k k k g g g g k k k g k <.<.j g 1 1 g j j g g j g j j j j j j j j j j j j j j j j j j j j j j j H H H H H H H H H H H H H H H H j j j j j j j j j j j j j j j j j H H H >.1.>.k 1 2 k d S S d d d -.-.-.-.-.-.-.[ H j H [ H j H j j j j j j j j j j j j j j j j j g g g g g g g g [ [ [ [ [ [ [ [ 4 4 4 4 4 4 4 4 5 1 g 4 -.,.* 1 * , 5 5 1 1 1 1 4 5 5 5 5 4 5 1 k k k 4 4 1 1 1 1 1 1 1 1 1 1 1 + + + + + + + + 1 1 1 1 1 1 1 1 2 2 2 , , , , 2 , , , , 2 2 2 2 + + + < 4 4 ,   . + , , , + + + + + + + + + + + + + + ",
", , , , , , , , * * * * , , , , 1 1 1 1 1 1 1 1 , , , , 1 1 1 1 1 1 1 1 1 1 5 5 1 1 1 1 1 , , , 1 2 2 2 , , , 2 , , 4 ;.;., + + * 1 4 k k 4 k k 4 4 4 4 4 4 4 k k k k k k k g g g g j g g g g g g 4 g g k k k k k k k k g g g g 4 4 4 4 g g g g 4 4 4 4 4 4 4 4 -.g [ <.<.g * * 1 4 k k 4 1 1 1 , 2 2 2 2 2 2 2 2 2 2 2 2 2 2 2 1 k 1 1 1 1 1 1 1 1 1 1 1 1 1 1 k k k k k k k k k k k k k k k k 1 1 1 1 1 1 1 1 1 k - -.,.k 1 X 1 g j j j [ -.-.j j j j j j j j j j j j j j j j j j j j j j j j j H H H H H H H d d d d d d d d g g g g g g g g g g g g g g g d d S d H 3.-.# X 1 k d S S S S H g g g g g g g k g k g k g k g k h h h l l l h h l k k k k k k k 4 4 4 4 4 4 4 4 4 4 4 4 4 4 4 4 4 4 4 4 4 4 4 4 4 4 { g ;.,., , * * 1 5 5 4 4 4 4 5 5 5 5 5 4 1 1 1 1 1 1 1 1 1 1 1 , 1 1 1 1 1 , 2 , 2 2 2 2 2 2 2 2 2 1 2 1 1 1 1 1 1 1 1 1 1 1 1 1 1 1 1 1 1 , , , 2 4 4 ,     . , , , , , 2 , , , , 2 2 2 2 , , , ",
"* * * * * * * , 6 6 6 * 6 , * , * * * * * * * * * * * * * * * * 1 1 1 1 1 1 1 1 , , , , , , , , , , 2 2 , , , 2 2 , 4 ;.S ,   X , , 1 4 4 4 k k 4 4 4 4 4 4 4 4 k k k k k k k k j g j g j g j g g g g g g g g g g g g g g g g g g f g g g g g ' g ' g ' g g g g -.g g ,.-.1 X X 1 1 4 4 4 1 1 4 2 k 2 k k k d d d d k k k d d g k k k k k k k k g g g g g g g g g j j j j j j j j j j j j j j g g g g g g g g g g g k <.<.g k X X k j j j j [ j :.:.:.:.:.:.:.:.:.:.:.:.:.:.:.:.:.:.:.:.:.:.:.-.-.H :.-.H H H H H H H H H H H -.H [ j j [ [ [ -.j j j [ [ j j j -.H S -.<.>.1 # # 1 d d d d d d j j j j j j j j j j j j j j j j j j j j j j j j j j j j j j j j g g g ' g ' g ' 4 4 4 4 4 4 4 4 g g g g g g 4 g 4 4 g 4 -.;.X * X * , 1 1 1 4 4 1 1 , 1 1 1 , , - - - - - - X X - - X - - - - * 1 1 , , 2 , 1 1 , , , , , , , , 1 1 1 , , , 1 1 1 1 , 1 1 1 , , < , , 2 4 4 ,       + + + + , , , , , , , , , , , , , ",
"6 6 6 6 6 6 6 6 * * * , , , , , * * * * * * * * * * * * * * , * * * , , , , , , , , , , , , , , , , 2 2 , , 2 2 , , 2 S S , X + 1 4 4 4 4 1 4 4 k 4 4 4 4 4 4 k k k k k k k g g g g g g g g g g k k k k k k k k k k k k k k k k f f g f g g g g g f g f g f g g -.g g -.-.1 X X * , 1 4 1 4 1 2 1 1 1 1 k 1 2 2 k k k k 1 k k g k 1 k 1 k 1 k 1 k 1 k 1 k 1 k k k k k k k k k k k k k k k k k k k k k k k k k k k k 1 <.<.j k X - k j j j j [ [ j j j j j j j j j j j j j j j j j j j j j j j j j j j j j j j j j j j j j j j j j j j j j j j j j j j j j j j j j d k H <.-.1 X k k d d j d d g j h j j j h k k h f f f f f f f j j j j j j j j j j j j j j j j g f g f g f g f k k k k k k f f 4 4 4 4 4 4 4 4 k 3 4 4 -.,.X * * 1 1 1 1 1 1 1 4 4 4 4 4 4 5 1 4 4 k 1 k 1 1 1 1 1 1 1 1 1 1 1 1 1 , 2 2 , 2 1 1 1 1 1 1 1 1 1 1 1 1 1 1 1 1 1 1 1 1 1 1 1 , , , , , , 4 4 2 ,   + , ,   X + , , , , , * , , , X X * ",
"6 6 * * , , , , * * * * , , , * * * * * , * , , , , , 1 1 * , * , , , , , , 1 1 1 1 1 1 1 1 1 1 1 , 2 1 1 1 2 , 2 1 2 -.-., o X * 1 4 g 4 4 4 4 4 4 4 4 4 1 1 k g g g d d d k g g k k k k g g g g g g g g g g g g g g g g g g g g k g k g g g k g g g g g k k k g 2 g <.<.g + + 2 1 1 1 1 1 2 g 2 2 1 1 4 1 k k k k k k k k d k k k k k k k k k k k k k k k k k k k k k k k k f k k k k k k k k k k k k k k k g 1 k g -.<.H , 1 k k j j j j j [ H [ H [ H [ H [ H [ [ [ H [ H [ H [ H [ H [ H H [ [ [ [ [ H H j j j j j j j j j j j j j j j j j j j j j j j j j d H j -.<.:.# 1 k k k g j j j j j j j j j j j j j g g g ' ' ' ' g ' g g g g f f h h h j j j j j g g g k g g g g g k g k g k g k g g g g g k k f g 1 j g [ -.1 - X , 1 4 1 1 1 1 4 4 4 1 1 1 1 1 1 1 1 1 1 1 1 1 1 1 1 1 1 1 1 1 1 1 1 1 1 1 1 1 1 1 1 1 1 1 1 1 , 1 1 1 1 , - * - , , , , , - * , 1 , 2 -.g , X   X X , , , , * * , , , , , * * * , , ",
"6 6 , * , , , , * * * * , , , , * * * * , , , , , , , 1 1 , , * , , , , , , 1 1 1 1 1 1 1 1 1 1 1 , , 1 1 1 1 , 4 , 1 -.-., o X * 1 4 g 4 4 4 4 4 1 4 4 4 4 1 k g g d d d d k g g k k k k g g g g g g g g g g g g g g g g g g g j j j j j j j j j j j j j g g k g 2 g <.<.g + + 2 1 k 1 1 1 1 g 4 4 4 4 4 4 k k k k k k k k k k k k k k g g k k k k g j k h k k k k k k k k f f f k k k k k k k f k k k k k k g 1 k g -.<.H , 1 k k h j j j j [ [ [ [ [ [ [ [ [ [ [ [ [ H [ [ [ [ [ H H [ [ [ [ [ [ [ [ [ [ [ j j j j j j j j j j j j j j j j j j j j j j j j j g j j -.<.:.- k k k k j j j j j j j j j j j j j g g g g ' g 4 ' f ' ' g g f f f k k j j j j j j j g g g g g g g g g g g g g g k g g g g f k f f j k { j [ ,.1 - X , 1 1 1 1 1 1 4 4 4 1 1 1 1 1 1 1 1 1 1 1 1 1 1 1 1 1 1 1 1 1 1 1 1 1 4 1 1 1 1 1 1 1 1 1 1 1 , 1 1 1 1 , - * - - , , , , - - , 1 * 1 { g * X   X * * , , * * * * * * * * * * * * * ",
"6 6 * * * * , * , * , , , , , , , , , , * * * * , , , 1 1 , , * , , , , , , 1 1 1 1 1 1 1 1 1 1 1 , , 1 1 1 1 , 4 , 1 -.-., o X X , 1 g 4 4 4 k 4 4 4 4 4 4 1 k g g g g d g g g g k k k k g g g g g g g g g g g g g g g g g g g j j j j j j j j j j j j j j g k j 4 g <.<.g + , 1 1 k k 1 1 g g k k k 4 k k k k k k k k k k k k k k k k k g k k k k k g g k k k k k k k k k k k k k k k k k k k f k f k k k k k 1 k g -.<.-., 1 s k h j j j j [ [ [ [ [ [ [ [ [ [ [ H H H [ [ [ [ [ [ [ [ [ H H [ [ [ [ [ [ [ j j j j j j j j j j j j j j j j j j j j j j j j j k j g [ <.:.1 1 1 k k j j j j j j j j j j j j j g g g g g g g g f g g g ' f f f k k j j j j j g j g g g g g g g g g g g g g g k g j h f f f f f j k { j [ ,.: - X , 1 4 4 1 1 1 4 4 4 1 1 1 1 1 1 1 1 1 1 1 1 1 1 1 1 1 1 1 1 1 1 1 4 4 4 1 1 1 1 1 1 1 1 1 1 1 , 1 1 1 1 , - * - - - , , , , - , 1 * 1 { g * X   X * * , , * * , * * * * * * * * * * ",
"6 6 * * * 6 * * , , , , , , , , , , , , * * * * , , 1 1 1 , , * , , , , , , 1 1 1 1 1 1 1 1 1 1 1 , , 1 1 1 1 , 4 , 1 -.-., o X * , 4 g 4 4 4 k 4 4 4 4 4 4 4 k g g g g d d g g g k k k k g g g g g g g g g g g g g g g g g g g j j j j j j j j j j j j j j g k j g g <.<.g + , 1 1 k k 1 1 g g k k 4 4 4 k k k k k k k k k k k g k k k k k k k k k k g g k k k k k k k k k k k k k k k k k k k f k k k k k k k 1 k g -.<.-., 1 s k h j j j j [ [ [ [ [ [ [ [ [ [ [ [ H H [ [ [ [ [ [ [ [ H H H H [ [ [ [ [ [ j j j j j j j j j j j j j j j j j j j j j j j j j k j g [ <.:.1 1 1 k k j j j j g j j j j j j j j g g g g ' ' g g f ' g g ' f f f k k h j j j j g g g g g g g g g g g g g g g g k g h h f f f f f j k { j [ ,.: - X , 1 1 4 1 1 4 4 4 4 1 1 1 1 1 1 1 1 1 1 1 1 1 1 1 1 1 1 1 1 1 1 1 1 4 4 1 1 1 1 1 1 1 1 1 1 1 , 1 1 1 1 , - * - - - , , , , - , 1 * 1 { g ,     X * * , , * * * * * * * * * * * * * ",
"6 6 * * * * * * , , , , , , , , , , * * , , , * * , , 1 1 , , , , , , , , , 1 1 1 1 1 1 1 1 1 1 1 , , 1 1 1 1 , 4 , 1 -.[ , o X X 1 4 g 4 4 4 4 4 4 4 4 4 4 4 4 k k k g k k k k k k k k k k g g g k g g k k k k g g g g g g g g k k g g g g k k g g g g j g k k g 1 g <.,.g * - 1 1 k k 1 1 4 k 4 4 4 4 4 4 k k k k k k k k k k g g k k k k k k k k k k g k k k k k k k k k k k k k k k k k k k f k k k k k k k k k g -.<.H , 1 s k j j j j j [ j [ [ [ [ j [ j [ [ j j j j j [ [ [ j j [ [ [ [ [ [ [ [ [ [ j j j j j j j j j j j j j j j j j j j j j j j j j j k [ g [ <.-.- 1 - 1 k g g g g g j j j j j j j j g g g { { { g g f ' ' ' ' f g k g g g g g g j j k k g g g g k k g g g f g g g g g g g f f k f k g 1 { g [ -.: - X - 1 4 4 3 3 4 3 3 3 3 4 3 1 1 1 1 1 1 1 1 1 1 1 1 1 1 1 1 1 1 1 4 4 4 1 1 1 1 1 1 1 1 1 1 1 1 , , 1 , 1 , , , , , , , - - , , , 1 * 1 [ g *   X X * , , , * * , * * * * * * * * * * ",
"6 6 * * * * * * , , , , , , , , , , * * , , , , * , , 1 1 1 , , , - , , , , 1 1 1 1 1 1 1 1 1 1 1 , , 1 1 1 1 , 4 , 1 -.[ , o X * 1 4 g 4 1 4 4 4 4 4 4 4 4 4 4 k k g g k k k k g k k k k k g g k k k g k k k k g k g g g g g g g g g g g g k k k g j j g g k k g 1 g <.,.g * - 1 1 k k 1 1 4 k 4 4 4 4 4 4 k k k k k k k k k k k g k k g k k k k k k g g g k k k k k k k k k k k k k k k k k k f k k k k k k k 1 k g -.<.H , 1 k k h j j j j [ j [ [ [ j j j j [ [ j j j j j [ [ [ j j [ [ [ [ [ [ [ [ [ [ j j j j j j j j j j j j j j j j j j j j j j j j j j k [ g [ <.-.- 1 - 1 k g g g g g j j j j j j j j g g g g { { g g f ' ' ' ' f g k g g g g g g g g k k g g g g k k g g g k g g g g g g g f f k k k g 1 { g [ -.: - X - 1 4 4 3 1 4 3 4 4 3 4 3 1 1 1 1 1 1 1 1 1 1 1 1 1 1 1 1 1 1 1 4 4 4 1 1 1 1 1 1 1 1 1 1 1 1 , 1 1 , 1 , , * , , , , - , , , , 1 * 1 [ g * X X X * , , , * * , * * * * * * * * * * ",
"6 6 * * 6 6 , , * * * * , , , , , * * * , , , , * , , 1 1 , , , , - - - , , 1 1 1 1 1 1 1 1 1 1 1 , , 1 1 1 1 , 1 , 1 -.[ , o X * 1 4 g 4 4 4 4 1 1 4 4 4 4 4 4 k k k k k k k k g k k k k k g g k k g g g g g g k k g g g g k k k k k g g g g k k g j j g g k k g 1 g <.<.g * - 1 1 4 k 1 1 4 k k k 4 4 4 4 k k k k k k k k k k k k k k g k k k k k k g k k k k g g g g g g g g g g g g g g g k f f f f k k f f k k g -.<.j - 1 k k h j j j j [ j j [ [ [ [ j j [ [ [ [ [ [ j [ [ [ j j [ [ [ [ j [ [ [ [ [ j j j j j j j j j j j j j j j j j j j j j j j j j j k [ g [ <.-.* 1 - 1 4 g g g g g j j j j j j j j g g g g g ' ' g f g ' ' g f g k g g k k g g g g g k k g g g k k g g k k k k g g g g g f f f k k g 1 { g [ -.: - X - 1 4 3 1 1 3 4 4 4 4 4 3 1 1 1 1 1 1 1 1 1 1 1 1 1 1 1 1 1 1 1 4 1 1 1 1 1 1 1 1 1 1 1 1 1 1 , 1 1 1 1 , , - , , - - - - , , , 1 * 1 [ g * X X X * * * * * * * * * * * * * * * * * ",
"6 6 * 6 6 , , , * * * * * * , , , , * * , , , , * , , 1 1 , , * , - - , , , 1 1 1 1 1 1 1 1 1 1 1 , , 1 1 1 1 , 4 , 1 -.[ , o X * 1 4 g 4 4 4 4 1 1 4 4 4 4 1 4 k k k k k k k k k k k k k k g g k k g g g g g g k k k k k k g g g k k k g g g k k g j j g g k k g 1 g <.<.g * - 1 1 4 4 1 1 4 k k k 4 4 4 4 k k k k k k k k k k k k k k g g k k k k k k k k k k g g g g g g g g g g g g g g g k f f f f k k k f k k g -.<.j - 1 1 k h j j j j [ j j [ [ [ [ [ [ [ [ [ [ [ [ j [ [ [ j j [ [ [ [ [ [ [ [ [ [ j j j j j j j j j j j j j j j j j j j j j j j j j j k [ g [ <.-.* 1 - 1 4 g { g g g j j j j j j j j g g g g g g ' ' f f ' { g f g k g g k k g g g g g k g g g g k k g g k k k k k g g g g f f f f k g 1 { g [ -.: - X - 1 4 3 1 1 3 4 4 4 4 4 3 1 1 1 1 1 1 1 1 1 1 1 1 1 1 1 1 1 1 1 1 1 1 1 1 1 1 1 1 1 1 1 1 1 1 , 1 1 1 1 , , - , , , - - - , , , 1 * 1 [ g * X X X * * , * * * , * * * * * * * * * * ",
"6 6 6 6 6 6 * * * * * * * * * * X * * * * * * X * * * * * * * , , , , - - - - - - - - - * * , * - - - - - 1 1 1 * 1 k f 4 1 * * , , , , 1 1 1 1 1 1 4 1 1 1 1 1 1 1 1 1 1 3 4 k 1 k k 1 4 g k 1 g k 1 - 1 4 4 3 1 1 1 1 3 3 1 4 k k k k k k k k f f k k k k k k 1 4 f g g k 1 - - 1 1 4 4 4 3 3 1 1 1 1 1 1 1 1 k k k k k k k k k 1 1 k k k 1 1 k k g k 1 k k k 1 1 1 k k k 1 1 k 1 1 1 1 k k k f f 3 3 : : 1 1 f k g [ -.[ k - k k f k k f f f j j j j j j j j k k k k k f f f k f j j f k k f j j j f k f f k k k k k k k k k k k k k k k k k k k k k k k k k 4 4 4 { { [ 4 - - 1 3 3 4 4 f f k k k k k k k k f f f f k f f f f f f f f f f f 1 4 4 4 1 1 1 k f f f f k k k k 3 3 3 3 3 3 3 3 3 3 3 3 3 k k k k 4 k g { [ f - - - - 1 1 1 1 1 1 1 1 1 1 1 1 1 - - - - , - - - - - 1 1 1 1 - * 1 1 * * * , * X , - - - , , , , , , , , , , , , , , , , , , , , * * * , 5 5 , * * * * * * * * * * * * * * * * * * * * ",
"6 6 6 6 6 6 * * * * * * * * * * X X X X X * * X X X X X * * * , * * * * * * * * X X X X X X X X X X X X X * * * o * 1 1 - * X X X X X X * * * * X X * * X X X X * * * * - - 1 1 - 1 1 - - 1 1 * - * X X * - - * - - - - - - - - - - - - - - - - - - - - - - - - - 1 3 4 4 1 - * * * - 1 1 - - - 1 1 1 1 1 1 1 1 1 1 1 1 k k k k k 1 1 1 1 1 1 1 - 1 1 k 1 1 1 1 1 1 1 1 1 1 1 1 1 1 1 1 1 1 1 k : : : : : : 1 1 : : 1 k g g 1 X - : 1 k k k f k : : : : - 1 - - 1 1 : - - - - - - : k k - - - : k k f f k 1 : : k k k k k k k k i i s s s s s s s s k k s s s - 1 - 1 4 g g 1 * - * - - - 1 1 1 : : : : : : : : : 1 1 1 1 - - 1 1 - - - - - - - - - 1 1 1 , , - 1 1 1 1 1 1 - - - - - - - - - - - - - - - 1 1 1 * * * - 3 3 * o * * * * * * * * * * * * * * * * X X X X X X * X * * * * * * X X * * X * , * X X X X X X X X X X X X X X X X X X X X X X X X X X X X X * , 1 * X * * * * * * * * * * * * * * X o * * * ",
"                        X X X X X X         X X           X * * * X * * X X X X o o o o     o o X X o o X X X X o X * - * X X   X X X X X X X X o o o X o o o o X X X X X X * * X * * X X * * X * o o * * - * * * * * * * * * * * * * X X X X X * * * * * * * * * - 1 1 1 - - * * * - - - * * * * * * * * * - - - - X X - - - X X - - - - - - - X X - 1 1 1 - - - - , - - - - - - - X * - - - - * * * * - - * * - - - 1 k k - X * * - - - - * * * * * * * * * * - - - - * * * * * * - - * * * - * * - - - - - - - - * - - - - - - - - - - - - - - - - - - - - - - * - - f 3 1 * - * - * - * - - * X * * X * * * * * * * * * * * * * * * * * * * X X * * * * * * * * * * * * * * X X X X X X X X o o X X X X X X X o o o * * X   * * * * * * * * * * * * * * * * X X X X X X X X X X X X X X X X X X X X * * X X X X X X X X X X o o o o o o o o o o o o o o o o X X X * * * X X X X X X X X X X X o             X X X ",
", , , , * * , * , , , , * * * * * * * * * , * , * X   X * , 1 1 1 1 1 1 1 1 1 1 - - 1 1 1 1 1 1 1 1 1 1 1 1 1 1 1 4 k g 4 4 1 1 1 1 1 1 1 1 1 1 1 1 1 1 1 1 1 1 1 1 1 1 1 4 4 4 1 4 4 3 1 3 4 4 4 * * - 4 f f f 4 4 3 4 4 f 4 f k k k k k k k k f f f f f f f f g g g g g k k f g g g g g g f f 1 1 1 1 1 1 k k k k k k k k k k k k k k k k k g g 1 1 k k k g g g f g f g f g f k f k f k f f f f f f f f f f f g g g j [ [ g g f f j j f k k k f f f f f k k k f f g g j j j { f g j j g f j { f k k k k k f g f k k f f f f f j j j j j j j j j j j j j j j j g f k f g { g g g f f f k k k k k k k k k k k k k k k k k k k k f f f f f f k 4 4 1 1 , 1 5 5 4 f 4 4 4 4 4 4 3 3 3 3 3 1 1 1 1 1 1 1 1 3 1 3 3 f 4 3 3 f f 4 3 3 3 3 3 3 3 3 3 3 3 3 3 3 3 3 3 4 4 4 4 4 4 4 4 3 3 3 3 1 1 1 1 1 1 , , 1 1 1 1 1 1 1 1 1 1 1 1 1 1 1 1 1 1 1 1 1 1 1 1 1 1 1 1 1 1 1 1 5 5 1 1 , , , , , , , , , * * * * * * * * * * ",
"4 4 4 4 4 4 4 4 4 4 4 4 4 4 4 4 4 4 4 4 4 g g ' 4 1 , , 5 g { [ g ' ' ' ' ' ' g ' { { { { { { { { { ' ' ' { [ [ { { { { { { [ [ [ [ [ [ [ -.[ [ -.-.-.-.-.-.-.-.{ { { { { { -.-.{ { -.-.{ { -.,.{ 3 * - 4 f { { { { { { -.{ ,.,.{ [ [ { [ [ [ [ ,.,.,.,.,.,.,.,.-.-.-.-.-.-.-.-.,.,.,.-.-.-.-.-.-.-.-.-.-.-.-.-.,.,.,.,.,.,.>.,.:.,.<.,.-.,.<.<.<.g 1 g g -.-.,.,.,.,.,.,.,.,.,.,.,.,.,.,.,.,.,.,.,.,.,.,.,.,.,.,.,.,.,.<.<.<.<.,.<.,.<.,.,.,.,.,.,.,.,.,.,.,.,.,.,.,.,.,.<.<.<.,.,.,.,.,.,.<.2.,.[ f f k [ ,.,.,.,.,.,.,.,.,.,.,.,.,.,.,.,.,.,.,.,.,.,.,.,.,.,.,.,.,.,.,.,.,.,.,.,.,.,.,.,.,.$.,.,.,.,.,.,.,.,.,.,.,.,.,.,.,.,.,.,.,.,.,.,.-.-.,.[ 4 1 5 4 -.-.,.{ { { { { { { { { { { { { { { -.-.-.-.-.-.-.-.,.-.-.{ -.-.-.-.{ { [ { { [ { { { { { { [ [ { { { { { { { { { { { { [ [ [ [ [ [ -.g 4 1 4 g g [ g g g g g g g g g g g g g g g g g g g g g g g g g g { { g g g g g g g g 4 4 4 4 g g g 4 4 4 4 4 4 4 4 ",
"4 4 5 5 5 5 4 4 5 5 4 4 4 4 4 4 4 4 4 5 4 4 g g 4 1 * * 1 4 g g g g f f f f f f f f f f f f f f g f f f f g g ' { g f f f f g 4 g g g g [ [ g [ g g g g g g g g [ [ { { { { { { { [ [ { { g { ,.,.3 o * - 3 f { { { { { { { { { { { { { g g { { { { { { { { { { { [ [ [ { [ [ [ [ [ { g g g { { [ [ [ [ [ [ [ [ :.:.-.:.:.:.:.-.-.-.-.-.-.-.-.<.<.g * , g g -.,.-.[ [ [ [ [ [ [ $.$.[ [ ,.,.,.,.{ { { ,.,.,.,.,.,.,.,.,.,.,.,.,.-.-.,.,.-.-.[ [ -.-.-.-.-.-.-.-.,.,.,.-.-.-.-.-.-.-.,.,.-.-.,.<.<.[ f - : f -.,.,.-.,.,.-.,.-.-.,.,.,.,.,.,.,.,.,.,.,.,.,.,.,.,.,.$.$.[ [ $.,.,.,.,.,.[ [ [ [ [ -.-.-.-.-.-.-.-.,.,.,.,.-.-.-.,.[ [ [ [ { { -.-.,.[ 1 * * 5 { { { { { { { { { { { { { { { { { { [ [ { { { { { { g g g g g g g g { { g g ' f ' { ' { { { ' g ' g g g g g g g f f { { g g g g { { -.g 1 X X 1 k g 4 1 4 4 4 4 4 4 4 4 4 4 4 4 4 4 4 4 4 4 4 4 4 4 4 4 4 4 5 5 5 4 4 4 4 4 4 4 4 4 4 1 1 1 1 1 1 1 4 4 1 ",
", , , , , , , , , , , , , , , , 1 , , * * 1 5 4 4 *     X 1 5 5 1 1 1 1 1 1 1 1 1 1 1 1 - - - - 1 1 - - 1 1 3 4 4 3 1 1 3 3 3 1 1 1 1 4 4 4 4 4 1 1 1 1 1 1 1 1 4 4 3 3 3 4 4 f 4 3 4 f 3 - 4 { ,.- o * - - - 3 - - - - 3 3 3 3 : : : : - - - : 3 : : : 1 1 1 3 3 1 3 k k k 4 4 3 1 1 1 1 1 1 4 1 1 1 1 4 4 k k k k k k k k k k k k g k 1 1 g [ <.1 o X 1 4 g [ f ' ' ' ' ' ' ' h h h h h f ' ' h h h h f f f f f { j j { g g g k k k k k k k f f f g g g g g g g g g g f f k k g g g g f g [ [ ,.[ - o X 1 f g g g g g g g g g h h h h j j h h h h h h j j h h [ [ h h h h h h h h h h h h h f g g g g g g f g f f g g g g g g f f f f f f g g -.g *     , 5 5 4 f f f 3 3 3 3 3 3 3 3 3 3 3 3 1 1 1 1 1 1 - - - - 1 3 1 1 - - 3 3 3 3 3 3 3 3 3 3 3 3 - - - 1 - - 1 1 1 1 1 - 3 3 1 1 1 1 3 3 [ g * o o X * , - * * * * * * * , , , - - - - , , , , , - - - - * , , , * X * * , , , , * , * * * * * * * * * * * * * ",
", , , , , , , , 1 1 1 1 1 1 1 1 1 1 , * * 1 4 4 4 1     * 1 4 4 3 1 1 3 3 3 1 1 1 1 1 1 1 1 1 1 3 3 1 3 3 3 4 4 [ g 4 4 f g g f 4 4 g k k g g f 4 4 4 4 4 4 4 4 4 4 4 4 4 4 4 f 4 4 4 g 4 1 4 -.,.- o * 3 - - - - - - - 1 1 3 3 3 3 3 3 3 3 3 3 3 3 3 3 3 3 f f 3 3 k f f f k k k k f f k k k g g g g g g g g g g k g k j h j k g g j g k k [ -.<.g X 1 g g g [ { ] ] ] ] ] ] ] ] ] ] ] ] [ [ [ ] ] ] ] { f h f k f h f f f f f { { { { { { { { f ' { { { { { { f h f f g ' j { j { j f g { [ -.<.[ 1 X * 1 f g g f g g g g g g h h h h h h h h h h h h h h h h [ [ [ h h k h h h h h h h h h f f f f f h h f f k k h k h f h f h f h f f f f f ,.[ 1 * * , 5 4 g f f f f f 3 3 3 3 3 3 3 3 3 3 f f f f f f 4 3 3 3 f f f 3 3 3 3 3 3 3 3 3 3 3 3 3 3 3 3 3 3 3 4 3 4 4 4 4 4 3 4 3 1 1 1 3 4 4 -.g 1 * X * , 1 1 1 1 1 1 1 1 1 4 4 4 4 3 3 3 3 4 4 4 4 3 3 3 3 , 1 1 , * * * 1 * * * * * * * * - - - * * * * * * * * ",
", , * * * * , , 1 - - - - 1 1 3 1 - 1 3 1 - 4 [ 4 * X * o - f 1 - - : 3 3 3 - - - : 3 3 3 3 3 3 3 1 1 1 1 3 3 4 4 4 3 3 3 3 4 4 4 3 3 3 3 3 4 f 4 4 4 3 4 4 4 4 4 4 4 4 4 4 4 4 4 g 4 4 ' 4 4 ,.{ - * * * : f 3 3 3 3 3 3 3 3 3 3 3 3 3 3 3 3 : i i 3 f f f f f k k k k k k f k k k k k k k k k k k k k k k k f g f g g g f g h k j k k g k k -.,.f X X 1 k g { h h h h h h h h h h h h h h h h ] ] ] ] ] ] ] ] [ ] ] h j { [ { ] h h h h ] { [ { { { { { { { { h ] j [ [ { j h { h h ] j h [ ,.<.{ 1 * - 4 g g j { { { j j j j j j j j j j j j j j j j j j j j j j j j j j j j j j j j j j j j h h h h h h h h h h h h h h h h h h h h h h h j ,.,.- * - * 3 f g g f f f g g f g g g f f k 4 3 3 3 3 : 3 3 3 3 3 3 3 3 3 3 3 : 3 f 3 3 3 3 f f 3 3 3 3 3 3 3 3 4 4 4 3 3 4 4 3 3 3 3 3 3 3 3 3 [ -.* X 1 X - - - - 1 1 1 1 1 1 1 - - - - - - - - - - - - - - - 1 - - - - - - - * - - - - - * * * * * * * * * * * * * ",
"- - - - - - - - - - - - - - - 3 - - - 3 - - 3 { 3 * o & o - f - - - 3 3 3 3 - - - - 3 3 3 3 3 3 3 1 1 1 1 3 3 4 4 3 3 3 3 4 4 4 4 3 3 3 3 3 4 f 4 4 4 4 3 4 4 3 4 4 4 4 4 4 4 4 4 g 4 4 ' 4 4 ,.{ - * * * : k 3 3 3 3 3 f 3 f 3 3 3 3 3 3 3 : : i i f f f f f f h k k k k k h h h h k h h h h k k k k k k k k f f g g g f f f h h j h k j k k -.,.f X X 1 k f { h h h h h h h h h h h h h h h h ] ] ] ] ] h ] ] ] ] ] ] ] ] ] ] ] ] ] ] h ] ] ] ] ] ] ] ] ] ] ] ] { ] [ { { { ] { h h h h h [ { ,.{ 1 * - 4 g g j { { { j j j j j j j j j j j j j j j j j j j j j j j j j j j j j j j j j j j j h h h h h h h h h h h h h h h h h h h h h h h ] ,.,.- & - * 3 f f g f f f f g f f g g f f k 4 3 3 3 : : 3 3 3 3 : : 3 3 3 3 : : 3 f 3 3 3 3 f 3 3 3 3 3 3 3 3 3 3 4 3 3 3 3 4 3 3 3 3 3 3 3 3 3 [ -.* X 1 X - - - - 1 1 1 1 1 - - - - - - - - - - - - - - - - - - - - - - - - - * * - - - - * * * * * * * * * * * * * ",
"- - - - - - - - - - - - - - 1 3 - - - 3 - - 3 { 3 * o * o - f - - - 3 3 3 3 3 3 3 3 3 3 3 3 3 : 3 - - - - 3 3 3 3 3 3 3 3 3 3 3 3 3 3 3 3 3 3 f 3 3 3 3 3 f f f f f f f f f f f 3 f 4 3 ' 3 f ,.[ - * * * : f 3 f f 3 3 3 3 3 3 3 3 3 3 3 3 3 3 i f f f f f f f h h h h f h h h h h h h h h h f f f f f f f k f f f f f f f k h h j h f h f f ,.,.f * * : f f { h h h h h h h h h h h h h h h h ] ] h ] h h ] ] ] ] ] ] h h ] ] ] ] ] ] h ] ] [ ] ] ] ] ] ] ] ] h [ [ [ [ [ [ ] [ h h h h h [ $.,.{ : * - 3 f g h h j j j j j ] j j h h h h j h j j h h h h j j h h h h j j h h h h h h h h h h h h h h h h h h h h h h h h h h h l h h h h h { ,.,.- & - * 3 f f f f f f f f f f f f f f 3 3 3 3 : : : : 3 3 3 : : : : 3 3 3 : 3 3 3 3 3 3 3 3 3 3 3 3 3 f 3 3 3 3 3 3 3 3 3 3 3 3 3 3 3 3 3 3 [ -.* X 1 X 1 - 1 1 1 1 1 1 - - - - - - - - - - - - - - - - - - - - - - * - - - - * - - - - - * * * * * * * * * * * * ",
"- - - - - - - - - - - - - - - 3 - - - 3 - - 3 { 3 * o * o - f - : 3 3 3 3 3 3 3 3 3 3 3 3 3 3 : 3 - - - - 3 3 3 3 3 3 3 3 3 3 3 3 3 3 3 3 3 3 f f 4 4 4 f f f f f f f f f f f f f f f 3 ' 3 f ,.{ - * * * : f 3 3 f 3 3 3 3 3 3 : 3 3 3 3 3 3 3 f f f f f f f f f h h h f f h h h h h h h h h h f f f f f f k f f f f f f f k k h j h f h f f ,.,.f * X : f f { h h h h h h h h h h h h h h h h ] ] h h h h ] ] ] ] h h h h ] ] h ] ] ] ] ] ] [ ] ] ] ] ] ] ] ] ] [ [ [ [ [ [ ] [ h h j h h [ $.,.{ : * - f g j h h j j j j ] ] h j h h h h j j h j h h h h j j h h h h j j j h h h h h h h h h h h h h h h h h h h h h h h h h h h h h h h h { ,.,.- & - * 3 3 f f f f f f f f f f f f f f 3 3 3 3 3 3 3 3 3 3 3 3 3 3 3 3 3 3 3 3 3 3 3 3 3 3 3 3 3 3 f f 3 3 3 3 3 3 3 3 3 3 3 3 3 3 3 3 3 3 { -.* X 1 X 1 * 1 1 1 1 1 1 1 - - - - - - - - - - - - - - - - - - - - - * * * - - - - - - - - - * * * * * * * * * * * ",
"- - - - - - - - - - - - - - - 3 - - 1 3 1 - 3 { 3 * o * o - f - 3 3 3 3 3 3 3 3 3 3 3 3 3 3 - - 3 - - - - 3 3 3 3 3 3 3 3 3 3 3 3 3 3 3 3 3 3 f 4 4 4 4 f f f f f f f f f f f f f f f f f 3 f ,.{ - * * * : f 3 3 3 3 3 3 3 3 3 : : 3 3 3 3 3 3 i i i f f f f f f f f f f f f f f f f f f f f f f f f f f f k h h h h h h k k k h j h f h f 3 ,.,.f X X : f f { h h h h h h h h h h h h h h h h ] h ] ] +.+.+.+.] ] ] ] h ] ] ] ] h h h h ] ] [ [ [ ] ] ] ] ] ] h [ [ [ [ j j h [ h h h h h [ ,.2.{ : * - f j j h j j j j j j j h h h h j j j j h h h h j j h j h h j j j j h h j j j j h h h h h h h h h h h h h h h h h h h h h h h h h h h { ,.,.* & - - 3 3 f f f f f f f f f f f f f f f 3 3 3 3 3 3 3 3 3 3 3 3 3 3 3 3 3 3 3 3 3 3 3 3 3 f 3 3 3 3 3 3 3 3 3 3 3 3 3 3 3 3 3 3 3 3 3 3 3 [ -.* X - X - - - - - 1 1 1 - - - - - - - - - - - - - - - - - - - - - - * - - - - - - - - - - - * * * * * * * * * * * ",
"- - - - - - - - - - - - - - - 3 - - 1 3 1 - 3 { 3 * o * o - 4 - 3 3 3 3 : 3 3 3 - 3 3 3 3 3 - - 3 - - - - : 3 3 3 3 3 3 3 3 3 3 3 3 3 3 3 3 3 f f f f f f f f f f f f f f f f f f f f f f f f ,.{ - X * * : f 3 3 3 3 3 3 3 3 3 : : 3 3 3 3 : : i i i f f f f f f f f f f f f f f f f f f f f f f f f f f f k h h h h h h h k k h j h f h f 3 ,.,.f X X : f h { h h h h h h h h h h h h h h h h ] ] ] ] +.+.+.+.] h h h h h ] ] ] h h h h ] +.[ +.[ +.] ] ] [ [ h [ [ [ [ j [ h [ h h h h h [ ,.2.[ i * s f j j j j j j j j j j h h h h j j j j h h h h j j j j h h j j j j h h j j j j h h j h h h h ] h h h h h h h h ] h h h h h h h h h h ] ,.,.* & - - 3 f f f f f f f f f 3 f f f f f f f 3 3 3 f f f f f f f f f 3 f f f 3 3 3 3 3 3 3 3 f f 3 3 3 3 3 3 3 3 3 3 3 3 3 3 3 3 3 3 3 3 3 3 [ -.* X - X - - - - - - 1 1 - - - - - - - - - - - - - - - - - - - - - * - - - - - - - - - - - - * * * * * * * * * * * ",
"- - - - - - - - - - - - - - - 3 - - - 3 1 - 3 { 3 & o * o - f - 3 3 - - : 3 3 3 - - - 3 3 3 3 - : - - - - : : 3 3 3 3 3 3 3 3 3 3 : 3 3 3 3 3 f f f f f f f f f f f f f f f f f f h h f f f h ,.{ - * * * : f 3 3 3 3 3 3 3 3 3 : : 3 3 3 : : : i i i f f f f f f f f f f f f f f f f f f f f f f f f f f f h h h h h h h h h h h h h f f f 3 { ,.f & & : f f { h h h h h h h h h h h h h h h h h h h h h h h h h h h h h h h h h h h h h ] +.[ +.+.h +.h ] +.] h +.[ [ +.[ [ h [ h h h [ h [ ,.2.[ i - s h h h h h h h j j h j h h h h h h h h h h h h h h h h h h h h h h h h h h h h h h h h h h h h h h h h h h h h h h h h h h h h h h h ] ,.,.* & - - f f f f f f f f f f 3 f f f f f f f 3 3 f f f f f f f f f 3 3 3 f f 3 3 3 3 3 3 3 3 3 3 3 3 3 3 3 3 3 3 3 3 3 3 3 3 3 3 3 3 : : : 3 [ -.* X 1 X - - - - - - 1 - - - - - - - - - - - - - - - - - - - - - - * - - - - * - * * - - - - * * * * * * * * * * * ",
"- - - - - - - - - - - - - - - 3 - - - 3 - - 3 { 3 & o * o - 4 - - - - - - 3 3 3 - - : : 3 3 1 - : - - - - : : 3 3 3 3 3 3 3 3 3 3 : 3 3 3 3 3 f f f f f f f f f f f f f f f f f f h h f f f h ,.{ - * * * : f 3 f 3 3 3 3 3 3 3 : : 3 3 3 3 : : 3 3 i f f f f f f f f f f f f f f f f f f f f f f f f f f f h f h h h h h h h h h h h f f f 3 { ,.f & & : f f { h h h h h h h h h h h h h h h h ] h h h h h h h h h h h h h h h h h h h h h +.[ +.+.h h h +.+.+.h [ [ +.+.[ [ [ [ h h h [ h [ ,.2.[ i - s h h h h j ] ] j j j j h h h h h h h h h h h h h h h h h h h h h h h h h h h h h h h h h h h h h h h h h h h h ] h h h h h h h h h h ] ,.,.* & - - f f f f f f f f f f 3 3 f f f f f f 3 3 f f f f f f f f f 3 3 3 f f 3 f f f 3 f f 3 3 3 3 3 3 3 3 3 3 3 3 3 3 3 3 3 : : 3 3 3 : : : { -.* X 1 X - * - - - - 1 1 - - - - - - - - - - - - - - - - - - - - - - - - - - * * * * * - - - * * * * * * * * * * * ",
"- - - - - - - - - - - - - - - - - - - - - - 3 f f * o o * - - - - - - - - - - - - - - - - - - : - - : : 3 3 3 3 - - : 3 3 f f ' f f f 3 3 3 3 3 3 3 3 3 3 3 3 f f h h h f f f f f h h h h f { ,.,.: o * : - : f 3 3 3 3 3 3 3 3 3 3 3 3 3 3 3 3 f f f f h f f f i i i i i f f f f f f f f f f f i i i i k k k f h h h h h h h h h h h f i : f { 2.' * & - : f { h h h h h h h h j h h h h h h h ] ] ] h ] ] ] ] h h ] +.] h h h h h +.h h h h [ h h h h h h h h h h h h h h h [ +.h h h h h [ $.2.[ i s i h h h h h h h h h h h j j h h h h h h h h h [ [ j h h h h h h h h h h h h h h h h h h h h h h h h h h ' ' ' f ] ] ] ] f f h f f h f f ,.{ : & * - 3 f f f f f f f f f f f f f f f f f 3 f f f f f f f 3 f f f f f f f f f 3 3 3 3 f f 3 3 3 3 3 : : : 3 3 3 3 3 3 3 3 - - - - - - - - { f - o o - 3 - - - - - - - - * * * * * - * * - - - - - - - - - * - - 3 3 - - - * - - - - - - - * * * * * * * * * * * ",
"- - - - - - - - - - - - - - - - - - - - - 3 3 f f - o o * - - - - - - - - - 1 1 - - 3 3 3 3 3 3 3 3 3 3 3 3 3 3 3 3 3 3 3 f f f f f f 3 3 3 3 3 f f f f f f f f f f f f f f h f f h f h h f ] ,.,.3 o - 3 1 3 f f f f f f f f f f f f f f f f f f f f f f f f f f h f f f f f f f f f f i i i i h h h h h h h h h h h h h h h h h h h h h f ' ,.<.{ - * : f f { [ [ [ [ j j j j [ [ [ [ [ [ [ [ [ [ +.[ +.+.+.+.h ] +.[ +.[ [ +.h h h h h h h ] [ [ [ [ +.+.+.+.[ [ [ [ +.[ +.[ +.[ [ [ [ [ $.,.2.[ s = s h h h [ [ [ [ [ [ [ [ [ [ [ [ [ [ [ [ [ [ [ $.$.[ [ [ h h h j j [ [ [ h h h h h h h h ] ] ] ] ] ] ] ] ] ] ] ] ] ] ] ] h { [ { ] ] { { ,.[ : * * - f ' ' ' ' ' ' ' ' ' ' ' ' ' ' ' ' ' f ' ' ' f ' f f ' ' ' ' f f f f : : : : 3 3 3 f f f f f f f f f : : : : : : : : : 3 f 3 3 3 3 3 { ' : o o - - - 3 3 3 3 3 : - - - - - - - - - - - - - - - - - - - - - 1 - - - * - - - - - - * * * * * * * * * * * * * ",
"* * * - - - - - 3 3 3 3 3 3 3 3 - - - - - 3 3 f f - o * - - - - 3 3 1 3 3 3 3 3 3 3 3 3 3 3 3 3 3 3 3 3 : : : : f f f f f f f f f f 3 3 3 : : : : : : : 3 : : : f f f f f f f i f f h h f i ' { { : X * : : : f 3 3 3 3 3 3 3 3 3 3 3 3 3 3 3 3 f f f f f f f f h h h f f f f f i i i i : s i i i a a a a a h h a a a a h i i i h h h h h i ' { $.' * & : : h ] h h h h h h h h h h h h h h h h h h h h h h h h h h h ] h h h h h h h h h ] ] ] h h h h h h h h h h h h h h h h h h h j [ h [ ,.2.[ i = s h h h ] ] ] ] ] ] ] ] h h h h h h h h ] h ] ] ] ] ] h ] h h h h h ] ] h h h h h h h ] ] h ] ] ' ' ' ' h h h h h h h h f f f f f f f f ,.{ : & & - f ' ' ' ' ' ' ' ' ' f f f f 3 3 : : f f f f f f f f f f f 3 3 3 3 3 : : : : : 3 f f f f f f f f 3 3 : : : : : : : : : : 3 : : : : 3 { { 3 * * - - - - - - - - - - - - - - - - - - - - - - - - - - - - - 1 - - - - - - - - - - * * * * * * * * * * * * * * ",
"* * * * * * * * - - - - - - - - - - - - - - 3 3 3 * o * - * * - - - - - - - - - - - - - - - 3 : 3 : : - - - - - : : : : : : : : : : : : : : - - - - - - - - - - : : i : : : i : i : : i i : f { { : * * - - - 3 : : : - : : : : - - - - - - - - : : : : : : : : i i i i i i i i i : : : : i f h s s i i i i i i i i i i i i i i a i i i i : f ' { f - * - : h h h h h h h h h h h h h h f f h h h f h f h f h i h h f i i i i i h a i h h ] h h h a a h h a a a f f f f h h h h h h h h h h h [ ,.[ i s s i h h i i i : i i i i f f h f a i a i i i a i a i i i h h h i i i i i h h h i h h h h i i i i i i i i f f i i i i i i : 3 f f 3 : : f { ' : * * - 3 f : : : : : : : : : : : : - - - - : : : : - : : : : : - - - - : : : : : : : 3 3 3 : : : : : - - - - - - - - - - - - - - - - - - - ' ' : * & - - - * - - - - * * * * * * * * * * * * * * - - - - - - - - - - - - - - - - - - * * * * * * * * * * * * * * ",
"o o o o o o * * * * * * * * * * * * * * o * * - - o o o * o o * o o o o o o o o o o * * * * * * * & & & & & & & * * * - - - - - & & * - - - & & - - - - - - - - * * = - = - - * - & - - - * - : f - & * * - - - - - - - - - - - - - - - - - - - : : : : : : : : : : : : : : : : - * & & * * : : s s s s s s i i i i i i i i i i i s s i i : : f f : - & : : i i i i i i i i i i i i i s s s s i s : s : i i i : i i s : : : s s i s s s i i s : s s s s i i i i i i i i i i i i f i i f f i i f h f i s s i s - : - - - - - - - : : s : s i s s : : : : s : : : i i i i s s i i i s s : : : : : : : : : : : : : : : : : : : : : - - : : - - : : f 3 - - * - - : - - - - - - - - : : - - - - - - - - - - - - - - - - - - - - - - - - - - - - - * - - - - - - - * & & & & & & & & & - - - & & * - - - * o o * - * - - - - - - * * * * * * * * * * & & & & & & & & * * * * * * * * * * * * * * & o & & & & * & & & & & & ",
"o o o o o o o o o o X X o o o o X * * X o o * - * o o o * o o * o o o o o o o o o o o o o o o & & & & & & & & & & & & & & & & & & & & - - * & & * * * * - - & & * * & & * * * * - & & - - * - - - * o o o * * * - - - - - - - - - - - - - - - - - - * - : : - - : - - - - - - - : - - - & & o & = s s s s s s s s s s s s s s s s = = - : & - - - - - & - : i : s s s s s s s s s s - - - - s - & & & & * * & & - & : - : - : : : s s s i s : & = = = = - - - - - - - - - - - - i s s i - & * s i i i s i : & & - - * * & & & * & & & * = & = & & & = - : = & & & & - - : : : : & & & & & & & & = - = = - = = - - - - - - - = = - - - - - - - - * - - - * * & * - - - - - - - - - - - - - - - - * * - - - - * * & * * - - - * * * * * * * & & & * - * * - * * * & & & & & & & & & & & & & & & & * * * o & - - * * * * - * * * * & & & & & & & & & & & & & & & & o o o o * * & & o * * * * * o o & & & &               ",
"- - - - - - - - - - - - - - - - - 3 3 - - - 3 3 3 - - 3 3 - - 3 - - - - - - - - - - - - 3 3 3 : : : : : : : : : f f : : - - * & : : 3 f ' ' 3 : : : : : : : : : 3 3 3 3 3 3 3 3 3 : : 3 ' 3 3 ' f 3 3 - : 1 3 3 f f f f f f f f f f f f f f f f f f f f f f f f ' h h i : - = & f f h ' f f i i i a h h h h h h h h h h h h h h h a i h h f f ' f ' ' f f ] ] h h h h h h h h h h h h h h h h h f f f f f f f f ' ' f f f : : - f h ] ] ] ] f f h h h h h h h h f f f f h f k k f f f h f f f f ] ] ] ] [ ] ] h h ' ' ' ' 3 f f f f f f f f h f f f h f h f f f : : f f f : : - : : i f h f f f f f f f f f f f i i f f f f f f f f f f f 3 f f : f f f f : 3 f f f f f f f f f f f f f f f f i 3 f f f 3 3 3 3 : 3 f f f : - - - - : 3 3 f 3 3 3 3 f f 3 3 : : : : : : : : : : - : : : - - - : f f 3 - : f f 3 : : 3 3 : - - - - - - - - - - - - - : - : : - - - - - - - - * * - - - - 3 3 3 - * * * * * * * * * * * ",
"f f f f f f ' ' ' ' ' ' ' ' ' ' { { { { ' ' { { { ' ' { { { ' { { { { { { { { { { { { { { { { { { { { { { { { { $.{ { { ' f : : { { { { $.{ { { { { { { { { { { { { { { { { { { { { { { $.{ { { ,.,.,.,.,.,.,.,.,.,.,.,.,.,.,.,.,.,.,.,.,.,.,.,.,.$.$.$.$.$.$.$.2.2.$.$.] ' i i ] [ $.,.2.2.,.,.,.2.2.2.2.2.2.2.2.2.2.2.2.2.2.2.2.2.2.2.2.2.2.2.,.2.2.2.2.2.2.,.2.2.2.2.2.2.2.2.2.2.2.2.2.2.2.2.2.2.2.2.2.2.2.2.2.2.2.2.,.{ f f $.,.2.2.2.,.2.2.2.2.2.2.2.2.2.2.2.2.2.2.2.2.2.2.2.,.2.2.2.,.2.2.2.2.2.2.2.2.2.2.2.2.2.2.2.2.2.2.2.2.2.2.2.2.2.2.,.,.,.2.2.2.,.,.,.,.,.,.$.[ ' f ' { [ ,.,.,.,.,.,.,.,.,.,.,.,.,.,.,.,.,.,.,.,.,.,.,.,.,.,.,.,.,.,.,.2.,.$.$.,.2.,.,.,.,.,.,.,.,.,.,.,.,.$.$.$.$.,.,.,.,.,.$.,.$.{ { ,.,.,.{ ' f f ' { { { { ,.{ { $.,.$.,.$.{ { { { { { { { { { { { { { { { { { { { { { { { { ' { { { { { { { { { { { { { { { { { { { { { { { { { { { { f 3 1 - 3 f f f { { { { ' ' ' ' ' ' ' ' ' ' ' ",
"- - - - - - - - - - - - - - : : : : : : : : : : : : : : : : : : 3 3 3 3 3 3 3 3 : : : : 3 3 3 3 : : : : : : : : : 3 : $.{ & * & - : : f f f ' ' ' ' ' ' ' ' ' ' ' ' ' 3 ' ' ' ' f f f ' ' f f f h h f h h h h h h h f h f h h ] ] h h ] h h h h ] h h ] ] ] h h ] ( ] $.$.i = s s i i h h h h h ] ] ] ] ] ] ] ] ] ] ] ] ] ] ] ] ] ] ] ] ] ] ] ] ] ] ] ] ] ] ] ] ] ] ] ] ] ] ] ] ] ] ] ] ] ] ] ] ] { ] { { ' ] ' ] ' ' { 2.{ = : i i i i i i i f h h h h h h h h h h h h h h h h h h h h h h h h h h h h h h h h h h h h h h h h h h h h h h h h h h h i i i h h s h i ] 2.$.s i s i i h ] ] h h ] ] ] ] ] ] ] ] ] ] ] ] ] ] ] ] ' ' ] ] ] ] ' ' ] ] ] ] ] ] ] ] ] ] ] ] ] ] ] ] h h h h h h h ' f f f f ' ' ' f f : ' f { $.- - & - : : : : : : : : : : : : : : : : : : : : : : : : : : : : : : - : : : : - - - - - - - - - - - - : : : : - - - - - - - - - - - - 3 - 3 { { - - & * - - - - - - - - - - - - - - - - - ",
"- - - - - - - - : - - - - - : : : : : : : : : : : : : : : : : : : : : : : : : : : : : : : : : : : : : : : : : : : 3 : $.{ & * & - : : f f f ' ' ' ' ' f f f f ' ' 3 3 3 ' ' f f f f f ' ' f f h h h h h h h h h h h h h h h h h ] ] ] ] ] ] ] ] ] ] ] ] ] ] ] a ] ( ] =.$.a s s i i a h h h h h ] ] ] ] ] ] ] ] ] ] ] ] ] ] ] ] ] ] ] ] ] ] ] ] ] ] ] ] ] ] ] ] ] ] ] ] ] ] ] ] ] ] ] ] ] ] ] ] ] ] ] ] ] ] ' h ] ] ' { 2.{ = : i i i i i i i h a a a a h h h h a a a a a h a a a a a a a a a a h h h h a a a a a h a a h h h h a a a a a a a a a a i i i i a a s h i ] 2.$.s i s i a h ] ] h h ] ] ] ] ' ' ' ' ' ' ] ] ] ] ] ' ] ] ] ] ] ] ] ] ] ] ] ] ] ] ] ] ] ] ] ] ] ] h h h h h h h h h h f f f f ' ' ' f f : ' f { $.= - & - : : : : : : : : : : : : : : - - - - - - - - - - - - : : : : - : : : : - - - - - - - - - - - : : : : - - - - - - - - - - - - * 1 - 1 { { - * & * - - - - - - - = = & - - - - - - - ",
"- - - - - - - - : - - - - : : : : : : : : : : : : : : : : : : : : : : : : : : : : : : : : : : : : : : : : : : : : 3 : $.{ & & & - : : f f f ' ' i i f f f f i i ' ' : : 3 3 f f f f ' ' ' ' h h h h h h h h h h h h h h h h h ] ] ] ] ] ] ] ] ] ] ] ] ] ] ] ] a ] ( +.=.$.a s s i i a h h h h h ] ] ] ] ] ] ] ] a h a a h h h h a h ] ] h ] ] ] ] ] ] ] ] ] ] ] ] ] ] ] ] ] ] ] ] ] ] ] ] ] ] ] h h ' ' ' h h i ] ] ' $.2.] = : i i i a i i i h i i i i i i i i i i i i i i i i i i i i i i i i i i i i i i i i i i i i i i i i i i i i i i i i i i i s i i i i s h s h 2.$.s i s i h h ] ] h h h ' ' ' h ' ' ' ' ' ' ' ' ' ' ' ' ' ' ] ] ] ' ' ] ] ] ] ] ] ] ] ] ] ] h h h h h h h a a a a h h f f f f ' ' f f f : ' f { $.* - & - : : : : : : - - - - - - - - - - = - - - - - - - - - - - - - - : : : : - - - - - - - - - - - - - - : - - = = - - - - - - - - * - - - { ' - * & * - - - - - - - = & & - - - - - - - ",
"- - - - - - - - : - - - - : : : : : : : : : : : : : : : : : : : : : : : : : : : : : : : : : : : : : : : : : : : : 3 : $.{ & & & - : : f f f ' ' i i f f f f i i ' ' : : : : f f f f ' ' ' ' h h h h h h h h h h h h h h h h h ] h ] ] ] ] ] ] ] ] ] ] ] ] ] ] a ] ( +.=.$.a s s i i a h h h h h a a a a h h h h a a a a a a a a a a a h h ] ] ] ] ] ] ] h h ] ] ] ] h h h h ] ] ] ] h h h h ] ] h h h h h h i i ] ] ' $.2.] = s s i i a i i i h i i i i i i i i i i i i i i i i i i i i i i i i i i i i i i i i i i i i i i i i i i i i i i i i i i i s i i i i s h i h 2.$.s i s i h h ] ] h h h h h h h h h h h h h h h h h h h ' ' ' ' ' ' ' ' ' ' ' ] ] ' ] h h h h h h h h h h a h h a h i f f ' ' ' ' f f f : ' i { $.* - & - : : : : : : - - - - - - - : - - - - - - - - - - - - - - - - - : : : : - - - - - - - - - - - - - - - - - - & & = = = = = = = * - * - { f * & & * - - - - - - - - = - - - & & - - - ",
"- - - - - - - - : - - - - - : : : : : : : : : : : : : : : : : : : : : : : : : : : : : : : : : : : : : : : : : : : 3 : $.{ & & & - : i ' i i ' ' ' ' ' ' ' ' ' ' ' ' ' ' ' ' ' ' h f ' ' h h h h h h h h h h h h h h h h h h h ] ] ] ] ] ] ] ] ] ] ] ] ] ] ] ] a ] ( ] =.$.a s s i i a h h h h h a a h h h h h h h h h h a a h h a a a a h h ] ] ] ] ] ] ] ] ] ] ] ] ] ] ] ] ] ] ] ] ] ] ] ] ] ] h h h h h h i i ] ] h $.2.] = s s i i a i i i a i i i i i i i i i i i i i i i i i i i i i i i i i i i i i i i i i i i i i i a i i i i i i i i i a i i i i i i i s h i ] t.$.s i s i h h ] h h h h h h h h h h h h h h h h h h h ] ] ] ] ] ] ] ] ] ] ] ] ] ] h ] h h h h h h h h h h h h h h h h ' ' ' ' f f f h f : ' f { $.- - & - : : : : : : : : : : : : : : : : : : : : : : : : : : : : : : - : : : : - - - - - - - - - - - - - - - - - = & = = = = = = = = * - * - { f * & & * - - - - - - - - & & & & & & - - - ",
"- - - - - - - - : - - - - - : : : : : : : : : : : : : : : : : : : : : : : : : : : : : : : : : : : : : : : : : : : 3 : $.{ & & & - : i ' i i ' ' ' ' ' ' ' ' ' ' ' ' ' ' ' ' ' ' f h ' ' h h h h h h h h h h h h h h h h h h h ] ] ] ] ] ] ] ] ] ] ] ] ] ] ] ] a _ ( ] =.$.a s s i i a h h h h h a a h h h h a a ] ] ] ] ] ] ] ] a a a h h ] ] ] ] ] ] ] ] ] ] ] ] ] ] ] ] ] ] ] ] ] ] ] ] ] ] ] h ] ] ] ] h h h ] ] h $.2.] : s s i i i i i i a i i a i a a i i a a a a a a a a a a a a i i i i a a a a a a a a a a a a a a a a i i i i a a i a h a i i i i a h s h i ] 2.$.s i s i h h ] ] h h h h h h h h h h h h h h h h h h ] ] ] ] ] ] ] ] ] ] ] ] ] ] h h h h h h h h h h h h h h h h h h ' ' ' ' f f f h i : ' f { $.= - & - : : : : : : : : : : : : : : : : : : : : : : : : : : : : : : - : : : : - - - - - - - - - - - - - - - - - - = - - - - - - - - * - - - { ' - * & * - - - - - - - - & & & & & & - - - ",
"- - - - - - - - : - - - - - : : : : : : : : : : : : : : : : : : : : : : : : : : : : : : : : : 3 : : : : : : : : : 3 : $.{ & & & - : i ' i i f ' f f f f f f f f ' ' ' ' ' ' ' ( ( ( ( ( h h h h h h h h h h h h h a h h a h h ] ] ] ] ] _ _ _ ] ] _ _ ] ] ] ] a _ ( ] =.$.a s s i i a h h h h h h ] ] ] ] ] ] ] ] ] ] ] ] ] ] ] h h h h h h h ] ] ] ] ] ] ] ] ] ( ( ] ] ] ] ] ] ( ( ] ] ] ] ] ] ] ] ] ] ] ] h i ] ] ] $.2.] = s i i i i i i a a i i i i a a a i a a a a a a a a a i a a i i i i a a a a a a a a a a a a a a a a i i i i a a a a h a i i i i a a s h i ] 2.$.s i s i a h ] ] h h ] ] ] ] h ] ] ] h h ] ] ] ] ] ] ] ] ] ( ] ] ] ] ] ] ] ] ( ( ( ] a a h h ] ] ] ] a a a a h h h h i ( ( ( ' ' ' ' ( i ' ( $.$.= = & - : : : : : : : : : : : : : : : : : : : : : : : : : : : : : : : : : : : - - - - - - - - - - - - - - - : - - - - - - - - - - - - : - : { ' - * & & - - - - - - = - & & = & = = - - - ",
"- - - - - - - - : - - - - - : : : : : : : : : : : : : : : : : : : : : : : : : : : : : : : : : : : : : : : : : : : 3 : $.{ & & & - : i ' i i f ' f f f f f f f f i i i i i i i i ( ( ( ( h h h h h h h h h h h h h h h h a h h ] ] ] ] ] _ _ ] ] ] ( _ ] ] ] ] a _ ( ] =.$.a s s i i a h h h h h ] ] ] ] ] ] ] ] h h a a a h h h h h ] ] h ] ] ] ] ] ] ] ] ] ] ] ] ] ] ] ] ] ] ] ] ] ] ] ] ] ] ] h ] ] ] ] i i i ] ] ] $.2.] = s i i i i i i a a i i i i i i i i i i i i i i i i i i i i i i i i i i i i i i i i i i a i i i i i i i i i i i i i a a a i i i i a s h i h 2.$.s i s i a h ] h h h ] ] ] ] h ] ] ] ] ] ] ] ] ] ] ( ] ] ] ( ( ( ] ] ] ] ] ] ( ( ( ( a a h ] ] ] ] ] a a a a a a h h i ( ( ( ' ' ' ' ( i ' ( $.$.= = = - : : : : : : - - - - - - - - - - - - - - - - : : : : : : : : : : : : : - - - - - - - - - - - - : : : : - - - - - - - - - - - - : - : { ' - * & & * - - - - - = & & & = = = = = - - ",
": : : : : : : : : : : : : : : : : : : : : : : : f f f f : : : : : : : : : : : ' : : : : : : : : ( ( ( ( ( ( 3 3 ' : - { { - - & - : ' ' ' i : : : : : : : : i i ' ( ( ( i ( ( ' ( ( ( ( ( ( ( h a a a a h h h h h h h h h h h h a ( ( _ ( ( ( ( a a ( ( ( ( ( ( a a +.$.$.i = s i i a h ] h h h a h h h h h h h ] ] ] ] ] ] ] ] h h h ] ] ] ] ] ] ] ] ] ] ] ] ] ] _ ] _ ] ] ] ] ] _ _ _ _ _ a a i i a a a a a i a a i +.=.+.u i s i i i i i i i a a a i i i i a i i i i a a i i i i a a a a a a p p p a a a a p i i i p i i i i i i i i i i i i i a a a i i h ] i h i h 2.$.s i s i h ] ] h h h ] ] ] ] ] a a a a a a a a a a a a a ( ( a a a a a a a ( a ( ( ( a a a a a a a a a a a a a a a i ( ( ' ' ' ' ' ' i i ( i $.$.= - - : i i i : : i i : i : : : i : i i i i i i i i i i i : : : : : : : : : : : : : : : : : : : : : : : : : : : : : & & - - - - - - - * - : ' ' : & & & & - - * - - - - - - - - - - - - - ",
"- - - - : : - - : : - - - - : : : : : : : : : : : : : : : : : : : : : : : : : : : : : : : : : : : : : : : : 3 3 ' ' - { { & - & - : i ' f i : : f f f ' ' ' ' ' i ( : : i ( ( ( ( ( ( ( ( ( ( ( a a a a h h h h h h h h h h h h a ( ( _ ( ( ( ( ( a ( ( ( ( ( ( ( ( +.=.$.a s s i i a h h h h a a a a a a a a a h h h h h h h a a a a h h ] ] ] a a h h h h a a a _ _ _ _ _ _ _ _ _ _ _ _ _ a a a a a a a a a a ] ( a +.2.+.i i s i i i i i i i a a a i i i i a i i i i a a i i i i a a a a i i p p p p a a a a i i i p i i i i i i i i i i i i i a a a i i h ] i h i h 2.$.s i s a h ] ] ] ] ] ] ( ( ] a a a a a a a a a a a a a a a ( ( a a a a a a a ( ( ( ( a a a a a a a a a a a a a a a i ( ( ( ( ( ( ( ( ] i ] ( $.$.= = : : : i : : : : : : : : : : : : i i i i : : : i i i i : : : : : : - - - - - - - - - - - - - - - : : : : - - - - - - - - - - - - * & - : ' ' - & o & & - - * - - - - & - = = = = - - - ",
"- - - - - - - - - - - - - - - - - : - - : : : : : : : : : : : : : : : - : : : : : : : : : : : : f f f f f f f f ' ' - { { = - & - : f ' f f f f f f ' ' ' ' ' ' i i i i i i ( ( ( ( ( ( a a a a h h a h h h a a ] ] ] ] ] ] ] ] _ _ _ _ _ _ ( ( ( ( ( _ _ _ _ _ _ ( +.=.$.a s s i i i h h h h a a a h a a a a a a a a a a a a a a a a a a h h h a a a a a a a a a a a a a a a a a a a a a a a a a a a _ ] a a a ] ] ] $.2.+.u i s i i i i i i i a i i i i i i i i i i i a a i i i i i i i i i i a a a a a a a a a p a p p a p p i i i i i i i a i a a a i i h ] i h i h 2.$.s s s a ] +.+.] ] ] ] ] ] ] ] a a a a a a a a a a a _ _ _ _ _ ( a a a a a a _ _ ( _ a a a a a a a a a a a a a a i i i i i i i i ( i ] ( ] ( $.$.= = : : : i : : : : : : : : : : : : : : : : : : : : i i : : : : : : : - - - - - - - - - : - - - - - : : : : - - - - : : : - - - - - & & - : ' ' - & & & & - & = - - - - - - & - = = - - - ",
"- - : : : : - - - - - - - - - : - - - : : : : : : : : : : : : : : : : : : : : : : : : 3 f f f f f f f f f f f f ' ' : { { - - & - : f ' ' f f ' i f i f f i f ( i i i i i ( ( ( ] ( ( ( ] ] ] ] ] ] ] ] ] ] ] ] ] ] ] ] ] ] ] ] ] ] ] ] ] ] ] ] ] ] ] ] ] ] ] ] _ a _ @.$.a s s i i a h h h h h h h h h h h h h a h h a h h h h a a a h h h ] ] a h h h h h h a a a a a a a a a a a a a a _ a _ ] ] ] ] ] ] _ a ] ] a $.2.+.s u s i i i i i i i i i i i i i i i i i a a a a i i i i i i i i i i a a a a a a a a a a a a a a p p i i i i i a a a i a a a i i h ] i h i ] t.$.s s s i ] +.+.] ] +.] ] ] ] ] ] a a _ _ _ _ ] ] ] ] _ ] ] ] ] ] _ _ a a a a a _ _ _ ( ( ( ( ] ] ] ] ] ] ] _ a a i i i i i i i i i i ] i ] i $.$.= = = : : : : : : : : : : : : : : : i i i : : : i i i i i i i : : : : : : : : : : : : : : : : : : : : : : : - - - - : : : - - - - - - & - : ' ' : & & & = - & & = - - - - - - - - - - - - ",
"- : - - - - - - - - - - - - - - - : : : : : : : : : : : : : : : : : : : : : : : ( ( ' ' ' ' ' ' f f f f f f f f ' ' : $.{ - - = : : ' ' ' ' ' ' f f f f f f f i ( ( i i ( ( ( ( ( ( _ _ _ _ ] ] ] ] ] ] ] ] ] ] ] ] ] ] ] ] ] ] ] ] ] ] _ _ _ _ _ _ _ _ +.] ] ] _ a ( @.$.a i i i a h h h h h h ] ] ] ] ] ] ] ] a h h h h a h h a h h h ] ] ] ] h h h h h h h a a a _ a _ _ _ _ a a a a _ _ | | ] ] ] ] ] _ _ _ ] ] _ @.=.+.s u u u u i i i i u i i i i i u i i i a a a i i i i i i i i i i i a p a a a a a a a a a a a a a a p i i i i i a a a i a a a i i a ] i ] i ] t.$.s i s i ] ] ] ] ] ] +.] ] ] _ _ _ _ ] ] ] ] ] ] ] ] ] _ _ _ _ _ _ _ a a _ _ _ _ _ _ ] _ ] _ ] ] ] ] _ _ _ _ ( a a i ( ( ( ( a a a i ] ( ] ( $.$.= = = - : : : : : : : : : : : : : : i i i i i i i i i i i i i i i i : : : : : : : : : : : : : : : : : : : : : : : : - - - - : : : : - - - : ' { : & & & - - - & = = - - - - - - - - - - - ",
"- : : - : : - - - - - : - - : - - - - - : : : : : : : : - : : : : : : - : : : : : : : : : : : : : : : : : : : : ' i - { { - - = : : f f i : i f ' ' ' ' ' f f ' i ( ( i i ( ( ( ( ( ( ( ( ( ( ( a h h h h h h a ] ] ] ] ] ] ] ( _ _ _ _ ( _ ( ( ( ( ( ( _ _ _ _ ] i a +.$.] i i i i a h h h h h h h h h h h h a h h h h h h a a a a a a h h a ] h h h h h h h a a a a a a a a a a a a a _ _ _ _ _ ] _ _ _ ( a a +.] _ @.2.+.u i u u u i i i i u i i i i i i i i a a a a i a i i i i i i i i a a i i i i i i i i i i i p a a i i i i i i i i i a i a a a i i a ] a ] i h 2.$.s i s i h ] ] h h ] _ _ _ _ _ _ ( ( ( ( ( _ ( ( ( ( _ _ _ _ _ ( a a a a a a a a a a a ( ( ( ( ( ( ( ( ( ( ( ( a i i i i i i i i i i ( ( ] ( $.$.s i - - : : : : : : : : : : : : : : i i i i i i i i i i i i i i i : : : : : : : : : : : : : : : : : : : : : : : - - = - - - - : : : - - - : ' ' : & & & - - - & & = - - - - - - - - - - - ",
"= = - - - - = = - - - - - = = = - - - - - - - - - - - - - - - - - - - - - - - : - - - - - - - - : : : : : : : : : : & { { = = = : : : : : - - : : : : : : : : : i : i i i i i i i i a a i i i i i i i i i i i i i i i i i a i i a i a a a a a i p a a p i i i a ( s s ] +.a s s i i i i a a h h a a a a a a a a i i i i i i i i i i i i i a a a i i i i i i a a p p p p p p a a a a a a a a p p a a a a a i i u a a a +.=.+.s u u u i i i i i u i u i u u i i i i i a a a a a a i i i i a a a a i u u u u u u u i i i i i i i i i i i i i i i i i a a a a a a ] a h s i 2.+.s i s i h h h h a i a a a a a a a a i i a a a a a a u a a a a u u u u u u u u u u u i i a i a a i i i i i i i i i u i i i i i i i i i s ( i +.$.= = = - : : : : : : : : : : : : : : : : : : : : : : i i s s s : : : - - - - - - - - - - - - - - - - - - - - - - - - - - - - - - - - - & & - : i - & & & - - = & & & & & & & & & & & - - - ",
"& & & & & & & & & & & & & & & & & & & & & & - - & & * & & & & & - & = & & - - - = = - - - - - - = = - = - = - = - = & ' { & = & - : : - & & & = - = - = - = - = : = = = = : i i s s s s s s s s s s s s s s s s s s s s s s s s s s s s u u u s s u u s s s u u i = = i _ i s = s s s i s i a a i i i i i i i i i i i i i i i i i i i i i i i i i i i i i i i i u u p u p u p u p u p u u u u u i i i i u s s s u s s _ $.( = s s u i i i i i u i u i u u i i i i i a i a a a a a i a i a a a a u u u u u u u u u u u u u u u u i i i i i i i i i a a a i a a ] i h = s $.+.s i s i a h a i i i p i i i i i i i s s s s s s s u u u u u u u s s s s s s u u s s i u u u u u u u s s s s u s s s s s = = = = = = ; = = = ] +.= = = - : : : : : : : - - - - - - - - - : - : - : = : : : : : = : = - = - = - = - = - = - = - = - = - - - - = & = & : - - - = = = & & & & = : : - & & & - - = & & & & & & & & & & & & & & ",
"& & & & & & & & & & & & & & & & & & * & & & & & - & & & & & & & = = = & = & = = & & = & = & = = = = = = = = = = = = = = = = = = & & & & & & & & & & & & & = = = = = = = = = = = = = = = = & = = = = = > = = s = s = s = s = s s ; u ; u u u u u u u u u u u u s s s s s s s s = s s s s s s s s u s s s s u i i u u u u s s u u i u u u i i i i = s i s s i i s u s u s u s u s u u u u u u i i u u u u u u u u u u u u u u u i s s s s u u u u s s s s s s s s i i p u i u i i p u s p p s s u s u s = s i i s u u u i u s s s u s s s s s s s s s s s s s s i i i i u u i i i u u s s s s s s s s s s s s s s s s s s s s s s s s s u s s s i = s i u s u i s s s s s = = = = = s s s s = = = = = = = & & = = = = = = = = = = = = = = = = = = & & & & = = = = & & = & = & = & & & & & & & & & = = : = = = = & = = = = = = = & & & & & & & & & & & & & & & & & & & & & & & & & = & = = & & & & & & & & & & & & & & & ",
": : : : : : : : - - : : : : : : : 3 f 3 : : 3 f : - = - : - : ' ' ' ( ( i i ( ( i i i i i i ' ' ( ( ( ( ( ( ( ( ' ' ' ' ( ( ( ( ' ' ' ' ' ' ' ' ( ( ' ' ' ' ' ' ] ' ] ' ] ' ' ' ( ' ' ' ( ( ' ' ( i = = i ( ] ( i i i i i i i i i u / ( ( ( ( ( ( ( ( ( ( ( ( ( _ a a a a a a a a a a a a a a a a a a a a a a h _ _ _ h a h a _ ] _ a _ ] ] ] ] _ ] a i a +.+.+.] ] ] ] ] ] _ ] _ _ _ _ _ ] ] ] ] ] ] ] ] ] ] ] ] ] ] ] ] ] ] ] ] ] ] ] ] ] ] ] ] ] ] ] ] ] ] ] ] ] | | _ | _ _ @._ _ +.+.a a +.+.] a s i +.+.+._ _ ] ] ] _ _ ( a a ( a ( ( ( ( ( ( ( ( ( ( ] ] ] ] ] ] +.+.] ] _ _ _ _ ( ( _ a h h h h h h h h h h h h h h h h a a a ] a a a ] ] ] a i i a ] ] ] ] ] ] ] ] ] ] ] ] ] ] ] ] ] ] ' ' ' ' ' ' ' ' ] ' ] ' ] ' ] ' i : i : i i i i ( ( ( ( ' ' ' ' ' ' ' ' ' ' ' ' ( ( ( ( ( ( ( ( ' ( i : : : i i ( ( i i i i i i h h f f h h h h f f f f f f i i i i i i : ( ' ' : : : : : : : : : : : : : : : : : : : ",
"' ' ' ' ' ' ' ' ' ' ' ' ' ' ' ' ' ' ' ' ' ' { { ( - = : ' ' ' { { { { { { { { { { { { { { { { { ] ] { { { { { { +.+.+.+.{ { +.{ +.+.$.{ $.{ $.{ +.+.$.{ $.$.$.$.$.$.$.{ $.$.$.$.+.+.{ +.+.+.$.$.] ( i i ] ] +.+.$.$.$.$.$.$.$.$.@.@.@.@.@.=.=.=.=.=.=.=.=.=.=.=.$.=.=.=.=.=.=.=.=.=.=.=.=.=.=.=.$.$.=.=.=.$.$.$.2.2.2.2.2.2.2.2.=.=.=.=.=.2.2.t.$.+.a i a +.$.$.t.t.2.2.2.2.2.2.2.2.=.=.2.2.t.2.t.t.t.t.t.t.t.t.t.t.t.t.t.t.t.t.2.2.2.2.2.2.t.t.t.t.t.t.t.t.t.t.t.t.t.t.t.t.t.t.t.t.t.t.t.t.t.t.=.@.a s a @.=.=.2.2.2.t.2.2.2.=.=.=.=.=.=.=.=.=.2.2.2.2.2.2.2.2.2.=.2.=.2.2.2.2.2.2.=.=.=.=.=.2.2.2.2.2.2.2.2.2.2.2.2.2.2.2.2.2.2.$.$.2.=.$.$.2.$.$.a s i ] $.$.$.$.$.$.$.$.+.$.$.$.$.$.$.$.$.$.$.$.$.$.$.{ $.{ $.$.$.$.$.{ $.{ $.$.$.$.$.$.$.$.+.+.+.+.$.{ $.{ $.{ +.+.$.{ $.{ $.{ $.{ $.{ $.{ { { ( : = i ' { { ] ] ] ] ] ] { [ [ { { { { { { { { ] ' ' ' ' ' { { ' ' { { { { ' ' ' ' ' ' ' ' ' ' ' ' ' ' ' ' ' ' ' ",
": : : : : : : : : : : : : : i : : 3 3 3 3 f ' { ' - & - : ( ' { ' ' ' ' ' ' ' ' ' ' ' ' ' ' ' ' ] ] ] ] ] ] ] ] ] ] ] ] ' ' ] ] ] ] ] ] ] ] ] ] ] ] ] ] ] ] ] ] ] ] ] ] ] ] ] ] ] ] ] ] ] ] $.$.] i = i ( ] ] ] ' ' ( ( ( ( ( ( ( ( ( _ ( _ _ _ _ _ _ _ _ _ _ ( a a a h _ +.+.+.+.+.+.+.+.+.+.+.] h _ _ _ ] ] ] +.+.+.+.+.+.+.+.] +.+.] +.+.+.@.=.+.s s i +.+.] +.+.+.+.+.+.+.+.+.+.+.+.+.+.+.+.+.+.+.+.+.+.+.+.+.+.+.+.+.+.+.+.+.+.+.+.+.+.+.+.+.+.+.+.+.+.+.+.+.+.+.+.+.+.+.+.@.+.+.$.$.+.+.$.t.+.s = u +.@.@.@.@.@.@.@.@.+.+.+.] ] ] +.] ] ] +.+.+.+.+.+.+.+.+.+.+.+.+.+.+.+.+.@.@.+.+.+.+.+.+.] ] ] +.+.+.+.+.+.+.+.+.+.+.+.+.] ] +.+.] ] +.2.$.i = s ] +.+.] ] ] ] +.+.+.] +.+.+.+.+.+.] ] ] ] ] ] ] ] ] ] ] ] ] ] ] ] ] ] ] ] ] ] ] ] ] ] ] ] ] ] ] ] ] ] ] ] ] ] ] ] ] ] ] ] ] ] ] ] ] ] $.] i = = : ( ] ] ' ' ' ' ' ' ' ] ] ' ' ' ' ' ' ' ' f f f i i i ' ' ( ( ' ' ' ' ( ' ' i ( ( i i ( ( ( ( : i i i ' ' ' ",
"- = - - = = - - = - = = - - - - - - - - - - : ' ' - & = : : : i i i i i i i i i i i i i i i i h ( ( ( ( ( ( ( ( ( ( ( ( ( ( ( ( ( ( a a a a a i a i a a ( ( ( ( ( ( ( a ( ( a a ( ( ( ( ( ] +.+.+.i = = i i i i s s s s s s s s s u u u u u u u u u u u u u u u s s s s p p p p u u p p p p i p i u u u u i a a a a a a a a a a i i a a i i ( ] =.] s = u ( a i a a a a a a a a a a a a a a a a a a a a a a a a a a a a a a a a a a a a a a a a a a a a a a a a a a a a a a a a _ a _ | _ a _ @.=.+.s = u a _ ( _ _ _ _ _ _ ( ( ( ( ( ( ( ( ( ( ( ( ( ( a a a a a a i i i a a a a a a a a a a a a a a a a a a a a a a a a a a a a i i a i u i _ =.+.u = s a ] _ _ _ _ _ _ _ ] _ ( ( _ _ _ ( ( ( a i a i a i a i ( ( ( ( ( ( ( ( i i i i a i a i ( ( ( ( ( ( ( ( ( ( a a a a a i a a a a ( ( ( ( +.] i ; ; = i ( ( ( ( ( ( ( ( i i i i i i i i i i i i s s s s : : : : : i i i i i i i : : : : : : : : : : : : : : : : ",
"= = = = = = = = & & = = = - - - - - - - - : ' ' { : & & : : : : i i i i i i h ' h h ' ' h ' ' ( ( ( ( ( ( ( ( ( ( ( ( ( ( ( ( a ( ( ( ( a a a a a a a a ( ( ( ( ] ] ] ] ] ] ] ] ( ( ( ( ( ] +.$.$.i = = i s s i ( ( ( ( ( ( ( ( ( ( ( ( ( ( ( _ ( ( ( ( ( ( ( ( a a a a _ | | | a a a a a a a a a a ( ( _ _ _ _ _ _ ] ] _ _ _ _ a ] ] _ a _ +.$.2.+.u s a ( a a _ _ _ _ _ _ _ _ _ _ _ _ _ _ _ _ +.+.+.+.+.+.+.+.+.+.+.+.+.+.+.+.+.+.+.+.+.+.+.+.+.+.+.+.+.+.+.+.| | | | +.| | +.| | +.@.+.| @.=.t.+.u u a a a ( +.+.+.+.+.+.+._ +.+.+.+.] ] ] ] _ _ _ _ _ _ _ _ +.+.+.] ] ] +.+.] ] ] ] _ _ _ _ +.+.+.+.+.+.+.| ] | ] | ] _ ] +.] _ _ ] _ a _ +.$.+.i = s a _ ( ] ] ] ] ] ] ] ] _ _ _ _ _ ( ( ( ( ( a a ( ( ( ( ] ] ] ] ] ] ] ] ] ] ] ] ] ] ] ] ( ( ( ( ( ( ( ( ( ( a a a a a a a a a a ( ( ( ( ] ] i = = = i ( ( ( ( ( i i i i i i i i i i i i i i i i i i i i i : i i i i i i : : s : : : : : : : : : : : : : : : : ",
"- - - - - - - - = = - - : : : : : : : - - : i ' { : & > : : : : i i i i i i ( ( ( ( ( ( ( ( ] ] ( ( ( ( ( ( ( ( ( ( ( ( ( ( ( ( _ _ _ ] ] ] _ _ ( _ _ _ _ _ _ ] +.+.+.+.] ] +.] _ _ _ ( _ ] +.$.$.i > s i i s i s s s s s s s s s u u u u u u u u u u u u u s u p p p p p p p p s s s s u u u s i i i u u u i a i i i i i i i i i a a a i i _ +.2.+.u u a a _ +.a a a a a a a a a a a a a a a a a a _ _ _ _ _ _ _ _ _ _ _ _ a a _ _ _ _ _ _ _ _ _ _ _ _ _ _ a a a a a a a a a a a a a a a p _ #.t.@.a a a a a _ a a _ ( a a a a a a ( a ( a ( ( i i i i i i a a a a a a a a a a a a a i i i i i a ( a ( a a a a a a a a a a a a a i i a i i i _ $.+._ s s i ( _ ] ] ] ] +.+.+.+.] ] ] +.] ] _ _ ] ] ] ] ] ] ] ] ] ] ] ] +.+.+.+.a a a i a a a a _ _ _ _ _ _ _ _ _ _ ] _ ] ] _ _ ( ( _ _ _ _ ( ( +.] i = ; = i ( ( ( ( ( ( i i i ( ( ( ( ( ( ( ( ( i i i i i i i i i : : i i i i i i i i : : : : : : : : : : : : : : : ",
": : : : : : : : : : : : : : : : : - - - = - : ' { : & & : : : i : : s s s i i i i i i i i i i ( ( ( ( ( ( ( ( ( ( ( ( ( ( ( ( a _ _ _ ] ] ] _ _ ( _ _ _ ] _ _ ] _ _ _ _ ( ( a a _ _ ( ( a _ +.@.$.i > = i i i ( ( ( ( ( ( ( ( ( ( ( ( ( ( _ _ _ ( ( ( ( ( ( ( ( a a a a a p a p a a a a a a a a _ _ _ _ _ _ _ ] ] ] ] ] ] ] ] ] ] +.+.+._ ] @.=.$._ s s u a _ @.| | | | | | | | | | | | | +.+.+.| | | | | | | | | | | | | | | | +.+.| | +.| +.+.| | | | | | | | +.@.+.@.@.@.@.@.| | +.+.| _ @.=.=.+.a u u u a +.+.+.+.+.+.+.+._ _ _ _ _ _ _ _ _ _ _ _ _ _ ] _ _ +.+.] ] ] ] ] ] ] ] ] _ _ _ _ _ _ _ _ _ _ _ _ _ _ _ _ _ _ _ _ _ ] ] ] +.] ( ] +.$.$.] s = u ] ] ] ] ] ] ] ] ] ] ] ] ] +.] ] ] ] _ _ _ _ _ _ ( ( ( ( ( ( _ _ _ _ ] ] ] ] ] ] ] +.a ( ( ( a a a a _ _ _ _ ] ] ] ] a a a a a ( ( ( $.] i = = ; i ( ( ( ( ( i i i i i i i i i i i i i i i i i i i i : : = = : : i i i i i i : : : : i : : : i i : : : : : ",
": = = = - : : : : : : : : : : : : : : : = = i { ' = = = = : ( i i i i i i i i i i i i i i i a ( ( ( ( ( ( ( ( ( ( ( ( ( ( ( ( ( a a a a _ _ _ _ _ _ _ _ _ _ _ _ | | | _ _ _ | | _ +._ a +._ | =.@.u u u u a ( i p p p a a ( ( ( ( ( _ _ ( ( ( ( _ _ _ _ ( ( _ _ a a a a a a a a a a a a a a a a a _ _ _ _ _ _ a _ _ _ _ _ _ _ _ _ +._ a _ ( _ =.=.+.u u a _ _ _ | | | | | | | | | | | | | | | | | | | | | | | | | | | | | | | | | | | | | | | | | | | | | | | | | | | | | | | | _ +._ _ +._ _ =.w.@.a u u _ _ _ _ _ _ _ _ _ _ _ _ _ _ _ _ _ _ _ _ _ _ _ _ _ _ _ _ _ _ _ _ _ _ _ ] ] ] ] ] ] ] _ _ _ _ _ _ _ _ _ ( _ _ _ _ _ _ _ _ ( _ ( _ _ _ ] =.=.u u ( u _ ] _ _ _ _ _ _ _ _ _ _ _ _ _ _ _ _ | | | | | | | | | | | | | | | | _ _ | | | | _ _ | | | _ _ _ | | _ _ _ _ _ _ _ _ _ _ _ _ _ _ _ _ +.$.; = u = u i ( ( ( ( ( ( ( ( ( ( ( ( ( a i i i i i i i i i i i i i i i i i i i i i i i u u : : : : : s s : : i i i ",
": = = = = : : : : : : : : : : : : : : : = = i { ' = = = = : ( i i i i i i i i i i i i i i i a ( ( ( ( ( ( ( ( ( ( ( ( ( ( ( ( ( a a a a _ _ _ _ _ _ _ _ _ _ _ _ | | | | _ _ _ _ _ +._ a | _ | =.$.u u u u a ( i p p u a a ( ( ( ( ( ( _ a ( ( ( _ _ _ _ ( ( _ _ a a a a a a a a a a a a a a a a a _ _ _ _ _ _ a _ _ _ _ _ _ _ _ _ +._ a _ _ _ =.=.+.u u a _ _ _ | | | | | | | | | | | | | | | | | | | | | | | | | | | | | | | | | | | | | | | | | | | | | | | | | | | | | | | | _ +._ _ | _ _ =.w.@.a u u _ _ _ _ _ _ _ _ _ _ _ _ _ _ _ _ _ _ _ _ _ _ _ _ _ _ _ _ _ _ _ _ _ _ _ ] ] ] ] ] ] ] _ _ _ _ _ _ _ _ _ ( ( _ _ _ _ _ _ _ ( ( _ _ _ _ ] =.=.u u ( u _ ] _ _ _ _ _ _ _ _ _ _ _ _ _ _ _ _ | | | | | | | | | | | | | | | | _ _ _ _ | | _ _ | _ _ _ _ _ | | _ _ _ _ _ _ _ _ _ _ _ _ _ _ _ _ +.=.u = u = u i ( ( ( ( ( ( ( ( i ( ( ( ( a i i i i i i i i i i i i i i i i i i i i i i i u u u : : : : : i : : i i i ",
": = = = = : : : : : : : : : : : : = : : : = i ] ( = = = & : ( : i i i i i i i i i i i i i a ( ( ( ( ( ( ( ( ( ( ( ( ( ( ( ( ( ( a ( a a _ _ _ _ _ _ _ _ _ _ _ _ _ _ _ _ _ _ _ _ _ +._ a _ _ _ =.$.u u u u a _ a a a a a a a a a _ _ _ _ a a _ _ _ _ _ _ _ _ _ _ a a a a a a a a _ a a a a a a a a _ _ _ _ _ _ a _ _ _ _ _ _ _ _ _ _ _ a _ a _ =.=.+.u u a _ _ _ | | | | | | | | | | | | | | | | | | | | | | | | | | | | | | | | | | | | | | | | | | | | | | | | | | | | | | | | _ +._ _ | _ _ =.w.@.a u u _ _ _ _ _ _ _ _ _ _ _ | | | | | _ | | | _ _ _ _ _ _ | _ _ _ _ _ _ _ _ _ _ ] ] ] ] _ _ _ _ _ _ _ _ _ _ _ _ _ _ _ _ _ _ _ _ _ _ _ _ _ ] =.=.u u a u _ _ _ | | | | | _ _ | | | | | | | | _ _ _ _ _ _ _ _ _ _ _ _ _ _ _ _ _ _ _ _ _ _ _ _ _ _ _ _ _ _ _ _ _ _ _ _ _ _ _ _ _ _ _ _ _ _ _ _ +.=.u = u = i i ( ( ( ( ( ( ( ( ( ( ( ( ( ( i i i i i u u i i i i i i i i i i i i i i i i i u u : : : : : s s : i i i ",
": = = = = : : : : : : : : : : : : : : : : = i ] ( = = = = : ( u i i i i i i i i ( i i i i a ( ( ( ( ( ( ( ( ( ( ( ( ( ( ( ( ( _ ( _ a _ _ _ _ _ _ _ _ _ _ _ _ _ _ _ _ _ _ _ _ _ _ +._ ( ] _ _ =.@.u u u u a _ a a a a a a a a a _ _ a a a a _ _ _ _ _ _ _ _ _ _ a a a a a a a a a a a a a a a a a _ _ _ _ _ _ a _ _ _ _ _ _ _ _ ( _ _ a _ a _ =.=.+.u u a _ _ _ | | | | | | | | | | | | | | | | | | | | | | | | | | | | | | | | | | | | | | | | | | | | | | | | | | | | | | | _ _ +._ _ | _ _ =.t.@.a u u _ _ _ _ _ _ _ _ _ _ _ | | | | | | | | | | | _ _ _ _ | _ _ _ _ _ _ _ _ _ _ ] ] ] ] _ _ _ _ _ _ _ _ _ _ _ _ _ _ _ _ _ _ _ _ _ _ _ _ _ _ =.=.u u a u _ _ | | | | | | _ | | | | | | | | | _ _ _ _ _ _ _ _ _ _ _ _ _ _ _ _ _ _ _ _ _ _ _ _ _ _ _ _ _ _ _ _ _ _ _ _ _ _ _ _ _ _ _ _ _ _ _ _ +.=.u = u = i ( ( ( ( ( ( ( ( ( ( ( ( ( ( ( i i i i i u u i i i i i i i i i i i i i i i i i i u i : : : : s s i i i i ",
": : = = = = s s s s s s s s s s s : : s = = i ] ( = = = = u ( u ( ( a a a a a a ( ( a a ( ( ( _ _ _ _ ( ( ( _ _ _ _ _ _ ( ( ( _ ( ( _ _ ( _ _ _ _ _ _ _ _ _ _ _ _ ( ( ( _ _ _ _ _ | _ ( _ ( _ =.@.u u u u a _ a _ ( ( a ( ( ( ( _ a a a a a _ _ _ _ _ _ _ _ _ _ a a a a a a a a _ _ _ _ a _ a a _ _ _ _ _ _ _ ( _ _ _ _ _ _ _ _ ( _ _ ( _ ( _ =.=.| u u a _ _ | | | | | | | | | | | | | | | | | | | | | | | | | | | | | | | | | | | | | | | | | | | | | | | | | | | | | | | _ _ | .._ _ | _ _ $.=.@.( u u ( _ _ _ _ _ _ _ _ _ _ | | | | | _ | | | _ _ _ _ | _ | _ ] ] _ _ _ _ _ _ _ ] ] ] ] _ _ _ _ _ _ _ _ _ _ _ _ _ _ _ _ _ _ _ _ _ _ _ _ _ _ =.=.s u i u _ _ | | | | | | | | | | | | | | | | _ _ _ _ _ _ _ _ _ _ _ _ _ _ _ _ _ _ _ _ _ _ _ _ _ ( ( _ _ _ _ _ _ _ _ _ _ _ _ _ _ _ _ _ _ ( ( ( +.$.u s u s p a ( ( ( _ _ ( ( ( ( ( ( ( ( ( ( p u u u u u u u / u u i i u u u i i i i u u u u i s i i i i i i i i i i ",
": : = = = = s s s s s s s s s s s : s s : = i ] ( = = = = u ( u ( ( ( ( ( ( ( ( ( ( ( ( ( ( _ _ _ _ _ _ ( ( _ _ _ _ _ _ _ _ _ _ _ _ _ _ _ _ _ _ _ _ _ _ _ _ _ _ _ _ ( ( _ _ _ _ _ | ( ( _ ( _ =.@.u u u u p _ ( _ _ _ ( ( ( ( ( a a a a a a _ _ _ _ _ _ _ _ _ _ a _ a a _ a a a _ _ _ _ a a a a ( _ _ _ _ _ _ ( _ _ _ _ _ _ _ _ ( _ _ ( _ ( _ =.=.| u u a _ _ _ | | | | | | | | | | | | | | | | | | | | | | | | | | | | | | | | | | | | | | | | | | | | | | | | | | | _ | | _ | | .._ _ | _ _ #.w.@.( u u ( _ _ _ _ _ _ _ _ _ _ | | | | _ _ | | | _ _ _ _ _ | | _ ] ] ] ] ] ] ] _ _ ] ] ] ] _ _ _ _ _ _ _ _ _ _ _ _ _ _ _ _ _ _ _ _ ( ( _ _ _ _ =.=.s u i u _ _ | | | | | | | | _ | | | | | | _ _ _ _ _ _ _ _ _ _ _ _ _ _ _ _ _ _ _ _ _ _ _ _ _ _ _ ( _ _ _ _ _ _ _ _ _ _ _ _ _ _ _ _ _ _ ( ( ( +.$.u s u s p a ( ( ( _ _ ( ( ( ( ( ( ( ( ( a p u p u u u u u u u u i i u u i i i i i u u u u s s s i i i i i i i i i ",
": : = = = : s s s s s s s s s s s s s s : = ( +.( = = ; = u ( u ( ( ( ( ( ( ( ( ( ( ( ( ( ( _ _ _ _ _ _ ( ( ( _ _ _ _ _ _ _ _ _ ( ( ( _ _ _ _ _ _ _ _ _ _ _ _ _ _ _ _ _ _ _ _ _ ( _ ( ( _ ( ( =.@.u u u u a _ ( _ _ _ _ _ a ( ( _ _ _ a a a a a _ _ _ _ _ _ _ _ _ _ _ _ _ _ a a _ _ _ _ a a _ _ ( _ _ _ _ _ _ ( _ _ _ _ _ _ _ _ _ | _ _ _ ( _ =.=.| u u a _ _ _ | | | | | | | | | | | | | | | | | | | | | | | | | | | | | | | | | | | | | | | | | | | | | | | | | | _ _ | | | | | ..| _ | _ _ #.w.@.) u u ( _ _ _ _ _ _ _ _ _ _ | | | | _ | | | | _ _ _ _ | | | _ ] ] ] ] ] ] ] _ _ _ ] ] _ _ _ _ _ _ ] ] ] ] ] ] ] ] ] ] _ _ _ _ ( ( ( _ _ _ _ =.=.s u a u _ _ | _ | | | | | | _ _ | | | | | _ _ _ _ _ _ _ _ _ _ _ _ _ _ _ _ _ _ _ _ _ _ _ ( _ _ _ _ _ _ _ _ _ _ _ _ _ _ _ _ _ ( ( ( ( ( ( ( ( +.$.u s u s p a ( ( ( _ _ ( _ ( ( _ ( ( ( ( p p a p a a u u u u i i i i u u i i i i i u u u u s s s s : i s i i i i i ",
": - = = = : : : : : : : : : : : s s s s = = ( +.( ; = ; = u ( u ( ( ( ( ( ( ( ( ( ( ( ( ( ( _ _ _ _ _ _ ( ( _ _ _ _ _ _ _ _ _ _ ( ( ( _ _ _ _ _ _ _ _ _ _ _ _ _ _ _ _ _ _ _ _ _ ( _ ( ( _ ( ( =.@.u u u u a _ ( _ _ _ _ _ a ( ( _ a a a a a a a _ _ _ _ _ _ _ _ _ _ _ _ _ _ a a a _ _ _ _ _ _ _ ( _ _ _ _ _ _ ( _ _ _ _ _ _ _ _ _ | _ _ _ ( _ =.=.| u u a _ _ _ | | | | | | | | | | | | | | | | | | | | | | | | | | | | | | | | | | | | | | | | | | | | | | | | | | _ _ | | | | | .._ _ | _ _ #.w.@.a u u ( _ _ _ _ _ _ _ _ _ _ | | | | _ _ | | | _ _ _ _ | | | _ ] ] ] ] ] ] ] _ _ _ ] ] _ _ _ _ _ _ ] ] ] ] ] ] ] ] ] ] _ _ _ _ ( ( ( _ _ _ _ =.=.s s a u _ _ _ | | | | | | _ _ _ | | | | | _ _ _ _ _ _ _ _ _ _ _ _ _ _ _ _ _ _ _ _ _ _ _ _ _ _ _ _ _ _ _ _ _ _ _ _ _ _ _ _ _ _ ( _ ( _ ( _ ( +.@.u ; u = p ( ( ( ( ( _ ( _ ( ( _ ( ( ( ( a p a a a a a u u u i i i i u i i i u i i i i u u u s s s : : s i i i i i ",
"= = = = = = = = = = = = = = = = = : : : = u ( _ ( u = = u ( ( ( ( i i i ( ( ( ( i i u u i i i i ( ( ( ( ( ( ( ( u ( _ _ ( ( ( ( u a ( ( _ _ _ ( _ _ _ _ _ _ _ _ _ _ _ _ _ _ _ _ a _ _ _ _ _ +.@.$.( u u a i a _ ( ( ( ( ( ( _ _ ( ( ) ) ( ( ( ( _ _ _ _ _ ( ( ( a _ p p p p p p u u p p _ p p p a a ( ( ( ( a a ( ( ( ( ( ( _ _ _ a _ +._ a _ @.t.+.u u a a _ +._ _ | _ | | +.+.| _ | | | _ | _ | | | | | | | | | _ | _ _ | @.+.| ( _ ( | | | _ | _ | _ | _ | _ | | | | _ _ _ _ _ _ | | _ | +.@.=.@._ u u u _ +._ _ _ _ _ _ _ _ _ _ _ _ _ _ _ _ _ _ _ _ _ _ _ _ _ _ +.+._ _ _ _ a a a a a ( _ _ _ _ _ _ _ _ _ _ _ _ _ _ _ _ _ _ +._ _ _ _ +.+.+.=.@.a s u u ( _ +.+.+.+.+.+.| | _ _ _ _ _ _ _ _ _ _ ] _ ] _ +._ +.+.+._ ] _ +.+._ _ _ _ _ _ _ _ _ _ _ _ _ _ _ _ _ _ _ _ _ _ | _ ( ( _ _ _ _ _ _ @._ ( u u u ( ( ( ( ( ( ( ( ( ( ( ( ( ( ( ( ( ( ( _ _ _ _ ( ( u u u ( ( ( u u : ; : / ( / u y ( i i i i i i i : : : : ",
"= : : : : : : = & & & = & = = = ; ; ; ; > ; / ( _ ( u u u ( a u u s = s u u u i i u u u i i i / u u u u u u u u u u u p u u ) ( a a u u u i a ( u u u u u u u u u u u u u u u u s u i i u u ( _ @.( u u ( a a ( u u u u u u u u u u u u u u u u u u u u u u u u p _ p p p p _ _ _ _ _ _ _ _ _ _ a ( ( ( ( ( ( ( u u u u u u a a a u u a a u a +.@.a s s u u u a a a p p p a ( ( ( ( _ _ _ _ ( ( p a p a a a a a ( _ ( p p ( ( _ +.| _ _ +.+._ _ _ _ _ _ _ _ _ _ ( ( ( ( a a a ( u a ( a a a _ _ =.@._ a u a _ ] _ _ _ _ _ _ _ _ _ _ _ _ _ _ _ _ _ _ _ _ _ _ _ _ a ( _ _ _ a a ( _ ( ( a a a a a u u u u u i i i u i i i u u u u a a u u u a ( _ =.+.( u u u a _ a a a a a a p p u u i i u u u u a a i i u u i i i i i u u i a a a a a a a p u u p u p p p p p p u u u u u u p u u u u u u u u u _ ( u > = ; ; u u u u u u u u u s s u u u u u u u u u u u u u u u / u u u u u ( > ; : : ; > > > : : : : : = = = = = = ",
"& & = = = = & & & & & & & & = = > ; > > > > ; u u u ; = u u u = = = = = ; ; ; ; ; ; ; ; ; ; ; ; s u u u u u u u = = u u u u u u u u s = = = u u u u u u u u u u u u u u u i i i u i a i u u a _ ( u s u u s u u u u u u u u u u a ) ) ) ) ) ) ) u u u u p p u u u u u u u p p p _ p p u u u p p u u u u u u u u a a a a ( _ _ _ a a a _ a a a +.+._ a a a p p _ a a a a _ _ _ _ | | | | | | | _ a a _ ) _ _ ) _ | _ _ _ _ _ | | _ _ _ _ _ _ p p p p p p p p p p _ _ _ _ _ _ _ _ a a _ _ _ _ _ | | a a p u u u p p p p p p p p p p p p p p p p p p p p p p p p p u u a p p p u u u u u u u u u u a a a a a a a a a a a a a a a a a a a a a a a _ _ a a u s s s u a a a a a a a a p a a a a a a a a a a i u i u u a a a a a a a ( u u u u u u u s p p p p p a a p u u u u u u u u u u p u u p p u ( ( u : ; ; u u u u u u u u u u u u u u u u u u u u u u u u u u u u = = = ; ; : = > > > > & & & = = = = = = = & = = = ",
"& & = = = = & & = & = = = = = = = ; ; > > > ; u u u ; ; u u u = ; ; ; ; ; ; = = ; ; ; ; ; ; ; ; u u u u u u u u u u u u u = u u u u u u u s s u s s s s s s s s u u u u u u u u s s u u u u u u i u s u u u s u s s s s s s s s u u u u u u u u u u u u u u u u u u u p p u u u p u u u u u u u p p u u p p p p u u u u u u u u u u u p p p p a p a a a u u u u u u u u u p p p u u u u u u u u p p p p p p p p u u u p p u u p p p p a a a a p a a a a a a a a p p p p p p p p u p p p u p p a a _ a a a a p p p p p p p p p p p p p p p p p p p p p p p p p p a p a a a a u u u u u u u u u u u u u u u u u u u u u u u u u u u u u u u u u u u a ( a u s s u s s s s s s s s u u u u u u u s s s s s s s s s u u u u u u s s p p p p p u u u s s s s s s s s s s s s s s s s s s s s s s s s s ; ; > ; ; > > ; ; ; ; ; ; ; ; = = s s s s s s s s s s s s = s u ; = = = > > > > > : : ; > > > = = = = = = = = = = = ",
"( ( ( ( ( ( i i i i i i i i i ( ( ( ( ( ( u ( ( ( ( ( _ _ _ _ ( ( ( ( ( ( ( _ _ _ _ _ _ _ _ _ _ ( ( _ _ ( ( ( ( _ ( ( _ ( u u u ( _ | +.+.+.+._ _ _ _ _ _ _ _ _ _ _ _ _ _ _ _ _ +._ _ _ _ _ _ _ _ +.+.+.+.+._ _ _ _ | | _ _ _ _ _ _ _ _ _ _ _ _ _ | _ | | | | +...| ..$.@._ p p _ | | @.@.@.| | +.+.+.+.@.@.@.@.| | | +.+.+.+.+.+.@.@.@.@.@.@.@.+.@.=.#.@.| | @.@.@.@.@.@.@.@.@.@.@.@.@.@.@.@.@.@.@.@.@.@.@.@.@.| | | @.@.| a _ | | @.@.$.$.$.$.$.$.$.$.$.$.$.$.@.@.@.@.@.@.@.@.@.@.@.@.@.@.@.$.$.$.$.=.=.$.@.@.@.@.@.@.@.@.@.@.@.@.@.@.@.@.@.@.@.@.@.@.@.@.@.@.+.+.| | +.+._ ( _ _ | +.+.@.@.@.+.+.+.+.+.+.+.+.+.+.+.+.+.+.+.+.+.+.+.+.+.+.+.+.| @.@.@.+._ _ | _ | | | | | +.+.+.+.+.+.+.+.+.+._ _ _ _ _ +.+.+._ _ _ _ _ a u s ( ( _ _ _ _ _ _ _ _ _ _ _ _ _ _ _ _ _ _ _ _ _ _ _ _ _ _ _ ( ( ( _ _ _ _ _ _ ( ( ( ( ( ( _ _ ( ( _ _ _ _ _ _ _ ( ( ( ( ( _ _ _ _ _ _ ( _ _ ( u ; ; u ( ( ( ( ( ( ( ( ( ( ( ( i i i i i ",
"( ( ' ' ' ' ( ( ( ( ( ' ] ] ] _ ] ] ] _ _ _ _ +._ _ ] +.+.+.+.+.+.+.+.+.+.+.+.@.+.+.+.+.+.+.+.+.+.+.+.+.+.+.+.+.@.| +.@.+.) u ) ( _ +.@.@.@.+.+.@.$.=.=.@.@.@.@.=.=.=.=.=.=.=.=.=.=.=.=.=.=.=.=.+.@.@.@.@.@.@.+.=.=.=.=.=.=.=.=.=.=.=.=.=.=.=.=.=.=.=.=.=.=.=.=.$.@.$.w.=.| a _ | @.$.=.w.=.#.$.$.$.$.$.$.$.=.$.=.=.=.=.=.=.=.=.=.w.w.=.w.t.w.=.=.t.t.w.=.=.w.=.w.w.w.w.w.w.w.t.w.w.w.w.w.w.w.t.t.t.t.t.t.t.t.t.w.=.w.t.w.@.| | @.$.=.w.w.w.w.w.w.w.w.w.w.w.w.w.w.w.w.w.w.w.w.w.w.t.t.w.w.w.t.t.w.w.w.w.w.w.w.=.=.=.=.=.=.=.=.=.=.=.=.=.=.=.=.=.=.=.=.=.=.=.=.=.=.=.=.=.=.=.+._ _ | @.$.=.=.=.=.=.=.=.=.=.=.=.=.=.=.=.=.=.=.=.=.=.=.=.=.=.=.=.=.$.$.=.=.@.@.@.@.=.=.=.=.=.=.=.=.=.=.=.=.=.=.=.=.=.=.=.=.=.=.=.=.=.=.=.=.=.=.+._ _ _ _ | +.+.+.+.=.=.=.=.=.=.=.=.$.$.$.$.$.$.$.$.@.@.@.@.@.@.@.+.@.@.@.@.@.@.@.@.@.@.@.@.@.@.@.@.@.@.@.@.@.@.@.@.@.@.@.@.@.@.@.=.+._ +.+.@.+.( ; ; / ( ( ( ( ( _ ] +.+.+.{ ] ] ] ] ] ] ",
"i ( ( ( ( ( ( i ( ( ( ( ( ( ( ( ( _ _ _ _ _ _ _ ( ( _ _ _ _ _ _ _ _ _ _ _ | +.+._ _ _ _ _ _ _ _ _ _ _ _ | | | | | _ +.*.@.) u u p a ( _ _ _ _ ( u u a a i i u u ( ( ( ( ( ( ( ( ( ( u u ( _ ( ( ( +.+._ _ +.+._ ( ( ( ( ( ( ( ( _ _ _ _ _ _ _ _ _ _ _ _ _ _ _ _ | _ ..#.$._ u p | | @.#.$.$.@.@.@.@.@.@.@.@.@.@.| | | | | | +.+.| @...| ..@.@.a ..@.@.| | ..@...@...........@.@.@.@.@.@.o.@.@.@.@.@.@.@.@.@.@.@.....@.w.=.| u u | ..#.q.=.*.*.q.*.*.*.*.*.*.*.*.#.#.#.#.#.#.#.#.#.#.#.#.#.@.#.#.=.=.=.=.=.=.=.=.=.=.=.=.=.=.=.=.=.=.=.=.=.=.=.=.=.=.=.=.=.=.=.#.=.=.=.=.=.=._ u a ( _ +.+.+.+.+.| | | | | | | | | | | | | | | | _ _ _ | _ _ _ ( @.+.| _ | +.+.| _ _ _ _ _ _ _ _ _ _ _ _ _ _ _ _ _ _ _ _ _ _ _ _ _ _ _ +.+.+.a u a ( ( _ _ _ _ _ p p p p a p a a p u u u p p p p u u p u u u u u u u u u u u u u u u u u u u u u u u u u u u u u u u u u u u a a a a ( _ +._ ( ; ; u ( ( ( ( ( ( ( _ ( _ ' ( ( ( ( ( ( ",
"i i i i i i i i i i i i i i i i ; u / / u u u / ( ( ( a p p p p u u u u u / ( ( _ ( ( ( _ _ _ _ ) ) ) ) ) ) ) ) ) u ( @.+.u = u ( ( ( a a a u u u u a a i u u u ( ( ( ( ( ( ( ( ( p u u ( ( ( ( u _ _ ( ( _ _ a ( ( ( ( ( ( ( ( _ _ _ _ _ _ _ _ _ _ _ _ _ _ ( ( _ p _ $.@.p u u _ | | | | | | | | | | | | | | | +.+.+.@.@.@.@.@.| @.@.| @.#.@.a @.#.@.| | @.#...@.@.......@.@.#.@.@.@.@.@.@.@.@.#.#.#.#.#.#.#.#...| #.t.t.@.) _ ) ..#.#.#.o.@.#.#.#.#.#.#.#.#.#.*.*.*.*.*.*.*.*.*.*.*.*.#.#.*.*.$.#.#.@.#.#.=.=.#.#.#.#.#.#.#.#.#.#.#.#.#.#.#.#.#.#.#.#.#.#.#.$.$.@.@.=.=.@.p = u u a _ _ _ _ _ | | | | | | | | | | | | | | | | _ _ _ | _ _ _ ( +._ p p ( _ _ _ _ _ _ _ _ _ _ _ _ _ _ _ _ _ _ _ +.+.] _ _ ( a a ( a _ +.@.@._ u u u u p p u u u u u u u u u u u u u u u p p p p a p p p u u u u u u u u u i i ( u u u u ( ( ( ( a a u u u u u u i u u u u u ( ( u u u ( _ _ ( ; ; ; u : : ; ; ; = = u u = = = = = = = ",
"u u u i i i i i i i i ( ( ( ( ( ( ( ( ( ( ( ( ( ( a a ( _ _ _ _ _ _ _ _ _ _ _ _ _ _ _ _ _ _ _ _ _ _ _ _ _ _ _ _ _ _ | @.+./ u / u ) ) ( ( ( ( _ ( ( _ _ _ _ ( ( _ _ _ _ _ ( ( _ _ _ _ _ ( ( ( ( _ _ _ _ _ _ _ _ _ _ _ _ _ _ _ _ _ _ _ _ _ _ _ _ _ _ _ _ _ _ ( ( | ) _ $.#.| p u p _ | | | | | | | | | | | | | | | | | | | | | | ....................@...@...@.@.................@.....o.@.@.@.@.o.o.@.@.@.@.@.@.#.....q.q.@.) p ) | #.*.*.*.#.#.*.*.*.*.*.*.*.*.#.#.#.#.#.#.#.#.*.*.*.*.*.*.*.*.$.$.#.#.#.#.#.#.#.#.#.#.#.#.$.$.#.#.$.$.$.$.@.@.@.#.#.@.@.$.$.@.@.@.@.*.w.@.p ) u ) _ | _ _ _ _ _ _ _ _ _ | | | | | | | | _ _ _ _ _ _ _ _ _ _ _ _ _ _ _ _ _ _ _ _ _ _ _ _ _ _ _ _ _ _ _ _ _ _ _ _ _ _ _ _ _ _ _ _ _ _ _ $.=.u u u u p p a a a u u u u u u u u p u u u u p p p p u u u p p p p u u u u u u u u u u u u u u u u u a i i u u u u u u u u u u u u u u s u u _ _ ( u ; ; u u u u u u u u u u u u u u u u u ",
"u u u u i i i i i i i ( ( ( ( ( ( ( ( ( ( ( ( ( ( a a a ( _ _ _ _ _ _ _ _ _ _ _ _ _ _ _ _ _ _ _ _ _ _ _ _ _ _ _ _ _ | @.+./ u / u ) ( ( ( ( ( _ ( ( _ _ _ _ ( ( _ _ _ _ ( ( ( ( _ _ _ _ ( ( ( ( _ _ _ _ _ _ _ _ _ _ _ _ _ _ _ _ _ _ _ _ _ _ _ _ _ _ _ _ _ _ ( ( | _ | $.$.| p u p _ | | | | | | | | | | | | | | | | | | | | | | ................@.@.@.@.....@...................@.....o.@.@.@.@.o.o.....@.@.@.@.#.....q.q.@.) ) ) | o.*.*.*.#.#.*.*.*.*.*.*.*.*.#.#.#.#.o.#.#.#.*.*.*.*.*.*.*.*.#.$.#.#.#.#.#.#.#.#.#.#.#.#.$.$.#.#.$.$.#.$.@.@.@.#.#.@.@.$.$.@.@.@.@.*.w.@.p ( u ) _ _ _ _ _ _ _ _ _ _ _ | | | | | | | | _ _ _ _ _ _ _ _ _ _ _ _ _ _ _ _ _ _ _ _ _ _ _ _ _ _ _ _ _ _ _ _ _ _ _ _ _ _ _ _ _ _ _ _ ( _ _ $.=.u u u u p p a a a u u u u u u u p p u u u u p p p u u u p p p p u u u u u u u u u u u u u u u u u u i i u u u u u u u u u u u u u u u u u u _ _ ( ; ; ; u u u ( u u u u u u u u u u u u u ",
"u u u u u u i u a a a ( ( ( ( ( ( ( ( ( ( ( ( ( ( ( ( ( _ _ _ _ _ _ _ _ _ _ _ _ _ _ _ _ _ _ _ _ _ _ _ _ _ _ _ _ _ _ | @.+./ u / u ) ) ) ) ) ) _ _ _ _ _ _ _ ) ) _ _ ) ) ) _ _ _ ) ) _ _ _ _ ) ) _ _ _ _ _ _ _ _ _ _ _ _ _ _ _ _ _ _ _ _ _ _ _ _ _ _ _ _ _ _ _ ( | _ | $.$.| p u p _ | | | | | | ................................................................o.o.o.o.o.o.o.o.o.o.o.o.o.o.o.o.o.o.o.o.o.o.o.o.#...o.q.q.o.} p }  .o.*.*.*.%.%.*.*.*.*.*.*.*.*.*.*.%.*.%.%.%.%.*.*.*.*.*.*.*.*.#.#.#.#.#.#.#.#.#.#.#.#.#.#.#.#.#.#.#.#.#.#.#.@.#.#.#.@.o.#.#...@.@.@.*.w.@.) ) u ) _ _ _ _ _ _ _ | | | | | | |  .| | | | | | _ _ _ _ _ _ _ _ _ _ _ _ _ ) ) _ _ _ _ _ _ ) ) _ _ _ _ _ _ _ _ _ _ _ _ _ _ _ _ _ _ _ ( _ _ $.=.u u u u p p p a p u p p u u u u u u u p u u p p u u u u u p u u u u p p p p u u p u p u p u u u u u u u u u u u u u u u u u u u u u u u u p _ _ ( u ; ; : u ( ( u i u u u u u u u u u u u ",
"u u u u u u u u a a a ( ( ( ( ( ( ( ( ( ( ( ( ( ( a ( ( _ _ _ | _ _ _ _ _ _ _ _ _ _ _ _ _ _ _ _ _ _ _ _ _ _ _ _ _ _ | @.+./ u / u ) ) ) ) ) ) _ _ _ _ _ _ _ _ ) _ _ _ ) ) _ _ _ ) ) _ _ _ _ ) ) _ _ _ _ _ _ _ _ _ _ _ _ _ _ _ _ _ _ _ _ _ _ _ _ _ _ _ _ _ _ _ ( | _ _ $.$.| p u p _ | | | | | +.................................................................o.o.o.o.o.o.o.o.o.o.o.o.o.o.o.o.o.o.o.o.o.o.o.o.#...o.q.q.o.} ) }  .o.*.*.*.%.%.*.*.*.*.*.*.*.*.*.*.*.*.*.*.%.%.*.*.*.*.*.*.*.*.#.#.#.#.#.#.#.#.#.#.#.#.#.#.#.#.#.#.#.#.#.#.#.o.#.#.#.@.o.#.#...@.@.@.*.=.@./ ) u ) _ _ _ _ _ _ | | | | | | | |  .| | | | | | _ _ _ _ _ _ _ _ _ _ _ _ _ ) ) _ _ _ _ _ _ ) ) _ _ _ _ _ _ _ _ _ _ _ _ _ _ _ _ _ _ _ _ _ _ $.=.u u u u u p p p p u p u u u u u u u p p u u u u u u u u u p u u u u p p p u u u p p u u p p u u u u u u u u u u u u u u u u u u u u u u u p _ _ ( u ; ; u u ( ( ( i u i i i i i i i i u u ",
"u u u u u u u u p p a ( ( _ _ ( ( ( ( ( ( ( _ _ _ ( _ _ _ _ _ | _ _ _ _ _ _ _ _ _ _ _ _ _ _ _ _ _ _ _ _ _ _ _ _ _ _ | @.+.u u u u ) ) ) ) ) ) _ _ _ _ ) _ _ _ _ ) ) ) ) ) ) ) ) ) _ _ _ _ _ _ ) _ _ _ _ _ _ _ _ _ _ _ _ _ _ _ _ _ _ _ _ _ _ _ _ _ _ _ _ _ _ _ ) | ) | $.$.| p u p _ | | | | | | ....................................................................o.o.o.o.o.o.o.o.o.o.o.o.o.o.o.o.o.o.o.o.o.o.#...o.q.q.o.} ) }  .o.*.*.%.%.%.%.%.%.%.%.%.%.%.%.%.%.%.%.%.%.%.*.*.%.%.%.%.%.*.#.#.#.#.#.#.#.#.#.#.#.#.#.#.#.#.#.#.#.#.#.#.#.@.#.#.#.@.o.#.#...@.@.@.*.w.@.) ) u ) _ _ _ _ _ _ } } } | | | | | | | | | | | | | _ _ _ _ _ _ _ _ _ _ _ _ _ _ _ _ ) ) _ _ _ _ _ _ _ _ _ _ _ _ _ _ _ _ _ _ _ _ _ _ _ _ | _ $.=.u u u u u p p a p u p p u u u u u u p p p p u u u u u u u u u u p p u u p u p p u u u p p p p p p p p p u u u u u u u u u u u u u u u u u p _ | a s u u u u ( ( ( ( u u u u u u u u u u u ",
"u u u p u u u u p p a ( ( _ _ _ ( ( ( ( _ _ _ _ _ a _ _ _ _ _ | _ _ _ _ _ _ _ _ _ _ _ _ _ _ _ _ _ _ _ _ _ _ _ _ _ _ | @.+.u u u u ) ) ) ) ) ) _ _ _ _ ) _ _ _ _ _ _ ) ) _ ) ) ) ) ) _ _ _ _ _ ) _ _ _ _ _ _ _ _ _ _ _ _ _ _ _ _ _ _ _ _ _ _ _ _ _ _ _ _ _ _ _ ) | ) | $.$.| p u p _ | | | | | | ....................................................................o.o.o.o.o.o.o.o.o.o.o.o.o.o.o.o.o.o.o.o.o.o.#...o.q.q.o.} ) }  .o.*.*.%.%.%.%.%.%.%.%.%.%.%.%.%.%.*.*.%.*.*.*.*.%.%.%.%.%.*.#.#.#.#.#.#.#.#.#.#.#.#.#.#.#.#.#.#.#.#.#.#.#.@.#.#.#.@.o.#.#...@.@.@.*.w.@.) ) u ) _ ` _ _ _ _ } } } | | | | | | | | | | | | _ _ ( ( ) ) ) ) ) _ ) _ _ _ _ _ _ ) ) _ _ ) ) _ _ _ _ _ _ _ _ _ _ _ _ _ _ _ _ _ _ _ _ | _ $.=.u u u u u p p a p u p p u u u u p p p p u u u u u u u u u u u u p p u u u u p p p u u u p p p p p p p p u u u u u u u u u u u u u u u u u p _ _ a s u u u / ( ( ( ( i i i i p i i i u u u ",
"p p p p p p p p p p a a _ _ _ _ ( _ _ _ _ _ _ _ _ a a a a _ | | _ _ _ _ _ _ _ _ _ _ _ _ _ _ _ _ _ _ _ _ _ _ _ _ _ _ _ @.+.u u u u / ) ) ) ) ) _ _ _ ) ) ) ) _ _ _ _ _ _ _ _ ) ) _ _ _ _ _ _ _ _ _ _ _ _ _ _ _ _ _ _ _ _ _ _ _ _ _ _ _ _ _ _ _ _ _ _ _ _ _ _ _ ) | _ _ $.$.| p u p _ | | | | | | ................................................................o.o.o.o.o.o.o.o.o.o.o.o.o.o.o.o.o.o.o.o.o.o.o.o.#...o.q.w.o.} } }  .o.q.q.%.%.%.%.%.*.*.8.%.8.8.8.8.q.q.q.q.q.q.*.*.%.*.8.%.8.q.#.#.#.#.#.#.#.#.#.#.#.#.#.#.#.#.#.#.#.#.#.#.#.#.#.#.#.@.o.#.#.o.@.@.@.*.=.@./ ) u ) _ ` _ _ ) _ } } } | | | | | | | | | | | | _ _ ) ) ) ) ) ) ) ) ) ) ) _ _ _ _ _ _ _ _ ) ) ) ) _ _ _ _ _ _ _ _ _ _ _ _ _ _ _ _ _ _ | _ $.=.u u u u u p p a p u p u u u u p p p u u u u u u p p u p u u u p p p u u u p u u u u p p u u p p u u a a a u u u u u u u u u u u u u u u u p _ _ ( u u u u / ( ( ( / u u p p p p i i u u u ",
"p u p p p p p u p p a a a ( _ _ _ _ ( _ _ _ _ _ _ ( a a _ _ | | _ _ _ _ _ _ _ _ _ _ _ _ _ _ _ _ _ _ _ _ _ _ _ _ _ _ | @.+.u u u u ) ( ) ) ) ( _ ( _ _ ) _ ) ( ) _ _ _ _ _ _ _ _ _ _ _ _ _ _ _ _ _ _ _ _ _ _ _ _ _ _ _ _ _ _ _ _ _ _ _ _ _ _ _ _ _ _ _ _ _ _ ( ( | _ _ $.$.| p u p _ | | | | | | | | ..| ..| ..| ..| ..| ..| ....................................o.o.o.o.o.o.o.o.o.o.o.o.o.o.o.o.o.o.o.o.o.o.o.o.#. .o.q.w.o.} } }  .o.q.q.%.%.%.%.%.*.*.*.%.%.8.8.8.q.q.q.q.q.q.%.%.%.%.%.%.8.q.#.#.#.#.#.#.#.#.#.#.#.#.#.#.#.#.#.#.#.#.#.#.#.o.#.#.#.@.o.#.#...@.@.@.*.w.@.) ) u ) _ ` _ _ ) _ _ ) } _ | | | | | | | | | _ | _ ) ) ) ) ) ) ) ) ) ) ) ) ) _ _ _ _ ) _ _ ) ) ) ) _ _ _ _ _ _ _ _ _ _ _ _ _ _ _ _ _ _ | _ $.=.u u u u u a a a p u p u u u p p p p u u u u p p p p p p u u u p p p u u u p p u u u u u u u u u u u a a i u u u u u u u u u u u u u u u u a _ | ( u u u u / ( ( ( ( u u p p p p i i u u u ",
"i i a i u u u u a a a ( ( ( _ ( ( ( ( _ _ _ ( ( _ _ _ _ _ _ _ _ _ _ _ _ _ _ _ _ _ _ _ _ _ _ _ _ _ _ _ _ _ _ _ _ _ _ @.$.+.u u u u u ( ( _ _ _ ( ( ( ( _ _ _ ( ( ) ) ) ) ) ) / / / / / ) ) ) ) ) ) ) ) ) ) ) ) ) ) ) ) ) ) ) ) ) ) ) ) ) ) ) ) ) u ) ) ) ) u u u _ _ _ @.=._ s p _ _ | | @.| | | | _ | _ | | | | | _ | | | | ...... ... ... ... .o.o.o...o...o.....o.o.o.o.o.o.o.o.o.o.o.o.o.o.o.o.o.o.o.o.o.o. .o.o. .q.w.o.p o.p } #.q.q.o.o.o.*.#.*.*.*.*.#.*.q.q.q.q.q.*.o.o.o.o.*.*.#.o.o.o.#.#.#.#.#.o.#.*.*.*.#.*.#.#.#.*.#.#.#.#.#.#.#.#.#.o.#.o.#.o.#.#.*.@.@.*.=.$._ u u ) _ | | _ _ ) _ _ _ _ _ _ _ _ ) ) | _ _ _ _ ) _ _ _ _ _ _ _ _ ) ) ) ) ) ) ) ) ) ) ) ) ) ) ) ) ) ) ) ) ) ) ) / ) ) ) ) _ _ _ _ _ _ ( _ =.*._ u p p u p u u u u u u u u u u u u a a a a p p p p p p a a a p p a p p p p p p p p u u u u u u u u / ) ) ) u u u u ) ( ( ( ) ) ) ) _ u u ( +.+._ u u u u ( ( ( ( ( p p p u u u u u u u u ",
"i i a a i u i i i i a ( ( ( ( ( ( ( ( ( _ _ ( ( _ _ _ _ ( ( _ _ _ _ _ _ _ _ _ _ _ _ _ _ _ _ _ _ _ _ _ _ _ _ _ _ ( _ @.$.+.u u u u u a ( _ _ _ _ ( ( _ _ _ _ ( ( ) ) ) ) ) / / / / / / ) ) ) ) ) ) ) ) ) ) ) ) ) ) ) ) ) ) ) ) ) ) ) ) ) ) ) ) ) ) ( ) _ _ ) ) ) _ _ | $.q.| u p _ _ | | | | | _ _ _ _ | | | | | | | | +.+.+.@..... .............o.o.............o.o.o.o.o.o.o.o.o.o.o.o.o.o.o.o.o.o.o. .o.o.o. .o.o. .q.w.o.p } p } o.q.q.o.o.q.q.*.*.q.*.*.#.#.q.q.q.q.q.*.o.o.o.o.*.*.#.o.o.o.#.#.#.#.o.o.*.#.*.*.*.*.#.#.*.*.#.#.#.#.#.#.#.#.*.*.*.*.*.*.*.*.#.@.@.$.=.@._ u p _ | +.| | | | _ _ _ _ _ _ _ _ ) ) _ _ _ _ _ ) _ _ _ _ _ _ _ _ ) ) ) ) ) ) ) ) ) ) ) ) ) ) ) ) _ _ _ _ _ _ ) ) ) ) ) ) ) ) _ _ ) _ ) _ =.*.( u a a a a a a a a a a a a a a a a u u u u u u u u p p u u u u u u u u u u u u u u u u u u u u u u u u u u u u u u p u u u u u u p ( u u ) _ +.( u = u u u u u p ) p p u u u u u u u u u ",
"a a a a a a a a i a ( ( ( ( ( ( ( ( ( ( _ ( ( ( _ _ _ _ ( ( ( ( _ _ _ _ _ _ _ _ _ _ _ _ _ _ _ _ _ _ _ _ _ _ _ _ _ _ @.@.| ) u u p p ( ( _ _ _ _ ( ( ( ( _ _ _ _ ) ) ) ) ) ) ) ) / / ) ) ) ) ) ) ) ) _ _ _ _ _ _ ) ) ) ) ) ) ) ) ) ) ) ) ) ) ) ) ) ) ) ) ) ) ) ) ) _ ) ..*.| u p _ _ | | | | | | | | | | | ........@...@.@.@.#.#.................o.o.o.o.........o.o.o.o.o.o.o.o.%.%.%.%.%.%.%.%.o.o.o.o.o.#.o. .o.o.o.q.w.o.p } ) } o.q.q.q.q.q.q.q.q.q.q.q.q.q.*.q.q.q.q.q.*.o.*.q.q.q.q.q.q.q.#.#.#.#.*.*.*.*.q.q.q.q.*.*.*.*.*.*.*.*.#.#.#.#.q.q.q.q.*.*.*.*.@.@.#.*.w.*.| u p ) | | | | _ | | | | | | | | | ) } } | ) ) ) ) _ _ _ _ _ _ _ _ _ _ ) ) ) ) ) ) ) ) ) ) _ _ ) ) ) ) ) ) ) ) ) ) ) ) ) ) ) ) _ _ _ _ ( _ =.*.( p p p u u u u u p p p p p p p ) ) u u p p p p u u p u u u u u u u u u u u u u u u u u u u u u u u u u u u u u u u u u u u u u p p p u u ( | | ( u u u u u u u u ) u u u u u u u u u u u ",
"u i i a u u u u i a ( ( _ ( ( ( ( ( ( ( _ ( ( ( ( _ _ _ ( ( ( ( _ _ _ _ _ _ _ _ _ _ _ _ _ _ _ _ _ _ _ _ _ _ _ _ _ _ +.@.+.( u ) ) ) ( ( _ _ _ _ _ _ _ _ _ _ _ ) ) ) ) ) ) ) ) ) / ) ) ) ) ) ) ) _ _ _ _ _ _ _ _ ( ( ) ) ) ) ) ) ( ) ) ) ) ) ) ) ) ) ) ) ) ) ) ) p ) ) | $.| u p | | | | | | | | | | | | | | | ..| | ........@..... . . .........................o.o.o.o.o.o.o.o.o.o.o.o.o.o.o.o.o.o.o.o.o.#.o.o.o.o.o.q.w.#.} } } ..o.*.q.o.o.q.o.o.o.o.o.#.#.o.o.*.*.*.q.#.o.o.o.o.o.o.o.o.o.o.#.#.#.#.o.o.o.o.o.o.o.o.o.o.o.o.o.o.o.o.o.o.o.o.o.o.o.o.o.o.o.o.#.@.$.=.w.*.| ) p ) _ | | _ _ ) | | | | | | | | | | | | | | | | _ _ _ _ _ _ _ _ _ _ ) ) ) ) ) ) ) ) ) ) _ _ ) _ ) ) ) ) ) ) ) / ) ) ) ) ) ) ) ) ) _ ( _ *.@.( a u u p u u u u p u u u u u u p u ( ( ( ( ( ( ( ( p p p p p p p p p p p p p ) p p p p ) ) p p p p u u ) u u u u ) ) ) ( ( ( ) ) ) u u u ( | | ( u u u u ( u u ) ( ) u u u u u u u u u u ",
"u u u u u u u u u u u u p u u u u u u u u u u u ( ) ( ( ( ( ( ( ( ( ( ( ( ( ) ( ) ) ) ) ) ) ) ) ) ) p p ) ) ( ( ( ( _ | | p u u u u u u u p p p p p p p ) ) p ) ) / / / u u u u p / / / / / / ) ) ) ) ) ) ) ) ) u u u u / / / u u u u p u u / u ) ) ) ) ) ) ) ) p _ ) | #.| u ) ) ) ) ) _ _ _ _ ) _ _ _ _ _ _ _ _ ) ) _ _ _ _ _ | } } } } } } } } } } } } } } } } } } } } } } } } } } } } } } } }  .} } } o. .} }  .} o.q.o.} } } } o.o.o...} } o.o.o.o.o.o.o.o.....o.o.o.o. .}  ... . .o.o.o.o. . ... ....... ..... . . . . . .} }  . . . . . .} } } } } } } } | | | #.#.@._ p ) ) | | _ _ ) _ ) ) ) ) ) ) ) ) ) ) ) ) ) ) ) ) ) ) ) ) ) ) ) ) ) ) / / / / p p / / / / ) ) ) ) ) ) ) ) ) ) ) / u u u u u u u u ) ) ) ( @.| p p ) ) ) ) ) ) ) ) ) ) ) ) ) ) ) ) p p p p p p p p p p p p p p p p p p p p p p p p p p p p p p p p u u u u p p p p u u u u u u u u u u u ( _ _ u u u u u p u u u p u u u u u u u u u u u ",
"= = = = = = = = s u u u u u u u u u u u u u u u u u u u u u u u u u u u u u u u u u u u u u u u u u u u u u u p p u p _ _ u u u u u u u u u u u u u u u u u u u u u u u u u u u u u u u u u u u u u u u u u u u u u u u u u u u u u u u u u u u u u u u u u u u u ) p p | ) u p p p p p p p ) ) p p p p p p p ) p p p p p p p / ) ) ) ) ) ) ) ) p p p p ) ) ) ) ) ) ) ) ) } } } ) ) ) ) ) ) ) ) p p p p p } } u } } p } o.} p } } } } } } } } } } } } } } } } } } } } } } } } } } } } } } } } } } } } } } } } } } } } } } ) } } } } ) ) ) ) ) } p p p ) ) ) ) ) p p ) _ _ _ p u p p ) ) p p p p / / / / p p p p p p p p / / / / u u u / / / / / u u u u u u u u u u u u u u u u u u / / u u u u u u u u u u u u u ) u u | _ u u u u u u u u u u u u u u u u u u u u u u u u u u u u u u u u u u u u u u u u u u u u u u u u u u u u u u u u u u u u u u u u u u u u u u ( ) u u s u u u u u u u u u u u u u = = u u u ",
"u u u u u u u u u u u u u u u u u u u u u u u u u u u u u u u u p ) ) ) p p p p p p p p p p p p ) ) u u / ) ) ) ) ) ) _ _ ) / / ) ) u u u u u ) ) ) / ) ) ) ) ) / / / / / u u u p / u / / / ) ) ) ) ) ) / / / / p p u u / / / / u u u u / / u u u u u u u u u u p ) p u ) ) p ) ) ) / / ) ) ) ) ) ) ) ) } } } } ) ) ) ) ) ) } } } } } } } } } } ) ) ) ) ) ) ) ) } } } } } } } } } } } } } } } } } } } } } } } p  . .} } o.o.}  .} } } } } } } } } } } } } } } } } } } }  .} } } } } } } } } } } } } } } } } } } } } } } } } } } } } } } } } } } } } } } } } } } ) ) ) ) | | ) ) p ) ) ) p p p ) ) ) ) ) } } } } ) ) ) ) ) ) ) ) ) ) ) ) ) ) ) ) / / / / p p u u p p u / / / ) ) u u u u u u u u u u u u u u u u u ) p p | | p a u u u u u u u u u u u u u u u u u p p p / u u u ) / ) ) ) ) ) ) p p p p ) ) p p ) ) ( ( ) ) ) ) ) ) u u p p u u u u u u u u u u u u u u ) ( u u u u u u u u u u u u u u u u u u u u u ",
"p p p p a a a p u a a ( ( ( ( ( ( ( ( ( ( ( ( ( ) ) ) ) ) ) ) ) _ _ _ _ _ _ _ _ _ _ _ _ _ _ _ _ _ _ _ _ _ _ _ ` | _ _ ..@.| _ _ _ _ _ ) ) ) _ _ _ _ _ _ _ _ _ _ _ _ _ _ ) _ ) ) ) ) ) ) _ _ _ _ _ _ _ _ ) ) _ ) ) _ _ _ _ _ _ _ _ _ _ _ ) ) ) ) _ _ _ _ _ _ _ _ | @.| ) | ..| ..| | | | | | | ..................................................| } | ..............o.o.o.o.o.o.o.o.o.o.o.o.o.o.o.o.o.o.o.*.o.o.q.q.o.o.q.#.o.#.o.o.o.o.o.o.o.o.o.o.o.o.o.o.o.o.o.o.o.o.o.o.o.o.o.o.o.o.o.o.o.o.o.o.o.o.o.o.o.o.o.o.o.o.o.o.o.o.o.o.o.........o.o.o.o.o.o.o.o.o...........o.o.o...........| ....................| |  . . . ...| | _ _ _ _ _ _ _ _ _ _ ) ) ) ) ) ) ) _ _ ) _ _ _ _ _ _ _ _ _ _ _ _ ) ) ) ) ) ) ) ) | _ _ @.+._ _ _ _ _ _ _ _ _ _ _ _ _ _ _ _ _ ` _ | | | _ _ _ _ _ _ _ _ _ _ _ _ _ _ _ _ _ _ _ _ _ _ _ _ _ _ _ _ _ _ _ _ _ _ _ ( ( ( ( ( ( ( ( ( _ ( ) ) ( _ _ ( u ) ( _ ( ( ( ( ( ( ) u ) ) u u ) ) ) ",
"_ _ _ _ _ _ _ _ _ _ _ | | | | | +.| +.@.| _ +.=.+.( ( ( u _ +._ +.@.@.@.@.@.@.@.@.@.@.@.@.@.$.$.@.@.@.@.@.@.@.@.@.@.@.@.@.@.@.@.@.@.@.@.@.@.@.@.@.@.@.@.@.@.@.@.*.*.*.*.*.*.*.*.@.*.@.@.*.@.@.w.@.) ) _ ) @.=.*.*.=.*.=.=.=.=.=.*.*.*.=.*.*.*.*.*.*.*.*.*.=.=.=.=.=.=.=.=.=.w.w.*.*.*.*.*.*.*.*.*.*.*.*.w.w.w.w.*.*.*.*.w.w.w.w.w.w.w.w.w.=.w.w.w...) ) ..o.w.w.w.w.w.w.w.w.w.w.w.w.w.w.w.w.w.w.w.w.w.w.w.w.w.w.w.w.w.w.w.w.w.w.w.w.w.w.w.w.w.w.w.w.w.w.w.w.w.w.w.w.w.w.w.w.w.w.w.q.q.w.w.q.w.w.w.q.} } ..#.q.q.w.w.w.w.w.w.w.q.w.w.w.w.w.w.w.w.w.w.q.q.w.w.w.w.w.w.w.w.w.w.w.w.w.w.w.w.w.w.w.w.w.w.w.w.w.w.w.w.w.w.w.w.q.*.*.*.*.*.*.*.*.*.=.=.@.=./ / _ ) ..@.*.*.*.*.*.*.*.*.*.*.*.*.*.*.*.*.*.*.*.*.*.*.*.*.*.*.$.$.$.$.$.$.@.@.@.@.@.@.@.@.@.@.@.@.@.@.@.@.@.@.@.@.@.@.@.@.@.@.@.@.@.@.@.@.*.=.) p _ ) | +.@.@.@.@.@.@.@.@.@.@.@.@.@.@.@.@.@.@.$.$.@.@.@.@.+.+.+.+.+.+.+.+.@.@.@.@.@.@.@.@.+.+.| _ _ _ _ _ _ _ _ ",
") ( ( ( ( ( ( ( ( ( ( ( _ _ ( ( _ _ _ _ _ ( _ @._ u u u u ) _ ( ( ( ( _ _ _ _ _ _ ( ( ( _ _ _ _ _ _ _ _ _ _ _ _ _ _ _ _ _ _ _ _ _ _ _ _ _ _ _ _ ) ) ) _ _ _ _ _ _ _ _ _ _ _ _ _ _ | _ ) | ) ) *.@.) ) ) ) | *.@.@.@.@.@.@.@.@.@.@.@.@.@.@.@.....| | | | | ..@.@.@.@.@.@.........#.#.#.#.#.#.#.#.#.#.#.#.#.#.#.#.#.#.#.#.#.#.*.*.*.#.*.*.*.o.*.w.w...) ) | o.*.w.*.*.q.q.q.q.q.q.q.q.q.q.q.q.q.q.q.q.q.q.q.q.q.w.q.q.q.q.q.q.q.q.q.q.q.q.q.q.q.q.q.q.q.q.q.q.q.q.q.q.q.q.q.q.q.w.q.q.q.q.q.q.q.w.w.#.} } } o.#.*.#.#.#.#.o.o.o.o.o.o.o.o.o.o.o.o.o.o.o.o.o.o.o.o.....o...................................o.o.o.o...o...............| | | | ....@...*.u u ) / | | _ _ _ _ _ _ _ _ _ _ _ _ _ _ _ _ _ _ _ _ _ _ _ _ _ _ _ _ _ _ _ _ _ _ _ _ _ _ _ _ _ _ _ _ _ _ ) ) _ _ _ ) _ _ _ _ _ _ _ _ _ _ _ _ @.=.u u ( u _ | ( ( ( _ _ _ _ _ _ _ _ _ _ _ _ _ _ _ _ _ _ _ _ ( ( ( ( ( ( ( ( ( ( ( ( ( ( ( ( ( u u u u u u u u u u u ",
"u u u u u u u u u u ) ) ) ) ) ) ) ) ) ( ) u _ +._ u u u u u _ ) p p ) ) ) ( ) ) ( ) p p ) ( _ _ ) ) ) ) ) ) ) ) ) ) ) ) ) ) ) ) ) ) ) ) ) ) ) ) ) ) ) ) ) ) ) ) ) ) ) ) ) ) ) ) ) _ ) ) _ ) ) *.| ) u u u _ @._ | | | | | | ....| | | | | | | | | | | | | | ..@...................................o.o.o.o.o.o.o.o.o.o.o.o.o.o.o.#.o.o.o.o...o.*.w...p p } ..o.*.o.o.o.o.%.%.%.*.%.%.%.%.%.%.%.%.o.#.#.#.*.*.*.q.#.#.#.#.*.*.#.#.q.q.*.#.#.*.q.q.%.o.q.q.#.*.*.o.*.#.o.o.o.o.o.o.#.o.o.q.q.o.o.w.w.o.} p } o.o.o.o.o.o.o.o.o.o...o.o.o.o...o.o.o.o.o.o.o......................................................... ........... .| | _ _ _ _ ` | ` ..*.u u ) u ) _ ) ) ) ) ) ) ) ) ) ) ) ) ) ) ) ) ) ) ) ) ) ) ) ) ) ) ( ( ( ( _ _ ) ) ) ) ) ) ) ) ) ) ) ) ) ) / / ) ) ) ) ) ) ) ) ) ) ) ) ) / ) ) +.$.u u ) u ( _ p p ) ) ) ( ( ( ( ( ( ( ( ( ( ( ( ( ( ( ( ( ) ) ) ) u u p p p p p p ) ) p p p u u u u u u u u u u u u ",
"/ / ) ) / / / / ) ) ) ) _ _ ) ) ( ( ( _ ) u _ @._ u u u u u _ ) ( ( ( _ _ _ _ _ ( ( ( ( ( _ _ _ _ ) ) ) ) ) ) ) ) ) ) ) ) ) ) ) ) ) ) ) ) ) ) ) ) ) ) ) ) ) _ _ ) ) ) ) ) ) ) ) ) _ ) ) | _ _ =.| ) u u u ) | _ ..| | | | | ..@.....| ..| | | | | | | | @.@.@.@.@...o.o.o.o.o.o.................o.o.o.o.o.o.o.o.o.o.o.#.#.o.#.#.#.o.o.#.o.o.o.w.w...p p ) | ..#.o.o.o.%.%.%.*.*.*.*.*.*.*.*.*.*.#.#.#.*.#.*.q.q.#.#.#.#.*.*.#.#.q.q.q.q.q.q.q.q.q.q.q.q.q.q.q.q.o.o.#.*.%.%.o.o.q.o.q.q.q.o.q.q.w.o.} p } ..o.o.o.#.o.o.o.o.o.o.o.o.o.o.o.o.o.o.o.o.o.o.o.o.o.o.o.o.o.o.o.o.o.o.o.o.o.o.o.o.o.o.o.o.o.o.o.o.o.o.o.o.o.o.o.o.....| ` _ _ _ ` | | ..*.u u u u / ) ) ) ) ) ) _ _ ) _ _ _ _ _ _ _ _ _ _ ) ) _ _ _ _ _ _ _ _ _ _ _ _ _ ) ) ) ) ) ) ) ) ) _ _ ) ) ) ) ) ) ) ) ) ) ) ) ) ) ) ) ) ) ) ) +.@.u u ) u ( ( ( ( ( _ _ _ _ _ ( ( ( ( _ _ _ _ _ _ _ _ _ _ ( ( ( ( ( ( ( ( ( ( ( ) ) ( ( ( ( ( ) u u u u u u u u u u ",
") ) ) ) ) ) ) ) / ) ( _ _ _ _ ) ( ( ( _ ( u _ @._ u u u u ) _ ( ( ( ) ( ( ( ( ( p p p p p ) ) ) ) ) ) ) ) ) ) ) ) ) ) ) ) ) ) ) ) ) ) ) ) ) ) ) ) ) ) ) ) ) ) ) ) ) ) ) ) ) ) ) / ) ) ) _ ) ) *.@.) / / u ) | _ ..| | | | | ..@.| ....@.@.| | | ` ` ` ` | | | ..................................o.o.o.o.o.o.o.o.o.o.#.#.#.*.#.#.*.o.o.*.o.o.#.w.w...) ) } ..o.#.o.o.%.*.*.*.*.*.*.*.*.*.*.*.*.*.#.#.#.q.*.*.q.q.#.#.#.#.q.q.q.q.q.q.q.q.q.q.q.q.q.q.q.q.q.q.q.q.q.q.q.q.#.*.*.#.q.o.q.q.q.o.q.q.w.#.} p }  .o.o.o.o.o.o.o.o.....o.o.o.o.o.o.o.o.o.o.o.o.o.......o.......................o.o...o...................o.o.o.o.....| | | | | | | | | @.=.u u / u / ) ) ) ) ) ) ) ) ) ) ) ) ) ) ) ) ) ) ) ) ) ) ) ) ) ) ) ( ( ( ( _ _ ) ) ) ) ) ) ) ) ) ) ) ) ) ) ) / ) ) ) ) ) ) ) ) ) ) ) ) ) ) ) ) +.*.u u ) u ) ) p p p p ) ) ( ( ( ( ( ( ( ( ( ( ( ( ( ( ( ) p p ) ) u u u u ) p u p p p p p u u u u u u u u u u u u u ",
") ) ) ) ) ) ) ) / / ) ) ) ) ) ) ( ) ( ( ) u ( +.| u u u u ( | ( _ ( _ _ ( ( ( ( p p p p p ) ( ) ) ) ) ) ) ) ) ) ) ) ) ) ) ) ) ) ) ) ) ) ) ) ) ) ) ) ) ) ) ) ) ) ) ) ) ) ) ) ) ) ) _ ) ) _ ) ) *.@.) / ) u _ @._ | | ` | | | ..| | | | | | | | ` ` ` ` ` | | ....................................o.o.o.o.o.o.o.o.o.o.o.o.o.o.o.o.#.o.o.o.o...#.*.w.o.) ) } ..o.*.o.o.o.o.%.%.o.o.o.o.o.o.%.%.o.o.o.o.o.o.#.#.#.#.#.#.#.#.q.q.q.q.o.o.#.#.*.#.#.o.#.*.*.q.*.*.*.*.q.q.q.q.*.q.*.#.*.o.o.q.q.o.o.q.w.#.} p }  .o.o.o.o.o.o.o.o.....o.o.o.o.o.o.o.o.o.o.o.o.o.o.....o.o...........o.................................o.o.o.o.o.......| ` ` ` ` | | | *.=./ u / u ) ) ) ) ) ) ) ) ) ) ) ) ) ) ) ) ) ) ) ) ) ) ) ) ) ( ) ) ( ( ( ( _ _ ) ) ) ) ) ) ) ) ) ) ) ) ) ) ) / ) ) ) ) ) ) ) ) ) ) ) ) / ) ) ) @.=.u u ( u ( ( p p p p ) ) ) ( ( ) ( ( ( ( ) ) ( ( ( ( ( ) p p ) ) u u p u ) ) u u u u p p / / u u u u u u u u u u u ",
"u u u u u u u u u / ) ) ) ) / ) ( ( ( _ ) u ( +._ u u u u ) _ ( _ _ _ _ _ _ _ ( ( ) ) ) ) ( ( _ _ ) ) ) ) _ ) ) ) ) ) ) ) ) _ _ ) ) ) ) ) ) ) ) ) ) ) ) ) ) _ _ ) ) ) ) _ _ ) ) ) | _ ) | ) ) *.@.) ) ) u _ @.| | | | ` | | | | | | | | | | | | | | | | ..@.@.@.........o.......................o.o.o.o.o.o.o.o.o.o.o.o.o.o.o.o.#.o.o.#.o...#.w.q...) ) } ..o.*.o.o.o.o.%.o.o.o.o.o.o.o.%.%.%.%.o.o.o.o.#.#.o.#.q.q.q.q.q.q.q.q.o.%.q.q.*.q.o.o.o.*.q.q.#.#.o.o.q.q.q.q.q.q.q.q.*.o.#.q.*.o.*.q.w.*.} p ) } ....o.o.o.o.o.o.o.o.o.o.o.o.o.o.o.o.o.o.o.o.o.o.o.o.o.o.o.o.o.o.o.o.o.o.o.o.o.o.o.o.o.o.o.o.o.o.o.o.o.o.#.#.@.o.o.o.| _ _ _ _ ` | | *.=./ u ) u ) _ ) ) ) _ ) ) ) ) ) ) ) ) ) _ ) _ ) ) ) ) ) _ _ _ _ _ _ _ _ _ _ _ _ ) ) ) ) ) ) ) ) ) _ _ ) ) ) ) ) ) ) ) ) ) ) ) ) ) ) ) ) ) ) ) @.=.p u _ u ( ) ) ) ) ( ) ) _ _ ( ( ( ( ( ( ( ( ( ( ( ( ( ( ) ) ( ( ( ( ( ( ( ( ( ( ( ( ( ( ( ( u u u u u u u u u u u ",
"u u u u u u u u / / ) ) ) ) ) ) _ _ _ _ ( ) _ @._ u u u u u _ ) _ ) _ ) ( ) ( ) u u u u u u p ) ) ) ) ) ) ) ) ) ) ) ) ) ) ) ) ) ) ) ) ) ) ) ) ) / / / ) ) ) ) ) ) ) ) ) ) ) ) ) ) _ ) ) _ / ) @.@.) ) / / _ @.| | | | | | ..@.@.@.@.@.@.@.| | | | | | | | ..@.@.....................o.o.o.o.o.o.o.o.o.o.o.o.o.o.o.o.o.o.o.o.o.o.*.%.%.*.*.o.*.w.w.../ / } ..o.*.o.o.*.*.*.*.*.*.*.*.*.*.*.*.*.*.#.#.q.q.q.q.q.q.q.q.q.q.q.q.q.q.q.q.q.q.q.q.q.q.q.q.q.q.q.q.q.q.q.q.q.q.q.q.q.q.q.q.q.w.q.*.q.q.w.*.} p p }  .....o.o.o.o..... .................o.o.o........... .X. . . . . . . . .o. . . . . . . ... ... ... ...o.o.o.o.o... .| ` _ _ ` ` | | *.=.) u ) u _ ) ) ) ) ) ) ) ) ) ) ) ) ) ) ) ) ) ) ) ) ) ) ) ) ) ) ) ) ) ) ) a ) ) ) ) ) ) ) ) ) ) ) ) ) ) ) / u u u u u u u u u u u u u u u u u @.=.p u _ u ) ( u u u p p p p p p / p / p / p / u ) ) ) ) ) p u u u u u u u u u u u u u u u u u u u u u u u u u u u u ",
"/ / / / / / / / / / / ) ) ) ) ) p p p ( ) u _ +._ = ) u u _ ( ( ) ) ) ) ) ) _ _ ( ) ) ) ) ) ) ) ) ) ) ) ) ) ) ) ) ) ) ) ) ) ) ) ) ) ) ) ) ) ) ) ) ) ) ) ) ) ) ) ) _ _ _ ) ) ) ) / _ ) ) _ ) ) @.@./ / / u ) ..` ` ` ` | | ......................................| | | ..............o.o.o.o.o.o.o.o.o.o.o.o.o.o.o.o.o.o.o.o.o.o.o.o.o.o.o.o.%.w.q.o.) ) }  .o.o.o.#.o.o.o.o.o.o.o.o.o.o.#.o.o.o.o.o.o.o.o.o.o.o.q.q.*.#.#.o.q.q.o.o.o.o.o.o.o.o.q.q.#.*.#.*.*.q.*.%.%.%.%.%.%.%.*.o.%.q.*.o.%.w.w.o.} ) } } ..o.o.o.o.o.o.o.o.o. . .X.X.X.X.X.X.X.X.X.X.X.X.X.X.o.o.o.o.o.o.o.o.o.o.o.o.o.o.o.o.o.o.o.o.o.o.o.o.o.o.o.o.o.o.o.o...| | | | | +.| =.w.p u _ u | | _ ) ) ) ) ) ) ) ) ) ) ) ) ) ) ) _ _ _ _ _ _ _ _ _ _ _ _ _ _ _ _ ) ) ) ) ) ) ) ) / / p p p p / / ) ) u u ) u u u / / u ) ) ) ) ( @.*.u u ) u ) ) ) ) ) ) ) ) ) ) ) ) ) ) ) ) ) ) / / / / / / / / u u u u u u u u u u u u u u u u u u u u u u u u u u u ",
"/ / / / / / p u / / / / ) ) ) ) ( p ( ( ( p _ @._ = ) u u _ ( ) ) ) ) ) ) ) ) _ ) ) ) ) ) ) ) ) ) ) ) ) ) ) ) ) ) ) ) ) ) ) ) ) ) ) ) ) ) ) ) ) ) ) ) ) ) ) ) ) ) ) ) ) ) ) ) ) ) _ ) ) _ ) ) *.../ / / u ) ..) | | | | ..................................................o.o.o.o.o.o.o.o.o.o.o.o.o.o.o.o.o.o.o.o.o.o.o.o.o.o.o.%.&.&.%.%.o.%.q.q.X.) ) }  .o.o.%.#.#.*.#.#.#.#.#.#.#.*.*.#.#.#.q.q.q.q.*.#.*.*.o.o.o.o.o.o.o.o.q.q.#.#.*.*.q.q.q.q.q.q.q.q.q.q.*.*.*.*.*.*.*.*.q.%.*.q.*.%.*.q.w.o.} } } }  .o. . . . . . ..... . . . . . . . . . . . . . . . .X.X.X.X.o.o.o.o.o.o.o.o.o.o.o...o.o.o.o.o.o.o.o.o.o.o.o.o.o.o.o...@.@.@.@.@.@.@.=.w.p u ( u | | _ ) ) ) ) ) ) ) ) ) ) ) ) ) ) ) _ _ _ _ _ _ _ _ _ _ _ _ _ _ _ _ ) ) ) ) ) ) ) ) ) ) ) ) ) ) ) ) ) ) ) ) ) ) u u ) ) u ) ) ) ) _ ..*.u u ) u ) ) ) ) ) ) ) ) ) ) ) ) ) ) ) ) ) ) / / / / / / / / u u u ) u u u u u u u u u u u u u p u u u u u u u u u ",
"u u / / u u p p ) ) ) ) ) ) ) ) _ ) ( _ ( ) _ @._ = u u u _ ( ) ) ) ) ) ) ) ) ) ) ) ) ) ) ) ) ) ) ) ) ) ) ) ) ) ) ) ) ) ) ) ) ) ) ) ) ) ) ) ) ) ) ) ) ) ) ) ) ) ) ) ) ) ) ) ) ) ) _ ) ) _ ) ) *.../ / / u ) ..) | | | | ....................................................o.o.o.o.o.o.o.o.o.o.o.o.o.o.o.o.o.o.o.o.o.o.o.o.o.o.%.o.o.%.o.o.o.q.q.o.) ) }  .o.o.%.#.*.*.*.*.#.#.#.#.*.*.*.*.#.#.q.q.q.q.q.q.*.q.q.q.q.q.#.q.q.q.*.q.#.*.*.*.*.q.q.q.q.*.%.%.*.q.*.*.*.*.*.*.*.*.*.%.*.q.*.o.*.w.w.o.} } } }  .o......... ....... . . . . . . . . . . . . . . . .X.X.X.X.o.o.o.o.o.o.o.o.o.o.....o.o.o.o.o.....o.................................*.w.p p ) u _ | _ ) ) ) ) ) ) ) ) ) ) ) ) ) ) ) _ _ _ _ _ _ _ _ _ _ _ _ _ _ _ _ ) ) ) ) ) ) ) ) ) ) ) ) ) ) ) ) ) ) ) ) ) ) ) ) ) ) u ) ) ) ) _ @.*.u u ) u ) ) ) ) ) ) ) ) ) ) ) ) ) ) ) ) ) ) / / / p / / / / u u ) ) u u u u u u u u u u u u u u u u u u u u u u u ",
"/ / / / p / p / ( ) _ ) _ ) _ _ _ ( ( _ ( ) _ @.| = u u u _ ( ) ) ) ) ) ) ) ) ) ) ) ) ) ) ) ) ) ) ) ) ) ) ) ) ) ) ) ) ) ) ) ) ) ) ) ) ) ) ) ) ) ) ) ) ) ) ) ) ) ) ) _ _ ) ) ) ) ) _ ) ) _ ) ) *.../ / / u ) ..) ` | ` ` | ......................................| | ..| ............o.o.o.o.o.o.o.o.o.o.o.o.o.o...o.o.o.o.o.o.o.%.o.o.o.o...o.%.q.X.) ) }  .o.o.o.o.o.o.o.o.o.o.o.o.o.o.o.o.o.o.o.o.o.o.o.o.o.o.q.q.q.8.*.*.q.*.o.o.o.o.o.o.o.o.o.o.o.o.o.o.o.o.o.o.o.o.o.o.o.o.%.o.o.*.%.o.o.q.q.o.} } } }  .o.o.o.o.o.o.o.o.o.X.X.X.X.X.X.X.X.X.X.X.X.X.X.X.X.o.o.o.o.o.o.o.o.o.o.o.o.o.o.....................o.....o.o.o.o.....| | | | | | | *.w.p p ) u _ | _ ) ) ) ` ` ) ) ) ) ) ) ) ) ) ) ) ) ) ) ) ) ) ) ) ) ) ) ) ) ) ) ) ) ) ) ) ) ) ) ) ) ) ) ) ) ) ) ) ) ) ) ) ) ) ) ) ) u ) ) ) ) _ @.*.u u ) u ) ) ) ) ) ) ) ) ) ) ) ) ) ) ) ) / u / / / p / / / / u u ) ) / u u p u u u u u u u u u u u u u u u u u u u ",
"( ( ( ( ( ( ( ) ( ( ( _ _ _ _ _ ( ) ( ( ( u _ @._ = u u u _ ) ) ) ) ) ) ) ) ) ) ) ) ) ) ) ) ) ) ) ) ) ) ) ) ) ) ) ) ) ) ) ) ) ) ) ) ) ) ) ) ) ) ) ) ) ) ) ) ) ) _ _ _ _ _ _ _ _ ) _ ) ) _ ) ) *.../ / / u ) ..` ....| | | | ....................................| ..............o.o.o.o.o.o.o.o.o.o.o.o.o.o.o.o.o.o.o.o.o.o.o.o.*.o.o.o.o...o.*.q.o.p ) } } o.#.o.o.o.o.o.o.o.o.o.o.o.o.o.o.o.o.o.o.o.o.o.o.o.o.o.o.o.o.o.o.o.o.o.o.o.o.o.o.o.o.o.o.o.o.o.o.o.o.o.o.o.o.o.o.o.o.%.o.o.*.%.o.*.w.w.o.} } } }  .o.o.o.o.o.o.o.o.o.o.o.o.o.o.o.o.o.o.o.o.o.o.o.o.o.o.o.o.o.o.o.o.o.o.o.o.o.o.o.o.o.o.o.o.o.o.o.o.o.o.o.o.o.@.o.@...................#.=.) p _ p _ _ _ ) ) ) ` ` ` ) ) ) ) ) ) ) ) ) ) ) ) ) ) ) ) ) ) ) ) ) ) ) ) ) ) ) ) ) ) ) ) ) ) ) ) ) ) ) ) ) ) ) ( ) ) ) ) ) ) ) u ) ) ) ) _ @.*.u u ) u ) ) ) ) ) ) ) ) ) ) ) ) ) ) ) u u u / / / p / / / / u u ) ) ) ) ) p u u u u u u u u u u u u u u u u u u u ",
"( ( ( ( ( ( ( ( a a a a _ _ _ _ ) p ) ( ) u _ @._ = u u u _ ) ( ) ) u u ) ) ) ) ) ) ) ) ) ) ) ) ) ) ) ) ) ) ) ) ) ) ) ) / / / / ) ) ) ) ) ) ) ) ) ) ) ) ) ) / ) ) ) ) ) ) ) ) ) / _ ) ) _ ) ) @.../ / / u ) ..` ........| ......................................................o.o.o.o.o.o.o.o.o.o.o.o.o.o.o.o.o.o.o.o.o.o.o.o.*.o.#.#.o.o.#.q.q...p p }  .o.o.#.#.#.*.#.#.#.#.#.#.*.*.#.#.o.o.*.*.#.*.q.q.q.q.#.#.o.o.o.o.o.o.q.q.*.q.*.#.q.q.o.o.o.#.o.o.o.o.*.*.*.*.*.*.*.*.*.%.*.q.*.o.*.w.q.o.} } } } } ..o.o.o.o.o.o.o.o.o.o.o.o.o.o.o.o.o.o.o.o.o.......o.o.o.o.o.o.o.o.o.o.o.o.o.o.o...o.@.o.o.o.o.o.@.o.o.o.o.o.o.o...............@...#.=.) p | p _ ) ` ` ) ) ` ) ` ) ) ) ) ) ) ) ) ) ) ) ) ) ) ) ) ) ) ) ) ) ) ) ) ) ) ) ) ) ) ) ) ) ) ) ) ) / / / / ) ) ) ) ) ) ) ) / ) u ) ) ) ) _ @.*.u u ) u ) ) ) ) ) ) ) ) ) ) ) ) ) ) u u / u / / / p / / / / u u ) ) / ) ) ) u u u u u u u u u u u u u u u u u u / ",
"i i u i u u i a u u u u a a a p p u p ( u u ( +._ = u u u _ ( ( ) ) ) ) ) ) ) ) ) ) ) ) ) ) ) ) ) ) ) ) ) ) ) ) ) ) ) ) / / ) ) ) ) ) ) ) ) ) ) ) ) ) ) ) ) / / ) ) ) ) ) ) ) ) u ) / / ) / ) @.../ / / u ) ..` ....| | | | | ..| | | | ......| ................| | | ..................o.o.o.o.o.o.o.o.o.o.o.o.o.o.o.o.o.o.o.o.o.o.o.o.o.o.o.q.q. .p p }  .o.o.o.o.o.o.o.o.o.o.o.o.o.o.o.o.o.o.o.o.o.o.o.o.o.o.#.#.q.*.o.o.o.o.o.o.o.o.o.o.o.o.o.o.o.o.o.o.o.o.o.o.o.o.o.o.o.o.o.o.o.*.o.o.o.q.q...} } } } }  . . . . . . . . ............................... ... . . ....... ............. .| ....................................| | | | | | #.=.) / _ p ) ) ) ) ) ) ) ) ) ) ) ) ` ) ) ) ) ) ) ) ) ) ) ) ) ) ) ) ) ) ) ) ) ) ) ) ) ) / / / / ) ) ) ) / / ) ) ) ) ) ) u u u u / / u ) ) ) ) _ @.*.u u ) u ) ) ) ) ) ) ) ) ) ) ) ) ) ) ) ) u u / / ) ) / / / / u u ) ) / ) u u u u u u u u u u u u u u u u u u u u u ",
"u u u u u u u u s s u u u u u u u u u ) u u ( +._ = u u u _ ) ( ) ) ) ) ) ) ) ) ) ) ) ) ) ) ) ) ) ) ) ) ) ) ) ) ) ) ) ) ) / ) ) ) ) ) ) ) ) ) ) ) ) ) ) / ) / / / / / ) / / / / u ) / u ) / / @.../ / / u ) ..` ` ) ) ) ) ) ) ) ) ) ) ) } } } ) } } | | | | | } ) ) ) ) ` ` } } | | | | .... . .} }  .} }  .} }  . . .}  . ..... .| |  . . .o.#.q. .p p }  .o.o.................................o.o.o.o.o.o.o.o. ....... . .} } o.o.o.o.o.o.o.o.....o.o.o.o.o.o.o.o.o.o.........o.....o.o. ...o.q...} } } } }  .} } } } } } } } } } } } } } } } } } } } } } } } } } }  .} } } } } }  ...| | } } | | | | | | | | | | | | | | | | | | _ _ _ _ _ _ #.w.) / | p ) ) ) ) ) ) ) ) ) ) ) ) ) ) ) ) ) ) ) ) ) ) ) ) ) ) ) ) ) ) ) ) ) ) ) ) / / / u u u / / / / / / / / ) ) ) ) u u u u ) / u ) ) ) ) _ @.*.u u ) u ) ) ) ) ) ) ) ) ) ) ) ) ) ) ) u u u / / ) ) ) / / / u u / ) u u u u u u u u u u u u u u u u u u u u u u u ",
"; ; ; ; ; ; ; ; = = s s s s u u u u u u u u u u u u u u u u u u u u u / / / ) ) ) ) / / u u u u u u u u u u u u u / / / u u u u u u u u u u u u / / / / u u / / u u u u u u / / ) ) ) ) ) ) ) ) / / / / / / / ) / / / / / / / / / p p p / / / / u u u u u p / / u / / / / / / u / / ) ) ) ) / p ) ) ) ) ) ) } } } } } } } } } } } } } } } } } } } } ) ) p p p p p p ) ) ) ) ) ) ) ) ) ) } } } } } } } } } } } } p } } ) p } } } } } } } } p p p ) } ) p p } } } } } } } } } } } } } } } } } } } ) ) ) ) ) ) ) ) } } } } } } } } } } } } } } } } } } } } } } } } ) / / ) } ) ) } ) ) ) ) ) / / ) ) ) ) ) ) ) | | ) ) ) ) ) ) p p p p p p p p p p p p / / / / p p u u u u u u u u / / / / / / / / u u u u / / / / ) / / u u / / ) u u u u u u u u u u u u u u u u u u u u u u u u u u u u u u u u / / ) ) u u u u u u u u u u u u u u u u p p p u u u u u u u u u u u u u u u u u = u u u u = = = u u u s = = = = ; ; ; ",
"= = = = > > ; = = = s s s s u u u u u u u u u u u u u u u u u u u u u u u / p p / / / u u u u u u u u u u u u u u u u u u u u u u u u u u u u u / / / / u u p p u u u u u u / / ) ) ) ) ) ) ) ) / / / / / / / / / / / / / / / / / / / / / / / / / / / / / / / / / / / u u / / u / ) ) ) } } ) ) } } } } } } } } } } } } } } } } } | | } } } | | } } } } } } } } } } } } } } } } } } } } } } } } } } } } } } } } } } } } ) p p p } } } } } } } } } } } } } } } } ) ) ) ) } ) } ) ) ) ) } } } } } } } } } } } } } ) ) ) ) ) ) ) ) ) ) ) ) ) ) ) ) } } } } } } } } ) ) ) ) } / / / ) ) } } ) ) } } ) ) ) ) ) ) ) ) ) ) ) ) ) ) p / ) ) ) ) ) ) ) ) ) ) ) ) ) ) ) ) ) / / / / / / / / / / / / / / / / / / / / / / / ) / / / u u u u u u ) ) ) / u / / / u u u u u u u u u u u u u u u u u u u u u u u / / u u u u u u u u u u u u u u u u u u u u u u u u u u u u u u u u u u u u u = u u u u u u u u u u u ; ; = = ; ; ; ",
"( ( / / ( ( / / ( ( ( a ( ( ( ( _ _ ( ( ( ( _ _ _ _ _ _ _ _ _ _ _ _ _ _ _ _ _ | | | _ _ _ _ _ _ ) ) _ _ _ _ ` ` | ` ) ) ) / / / ) _ _ _ | | ` ` ` ` ` ` _ | | | | _ _ | _ | | | | | | | | | | | | | | | | | | | ....................................................` ` ` ` ` ` | | ....%...o.o.o.o.o.o.o.o.%.*.o.o.o.o.o.o.o.o.o.o.#.o.#.o.o.#.#.#.#.o.o.o.#.o.o.o.o.%.%.o.%.%.o.o.%.%.o.%.%.%.o.o.o.o.#.o.o.o.o.o.o.o.o.} } } ..o.o.o.o.q.#.q.o.o.o.o.o.o.o.o.%.%.%.%.%.%.%.%.o.o.%.%.%.*.*.*.%.%.%.%.%.%.%.%.%.%.%.%.%.%.%.%.o.o.o.o.%.%.%.%.o.o.o.o.%.%.%.%... . .&.%.} ) / ) } ......o.*.*.................*.*.#.o.#.o...........................o.%...............................| | | | | | | | | | ..| ..| | | | ` / u / _ | @...| | ` | | | | | ` ` ` _ _ _ _ _ _ _ _ _ _ _ _ _ _ _ _ _ ` ` ` _ _ _ _ _ _ _ _ _ _ _ _ _ _ _ _ _ _ _ _ _ _ _ _ _ _ _ _ ( ( ( ( ( ) ) ) u ) ( _ ( ( ( ( ( ( ( ( ( ( ( u ( ( ( ",
"( ( ( ( _ _ _ _ _ | _ _ _ | +.+.| | | | | | | | +.+.+.+.+.+.+.+.| | | | +.+.@.@.@.@.+.+.+.+.@...| | | | ......@.@.......| _ ) ) | ` | | | ..| ..@.@.....@.@.....@.@.@.@.@.@.*.*.@.@.@.@.@.@.@.@.%.%.*.*.@.@.@.@.*.*.*.*.*.*.*.*.*.*.*.*.*.*.*.*.*.*.*.*.*.*.*.*.=.*.@.*.@...........o.*.*.*.*.*.q.q.q.q.q.q.w.w.q.q.q.q.q.q.q.q.q.q.q.q.q.q.q.q.w.w.w.w.q.q.q.q.q.q.w.q.q.q.q.q.q.q.q.q.q.q.q.q.q.q.q.q.w.w.q.q.q.q.q.q.q.o.o.} o.o.o.*.q.q.q.q.q.q.q.q.q.q.q.q.q.q.q.q.q.q.q.q.q.q.q.q.q.q.q.w.q.q.q.q.q.q.q.q.w.w.w.w.w.w.w.w.q.q.q.q.q.q.q.q.w.q.q.q.w.w.w.q.%.%.%.w.q.%.} ) } | ..o.%.*.*.*.*.*.*.*.*.*.*.*.=.=.=.*.=.*.=.=.*.*.*.*.=.=.=.*.*.*.*.*.=.*.*.*.*.*.*.*.*.*.*.*.*.*.*.*.*.*.*.*.*.*.*.*.*.*.*.*.......*.*...| / ) _ ..@.@.@.....*.@.@.@.@.@.@.@.....@.@.@.@...@.@.@.@.@.........@.@.@.@.@...| | | | | | | | | | +.+.+.+.@.@.@.@.| | | | +.+.+.+.+.+.+.+.| _ _ ( u ) _ _ _ _ _ _ _ _ _ _ _ _ _ _ ( ( ( ",
"/ / / / / / / / ( ) / / ) ) ( _ ( ( ( ( _ _ _ _ _ _ _ _ _ _ _ _ _ _ _ _ _ _ _ _ _ _ _ _ _ _ _ _ _ _ ` ` ` | | | | | | @...) u u ) ) ) _ _ _ _ _ | | | | | | | | | | | | | | | ..| | | | | | | | ......| | | ....| | ..............................................` @.*.*.` ) ) ) ` | ........o.o.o.o.o.o.o.o.o.o.o.o.o.o.o.o.o.o.o.o.o.o.o.o.o.o.o.o.o.o.o.o.o.o.&.o.&.o.o.o.o.o.o.o.&.o.o.o.o.o.o.#.#.#.#.o.o.o.o.o.q.q.o.} } } }  .o.o.o.o.o.o.o.o.o.o.o.o.o.o.o.o.o.o.o.o.o.o.o.o.o.o.o.o.o.o.o.o.o.o.o.o.o. . . . . . . . . . . . . . . . . . . . . . . . . . . .%.q.%.} ) / ) } | } } | | } } } } } } } } } } } } | } | } ................| | ........| | | | | | | | | | | | | | | | ` ` | | | | | | | | ` ` | ..*...` / u / ) ) ) _ ` | | | | | | | | | ` | | | _ _ ` _ ` ` ` _ | ` ` ` _ _ ` | _ _ _ _ _ _ _ _ _ _ _ _ _ _ _ _ _ _ _ _ _ _ _ _ _ _ _ _ ( ( ( _ _ ( u u u u u ) ) ) ( ( u i i ( i u u : ( ( y ",
"; ; y y y y u u u u u u u u / ) ) ) ) ) ) ) ) ) ) ) ) ) ) ) ) ) p p p ) ) ( ( ( ( ( ( ( ( ( ( _ ) ) ) ) _ ) _ _ ) ) ` @.@.) u u / ) ) ) ) ) _ _ ) ) ) ) ) ) ) ) ) ) ) ) ) ) _ _ _ _ _ _ _ _ _ _ ` ` ` ` ) ) ` ` ) ) ) ) ) ) ) ) } } } } ) ) ) ) } ) ) ) } } | | ` ` ..*.*.) u u ) ) | | ........} } } } } }  ................... . . . ... . . . . . . . . . . . . . . . . . . . . . . . . . . . . .o.o.o.o. . .o.} o.q.q.o.} } } } } }  . .} } } } } } } } } } ........................ . . . .} } } } } } } } } } } } } } } } } } } } } } } } } }  . . . .} }  .`  .%.*.%.` / / ) ) } } ) ) ) ) ) ) ) ) ) ) ) ) ) ) ) ) ) ) ) ) ) ) ) ) ) ) ) ) ) ) ) ) ) ) ) ) ) ) ) ) ) ) ) ) ) ) / ) ) ) ) ) ) ) ) / / ) ) ) / ) | ....) u u / ) ) ) ) _ | _ ) _ _ ) ) ) ) ) ) ) ) ) ) ) ) ) ) ) ) ) ) ) ) ) ) ) ) ) ) ) ) ) ) ) ) ) ) ) ) _ ( _ _ ( _ _ ( ( ) ( ( ( ( ( ( u u u ( ( ( u = = u u u / u u ) s u u s s ; ; ; : : : ",
"/ / / / / / / / / / / / / / ) ) ( ( ( ( ( ( ( ( ( ( ( ( ( ( ( ( ( ( ( _ _ _ _ _ _ _ _ _ _ _ _ _ ) ) _ _ _ _ _ _ _ ) ` *.@.) u u / ) ) _ _ ` ` ` _ _ _ _ _ _ _ _ _ ) ) ) ) _ _ ` ` ` ` ` ` ` | | } ` ` ` ` ` ` ` ` ` ` ` ` ` ` ` | | } } | | | | | | | } | | | | ` ` ..=.=.` / / ) ` | .................. ...o.o.o.o.o.o.o.o.o.o.o.X.X.X.X.X.X.X.X.X.X.o.o.o.o.o.o.o.o.o.X.X. . . . . . .X.X.X.X.o.o.o.o.o.o.o.o.o.} o.w.q.o.} } } } } o.o.o.o.o.o.o.o.o.o.o.o.o.o.o.o.o.o.o.o.o.o.o.o.o.o.o.o.o. . . . . . . . .o.o.o.o.o.o.o.o. .X. . . . . . .X.X.X.X.X.X.X. . .` ` &.*.%.` / ) ) | ..| ` ) ) ` ` ` ` ` ` ` ` ` ` ` ` ` ` } } } } } } ` } } } } ) } } } } ) ) ) ) ) ` ) ) ) ) ) ) ) ) ) ) ) ) ) ) ) ) ) ) ) ) ) ) ) } ....` / ) ) _ | _ _ ` | _ _ _ _ _ ) ) ) _ _ _ _ _ _ _ _ _ _ _ _ _ _ _ _ _ _ _ _ _ _ _ ) _ _ ) ) _ _ _ _ _ _ _ _ _ _ _ _ _ _ _ _ _ _ _ _ / u ) _ | _ u u u u ) ( ) ) ) ( i i i ( i u : : ( ( y ",
"/ / / / / / / / / / / / / / ) ) ) ) ( ) ( ) ( ) ( ) ( ) ( ) ( ( ( ( ( ( _ ( _ _ _ ( _ _ _ _ _ _ ) ) ) _ _ _ _ _ _ ) ) @...u u / u u / ) ) ) ) ) _ _ _ _ _ _ _ _ ) ) ) ) ) ) _ _ ` ` ` ` ` ` | | ` ` ` ` ` ` ` ` ` ` ` ` ) ) ) } } } } } } } } } } } } } } ....| ..` | *.*.` / ) ) ) } | | | | } o.o.o.o.o.o.o.o.o.o.o.o.o.o.o.o.o.o.o.o.o.o.o.o.o.o.o.o.o.o.%.%.o.&.o.o.o.o.o.X. . ... .o.X.....o.o.o.o.o.o.o.o.#.} } q.q.o.) ) } } } } ..o.o.o. . .o.o...o............. ............. . .} } }  . . . . . . . . . . . . . . . . . . . . . . . . . . . . . . . . .` ` &.*...) u / / } | | } ) ) ` ` ` ` ` ` ` ` ) ) ) ) ) ` `  .} } } } ` } } } } } } } | | } } ) ) ) ` ) ) ) ) ) ) ) ) ) ) ) ) ) ) ) ) ) ) ) ) ) / / ) ....) u u ) _ | | _ ) ) ) ) ) ) ) ) ) ) ) ) _ ) _ _ _ ) _ ) _ ) _ ) _ _ _ _ _ _ _ _ ) ) _ _ _ ) _ _ _ _ _ _ _ _ _ _ _ _ _ _ _ _ _ _ _ _ u u p _ +._ ) u u u u u u u u u / / ( ( ( / u u u : : ",
"/ / / y / / u u / u u u u / ) ) ) ) ) ) ) ) ) ) ) ) ) ) ) ) ) ) ) ) ) ) ) ) ) ) ) _ _ _ _ _ _ ) ) ) ) ) ) ) ) _ _ ) ` @.| / u / / ) ) ) ) ) ) ) ) ` ) ) ) ) ` ` ) ) ) } } } ) ) ) ) ) ) } } } } } ) ) ) ) } | | | | | | | | | }  . . . . . . . . . . . . . . . .o...) q.q.) ) / / } ..o... .....X.X.X.X................. . . ..... . . . ...o.o.o.o.o.o.o.o.o.o.o.o.o.o.o.o.o.o.o.o.o.o.o.o.o.o.o.o.o.o...o.o. .o.o.o.q.w.o.} } } } } ..o.o. .} } } } } }  .o.o. .o.o.o.o.X. . . . . . . . . . . . . . . . . . . . . . . . . . . . . . . . . . .}  . . . . . .}  .} } ..q.%.) ) ) ) } } } } } } } } } } } } }  .} } } } } } }  .} ` ` ` ` ` ` ) ` ` ) ) ) ) ) ) ) ) ` ` ) ) ) ) ) ` ) ) ) ) ) ) ) ) ) ) ) ) ) ) ) / ) ) ..*.u p / / ) | ` ) ) ) ) ) ) ) ` ` ) ) ) ) _ ) _ ) _ ) _ ` _ ) _ ` _ _ _ _ _ _ _ ) ) ) ) ) ) ) ) ) ) _ _ _ _ _ _ _ _ _ _ _ _ ( ) ) ) ) ( ) ) _ _ _ ) u ; u u u u u u u u u u u u u u / u u u ",
"/ / / y / ; y u / u u u u / ) ) ) ) ) ) ) ) ) ) ) ) ) ) ) ) ) ) ) ) ) ) ) ) ) ) ) ) ) _ _ ) _ ) ) ) ) ) ) ) ) _ _ ) ` @.| / u / / ) ) ) ) ) ` ) ` ` ) ) ) ) ) ` ) ) ) ) } } ) ) ) ) ) ) ) ) } } } ) ) ) ` } | | | | | | | | |  . . . . . . . . . . . .X.X. . . .o...} q.q.) ) / )  . .o... . ... .X.X.X...............o. . . ..... . . . ...o.o.o.o.o.o.o.o.o.o.o.o.o.o.o.o.o.o.o.o.o.o.o.o.o.o.o.o.o.o...o.o.} o.o.o.q.w.o.) } } } } o.o.o. .} } } } } }  .o.o...o.o.o.o.X. . . . . . . . . . . . . . . . . . . . . . . . . . . . . . . . . . .}  . . . . . .}  . .} o.q.%.} ) ) } } } } } } } } } } } } } } } } } } } } } } } ` ` ` ` ` ` ` ) ` ` ) ) ) ) ) ) ) ) ) ` ) ) ) ) ) ` ) ) ) ) ) ) ) ) ) ) ) ) ) ) ) / ) ) ..*.u p / / ) | ` ) ) ) ) ) ) ) ` ) ) ) ) ) ) ) ) ) ) ) ) ` ) ) ) ) ) ` ) _ _ _ _ _ ) ) ) ) ) ) ) ) ) ) _ ) ) ) ) _ _ _ ) _ ) ) ) ) ) ) ( ) ) _ | _ ) u u u u u u u u u u u u u u u / / / u u ",
"/ / / y / y u u / u u u u / ) ) ) ) ) ) ) ) ) ) ) ) ) ) ) ) ) ) ) ) ) ) ) ) ) ) ) ) ) _ _ _ ) ) ) ) ) ) ) ) ) _ ) ) _ @.| u u / ) ) ) ) ) ) ) ) ) ) ) ) ) ) ) ) ) ) ) ) } } } ) } } } } ) ) ) ) } ) ) ) ` } | | | | | | | | |  . . . . . . . . . . . . . . . . .o...} q.q.) ) / )  . .o... . .......X.X.....X.......o.o. . ....... . . . . .o.o.o.o.o.o.o.o.o.o.o.o.o.o.o.o.o.o.o.o.o.o.o.o.o.o.o.o.o.o.o.o.o.} o.o.o.q.q.o.p } } } }  .o.o.} } } } } } }  .o.o. .o.o.o.o.X. . . . . . . . .}  . . . . . . . . . . . . . . . . . . . . . . . . .}  . . . . . .}  . .} o.w.%.} ) ) } } } } } } } } } } } } } } } } } } } } } } } ` }  .} } } ` ) ) ) } } } } ) ) ) ) ) ` ) ) ) ) ) ) ) ) ) ) ) ) ) ) ) ) ) ) ) ) ) / ) ) ..*.u / / / ) | ` ) ) ) ) ` ) ) ` ) ) ) ) ) ) ) ) ) ) ) ) ) ) ) ) ) ) ) ) _ _ _ _ ) ) ) ) ) ) ) ) ) ) ) _ _ ) ) ) ) _ _ ) ) ) ) ) ) ) ) ( ) ) _ | _ ) u u u u u u u u u / / / / u / / / u u u ",
"/ / / y / y u u / / u u u / ) ) ) ) ) ) ) ) ) ) ) ) ) ) ) ) ) ) ) ) ) ) ) ) ) ) ) ) ) _ _ ) ) ) ) ) ) ) ) ) ) _ _ ) _ @.| u u / ) ) ) ) ) ) ) ) ) ) ) ) ) ) ) ) ) ) ) } } } } ) } } } } ) ) ) ) } } ) ) ` } | | | | | | | | | }  . . . . . . . . . . . . . . . .o... .q.q.) ) / )  . .o... . ...............X.X. ...o.X. . ...o... . . . ...o.o.o.o.o.o.o.o.o.o.o.o.o.o.o.o.o.o.o.o.o.o.o.o.o.o.o.o.o.o.o.o.o.} o.o.o.q.w.o.p } } } } ..o...} } } } } } }  .o.o. .o.o.o.o.o. . .}  . . . . .}  . . . . . . . . . . . . . . . . . . . . . . . . .}  . . . . . .}  . .} o.w.%.} ) ) } } } } } } } } } } } } } } } } } } } } } } }  .}  . .} } ` ) ) ) } } } } ) ) ) ) ) ) ) ) ) ) ) ) ) ) ) ) ) ) ) ) ) ) ) ) ) ) ) / ) ) ..*.u / / / ) | ` ) ) ) ` ` ) ) ) ) ) ) ) ) ) ) ) ) ) ` ) ) ) ) ) ) ) ) ) _ _ _ _ _ ) ) ) ) ) ) ) ) ) ) ) ) ) ) ) ) ) ) ) ) ) ) ) ) ) ) ( ) ) _ | _ ) u u u u u u u u u / / / / u u / / u u u ",
"/ / / y / u u u / / / / u / ) ) ) ) ) ) ) ) ) ) ) ) ) ) ) ) ) ) ) ) ) ) ) ) ) ) ) ) ) _ _ ) ) ) ) ) ) ) ) ) ) _ _ ) ` @.| u u u ) ) ) ) ) ) ) ) ` ) ) ) ) ) ) ) } } } } ) ) } } } } ) ) ) } ) ) } } } } ` } } | } } | } | | | }  . . . . . . . . . . . . . . . .o... .q.q.) ) / ) }  ..... ............. .X.X.X. . .X.X.o.....o... . . . ...o.o.o.o.o.o.o.o.o.o.o.o.o.o.o.o.o.o.o.o.o.o.o.o.o.o.o.o.o.o. .o.o.} o.o.o.q.w.o.} } } } } ..o.o.} }  .} } } } }  .o.X.o.o.o.o.o. . . . . . .} }  . . . . . . . . . . . . . .}  . . . . . . . . . ...}  . . . . . .}  . .} o.w.%.} ) ) } } } } } } } } } } } } } } } } } } } } } } }  . . . .} } ` ) ) ) } ) ) ) ) } ) ) ) ) ) ) ` ` ) ) ) ) ) ) ) ) ) ) ) ) ) ) ) ) ) / } ) o.*.u / / / ) } ` ) ) ) ) ) ) ) ) ) ) ) ) ) ) ) ) ) ` ` ` ) ) ) ) ) ) ) ) _ _ _ _ ) ) ) ) ) ) ) ) ) _ _ ) ) ) ) ) ) ) ) ) ) ) ) ) ) ) ) ( ) ) _ | _ ( u u u u u u u u ) u u u u u u u u u u u ",
"/ / y y / / u u / / u u u / ) ) ) ) ) ) ) ) ) ) ) ) ) ) ) ) ) ) ) ) ) ) ) ) ) ) ) ) _ _ _ ) ) ) ) ) ) ) ) ) ) _ _ ) ` @.| u u u ) ) ) ) ) ) ) ) ` ) ) ) ) ) ` ) } } } } ) ) ) } ) } ) ) } } ) ) } } ) ) ` } } | } | | | | | | }  . . . . . . . . . . . . . . . .o... .q.q.) ) / ) }  ..... ............. ...X.X. . .X.X.X.o...o... . . . .o.o.o.o.o.o.o.o.o.o.o.o.o.o.o.o.o.o.o.o.o.o.o.o.o.o.o.o.o.o.o. .o.o.} o.o.o.q.w.o.} } } } } ..o...} }  .} } } } }  .o.X.o.o.o.o.o.X. . . . . . . . . . . . . . . . . . . . . .} }  . . . . . . . . ...}  . . . . . .}  . .} o.w.%.} ) ) } } } } } } } } } } } } } } } } } } } } } } }  . . . .} } ` ) ) ) ) ) ) ) ) ) ) ) ) ` ) ) ` ) ) ) ) ) ) ) ) ) ) ) ) ) ) ) ) ) ) / } ) o.*.u p / / ) | ` ) ) ) ) ) ) ) ) ) ) ) ) ) ) ` ) ) ` ) ` ) ) ) ) ) ` ) _ _ _ _ _ _ ) ) ) ) ) ) ) ) ) _ ) ) ) ) ) ) ) ) ) ) ) ) ) ) ) ) ( ( ) _ | _ ( u u u u u u u u ) u u u u u u u u u u u ",
"/ / y : / u u u / u u u u u ) ) ) ) ) ) ) ) ) ) ) ) / ) / / / / ) ) ) ) ) ) ) ) ) _ _ _ _ ) ) ) ) ) ) ) ) ) ) _ _ ) ` @.| u u u ) ) ) ) ) ) ) ) ` ) ) ) ) ) ` ` } } ) ) ) ) } } ) ) ) ) } } } } | ) ) ) ` } } | | | | | | | | |  . . . . . . . .}  . . . . . . .o... .q.q.) ) / ) }  ...........X.X.................X.X. ... ..... . . . ...o.o.o.o.o.o.o.o.o.o.o.o.o.o.o.o.o.o.o.o.o.o.o.o.o.o.o.o.o.o. .o.o.} o.o.o.q.w.o.) } } }  .o.o. .} }  .} } } }  . .o.o.o.o.o.o.o.X. . . . . . . . . . . . . . . . . . . . . .} } } }  ... . . . . . .}  . . . . . .}  . .} o.w.%.} ) ) } } } } } } } } } } } } } } } } } } } } } } }  . . . .} } } } } } } } } } } ) ) ) ) ` ) ) ) ) ) ) ) ) ) ) ) ) ) ) ) ) ) ) ) ) ) / ) ) o.*.u p / / ) } ` ) ) ` ) ) ) ) ) ) ) ) ) ) ) ) ) ) ) ) ` ` ) ) ) ) ` ` _ _ _ _ _ _ ) ) ) ) ) ) ) ) _ _ _ _ ) ) ) ) _ _ _ _ ) ) ) ) ) ) ( ) ) _ | _ ( u u u u u u u u ) u u u u u u u u u u u ",
"/ / / : / u u u / u u u u u p ( ) ) ) ) ) ) ) ) ) ) / / / / / / ) ) ) ) ) ) ) ) ) _ _ _ _ ) _ ) ) ) ) ) ) ) ) _ _ ) ` @.| u u / ) ) ) ) ) ) ) ) ) ) ) ) ) ) ) ) } ) ) ) ) ) } ) ) ) ) ) } } } } | ) ) ) ` } } | | | | | | | | |  . . . . . . . .}  . . . . . . .o... .w.q.) ) / )  . ...........X.X.X.o.............o.o.X. . ..... . . . ...o.o.o.o.o.o.o.o.o.o.o.o.o.o.o.o.o.o.o.o.o.o.o.o.o.o.o.o.o.o.} o.o.} o.o.o.q.w.o.} } } } } o.o. .} }  .} } } }  . .o.o.o.o.o.o.o. . . . . . . . . . . . . . . . . . . . . . .} } } }  ....... . . . .}  . . . . . .}  . .} o.w.%.} ) ) } } } } } } } } } } } } } } } } } } } } } } }  . . . .} } } } } } } } } } } ) ) ) ) ` ) ) ) ) ) ) ) ) ) ) ) ) ) ) ) ) ) ) ) ) ) / ) ) o.*.u p / / ) } ` ) ) ` ) ) ) ) ) ) ) ) ) ) ` ` ) ) ) ) ) ) ) ) ) ) ) ) _ _ _ _ _ _ ) ) ) ) ) ) ) ) _ _ _ ) ) ) ) ) ) _ _ _ _ ) ) ) ) ) ( ) ) _ +._ ( u u u u u u u u u u u u u u u u u u u u ",
": : : : u u u u u u u u a a a ) / / / / / ) _ _ u u / / / / u u ) ) / u ) ) ) ) ) ) ) ( ) ) ) ) _ _ ) ) _ _ _ _ _ ) _ *.@.) u / / / ) ) ) ` | | ) ) ) ) ) ` ` ` } } } } } } } } } } } } } | | | | | | | } } } } } } } } } } ) )  . . . . . . . . . . . . . . . . .} o.w.q. .) ) ) } } }  .......o.o.o.o.o.o.o.o.o.o.o.o.o.o.o.o.o.o.o.o.o.o.o.o. . .o.o... ... .} }  . . .o.o.o.o.o.o.o.o.o.o.o.o.o.o.o.o.o.o.o. .o.o.o.#.o.} } } } } } o.o.o.o.o.o... . .o.o... . .X. . .X.X. . . . . . . . . .} } } } } } } } ...... . . . . . . . . . . . . ............. . . . .o.%.q.%. .p ) } } }  .} } }  . . . . . . . .} } } } } } } } ) ) }  . .} } } ) ) ) } } } } ) } ) ) ) ) ) ) ) ) ) ) ) ) ) ) ) ) ) ) ) ) ) ) ) ) ) ) | %.o.) / ) ) ) ) | | | | ) ) ) ) ) ) ) ) ) ) ) ) ) ) ) ) ) ) ) ) ` ` } } ) ) / / ) ) _ ) _ _ _ _ ) ) _ _ _ _ ) ) ) ) ) ) ) ) ) ) ) ) ) / _ ( ( _ _ _ ( u u u u u u u u u u u u u u s s u i i i ",
"u u u u / / / / u u u u u u u u / / u u / / / / u u / / ) / / / / ) ) p u ) ) ) ) ) ) ) ) ) ) ) ) ) ) ) ) ) ) ) ) / ) @...) u u / / / / ) ) ) ) / ) ) ) ) ) ) ) ) ) ) ) ) ) ) ) ) ) ) ) ) ) ) ) | | | | } } } } } } } } } } ) ) } } } }  .} } } } } } } }  . . . .)  .*.%.} / ) ) ) } }  .}  .} } } } } } } } } } }  . . . . . . . . . .......o...o.o.o.o.o.o.o.} } } }  .o.o.o.o.o.o.o.o.o.o.o.o.o.o.o.o.o.o.o. ...o.o.o.o.} } } } } } }  .} } } } } } } } } } } } } } } } } } } } } } } } } } } } } } } } } } } } } } } } } } } } } } } } } }  . . . . . . . .} }  .o.%.o.} ) ) } } } } } } } } } } } } } } } } } } } } } } } ) ) ) ) ) ) } } } } } } } } } } ) ) ) ) ) ) ) ) ) ) ) ) ) ) ) ) ) ) ) ) ) ) ) ) / / ) | ....) u / ) ) ) ) ) ) ) ) ) / / ) / ) ) ) ) ) ) ) ) ) ) ) ) ) ) ) ) ) ) ) ) ) ) ) _ _ _ ) ) ) ) ) ) ) ) ) ) / / / ) ) / ) ) ) ) ) / / / ) p u ) _ ( u u u u u u u u u u u u u u u u s s s s s ",
"; ; ; ; ; ; ; ; u u u u u u u u u u u u u / / / u u u u / / u u u u u u u u p ) p p ( ) ) ) ) ) ) ) / / / ) ) ) ) / ) | | / u u / / / / / / / / / / / / / ) / / ) ) ) ) ) ) ) ) ) ) ) ) ) ) ) ) ) ) ) ) ) ) ) / ) ) ) ) ) ) ) ) ) ) ) ) ) ) ) ) ) ) ) ) ) ) ) ) } ) } o.o.} ) ) ) ) } } } } } } } } } } } } } } } } } } } } } } } } } } } } }  . . . .} }  . . .} } } } }  . . .o.o.} } } } ....} } } } } } } } } }  .o.o.o.} } } } } } } } } } } } } } } } } } } } } } } } } } } } } } } } } } } } } } } } } } } } } } } } } } } } } } } } } } } } } } } } } } } } }  .o.o.} ) } } } } } } } } } } } } } } } } } } } } } } } } } } } } } } } } } } ) ) } } } ) ) ) ) ) ) ) ) ) ) ) ) ) ) ) ) ) ) ) ) ) ) ) ) ) / / ) } ....) p / ) ) ) ) ) ) / / / ) ) / / / / ) ) ) ) ) ) ) ) ) ) / / / / / / ) / / / ) ) ) ) / / ) ) / / ) ) ) / / / / / / / / / ) ) / u u u u u u u ( ( u u u u u u u u u u u u i i u i u s s s s ",
"= = & & = = = = ; ; ; ; u u u u ; ; ; ; ; ; u u ; ; = ; ; u u ; u u u u u u u u u u u u u u u u u u u u u u u u / u / _ _ u u u u u u u u u u u u u / / / / / / / / / / / / / / / / / p p p / / / / p / / / / u / / / / / / / / / / / / / / / / / / / / / / / / ) / / } } ) / ) ) ) ) ) ) ) ) ) ) ) ) ) ) ) ) ) ) ) ) ) ) ) ) ) ) ) ) ) } } } } } } ) ) ) } } } ) ) ) } } } } } } } p ) p p ) ) p p p p p p p p } } } } } } } p } } } } } } } } } } } } } } } } } } } } } } } } } } } } } } } } p p } } } } p p } } } } } } } } } } } } } } } } } } } } } } } } ) ) ) ) } } } ) } } ) ) ) } } } ) ) ) ) ) ) ) ) ) ) } } } } } } } ) ) ) ) ) ) ) ) ) u p p p ) p ) / / / / / ) ) / / / / / / / / / / / / / / / / / / / ) } } / / / / / / / / / u / / / / / / / / u u u u u u / / / / / u / u u u u u u u u u u u u u u u u u u u u u u u u u u u u u u u u u u u u u u u u u u u u u u u u u u u u u u u ; ; = = s s s ",
"> > > > = = = = = = = = s s u u ; > > = > > ; ; u ; > > ; u u u u u u u u u u u u u u u u u u u u u u u u u / u / u ) ) ) / u u / / / u u u u u / / / / / / / / / / / / / / / / / / / / / / / / ) / / / / ) ) / / / / / / / / / ) / / / / / / / / / / / / / / / ) / / ) ) ) ) } ) ) ) ) ) ) ) / ) ) ) ) ) ) ) ) ) ) } } } } } } } } } } } } } }  .} ) ) ) } } } ) } } } } } } } } } } } } } } } } } } } } } } } } } } } } } } ) } } } } } } } } } } } } } } } } } } } } } } } } } } } } } } } } } } } } } } } } } } } } } } } } } } } } } } } } } } } } } } } } } } ) } } } } } } } } } } } } } } } } } } } } } } } } } } } } } } } } } } ) ) ) } } p p p ) } ) ) ) ) ) ) ) ) ) / / / / / / / / / / / / / / / / / / ) ) ) ) ) / / / / / / / / u / / / / / / / / u u u u u / u u / / / / u / u u / u u u u u u u u u u u u u u u u u u u u u u u u u u u u u u u u u u u u u u u u u u u u u u u ; = = s = = = = s s s ",
"( ( ( ( i i i i i i ( ( ( ( ( ( ( ( / / ( ( ( ( _ ( u u / ( _ ( _ _ _ _ _ _ | | _ _ _ _ _ _ _ _ ` _ _ _ _ ` | | ` | | | | | ` ` | | | | | ` ` ` | | | | | | ........| ..........| | | | ..........| ) ) | ......................................................o.......o.o.%.%.o.o.&.&.o.o.....o.o.o.o.o.o.o.o.o.o.o.o.%.%.%.%.o.o.o.o.o.%.%.%.*.o.} }  .o.o.o.o.o.o.o.o.o.o.o.q.q.q.q.q.q.q.q.q.q.q.q.q.q.q.q.o.o.o.o.o.#.o.o.o.o.o.o.o.o.o.o.o.o.o.o.o.o.o.o.o.o.o.o.o.o.o.o.o.o.o.o.o.o.o.o.o.o.o.} } o.o.o.o.o.o.o.o.o.o.%.o.o.o.o.o.o.o.o.o.o.o.o.o.o.o.o.%.%.%.%.%.%.*.*.o.o.o.o.o.o.o.o.o.o.o.o.o.o.o.o.o.o.o.o.o.o.o.o.o.o.o.o.o.o.o.o.o.o.} } } ................................................................................| | } | | ....| ..| | ................| | | | | | | | | _ ) / ) ) _ _ | | | | | | | | _ _ _ _ _ _ _ _ _ ` | | _ _ _ ) _ _ ( ( ( _ _ | _ _ _ ( ( ( ( ( ( ( ( ( ] ( ( ( i i i ",
"( ( ( ( ( ( ( ( _ _ _ _ _ _ ] ] _ _ _ _ _ _ ] +.] ( u u ( _ _ _ +.+.+.+.+.+.@.@.+.+.+.+.+.+.+.+...| | | | | ....| ..............................................%.%.o.o.o.%.%.%.........%.*.*.*.*...) ) | ..%.o.*.*.*.*.*.*.*.*.*.*.*.*.*.*.*.*.*.*.*.*.*.*.*.*.%.*.*.%.%.*.*.*.*.*.q.q.q.*.*.*.q.q.q.q.q.q.q.q.q.q.q.q.q.w.w.w.q.q.q.w.w.w.q.q.w.o. .} o.o.%.%.q.q.q.q.q.q.q.q.q.q.q.q.q.q.q.q.w.w.q.q.q.w.q.q.q.q.*.#.q.q.w.q.q.q.q.q.q.q.q.*.#.#.*.#.*.q.q.*.%.%.%.%.%.%.%.%.q.q.q.q.q.q.q.q.q.o.o.} } o.o.q.q.q.q.q.q.q.q.q.*.*.q.q.q.q.q.*.q.q.q.q.q.q.q.q.q.q.q.q.q.q.q.q.*.q.q.q.q.*.%.o.*.*.*.*.*.*.*.*.%.%.%.%.%.%.%.%.%.%.%.%.%.%.%.%.q.o.} } } ..o.o.*.@.@.@.@.@.@.@.*.*.@.*.@.@...%.*.*.*.*.*.*.*.*.o.o.o.o.%.%.*.*.......@.........................................................@.| ) / ) _ | | ....@.....@.....| | | | | | | | | ..| ..| | | | | | _ _ _ _ +.@.+.+.| _ _ _ | +.] ] ] ] ] ] ] ] ( ( ( ",
"i u / / / / u / u u u u u a a ( ( ( ( ( ( ( ( ( _ u ; ; u ( ( / ) p p p p ) ( ( ) ) ) ) ) ) ) ) ) ) ) ) ) ) ) ) ) ) ) ) ) ) ) ) ) ) ) ) ) ) ) ) ) ) ) ) ) ` ) ) } } } } } } } } } } } } | ......o.} / u ) } ....} } } } } }  .} ....................................o.......o...o.o.o.%.o.%.o.o.o.o.o.o.o.o.o.o.o.o.o.o.o.o.o.o.o.o.o.o.%.%.%.%.q.o.} ) } o.o.o.}  .}  . .o.o.X.} } } } } } } } }  .} } }  .}  .o. .} } } o.o.o.o.o.o.o.o.o.o. .o.X.o. ... ... . . . .X. . . . .o.o.o.o.o.o.o.o.q.o.} p p } o.q.o.o.o.o.o.o.o.o.o.o.o.o.o.o.o...o.o.o.o.o.o.o.o. . .o.o. .} } }  ...o.o.o. . .}  . . . . . . . . . . . . . . . .}  . . . . . .X.o.o.} p ) } } ..| } | } | } | } ) ) ) ) } ) } } } } } ) } ) } } } } } } } ) ..| ) ` ` ` ` ` ` ) ) ) ) ) ) ) ) ) ) ) ) ) ) ) ) ) ) ) ) ) ) ` ` ` ..` / u u ) ) | ) ) ) ) ) ) ) ) ) ) ) ) ) ) ) ) / / / / / / u u ) ) u u u / ( _ _ _ ( ) ) ) ( ( u u i i u u u u i u u ",
": y : y y y : / / / u u u / ( ( ( / ) ( ) u _ +.( ; u u u / _ / ) / / / / / / / / / / / / / / / ) ) ) ) ) ) ) ) ) ) ) ) ) ) ) ) ) ) ) ) ) ) ) ) ) ) ) ) ) ) ) ) ) ) ) ) ) } } } ) } } ) ) ) ) *.../ p ) / ) ..}  . .} }  . . . . . . ... . . . ... . . . . . . .....o...o...o. .X. .o...o...o.o.X.X.o.o.o.o.X.X.X.X.X.o.o.o.o.o.o. . .o.o.o.o.q.q.o.} } } } X.X... ... ... .o. ... .o.X.o. ... .X.X. . . . .X.X.X. . . .X.X. . .o.X.o.X... ... . . . . . . . . .X.X.X.X.O.O.O. .} X.O.O.X.O.} %.q.%.} } }  . . ...X.o.X.o.X... . . .X. .X. .X. .X. .X. .X. .X. . .X.X. . . .o.o. . . . . . . . . . . . . . . . . . . . . . . . . . . . . . . .} q.q.) ) } ) } } } } } } } } } } } } } } } } } } } } } } } } } } } } } } } } } ) ) ) ) ) ) ) ) ) ) ) ) ) ) ) ) ) ) ) ) ) ) ) ) ) ) ) ) ) ) ) ) ) @.*.u u ) u ) ) ) ) ) ) ) ) ) ) ) ) ) ) ) ) ) ) ) ) ) ) ) ) ) ) ) ) ) ) ) ) ) ) ) ) ) ) ) ) / u u u u u u u u u i i ( ",
"y y y y y y y y / / u u u / / ( ( ) ) ( ) u ( +.( u u u u p _ / / / / / / / ) ) / ) ) ) ) ) ) / ) ) ) ) ) ) ) ) ) ) ) ) ) ) ) ) ) ) ) ) ) ) ) ) ) ) ) ) ) ) ) ) ) ) ) ) } } } } } } } ) } ) ) *.../ / ) / ) ..}  . . . . . . . . . . ... . . . ..... . ..... . .o.o.o.o.o.o.o.o. .X.o.o.o.o...o.X.X.o.o...o.X.X.X.X.o.o.....o.o.o. . .o.o.o.o.q.q.o.} } } } X.X. . . . . . . . . . .X. . . . . .X. . . . . .X.X. . . . .X.X. . .X.X.X.X. . .X. .X.X. . . . .X.X.X.X.X.X.X.X.O.O.} X.} } X.O.} %.q.%. .} }  . .X.X.X.o.o.o.X. . .X.X.X.X.X.X.X.X.X.X.X.X.X.X.X. .X. .X.X......... . . . . ... . . . . . . . . . . .}  . . . . . . . . . . . . . .q.q.) ) } ) } } } } } } } } } } } } } } } } } } } } } } } } } } } } } } } } } } ) ) ) ) ) ) ) ) ) ) ) ) ) ) ) ) ) ) ) ) ) ) ) ) ) ) ) ) ) ) ) ) @.*.u u ) u ) ) ) ) ) ) ) ) ) ) ) ) ) ) ) ) ) ) ) ) ) ) ) ) ) ) ) ) ) ) ) ) ) ) ) ) ) ) ) ) / / u u u u u u u u / / y ",
"y y y y y y : : / u u u u / / ( ( ) ( ( ) u ( +.( u u u u p _ / ) / / / / / / / / / / / / / / / ) ) ) ) ) ) / / ) ) ) ) ) ) ) ) ) ) ) ) ) ) ) ) ) ) ) ) ) ) ) ) ) ) ) ) } } } } } } ) ) } ) ) *...) / ) / )  .}  . . . . . . . . . . . . . . . . . . . . ... . .X.o.o.o.o.o..... .X.X.o.X.X... .X.X. .........X.o...o... ...X.X.o. . .o.o.o.o.q.q.o.} } } } o.o. . . . . . . . . . . . . . . . . . . . . . . . . . . . . . . . .X.X.X.X.X.X.X.X.X.X. . . . . .X.X.X.X.X.X.X.X.X. .X.} } X.} } %.q.%. .) }  . .X.X.o.o.o.o.X. . .X.X.X.X.X.X.X.X.X.X.X.X.X.X.X. .o. ............. . . . ..... . . . . . . .}  . . .}  . . . . . . . . . . . . . .q.q.) ) } ) } } } } } } } } } } } } } } } } } } } } } } } } } } } } } } } } } ) ) ) ) ) ) ) ) ) ) ) ) ) ) ) ) ) ) ) ) ) ) ) ) ) ) ) ) ) ) ) ) ) ..*.u u ) u ) ) ) ) ) ) ) ) ) ) ) ) ) ) ) ) ) ) ) ) ) ) ) ) ) ) ) ) ) ) ) ) ) ) ) ) ) ) ) ) u / u u u u u u / / / / y ",
"y y y y y y : u / u u u u / / ( ( ) ( ( ) u _ +.( u u u u u _ / / / / / / / / / / / / / / / / / ) ) ) ) ) ) / / ) ) ) ) ) ) ) ) ) ) ) ) ) ) ) ) ) ) ) ) ) ) ) ) ) ) ) ) } } } } } } } ) } ) ) *...) / ) / )  .}  . . . . . . . . . . . . . . . . . . . . . . . .X.o.o.o.o.o.o. . . .X.o.X.X.X. .X.X.X.......o.o.o....... . .X.X.o. . .o.o.o.o.q.q.o.} } } } o.o. . . . . . . . . . .X.X. . . . . . . . . . . . . . . . . . . . .X.X.X.X.X.X.X.X. . . . . . . .X. .X.X.X.X.X.X.X.X.X.} } X.O.} %.q.%. .) }  . .X.X.o.o.o.o.X. . .X.X.X.X.X.X.X.X.X.X.X.X.X.X.X. .o............... . . . . . . . . . . . .}  . . . . . . . . .}  . . .} }  . . . .q.q.) ) } ) } } } } } } } } } } } } } } } } } } } } } } } } } } } } } } } } } ) } ) ) ) ) ) ) ) ) ) ) ) ) ) ) ) ) ) ) ) ) ) ) ) ) ) ) ) ) ) ) ) ..*.u u ) u ) ) ) ) ) ) ) ) ) ) ) ) ) ) ) ) ) ) ) ) ) ) ) ) ) ) ) ) ) ) ) ) ) ) ) ) ) ) ) ) u u u u u u u / / / / / y ",
"y y y y y y u u / u u u u / / ( ( ) ( ( ) u ( +.( u u u s u _ / ) / / / / / / / / / / / / / / / ) ) ) ) ) ) / / ) ) ) ) ) ) ) ) ) ) ) ) ) ) ) ) ) ) ) ) ) ) ) ) ) ) ) ) } } } } } } } ) } ) ) *.%.) / ) / )  .}  . . . . . . . . . ... ..... . . . . . . . . . .X.X.o.o.o.o. . .X.X.X.X.X.X.o.o.o.o.o... . .....o.o.........X.X.o. . .o.o.o.o.q.q.o.} } } } o.o.X. . . . . . . . . . . . .X.X. . . . . . . . . . .X. . . . . . .X.X.X.X.X.X.X.X. . . . . . . . .} } X.X.X.X. . .X.X.} } X.O.} %.q.%. .) }  .X.X.X.o.o.o.o.X. . .X.X.X.X.X.X.X.X.X.X.X.X.X.X.X. .o............... . . . . . . . . . . . . . . . . . . . . . . . . . . . . . .}  .%.q.) ) } }  .} } } } } }  .} } } } } } } } } } } } } } } } } } } } } } } } } } ) ) ) ) ) ) ) ) ) ) ) ) ) ) ) ) ) ) ) ) ) ) ) ) ) ) ) ) ) ) ) ) ..*.u u ) u ) ) ) ) ) ) ) ) ) _ ) ) ) ) ) ) ) ) ) ) ) ) ) ) ) ) ) ) ) ) ) ) ) ) ) ) ) ) ) ) / / u / u u u u / / / y y ",
"y y y y y y u u / u u u u / / ( ( ) ( ( ) u _ +.( u u u u u ( u ) / / / / / / / / / / / / / / / ) ) ) ) ) ) / / ) ) ) ) ) ) ) ) ) ) ) ) ) ) ) ) ) ) ) ) ) ) ) ) ) ) ) ) } } } } } } } ) } ) ) *...) / ) / )  .}  . . . . . . . . . ... ... . . ... . . . . . . .X.X.o...o.o. .X.X.X.X.X.X.X.o.o.o.o..... . ...o.o.o.X.X.....X.o.o. . .o.o.X.o.q.q.o.} } } } o.o. . . . . . . . . . . . .X.X. . . .X. . . . . .X.X.X. . . . . . .X.X.X.X.X.X. .X. . . . . . . . .} } X.X.X.X. . .X.X.O.} X.} } 7.q.%. .) }  . .X.X.o.o.o.o.X. . .X.X.X.X.X.X.X.X.X.X.X.X.X.X.X.X.o.......o....... . . . ... . . . . . . . . . . . . . . . . . . . . . .}  . .}  .%.w.) ) } }  . . . . . . . . . .} } } } } } } } } } } } } } } } } } } } } } } } } ) ) ) ) ) ) ) ) ) ) ) ) ) ) ) ) ) ) ) ) ) ) ) ) ) ) ) ) ) ) ) ..*.u u ) u ) / _ ) ) ) ) ) ) _ ) ) ) ) ) ) ) ) ) ) ) ) ) ) ) ) ) ) ) ) ) ) ) ) ) ) ) ) ) ) / u / / u u u u / / / / y ",
"y y y y y y u u / u u u / / / ( ( ) ( ( ) u _ +.( u = u u u _ u ) ) / / / / / / / / ) ) ) ) ) ) ) ) ) ) ) ) / / ) ) ) ) ) ) ) ) ) ) ) ) ) ) ) ) ) ) ) ) ) ) ) ) ) ) ) ) } } } } } } } ) } ) ) *...) / ) / )  .}  . . . . . . . . . . . . . . . ... . . . . . . .X. . ...o.X.X.X.X.o.o.X.....o.o.o.o.X.X. .X.o.o.X.X.X.X.o.o.o.o.o. . .o.o.X.o.q.q.o.} } } } o.o.X.X.X.X.X.X.X.X.X.X.X.X.X.X.X.X.X.X. . . . . . . . . . .X.X. . .X. .X.X.X.X. . . . .X. . . . . . . . . .O.O.O. .X.X.} } X.O.} 8.q.%. .} }  .X.X.X.X.X.o.o.X.X. .X.X.X.X.X.X.X.X.X.X.X.X.X.X.X.X.X.X.X.X.o.o.o.o. . . . .X. . . . . . . . . . . .}  . . . . . . . . . . . . . . .%.q.) ) } )  . . . . . . . . . .} } } } } } } } } } } } } } } } } } } } } } } } } ) ) ) ) ) ) ) ) ) ) ) ) ) ) ) ) ) ) ) ) ) ) ) ) ) ) ) ) ) ) ) ..*.u u ) u ) / ) ) ) ) ) ) ) _ ) ) ) ) ) ) ) ) ) ) ) ) ) ) ) ) ) ) / ) / / / / ) ) ) ) ) ) / u / / / u u u u / / / y ",
"y y y y y y u u / u u u / / ( ( ( ) ( ( ) u _ +.( u s u s u ( u ) / / / / / / / / / / ) ) ) ) ) ) ) ) ) ) ) / / ) ) ) ) ) ) ) ) ) ) ) ) ) ) ) ) ) ) ) ) ) ) ) ) ) ) ) ) } } } } } } } ) } ) ) *.../ / ) / )  .}  . . . . . . . . . . . . . . . . . . . ..... . .X. .....o.o.X.X.o.o...........o.o.o.o.X.X.X.o.o.X.X.X.X.o.o.o.o.o. . .o.o.X.o.q.q.o.} ) } } o.o.X.X.X.X.X.X.X.X.X.X.X.X.X.X.X.X.X. . .X. . . . . . . . .X.X. . . . .X.X.X. . . .X.X.X. . . .X.X. . . . .O.O.O.O.X.X.} } X.} } 8.w.%. .} }  .X.X.X.X.X.o.o.X.X. .X.X.X.X.X.X.X.X.X.X.X.X.X.X.X.X.X.X.X.X.X.X.o.o. . . . .o. . . . . .} }  . . . .}  . . . . . . . . . . . . . . .%.q.) p } }  . . . . . . . . . .} } } } } } } } } } } } } } } } } } } } } } } } } ) ) ) ) ) ) ) ) ) ) ) ) ) ) ) ) ) ) ) ) ) ) ) ) ) ) ) ) ) ) ) ..*.u u ) u ) / ) ) ) ) ) ) ) _ ) ) ) ) ) ) ) ) ) ) ) ) ) ) ) ) ) ) / / / / / / ) ) ) ) ) ) / u / / / / u u u / / / y ",
"y y : : y y / / u u u u u u u u u u u u u u ( _ ) u u u ) u u u / / / / u / / p ) ) ) ) ) ) ) ) ) ) ) ) ) ) / / ) ) ) ) ) ) ) ) ) ) ) ) ) ) ) ) ) ) ) ) ) ) ) } ) ) ) ) } } } } } } ) ) ) ) ` ....` u u ) }  .}  . . . . . . .X. . . . . . . . ..... . .........o.o.o.o.o.o.o.o.o.o.X.X.X.X.X.X.o.o.o.X. . .o.o.o.o.o.o.o.o.o.o.o.o.o.o.o.o.%.q.w.o.} }  .o.o.o.X.X.X.X.O.O.O.O.X.X. . . .X.X.X. . . . . . . . . . . . . . . . . . . . . . . . . . . . . . . . . . .O.O. . .X.X.X.O.X.X.X.X.X.8.q.5.} } } } } }  . . . . . .X.X.X.X. . .O.O.X.X. . . . . . . . . . . . . . . . . . . . . . . . . . . . . . . . . . . . . . . . .} } }  . ...o.o.%.o. .} ) } }  .} } } } } } } } } } } } } } } } }  . . . .} } } } } } } } } } } } } } ) ) ) ) ) ) ) ) ) ) ) ) ) ) ) ) ) ) ) ) ) ) ) ) ) ) ) ) } @.| ) / u p ) ) ) ) _ _ ) ) ) ) / / / / ) ) ) ) ) ) ) ) ) ) ) ) _ ( ( / ) / / / u u u u u / / / ( ( ( ( / / / / / / y ",
"y y ; : y y / / / / u u u u u u u u u u u u ( _ ( u u u u u u u ) / / / / / ) ) ) ) ) ) ) ) ) ) ) ) ) ) ) ) / / ) ) ) ) ) ) ) ) ) ) ) ) ) ) ) ) ) ) ) ) ) ) } } ) ) ) ) } } } } } } } } } ) | ....` / u / }  .}  . .} }  . . . . . . . . . . . .......X.X....... . . . . . . . .....X.X.X.X...o.o.o.o.X. . .o.o.o.o.o.o.o.o.o.o.o.o. .o.o. .o.q.q.o.} } }  .o.o.X.X.X.X.O.O.O.O.X.X. . .X.X.X.X. . . . . . . . . . . . . . . . . . . . . . . . . . . . . . . . . . .O.O. . . .X.X.X.X.X.X.X.X.8.w.8.} } } } O.X. . . . . .X.X.X. .X.X. .O.X.X.X. . . . . . . . . . . . . . . . . . . . . . . . . .}  . . . . . . . . . . . . . . . . . . ...o.o.8.o. .} ) } }  .} } } }  .} } }  . . . . . . .} }  . . . .} } } } } } } } } } } } } } ) ) ) ) ) ) ) ) ) ) ) ) ) ) ) ) ) ) ) ) ) ) ) ) ) ) ) ) } *.| ) u u p ) ) ) ) _ _ ) ) ) ) / / / / ) ) ) ) ) ) ) ) ) ) ) ) ) / / / / / / / u u u u / / / / ( ( ( ( / / / / / / y ",
"y y : : y y / / / / / / / / / / u u ) u u ) _ _ _ u u u u u u ) ) ) ) ) ) ) ) ) ) ) ) ) ) ) ) ) ) ) ) ) ) ) ) ) ) ) ) ) ) ) ) ) ) ) ) ) ) ) ) ) ) ) ) ) ) ) } } ` ` ) ) } } } } } } } } } ) } ....` / / ) }  .}  . .} }  . . . . . . . . ..... .....X.X.o.o..... . . . . . . . ...o.o.o.o.o.....o.o.o.o. .X.X.o.o.o.o.o.o.o.o.o.o.o.o.o.X. .o.q.q.o.} } } }  .o.X.X.X.X.X.X.X.X.X.X.X.X.X.X.X.X.X. . . . . . . .X.X. . . . . . .X.X.X.X.X.X.X.X. . . . . . . . .X.X.X.X.X.X.X.X.X.X.X.X.X. .X.5.w.5.O.} } } X.X.X.X.X.X.X.X.X.X.X.X.X.X.X.X.X.X.X.X.X.X.X.X.X.X.X.X.X.X.X.X.X.X.o.o.X.X.X.X.X.X. . . . . . . . . . . . . . . . . . . . . ...o.o.q.%. .} ) } }  .} } } }  . . .}  . . . . . . . .}  . . .} } } } } } } } } } } } } } } } ) ) ) ) ) ) ) ) ) ) ) ) ) ) } } ) ) ) ) ) ) ) ) ) ) ) } *...) / u p ) _ ) _ _ ) ) ) ) ) / / / / ) ) ) ) ) ) ) ) ) ) ) ) ) ( ( ( ( ( / / / / / / / / / ( ( ( ( ( / / / / / / y ",
"y y : : : y / / / ( ( ( / / / / u ) ) u u ) ( _ _ u = u u u u ) ) ) ) ) ) ) ) ) ) ) ) ) ) ) ) ) ) ) ) ) ) ) ) ) ) ) ) ) ) ) ) ) ) ) ) ) ) ) ) ) ) ) ) ) ) ) } } ` ` ) ) } } } } } } } } } ) } ....) / / ) }  .} }  . . . . .X.X. . . . . . . . .....X.X.X.X.....o.X.o.o.o.o.X. .....o.o.o.......o.o.o.o. .X.o.o.o.o.o.o.o.o.o.o.o.o.o.o.o.X.o.q.q.o.} } } }  .o.X.X.X.X.X.X.X.X.X.X.X.X.X.X.X.X.X. . . . . . . . . . . . . . . .X.X.X.X.X.X.X.X. . . . . . . . .X.X.X.X.X.X.X.X.X.X.X.X.X.} X.o.r.8.} } } } X.X.X.X.X.X.X.X.X.X.X.X.X.X.X.X.X.X.X.X.X.X.X.X.X.X.X.X.X.X.X.X.X.X.o.o.X.X.X.X.X.X. . . . . . . . . . . . . . . . . . . . . . . .o.q.%...} ) } }  .} } } }  . .} }  . . . . . .} } } }  . .} } } } } } } } } } } } | ) } } ) ) ) } ) ) ) ) ) ) ) ) ) ) ) } ) ) ) ) ) ) } ) ) ) ) } @.| ) u u u ) _ ) ) ) _ ) ) ) ) / / / / ) ) ) ) ) ) ) ) ) ) ) ) _ _ _ _ _ _ ( ( / / / / / / / / / / ( / / u u u : : y ",
"; ; ; ; ; : u / / / / / / / / / u u u u u u ( _ _ u = u u u u ) ) ) ) ) ) ) ) ) ) ) ) ) ) ) ) ) ) ) ) ) ) ) / / / / ) ) ) ) ) ) ) ) ) ) ) ) ) ) ) ) ) ) ) ) ) } ) ) ) ) } } } } } } } } } ) ` ..| ) / / ) } } }  . . . . . . .X.} } } }  . . . . . . . . ..... . . . . . . .} }  . . . . . . . . . . . . . . . .X.X.X.o.o.o.o.o.o.o.o.o.o. .o.%.8.o.} } } } } o.}  . . .X.X.X.X.O.O.X.X. . . . . . . . . . . . . . . . . . . . . . . . . . . . . . . . . . . . .X.X.X.X.X.X.X.X.X.} } X.X.} X.o.9.5.O.} } O.X.X. .O.O.O.X.X.X.X. . .O.O.X.X.X.X.X.X.X.X.O.O. . . . . . . . . . . . . . . . . .X. . . . . . . . . . . . . . . . . .} } } }  . . .%.o. .} ) } } } } } } } } } } } } } } } } } } } } } } } } } } } } } } } } } } } } ) ) ) ) ) ) ) ) ) ) ) ) ) ) ) ) ) ) ) ) ) ) ) ) ) ) ) / / ) } ..| ) u u u / ) ) ) ) ) ) ) / / / / / / / / / / / ) ) ) / / / / _ ( ( ( ( ( / / / / / / / u u u u u u u u u u u ; ; ; ",
"; ; ; ; ; ; ; : u u u u u u u u u u u u u u u ) ( u = = u u u u u u u u u u u u u u u u u u u u / / / / / / / / / / / / / / / / ) ) ) ) ) ) ) ) ) ) / / / ) ) ) ) ) ) ) } } } } } } } } } ) ) | ` ) / / / ) } } ) ) } } } } } } } } } } } } } } } } } } } } } } } } } } } } } } } } } } } } } } } } } } } } } } } } } } } } } }  .} }  .} } } o.o.} } } } } }  .} } O.O.O.O.O.O.O.O.O.O.} } O.} } } } } } } } } } } } } } } } }  . . . . . . . .} } } } } } } } X.X.X.X.X.X.X.X.O.} } } } } } X.8.X.} } } O.O.O.O.O.O.O.O.O.O.O.} } } } } } } } } } } } } } } }  . .O.O.O. .O. . . . . . . . .} } } } } } } } } } } } } } } } } } } } } } } } } o.o.} } } } } } } } } } } } } } } } } } } } } } } } } } } } ) ) } } } } } } } ) ) ) ) ) ) ) ) ) ) ) ) ) ) ) ) ) ) ) ) ) ) ) ) ) ) ) ) ) / / / ) | _ ) u u u u / / / / / / u u u u u u u u u u u u u u u u u u u / u u u ; ; u ; u u u u u u ; ; u u u u ; u ; ; ; > ; ",
"; > > > > > > ; ; ; ; ; u u u u u u u u = u u u ) u = u u u u u u u u u u u u u u u u u u u u u u u u u / / / / / / / / / / / / / / / / / ) / / / / / / / / / ) ) ) ) / } } } } ) p ) ) ) p / ) ) ) / / / / ) ) ) ) ) ) ) ) } } } } } } } } } } } } } } } } } } } } } } } } } } } } } } } } } } } } } } } } } } } } } } } } } } } } } } } } }  .o.} } } } } } } O.O.} } O.O.} } } } O.O.O.O.} } } } } } } } } } } } } } } } } } } } } } } } } } } } } } } } } } } } } } O.O.O.O.} } } } } } } X.5.X.} } O.O.} } } } } } } } } } } } } } } } } } } } } } } } } } O.O.O.O.} } O.O.O.O.O.O.} } } } } } } } } } } } } } } } } } } } } } } } } } } } } } } } } } } ) ) ) ) ) ) ) ) ) } } } } } } } } ) ) } } } ) ) ) ) ) ) ) } } ) ) ) ) / / ) / / / ) ) / / / / / / / / / / ) / / / / / ) / / / / ) ) ) / / u u u u u u u u u u u u u u u u u u u u u u u u u u u u u ; ; ; ; ; ; ; ; ; ; ; ; ; ; > u u u ; ; ; ; ; > > > ",
"> > > > > > ; ; ; ; ; ; ; ; ; ; ; ; u u = = u u u u = u u u = = u u u u u u u u u u u u u u u u u u u u u u / u u u / / / / / / / p p p p / p / / p p / / / / / / / / ) ) ) } } p p p ) ) u u ) ) / / / p / ) ) ) ) ) ) ) } } } } } } } } } } } } } } } } } } } } } } } } } } } } } } } } } } } } } } } } } } } } } } } } } } } } } }  .} } }  . .} }  . .} } } } } } } } } } } } } } } } } } } } } } } } } } } } } } } } } } } } } } } } } } } } } } } } } } } } } } } } } } } } } } } } } } X.X.O.} } O.O.} } } } } } } } } } } } } } } } } } } } } } } } } } } } } } } } } } } } } } } } } } } } } } } } } } } } } } } } } } } } } ) ) ) } } } } } } } } ) ) ) ) ) ) ) ) ) ) } } } } } } } } ) ) ) ) ) ) ) p ) ) ) ) ) ) ) ) ) / ) / ) / p / p / p / p / ) / / / / / / / / / p / / / u u / ) / / / / u u u u u u u u u u u u u u u u u u u u u u u u u u u u u u u ; ; ; ; ; ; ; ; ; = = = = ; ; ; ; ; > ; > > > = ",
"( ( ( ( _ _ _ _ _ _ ( ( ( ( _ _ _ _ _ _ _ _ _ _ _ _ _ _ _ _ _ _ _ _ _ _ _ _ _ _ _ _ _ _ _ _ _ _ | | | | | ......` ` ..@...) / ) _ | ..@.@.| ....| | | | | | ..........o.o.o.o.o.o.o.o.o.o.......o.o.....o.o.o.o.o.o.o.o.o.o.o.o.o.o.o.o.o.o.o.o.o.o.o.o.o.o.o.o.o.o. .w.q.}  . .o.o.o.o.%.%.%.8.o.o.o.%.%.%.%.%.%.%.%.%.%.%.%.%.8.8.8.8.8.8.8.8.8.o.o.o.o.8.8.8.7.7.7.7.7.7.8.7.8.8.8.8.8.8.8.8.9.9.9.9.9.8.8.8.q.8.X.7.9.o.O.X.X.%.9.q.q.q.q.q.9.q.q.q.9.8.9.9.7.8.8.8.8.9.9.9.9.9.9.9.9.9.9.9.q.q.q.9.9.q.q.q.9.q.q.q.q.q.9.9.7.7.8.8.8.8.8.8.8.%.8.8.8.q.q.q.q.%.8.q.q.%.X.} O.X.5.8.8.%.8.8.%.%.*.%.%.o.o.o.o.o.o.%.o.o.o.o.o.o.o.o.%.%.%.o.o.%.%.%.%.o.o.o.o.o.o.o.o.o.o.o.o.o.o.o.o.o.o.o.o.o.o.o.o.o.o.o.o.o.o.%.%.o.} ) }  .o.%.o.o.o...o.o.o...o...................| | | | | | | | ....` | | | | ` _ _ | | | | | | | | ` ` ` ` ` ` ` ` _ _ _ _ _ _ _ _ +._ _ _ | _ ( u u / ( _ _ _ ( ( _ _ _ _ _ _ _ _ _ _ _ ",
") ) ) ( ( ( ( ( _ _ _ _ _ _ _ _ ) / / / / / / / _ ) ) ) ) ) ) _ _ ` | | _ _ _ _ _ ` ` ` | | | | ) ) ` ) ` | | | ) ` ......) / ) _ _ +.@.| | | | ....| | ........o.o.o.o.o.o.o.o.o.o.o.o.o.o.o.o.o.o. . .o.o.o.o.o.o.o.o.o.%.%.%.%.%.%.%.%.%.%.%.o.o.o.%.%.%.8.8.o.o. .w.q.} } }  .o.o.o.o.o.%.%.%.%.%.%.8.8.8.8.8.8.8.8.8.8.8.8.8.8.8.8.8.8.8.8.8.8.8.8.8.8.q.9.9.9.9.9.9.9.9.9.9.9.9.9.9.9.9.9.q.q.9.9.9.q.q.9.r.9.8.9.r.9.X.7.X.o.8.9.8.8.8.8.9.9.9.9.9.q.q.q.8.8.9.9.9.9.q.9.q.q.q.q.9.q.q.q.9.9.9.9.9.9.9.9.9.9.9.9.9.9.9.8.8.8.8.8.8.8.8.8.8.8.8.q.q.q.q.q.q.8.8.w.w.8.X. .} X.o.8.%.%.%.%.q.q.q.q.8.8.8.8.%.%.%.*.8.8.8.8.%.%.%.%.%.%.%.%.q.q.q.q.q.%.%.o.o.o.o.o.o.o.#.#.o.o.o.o.o.o.o.o.%.%.%.%.%.%.%.%.o.o.o.%.q.%. .) }  .o.o.o.o.o.o.o.o.o.o.o.o.o...................................| | | | | | | ` _ _ _ _ _ _ _ _ _ _ _ _ _ _ _ _ _ _ _ _ _ _ | | | _ _ _ | _ ( u u / / _ ( ( ( ( ( ( ( ( _ _ ( ( _ _ _ ",
"u u u u u u u u u u u u u u u u / / / / / / / / ) ) ) ) ) ) ) ) / / ) ) ) ) ) ) ) ) ) ) ) ) ) ) ) ) ) ) ) ) ) ) ) ) | ....) / / ) _ | | ..| | | | | } } | | | | .. . . . . . . . . . . . . . . . . . . . ...o.o.o.o.....o.o.o.o.o.o.o.o.o.o.o.o.o.o.o.o.o.o.o.o.o.o.} q.q.} } }  . .o.o.o.o.o.o.o.o.o.o.o.o.%.o.%.%.%.%.o.o.o.o.o.o.o.o.o.o.o.o.o.o.o.o.o.o.8.7.8.7.8.7.7.7.7.7.7.7.7.7.7.7.7.7.7.7.8.8.7.8.7.o.9.8.5.q.r.7.} X.X.X.5.7.8.7.7.7.7.7.7.7.8.8.8.8.7.7.5.5.o.o.o.o.8.8.7.7.7.7.7.8.8.7.7.7.7.7.8.8.8.8.7.7.7.7.7.7.%.&.&.&.&.&.%.&.%.%.%.%.%.%.%.%.8.%.%.q.q.%. .} }  .o.%.%.%.%.%.o.o.o.o.o.o.o.o.o.o.o.o.o.o.o.o.o.o.o.o.o.o.o.o.o.o.o.o.o.o.o.o.o.o.o.o.o.o.o.o.o.o.o.o.o.o.o. .o...o...........o.o.o.%.%.o.} ) ) }  .o.o................. . .} | | | | | | | | | | | | | | | | _ _ _ _ _ _ ) ) _ _ ) _ ) ) ) ) _ _ _ _ _ _ _ _ ) ) ) ) ) ) ) ) | _ ( _ _ _ ( u u u / _ ( ( ( / ( ) ) ) ( ( ( ( ( ( ( ",
"u u u u u u u u u u u u u u u u u u u u u u u u / / u u u u ) ) u u u u u u u u u u u u / u u / / / / / / ) ) ) ) ) | ..| / / / p _ | | | | | | ) _ ) ) ) ) } } } } } } } } } } } } } } } } } }  . .} }  . ..... . . .}  . ..... . .X. .X.X. .X. . . . .X.X.o. .o.o.} q.q.) } } } }  .o.o.o.o.o. .X.X.X.X.X.X.o.o.o.o.o.X.o.o.o.X.X.X.o.o.X.X.X.X.X.o.X.o.o.o.o.5.4.4.4.4.4.4.4.o.o.o.o.5.o.o.o.o.o.o.o.o.o.X.X.o.o.X.8.9.X.} } } X.o.7.7.o.5.5.X.X.X.X.o.o.5.5.o.5.5.X.X.X.X.X.X.X.X.X.X.X.o.o.5.5.5.5.o.o.o.o.5.5.5.5.o.o.o.4.X.X.X.X.&.&.&.&.o.o.o.o.o.X.X.X.%.X.o.8.q.%. .} }  .X.o.o.o.o.o.o.o.o.o.o.o.o.o.o.o.o.o.o.o.o.o.o.o.o.o.o.o.o.o.o.o.o.o.o.o. . .........o.o.o.o.o.o.o.o...} } } } } } } } } } }  . . .o.o.o.} p ) } }  . . . . .} } }  .} } } } } } ) ) ) ) ) ) ) ) ) ) ) ) ) ) ) ) ) ) ) ) ) ) ) ) ) ) ) ) ) ) ) ) ) ) ) ) ) ) ) ) ) ) ) ) / / _ ( p ( _ _ u ; ; u / / ( ( / / u u u u p p a a i a i ",
"u u u u u u u u u u u u u u u u u / / / / / / / ) / ) u u u u ) ) ) ) ) ) ) ) ) / / / ) ) ) ) ) ) / / / / ) ) ) ) ) ` ..| / u u ) _ _ _ _ _ | | | | } } } } | |  . . . . . . . . . . . . . . . .} } } } }  . . .o.o.....o.o.o.o.o.o.o.o.o.o.o.o.%.o.o.o.o.o.o...o.X.} q.q.) } } } }  .o.o.o.o.o.o.o.o.o.o.o.o.o.o.o.o.o.o.o.o.o.5.5.5.5.5.5.5.5.5.5.o.5.5.5.5.7.8.7.8.8.8.8.8.8.8.8.8.8.7.8.8.8.7.8.8.8.8.7.4.4.7.7.4.9.r.7.} O.O.X.4.8.7.7.4.7.4.4.7.7.5.8.8.8.8.8.8.8.7.7.7.4.7.7.7.7.5.5.5.5.4.4.4.4.4.4.4.4.4.4.4.4.4.4.4.4.7.7.7.7.7.7.7.7.8.8.8.5.5.5.5.o.8.o.o.q.q.8.X.} } O.X.o.o.o.o.o.o.o.o.o.o.o.o.o.o.o.o.o.o.o.o.o.o.o.o.o.o.o.o.o.o.o.o.o.o.o.o.o.o.o.o.o.o.o.o.o.o.o.o.o.o.o.o. . . . . . . . . .} }  .o.o.o.} p ) ) } } } } }  . .....o... . .} ..| | | | } } } } } } } } } } } _ _ _ _ _ _ ) ) ) ) ) ) ) ) ) ) ) ) ) ) ) ) ) ) ) ) ) ) ) ) ) ) _ ) ) ( _ _ u u ; ; u / ( / / u u u u u u u u u u u u ",
"u u u u u u u u u u u u u u u u / / / / / / / / ) ) ) ) ) u ) ) ) ) ) ) ) ) ) ) u u u / / / ) ) ) ) ) ) ) ) ) ) ) ) | ..| / u / ) ) _ _ ) ) _ | } ) ) ) ) } | .. . . . . . . . . . . . . . . . .} } } } }  . . ... . . . ...o.o.o.o.o.o.o.o.o.o.o.o.o.o.o.o.o...X.X.} q.q.} } } } }  .o.o.o.o.o.X.X.X.o.o.o.o.o.o.o.o.o.o.o.o.o.5.5.5.5.5.5.5.5.o.o.o.o.o.o.5.7.5.5.5.5.4.4.4.4.7.7.7.7.7.7.7.7.7.7.7.8.7.4.4.4.8.8.4.9.r.8.} X.X.X.4.8.8.7.7.7.4.4.5.7.4.4.4.4.8.8.7.7.7.7.7.4.4.4.4.4.4.5.4.4.4.4.4.4.4.4.4.5.4.4.4.4.4.4.4.4.7.7.4.7.7.7.7.7.5.5.6.5.5.5.5.5.5.o.o.8.q.8.X.} } X.X.o.o.X.X.X.o.o.o.o.o.o.o.o.o.o.o.o.o.o.o.o.o.o.o.o.o.X.X.X.X.o.o.o.o.X.X.X. ...............o.o.o.o.o. . .}  . . . . . . . .} }  .o.%.o. .) ) ) } } } } }  . . . . . .} } } } } } ) ) ) ) ) ) ) ) ) ) ) ) ) ) ) _ _ ) ) ) ) ) ) ) ) _ _ _ _ ) ) ) ) ) ) ) ) ) ) ) ) ) ) ) ) ( p ) _ | _ u u ; ; u / / ( / u u u u u u u u u a i i ",
"u u u u u u u u u u u u u u u u / / / / / / / / ) / ) u u ) u ) u u / / p u p p u u u u u p p p ) ) ) ) ) ) ) ) ) ) | ....) / / ) } } | ) ) | ..) ) ) ) } } } } } } } } } } } } } } } } } } } } } } } } }  . .o.} } } } } }  . . . . . . . . . . . . . . . . ...o.o.} w.q.} } } } }  .o.o.o.o.o.X.X.X.X.X.X.X.X.X.X.X.X.X.X.X.X.X.X.X.X.4.4.4.4.X.X.X.X.X.X.o.X.5.4.4.4.4.4.4.4.4.4.4.4.4.4.4.4.4.4.4.4.4.4.4.X.8.7.4.8.r.5.} X.O.X.4.8.7.4.5.7.4.4.4.4.4.4.4.4.X.X.4.4.4.4.4.4.4.4.4.4.4.4.4.4.7.7.7.7.7.7.7.7.7.7.7.7.5.7.8.6.4.4.4.4.4.4.5.4.5.5.6.5.6.4.6.5.o.X.X.8.q.%.X.} } X.o.o.o.X.X.X.o.o.X.X.X.X.X.X.X.X.X.X.X.X.X.X.X.X.X.X.X.X.X.X.X.X.X.X.X. . . .} } } } } } } }  . . . . .} } } } } } } } } } } } }  .o.%.o. .} ) ) } } } } }  .} } } } } } } } } } ) ) ) ) ) ) ) ) ) ) ) ) ) ) ) ) ) ) ) ) / / ) ) ) ) ) ) ) ) ) ) ) ) ) ) ) ) / / / / / / / / ( ) ) _ | | ) u ; u u / ( ( / u u u u u u u u u a a a ",
"u u u u u u u u ( ( ( ( ( ( ( ( / / / / / / / / / u u u u u u u ) ) ) ) ) ) ) ) / / ) ) ) ) ) ) ) ) ) ) ) ) ) ) ) ) | ....) / / ) ) | } ) } } | | | } }  ....... . . . . . . . . . . . . . . . . . .} } }  . .o.o.o.o.o.o.o.o.o.o.o.o.o.o.o.o.o. . . .o.o.o.o.o.o.o.} w.w.} } } } }  .o.o.o.o.o.X.o.o.o.o.o.o.o.o.o.o.o.o.o.o.5.5.5.5.5.5.5.5.5.5.5.5.5.5.5.5.7.8.8.8.8.8.8.8.8.8.8.8.8.7.8.8.8.8.8.8.8.8.8.8.8.8.8.4.9.r.7.O.X.O.X.4.8.4.4.4.5.8.8.8.8.8.7.7.7.4.4.4.5.7.8.8.8.8.8.8.8.8.8.8.8.8.8.8.8.8.8.8.8.8.8.8.8.8.8.8.8.9.9.8.8.8.9.9.9.8.8.8.9.9.9.9.9.5.o.o.q.r.8.o.X.} X.o.o.o.o.X.X.7.7.7.o.o.o.o.o.o.o.o.o.o.o.o.o.o.o.o.o.o.o.o.o.o.%.o.%.o.o.o.X.o.X.o.o.o.o. .X.o.o.o.o.o.o.o. .................} } } o.o.o. .} ) } } } } } }  . ......... . .} }  .} } } } } } } } } } } } } ) } _ _ _ _ _ ) ) ) ) ) ) ) ) ) ) ) ) ) ) ) ) ) ) ) ) ) ) ) ) ) ) ( ) ) _ +.| ) u ; ; u / ( ( / / u u u u u u u u ( ( ( ",
"u u u u u u u u u u u u u u u u u / / / / u u u / / ) / ) ) ) / ) ) ) ) ) ) ) ) / / / / / / / ) / / / / ) ) ) / ) ) ` ..| ) / / ) ) | | | } } } } } } }  . . .} } } } } } } }  . . . . . . .} } } } }  . . . . . . . . . .o.X.X.o.o.o.o.o.o.o... . .X.X.X.X.X.o.o. .o.q.q.} } } }  .o.o.o.o.o.o.o.5.5.5.o.5.5.5.o.5.5.5.5.5.5.5.5.5.5.5.5.5.5.5.5.5.5.5.5.5.5.5.5.7.7.7.7.7.7.7.8.8.7.7.7.7.7.7.7.8.8.5.7.8.8.X.7.8.4.7.r.7.O.X.X.4.5.7.5.5.4.5.7.7.7.5.7.5.7.7.7.7.7.7.7.7.7.5.5.5.5.5.7.7.7.7.7.8.7.7.7.7.7.7.7.5.5.5.5.7.7.7.7.7.5.7.7.7.6.6.6.6.6.6.6.6.6.4.8.5.X.8.r.9.O.O.} X.o.5.5.o.o.5.7.7.o.o.o.o.5.7.o.5.5.o.o.o.X.X.X.X.X.X.X.X.X.X.X.X.X.X.X.X.X.X.X.X.X.X.X.o.X.X.X.X.X.X. . .X.X.....X. . . . . . .} } o.o.o.} ) ) }  . . .}  . .}  . . . . . .} } } } } } } } } } } } } ) ) ) ) ) _ _ _ _ _ ) ) ) ) ) ) ) ) ) ) ) ) ) ) ) ) ) ) ) ) ) ) ) ) ) ) _ ( ) _ | | ( u ; u u / ( / / u u u u u u u u u ( ( ( ",
"u u u u u u u u u u u u u u u u u / / / / / u u / / ) / ) ) ) ) ) ) ) ) ) ) ) ) / u / / p / / ) / / / ) ) ) ) / ) ) ` ..| ) / / ) ) | | } } } } } } } }  . . .} } } } } } } }  . . .}  . . . . .} }  . . . . . . . . . . .o.X.X.o.o.o.o.o.o..... . .X.X.X.X.o.o.o. .o.q.q.} ) } }  .o.o.o.o.o.o.5.5.5.5.o.5.5.5.5.5.5.5.5.5.5.5.5.5.5.5.5.5.5.5.5.5.5.5.5.5.5.5.5.7.7.7.7.7.7.7.8.8.7.8.7.7.7.7.7.8.8.4.7.8.7.4.7.8.4.7.r.7.O.X.X.4.5.7.7.5.5.5.7.7.5.7.5.5.7.7.7.7.7.7.7.7.7.7.5.5.5.5.7.7.7.7.7.8.7.7.7.7.7.7.7.5.5.5.7.7.7.7.7.7.7.7.7.7.6.6.6.6.6.6.6.6.6.4.8.5.X.8.r.9.O.O.} X.o.5.5.o.o.5.7.7.5.o.o.o.7.7.o.5.5.o.7.o.X.X.X.X.X.X.X.X.X.X.X.X.X.X.X.X.X.X.X.X.X.X.o.o.X.X.X.X.X.X. .X.X. .....X. . . . . . .} } o.o.o.} ) ) }  . . .}  . .}  . . . . . .} } } } } } } } } } } ) ) ) ) } } ) _ _ _ _ _ ) ) ) ) ) ) ) ) ) ) ) ) ) ) ) ) ) ) ) ) ) ) ) ) ) ) _ ( ) _ | | ( u ; u u / ( / / / u u u u u u u u ( ( ( ",
"u u u u u u u u u u u u u u u / u / / / / / / / / / ) ) ) ) ) ) ) ) ) ) ) ) ) ) / u u u p / / ) / / ) ) ) ) / / ) ) ` ..| ) / / ) } } } } } } } } } } } } } } } } } } } } } }  . . . . . . . . .}  . . . . . . . . . . .o.o.o.o. .X.o.o.o.o.o.o.o.o.X.X.X.X.o.o.o. .o.q.q.} } } }  .o.o.o.o.o.o.5.5.5.5.o.5.5.5.o.o.5.5.o.5.5.5.5.6.6.6.6.6.6.6.6.6.6.6.6.6.6.6.6.6.6.6.6.6.6.6.6.6.6.6.6.6.6.6.5.9.7.7.7.9.7.4.7.9.4.7.r.7.O.X.X.4.7.7.7.7.7.7.7.7.7.7.7.7.7.7.7.7.7.7.7.7.7.7.7.7.7.7.7.7.7.7.7.7.7.7.7.7.7.7.7.7.7.7.7.7.7.7.6.6.5.6.7.7.6.6.6.6.6.6.6.6.6.4.8.5.X.8.r.9. . .O.X.o.5.o.o.o.5.5.5.5.o.7.7.7.7.o.5.5.5.7.o.X.X.X.X.X.X.X.X.X.X.X.X.X.X.X.X.X.X.X.X.X.o.o.o.o.X.X.X.X.X. . .X.X.....o. . . . . . .} } o.o.o.} ) ) } }  . .}  . .}  . . . . . .} } } } } } } } } } } } } } } } } } _ _ _ _ _ ) ) ) ) ) ) ) ) ) ) ) ) ) ) ) ) ) ) ) ) ) ) ) ) ) ) _ ( ) _ | | ( u ; u u / / / / u u u u u u u u u ( ( ( ",
"u u u u u u u u u u u u u u u / u / / / u u / / / / ) ) ) ) ) p ) ) ) ) ) ) ) ) / u u u p / / ) ) ) ) ) ) ) / / ) ) ` ..| ) / / ) } } } } } } } } } } } } }  .} } } } } } } }  . . . . . . . . . . . .X. . .o.o. . . .X.o.o.o.o. .X.X.o.o.o.o.X.o.o.o.X.X.X.X.o.o. .o.q.q. .} } }  .o.o.o.o.o.8.5.5.5.5.o.5.5.5.5.o.o.5.5.5.o.5.6.6.6.6.6.6.6.6.6.6.6.6.6.6.6.6.6.6.6.6.6.6.6.6.6.6.6.6.6.6.6.7.5.9.7.5.7.9.7.4.9.9.7.7.r.7.O.X.X.4.7.7.7.7.7.7.7.7.7.7.7.7.7.7.7.7.7.7.7.7.7.7.7.7.7.7.7.7.7.7.7.7.7.7.7.7.7.7.7.7.7.7.7.7.7.7.6.7.6.6.7.7.6.6.6.6.6.6.6.6.6.4.8.5.X.8.r.q. . .O.X.o.5.5.o.o.5.5.5.5.5.5.7.7.7.o.5.5.7.7.o.X.X.X.X.X.X.X.X.X.X.X.X.X.X.X.X.X.X.X.X.X.o.o.o.X.X. .X.X.X.X. .X.X.....X. . . . . . .} } o.o.o.} ) } } }  . .}  . .}  . . ... . .} } } } } } } } } } } } } } } } } } _ _ _ _ _ ) ) ) ) ) ) ) ) ) ) ) ) ) ) ) ) ) ) ) ) ) ) ) ) ) ) _ ( ) _ | | ( u ; u u / ( / / u u u u u u u u u ( ( ( ",
"u u u u u u u u u u u u u u u / u / / / u u u / / / ) ) ) ) u u ) ) ) ) ) ) ) ) / p p u u / / ) ) ) ) ) / ) ) / ) ) } ..| / u / ) } } } } } } } } } } } } } } } } } } } } } }  .} } }  . . . . . . . . . .X.X.X. . .X.X.X.X.X.o. . .o.o.o.o.X.X.o.o.X.X.X.X.....o. .o.q.q. .} } }  .o.o.o.o.o.8.5.5.5.5.5.5.5.5.5.5.5.5.5.5.5.5.6.6.6.6.6.6.6.6.6.6.6.6.6.6.6.6.6.6.6.6.6.6.6.6.6.6.6.6.6.6.6.7.7.9.7.5.7.9.7.4.9.9.7.9.r.7.O.X.4.4.7.9.7.7.7.7.7.7.7.7.7.7.7.7.7.7.7.7.7.7.7.7.7.7.7.7.7.7.7.7.7.7.7.7.7.7.7.7.7.7.7.7.7.7.7.7.7.7.7.7.6.5.6.6.6.6.6.6.6.6.5.4.8.5.X.8.r.9. . .O.X.5.5.5.5.5.5.5.7.4.4.4.5.5.5.4.4.4.5.7.4.4.X.X.X.X.X.X.X.X.X.X.X.X.X.X.X.X.X.X.X.X.X.X.X.X.X. . . . .X.X.X.X....... . . . . . . . .o.o.o.} ) } } }  . .}  . .}  . ... . . .}  . .} } } } } } } } } } } } } } } _ _ _ _ _ ) ) ) ) ) ) ) ) ) ) ) ) ) ) ) ) ) ) ) ) ) ) ) ) ) ) _ ( ) _ | | ) u ; u u / ( ( / u u u u u u u u u ( ( ( ",
"u u u u u u u u u u u u u u u / u / / / u u u u / / ) ) ) ) u u ) ) ) ) ) ) ) ) / p p u u / ) ) ) ) ) ) ) ) ) / ) ) } ..| / u / ) } } } } } } } } } } } } } } } } } } } } } }  . . . . . . . . .X. . . .X.X.X.X.X.X.X.X.X.X.X.X.X. .o.o.o.o.X. .o.o.X.X.X.X.....o. .o.q.q. .} } }  .o.o.o.o.o.o.o.5.5.5.5.5.5.5.5.5.5.5.5.5.5.5.6.6.6.6.6.6.6.6.6.6.6.6.6.6.6.6.6.6.6.6.6.6.6.6.6.6.6.6.6.6.6.7.7.9.7.7.7.9.7.4.9.9.7.9.r.7.X.X.4.4.7.9.7.7.7.7.7.7.7.7.7.7.7.7.7.7.7.7.7.7.7.7.7.7.7.7.7.7.7.7.7.7.7.7.7.7.7.7.7.7.7.7.7.7.7.7.7.7.7.7.5.5.6.6.6.6.6.6.6.6.5.X.5.5.X.8.r.9.X.O.O.X.5.5.5.5.5.5.5.4.4.4.4.4.5.5.4.4.4.5.7.4.4.X.X.X.X.X.X.X.X.X.X.X.X.X.X.X.X.X.X.X.X.X.X.X.X.X. . .X.X.X.X.X.X....... . . . . . . . .o.o.o.} ) ) }  . . .}  . .}  . . ... . .}  . .} } } }  . .} } } } } } } } } _ _ _ _ _ ) ) ) ) ) ) ) ) ) ) ) ) ) ) ) ) ) ) ) ) ) ) ) ) ) ) _ ( ) _ | | ) u ; u u / ( ( / u u u u u u u u u ( ( ( ",
"u u u u u u u u u u u u u u u / u / / / u u u u u u p ) ) ) p u ) ) ) ) ) ) ) ) / p u u u / / ) / / ) ) ) ) ) ) ) ) } ..| ) / / ) } } } } } } } } } } } } } } } } } } } } } }  . . . . . . . . .X. . .X.X.X.X.X.X.X.X.X.X.X.X.X.X.o.o.o.o. . . .......X.o.o.o...o. .o.q.q. .} } }  .o.o.o.o.o.o.o.5.5.5.5.5.5.5.5.5.5.5.5.5.5.5.6.6.6.6.6.6.6.6.6.6.6.6.6.6.6.6.6.8.6.6.6.6.6.6.6.6.6.6.6.6.6.7.7.9.7.7.7.9.7.4.9.9.7.9.r.7.X.4.4.4.7.9.9.7.7.7.7.7.7.7.7.7.7.7.7.7.7.7.7.7.7.7.7.7.7.7.7.7.7.7.7.7.7.7.7.7.7.7.7.7.7.7.7.7.7.7.7.7.7.7.5.7.6.6.6.6.6.6.6.6.5.X.5.5.X.8.r.9.X.O.O.X.5.6.5.5.5.5.5.7.4.4.4.4.5.5.4.4.4.4.7.4.4.X.X.X.X.X.X.X.X.X.X.X.X.X.X.X.X.X.X.X.X.X.X.X.X.X.X.X.X.X.X.X.X.X....... . . . . . . .} o.o.o. .) ) }  . . .}  . .}  . . ... . .}  .} } } }  . . .} } } } } } } } } _ _ _ _ ) ) ) ) ) ) ) ) ) ) ) ) ) ) ) ) ) ) ) ) ) ) ) ) ) ) ) _ ( ) _ _ _ ( u ; u u / ( ( / u u u u u p u u u ( ( ( ",
"u u u u u u u u / / / / u u u u u / / / / / u u / u / / / / u u ) ) / / / / / / ) / u / u / ) ) ) ) ) ) ) ) ) ) ) ) | ..| ) u / ) } } } } } } } } } } } } } } } } } } } } } }  . . . . . . . . .} }  .X.X.o.o.o.X.X.X.o.o.X.X.X. .X.o.o... . . .......X.o.o.o...o. .o.q.q. .} } }  .o.o.o.o.o.5.o.o.5.o.5.5.5.5.5.5.5.5.5.5.5.5.6.6.6.6.6.6.6.6.6.6.6.6.6.6.6.6.6.7.7.7.7.7.7.7.7.7.7.7.7.7.7.7.7.7.7.7.7.7.7.X.9.9.7.9.r.7.O.4.4.4.9.9.9.7.9.7.7.7.7.7.7.7.7.7.7.7.7.7.7.7.7.7.7.7.7.7.7.7.7.7.7.7.7.7.5.7.5.7.7.7.7.7.7.7.5.7.7.7.7.7.5.5.8.8.6.5.5.5.5.5.5.X.8.5.X.8.r.9.X.O.O.X.5.5.5.5.5.5.5.7.4.4.4.o.5.o.4.4.4.4.7.X.4.X.X.X.X.X.X.X.X.X.X.X.X.X.X.X.X.X.X.X.X.X.X.X.X.X.X. .X. .X.X. . ....... . .}  .}  .} } ..o.o.} ) ) }  . . .}  . .} } }  . .} } } } } } } } } } } } } } } } } } } ) ` _ ` _ _ ) ) ) ) ) ) ) ) ) ) ) ) ( ) ( ) ) ) ) ) ) ) ) ) ) ) _ ) ) _ _ _ ( u ; u / / ( / / / / / / / u u u u ( ( ( ",
"; ; ; ; ; ; ; ; ; ; ; ; : : : ; > ; : ; ; > ; ; u u / ( / ; ; u u u u u u u u / u u u u u u / / u u u u / / / / / / ) / ) / / / / / / / / / / / / / / / / / / ) } } } } } } } } } } } } } } } } ) ) } ) ) } } )  .}  . . . . . .} } }  . . . . .} } } }  . .} } } }  .X.X. . .}  . . .X. .X.X.X.X.X.X.X.X.X.X.X.X.X.X.X.X.X.X.X.X.X.X.X.X.} O.X.X.X.O.O.X.X.X.O.X.X.X.X.X.X.X.X.X.X.X.X.X.X.X.X.X.X.X.X.X.X.X.X.X.4.4.4.5.4.4.4.4.X.4.X.4.4.4.4.4.X.4.X.4.4.4.4.4.4.4.4.4.4.4.4.4.4.4.4.4.4.4.5.4.4.4.4.4.X.4.4.4.X.4.X.4.4.4.4.X.X.X.4.X.X.X.X.4.4.4.4.4.4.4.4.X.O.O.X.5.8.4.X.X.X.X.X.X.X.X.X.X.X.X.X.X.X.X.X.X.X.X.X.X.X.X.} X. . . .} } } } } }  . . .} } } } } } } } } } } } ) } ) ) ) ) ) } )  .`  .) } ) ) ) } ` } ` } } } } } } } ) } ) ) ) ) ) ) ) ) ) / ) ) ) ) ) ) ) ) ) ) ) ) ) / / / / u u / / ) / / / / / / / / / / u / / / / u u u u u u u u u u u / ) ) ) ) u u u u u u u u u u ; ; ; ; ; ; ; ; ; ; ; ",
"> > > > > > > > > > > > > > > > > > ; ; > > > > > > > ; ; > > ; ; ; ; ; ; ; ; ; ; ; ; ; ; ; ; ; u u u u u u u u u u u u u u u u u u u u / / / u / / / / / / / / ) ) ) ) ) ) ) ) ) } } } ) ) ) ) / ) ) / ) ) ) ) ) ) ) ) } } } } } } } } } } } } } } } } } } } } } } }  . . .} } } } } } } } } } } } } } } } } }  . . . .X.X.X.X.} } }  . .} }  .X.} } } X.X.X.} X.X.X.X.X.X.X.X.X.X.X.X.X.X.X.X.X. .X.X.X.X.X.X.O.X.X.X.4.4.O.O.O.O.O.O.X.X.X.X.X.X.X.X.X.X.X.X.4.4.4.4.4.4.4.4.4.4.4.4.4.O.4.4.X.X.X.X.X.X.X.X.X.X.X.X.X.X.X.X.X.X.X.X.X.X.O.O.X.X.X.O.X.X.X.X.O.O.O.X.4.4.X.O.O.O.O.O.O.O.O.O.O.} } } } } } } } } } } } } } } } } } } } } } } } } } } } } } } } } } } } } } } ) ) ) ) ) ) ) ) ) ) ) ) ) ) ) ) / / ) ) ) ) ) / ) ) ) ) ) / / / / / / / / / / / / p p p p p / / p p p p p u u u u u u u u u u u u u u u u u u u u ; u u ; ; ; ; ; ; ; ; ; ; ; u u u u / u u u u u u u u s s = = = = = = = = = = = = = ",
"> > > > > > > > > > ; ; > > > > ; u u u ; ; ; ; ; > > ; u ; u / u u u u u u u u u u u / / / / / u u u / / u u u ) ) ( ( ( ( ) ) / / / / / / / / / / ) ) ) ) ) ) ) } } } } } } } } } } } } } } } ) ) ) ) ) ) } } } } } } } } } } } } } } }  . . . . . . . . . . .} } X.X.X.X.X.X.} } X.X.X.X.X.X.X.X.X.X.X.X.X.X.X.X.X.X.X.X.X.X.X.X.X.X.X.O.X.X.X.X.} O.X.X.X.X.4.4.4.4.4.4.4.4.4.4.4.4.7.7.4.X.X.X.4.4.4.4.4.4.X.4.5.5.5.4.4.4.X.X.X.4.4.4.4.4.4.4.4.4.4.4.4.4.5.5.4.5.5.5.5.5.4.4.4.4.4.4.5.5.4.4.X.X.4.4.4.4.4.4.4.4.4.4.4.4.X.X.4.4.4.X.X.X.X.X.X.X.X.X.X.X.X.X.4.4.5.5.4.X.4.4.4.4.4.4.4.X.X.X.X.X.X.X.X.X.X.X.X.X.X.X.X. .X.X.X.X.X.X.X.X.X.X.} } } } X.o.X.X.X. . . . . .} } } }  .} }  .}  . . .} } } } ) } } } } }  . .} } } } } } } ) ) ) ) ) ) ) ) ) ) ) ) ) ) ) ) ) ) / ) ) / / / / u u u u / / u u / / / / / / / / / / u u / u u u u / u / / / / / u u / / / u u u u u u u u u u u ; ; ; ; ; ; ; ; ; ; ; ",
"( / ( ( ( ( ( ( ( ( ( ( ( ( ( ( ( _ _ _ ( ( ( _ / ; ; / ( ( _ | _ _ _ _ _ _ _ _ _ _ _ _ _ ` _ | | | | | _ ` _ _ | | | | +.| | | ` | | | | | | | ..| ............o.o.o.o.o.o.o.o.o.o.o.o.o.o.o.o...) } } } } ..o.o.o.o.o.o.X.X.X.X.X.X.X.o.o.o.o.%.%.%.%.%.%.%.%.o.o.8.8.8.8.8.8.8.8.8.8.8.8.8.8.8.8.8.8.8.8.8.8.8.8.8.8.8.8.8.8.8.7.8.9.8.7.7.q.8.o.X.X.5.8.7.8.9.9.9.9.9.9.9.9.9.0.9.0.0.0.0.0.9.9.9.9.9.9.9.9.9.9.9.9.9.9.9.9.9.9.9.9.9.9.9.9.9.9.9.9.9.9.9.9.9.9.9.9.9.9.9.9.9.0.9.0.9.9.9.r.9.7.5.4.5.5.9.8.9.9.9.9.9.9.9.9.9.9.9.9.9.8.8.8.9.9.9.9.9.9.9.9.8.8.8.9.9.9.9.9.9.9.9.9.9.9.9.9.8.8.8.8.8.8.8.8.8.8.8.8.8.7.7.7.4.&.%.%.7.7.8.8.8.o.X.} } X.o.8.8.8.8.8.7.%.7.%.%.%.%.%.%.%.%.&.o.o.o.&.o.o.o.o.o.%.o.%.%.%.o.o.o.o.o.o.o.o.o...............................................| | | ` ) ) / ) ) _ | ` | ` | ` | ` _ _ _ _ _ _ _ ) _ ` _ _ _ ` _ ` ) ) _ _ _ _ ) ) _ _ _ _ ( ( ( ( ( ( ( ( ( ( ( ( / / / ",
"( ( ( ( ( ( ( ( _ _ _ _ _ _ _ _ _ ` ` ` _ _ ` | ) u u / ) _ ` | | | | | | | | | | ` | ` | | | | | | ..| | | | | ..| @.| ..| ....................o...o...o...o.%.o.o.o.o.o.o.o.o.o.o.o.o.o.o.%.*.%. .} } .. .o.%.%.o.o.o.X.o.o.&.o.X.o.o.o.%.%.%.%.%.%.%.%.%.%.%.7.7.7.8.8.8.8.8.8.9.9.9.9.9.9.q.8.8.8.8.8.8.8.8.9.9.9.9.8.8.8.8.9.8.8.9.9.8.9.r.9.8.4.X.4.8.9.9.r.r.9.9.9.r.r.r.r.0.0.r.0.e.0.0.r.r.r.r.r.r.r.r.r.r.r.r.r.r.r.r.r.r.r.r.r.r.r.r.r.r.r.r.r.r.r.r.r.r.r.r.r.r.r.r.r.r.r.r.r.r.r.r.r.9.6.4.5.9.9.9.9.9.r.9.r.9.r.9.9.9.9.9.9.9.9.9.9.9.9.9.9.9.9.9.9.9.9.9.9.9.9.9.9.9.9.9.9.9.9.9.9.9.9.9.9.9.9.9.9.9.9.9.8.8.8.8.7.7.7.7.8.9.9.9.9.8.X.O.O.X.8.9.8.9.8.9.9.8.9.8.8.8.8.8.8.%.%.%.%.%.%.%.%.%.%.%.%.%.%.%.%.%.%.%.%.%.%.%.%.%.%.%.%.%.%.%.%.%.%...o.o.o.o.%.%.%.%.o.o.%.%.%.......*...) / / ) | ..| | | | | | | | | ` | ` | ` _ ` | | | | | | | | ` ` ) ` _ _ _ _ | _ _ ` _ _ _ _ _ _ _ _ _ _ _ _ ( ( ( ",
"/ / / / / / / / / / / / / / / / ) ) ) ) ) ) ) ` ) u u u / ) ) ` ) ) ) ) ) ) ) ) ) ) ) ) ) ) } ` ` ) | } } ) } ) } } } | | } } } } }  .}  .} .. . . . . ... .................................o.o.q. .}  . . . .o.X.X.X.X.X.X.X.X.X.X.X.X.X.X.X.X.X.X.X.X.X.&.X.X.X.4.4.4.5.4.5.4.4.4.4.4.5.4.5.4.5.5.5.5.5.5.5.5.7.7.7.7.5.7.5.5.8.4.4.8.7.4.8.9.r.8.4.X.4.8.8.9.9.9.0.9.0.9.0.9.7.7.0.7.7.0.7.7.9.9.9.9.9.0.0.0.0.0.0.0.r.0.0.0.r.0.r.0.0.0.r.0.r.0.r.0.r.0.r.9.0.0.9.0.9.9.9.9.9.0.9.0.9.0.9.r.r.0.6.4.6.9.9.9.9.9.9.9.9.9.9.9.7.7.0.9.9.7.7.7.7.7.7.7.7.7.7.7.6.9.9.9.6.5.9.9.9.9.9.9.9.9.9.9.8.8.8.8.8.8.8.8.7.7.8.8.5.4.4.4.4.4.4.4.7.4.7.7.9.8.X.O.O.X.8.9.8.8.8.8.8.7.8.7.7.&.%.&.%.%.%.%.o.o.o.o.o.%.o.%.o.o.o.X.o.X.o.o.o.o.o.o.o.o.o.o.o.X.o.X.o.....................................| %...) u u p } | } ) } ) } ) } ) ) ) ) ) ) ) ) ) ) ) ) ) ) ) ) ) ) ) ) ) / / ) ) ) ) ) ) ) ) ( ) ) ) ) ) ) ) / / / / / ",
") ) ) ) ) ) ) ) ) ) ) ) ) ) ) ) ) ) ) ) / / ) ` | / u u / ) ) ) / ) ) / ) / ) / ) ) } ) } ) } } } } } } } }  .} } }  .}  .} } } }  .}  .}  . . .}  .}  .}  . . . . .X. . . . . . . . . . . .o.%.w.X.}  .X.X.X.7.X.X.X.X.4.4.4.4.X.X.X.X.X.X.X.&.X.X.X.X.X.&.X.X.4.4.4.4.4.4.4.4.X.4.4.4.4.4.4.4.5.5.4.5.5.5.5.5.7.7.7.7.7.7.7.7.7.7.7.7.7.7.9.r.r.9.4.4.4.7.9.9.9.7.9.7.0.0.0.7.0.0.0.0.0.0.0.0.0.0.0.0.0.0.0.0.0.e.e.e.9.9.0.0.0.0.0.0.0.0.0.e.0.0.0.e.0.0.0.0.0.0.0.0.r.0.r.0.9.0.9.0.9.9.r.r.r.e.7.4.6.0.0.0.0.0.0.0.0.0.0.0.7.7.0.7.0.7.7.7.7.7.7.7.6.4.7.7.6.7.9.7.6.5.6.9.9.9.7.7.0.7.0.7.7.7.7.7.7.7.7.7.7.7.7.7.7.7.4.4.4.4.4.4.4.4.4.4.r.9.4.O.O.X.6.9.8.8.8.8.8.8.8.8.8.7.7.7.7.%.7.7.7.%.7.%.7.%.7.%.7.%.5.X.X.X.o.o.5.5.5.5.5.o.o.%.o.o.o.&.o.&.o.o.....o.o... ........... ... ...} %...} ) ) ) } } } } } } } } } } } ) } } } ) ) ) } ) } ) ) ) ) ) ) ) ) ) ) ) ) ) ) ) ) ) ) ) ) ) / / / / / / / / ) ) / ",
") ) ) ) ) ` ) ` ) ` ) ` ) ` ) ) } } } } } }  ...*.} ) /  .} }  . . . .}  .}  .}  .}  . . . . . . . . .X.X.X.o.o. .X.X.o.X.X.X. .X.X.X.X.X.X.X.X.X.X.X.X.X.X.X.X.o.o.o.o.o.o.o.o.o.o.o.o.X.o.%.q.r.4.O.X.4.X.X.7.7.7.7.7.7.7.7.7.7.7.7.7.7.7.0.7.0.7.7.7.0.7.0.0.8.7.7.7.7.7.9.9.9.9.9.9.9.9.0.0.7.7.0.7.0.7.0.7.0.7.0.7.0.0.0.0.0.0.0.0.0.7.e.r.(.e.7.4.7.7.0.0.e.e.0.0.e.e.e.e.e.0.e.e.e.0.e.0.e.e.e.e.e.e.e.e.e.e.e.e.e.e.e.e.e.e.e.e.e.e.e.e.e.e.e.r.r.e.e.e.r.r.r.r.r.r.r.r.e.r.r.e.r.e.r.r.}.r.0.0.0.e.e.e.e.e.e.e.e.e.e.0.e.e.e.e.e.e.e.0.e.e.e.0.e.0.e.e.0.0.0.0.0.0.e.e.0.0.0.0.e.e.e.0.0.0.0.0.0.0.0.0.0.0.0.0.0.7.0.7.7.7.7.7.7.7.7.7.r.r.7.4.4.4.9.9.9.9.9.9.9.9.9.9.9.9.9.9.7.7.9.9.9.9.9.9.9.9.9.9.9.9.7.8.7.8.8.8.9.9.9.9.9.9.9.9.7.7.7.7.8.%.8.%.%.%.%.%.%.%.%.%.&.%.%.%.&.&.&.o.8.%.o.X. . . . . . . . . . . . .X. .X. .X. . .}  . . . . .}  .}  .`  .` ` ` } ` } ` } ` } ` ) ) ) ) } ) } ) } ) } ) } ",
"} ) } ` } } } }  . . .}  .}  . .} }  . . . .X.&.&. . . . . . . .&.&.X.&.X. .X.&.X.&.X.&.X.&.&.&.X.X.X.X.X.X.X.X.&.&.&.&.&.&.&.&.&.&.4.7.7.7.7.7.7.7.X.X.X.4.7.7.7.7.7.7.%.%.%.7.%.7.7.7.%.7.8.q.9.7.X.X.X.7.7.0.0.7.0.7.0.7.0.0.7.7.7.7.7.7.7.7.0.0.0.7.7.7.7.7.7.7.0.7.0.7.0.0.0.7.0.7.0.7.0.0.0.0.0.0.0.0.0.0.e.0.0.0.e.0.e.e.e.e.e.e.e.0.e.(.}.e.0.0.e.e.e.r.e.e.e.e.e.e.e.e.e.e.e.e.e.).e./.e.e.e.e.e.e.e.e.e.e.e.e.e.e.e.e.e.e.e.e.e.e.e.e.e.e.e.e.e.e.e.e.e.e.r.r.r.r.r.r./.e.r.(.e.r.r.(.}.e.e.0.e.e.e.e.e.e.e.e.e.e.e.e.e.e.e.e.e.e.e.e.e.e.e.e.e.e.e.e.e.e.e.e.e.e.0.e.e.e.e.e.e.e.e.e.e.e.e.e.e.e.e.e.e.e.e.e.e.e.e.e.0.0.0.0.e.0.0.e.r.0.7.4.7.9.r.r.r.r.r.e.r.e.0.0.0.0.0.0.0.0.0.0.9.0.0.0.9.9.9.9.9.9.9.9.9.7.0.0.9.9.9.9.9.9.9.9.9.9.9.9.9.9.9.9.9.9.q.8.8.8.&.%.&.&.&.7.7.7.&.&.q.7.X.X.X.X.X.X.X.X.X.X.&.&.X.X.&.&.X.&.X.&.&.&.X. . . .X. .X.X. . . . . . . . .}  . . . .} } }  . . . . .}  .} ......",
" . . . . . .X. .&.&.&. .X. .X.&.X.X.&.&.X.&.&.&.&.X. . .&.X.&.&.&.&.&.&.&.&.&.&.&.&.&.&.&.&.&.&.&.7.7.7.7.7.7.7.7.7.7.7.7.&.7.7.7.7.7.7.7.7.7.7.0.0.7.7.7.7.0.0.7.7.7.0.7.7.7.7.7.7.7.7.7.7.7.9.r.0.7.7.7.7.0.0.0.0.0.0.0.0.0.0.0.0.0.0.0.0.0.0.0.0.0.0.0.0.0.0.0.0.e.0.e.0.e.e.e.0.e.e.e.e.e.e.0.0.0.0.e.e.0.0.e.e.0.e.e.0.e.e.e.e.e.e.e.0.e.(.}.e.e.e.e.e.e./.e.e.e.e.e.e.e.e./././.e./././././.e.e./././././.e./././.}./.}.}.}./.}./.}./.}./.}./.}./.}./.}.}././.}.}.}.}.}.}.}.}.}.}.}.e.}.}..X}.e.e.e.e.e.e./.e.e.e.e.e.e.e.e.e.e.e.e.e.e.e.e.e.e.e.e.e.e.e.e.e.e.e.e.e.e.e.e.e.e.e.e.e.e.e.e.e.e.e.e.e.e.e.e.e.e.e.e.e.e.e.0.0.e.e.e.0.e.e.(.e.0.7.0.0.e.e.e.e.e.e.e.e.e.e.e.e.0.e.e.e.e.e.0.0.0.0.0.0.0.0.0.0.0.0.0.0.0.0.0.0.0.0.0.0.0.0.7.7.9.8.0.0.8.8.0.0.8.0.9.8.7.7.8.7.8.8.8.8.8.8.r.8.7.X.X.X.7.&.7.7.7.7.7.&.4.X.&.&.X.&.X.X.&.X.X.X.X.X.&.&.&.&.&.&.&.&.&.&.X. . . . . .X. . . .X.X.X.X. . . . .X.X.X.",
"&.&.&.&.&.&.&.&.&.&.&.&.&.&.&.&.&.7.7.&.&.&.8.8.8.&.&.&.&.&.&.7.7.7.7.7.7.7.7.7.&.7.7.7.7.7.7.7.0.0.0.0.0.0.0.0.7.7.7.7.7.7.7.7.7.7.7.7.0.7.0.0.0.0.7.7.7.0.0.0.0.0.0.0.0.0.0.0.0.0.0.0.0.0.0.e.(.0.7.7.0.0.0.e.0.0.0.0.0.0.0.0.e.e.e.0.e.e.0.e.e.e.e.0.0.0.0.0.e.e.e.e.e.e.e.e.e.e.e.e.e.e.e.e.e.e.e.e.e.e.e.e.e.e.e.e.e.e.e.e.e.e.e.e.e.0.e.(..X/.e.e.e.e././././.}./.}.}.(.}././././././././././././.}.}.}.}.}.}.}.}.}.}.}.}.}.}.}.}.}.}.}.}.}.}.}.}.}.}.}.}.}.}.}.}.}.}.}.}.}.}.}.}.}.}.}.}..X}.}.e.e.}.}.}.}.}.}.}.}.}.}.e./.e.e.e./././.e.e./././.e./././././././././.e.e.e.e.e.e.e.e.e.e.e.e.e.e.e.e.e.e.e.e.e.e.e.e.e.e.e.e.e.).e.0.e./..X(.e.0.e.e.e.e.e.e.e.e.e./.e.e.e.e.e.).e.).).).).).(.).e.).(.).e.).(.).e.e.e.e.e.e.e.e.e.e.e.e.0.0.e.e.e.e.e.0.e.e.e.e.0.0.0.0.0.0.0.0.0.0.0.0.).0.0.7.7.7.0.0.7.0.7.0.0.7.7.7.7.7.7.7.7.7.&.&.7.7.7.7.7.7.7.7.7.7.7.&.7.7.7.&.&.&.&.&.&.&.&.X.X.&.X.&.&.&.&.&.&.&.&.",
"&.&.7.&.7.&.7.&.&.&.7.&.&.&.&.&.0.0.0.7.7.7.0.0.0.7.&.7.7.7.7.0.0.0.0.0.0.0.0.0.0.0.0.0.0.0.0.0.0.0.0.0.0.0.0.0.0.0.0.0.0.0.0.0.0.0.0.0.0.0.e.0.e.0.0.0.0.0.e.).0.).e.).0.).0.0.0.).).).0.).).(.(.e.0.0.e.e.e.e.e.e.e.e.e.e.e.e./././.e./.e././.e.e.e.e.e.e.e.e.e.e.e.e.e.e.e./././././././.e./././././././././.(.(./././././././././.}././.}.}..X}.e.e././.}.}.}.}.}.}.}.}.}.}.}.}.}.}.}.}.}.}.}.}.}.}.}.}.}.}.}.}.}.}.}.}.}.}.}.}.}.}.}.}.}.}.}.}.}.}.}.}.}.}.}.}.}.}.}.}.}.}.}.}.}.}.}.}.}..X.X}.}.}.}.}.}.}.}.}.}.}.}.}.}.}.}.}.}.}.}.}.}.}.}.}.}.}.}.}.}.}.}.}.}.}.}.}.}././././././././././././././././././././././././.e./././.(./.e.e./..X}./.e.e.e./.}././././././././.(.(./.(.(.(.(.(.(.(.(.(.(.(.(.(.(.(.(.(.(.(././././.(.(./.(.(.(.(.(.(.(.(.(.).).).).).).).).).e.e.0.0.0.e.e.0.e.(.e.0.7.7.7.0.0.0.0.0.0.0.0.0.7.0.0.0.0.0.0.0.0.0.0.0.0.0.0.0.0.0.0.0.7.0.0.7.7.0.0.0.0.7.0.0.0.7.7.7.7.7.7.7.7.0.0.0.",
"7.7.7.7.0.7.0.7.7.7.7.7.7.7.7.7.0.0.0.0.0.0.0.).0.0.7.0.0.7.0.0.0.0.0.0.0.0.0.0.0.0.0.0.0.).).0.0.0.0.0.0.0.0.).).).e.0.e.0.e.e.e.e.).)./.).).).).).e.e./.).).).).).).).).).).).).).).).).).).(.(./.0.e.e.e./././././././././././././././././././././.e././././././.e././././././././././././././.}.}.}.}.}.}.}.}.}.}.}.}.}.}.}.}.}.}.}.}.}.}..X.X}././.}.}.}.}.}.}.}.}.}.}.}.}.}.}.}.}.}.}.}.}.}.}.}.}.}.}.}.}.}.}.}.}.}.}.}.}.}.}.}.}.}.}.}.}.}.}.}.}.}.}.}.}.}.}.}.}.}.}.}.}. X}.}. X.X}.}. X X.X}.}.}.}.}.}.}.}.}.}.}.}.}.}.}.}.}.}.}.}.}.}.}.}.}.}.}.}.}.}.}.}.}.}.}.}.}.}.}.}.}.}.}.}.}.}.}.}.}.}.}.}.}.}.}.}.}.}.}.}.}././././././././.(..X}./.e.e./.}.}.(.}.}.}.}.(.(.(.(.(.(.(.(.(.(.(.(.(.(.(.(.(.(.(.(.(.(.(.(.(.(.(.(.(.(.(.(.(.(.(.(.(.(.(.(.(.(.(.(.(.(.(.(.(.(.).e.e.e.e.).).).).(.(.e.0.0.0.0.0.0.0.0.0.e.0.0.0.0.0.0.0.0.0.0.0.0.0.).).0.0.0.0.0.0.0.0.0.0.0.0.0.0.0.0.0.0.0.7.0.7.0.0.7.7.7.0.7.7.7.",
"0.0.0.0.0.0.0.0.0.0.0.0.0.0.0.0.0.).).).0.).).).).0.0.0.0.0.0.0.).).).).).).).).0.).).).).).).).).0.).).0.0.).).).).).).).).).).).)./.).)./.).(.(.).).).).).(.(./.(./.(./.(./././.(.(.(./.(.(.(.}.(.e./.(.(.(./.(.(.(.(./.(.(./././.}./././././././.}./././.}./.}.}./././.}.}.}.}.}.}.}.}.}.}.}.}.}.}.}.}.}.}.}.}.}.}.}.}.}.}.}.}.}.}.}.}.}.}.|..X}./.}.}.}.}.}.|.}.}.}.}.}.}.|.|.|.|.|.|.|.|.|.|.|.|.|.|.|.|.|. X X X X X X X X X X X X X X X X X X X X|.|. X X X X X X X X X X X X X X X X X X X X}.}.}.}.}.}.}.}.}.}.}.}.}.}.}.}.}.}.}.}.}.}.}.}.}.}.}.}.}.}.}.}.}.}.}.}.}.}.}.}.}.}.}.}.}.}.}.}.}.}.}.}.}.}.}.}.}.}.}.}.}.}.}.}.}.}.}.}.}.}.|.}./.e./.(.}.}.}.}.}.}.}.}.}.}.}.}.}.(.(.(.(.(.(.(.(.(.(.(.(.}.}.}.}.}.}.}.}.(.(.(.(.(.(.(.(.(.(.(.(.(.(.).).(.(.(.(.(.(.(.(.(./.(./.(.(.(.(.(.}.(.).e.0.).).).0.0.0.).).).e.e.).).).).).).).).).).).).).).).).).).).).e.0.0.0.0.0.0.0.0.0.0.0.0.0.0.0.0.0.0.0.0.0.0.",
").).).).).).).).).).).).).).).).).).).).).).).(.).).0.).).).).).).).).).).).).).).).).).).).).).(.(.(.(.(.(.(.(.(.(.(.(.(.(.(.(.(.(.(.(.(.(.(.(.(.(.(.(.(.(.(.(.(.(.(.(./././././.(.(.(././.}.}..X(.(.(.(.(.}.}.}.}.}.}.}.}.}.}.}.}.}.}.}.}.}.}.}.}.}.}.}.}.}.}.}.}.}.}.}.}.|.|.}.}.}.|.|.|.}.}.}.}.}.}.}.}.}.}.}.}.}.}.}.}.}.|.}.}.|.|.}.}.|. X X|.}.}.|.|.|..X X X X X X X X X X X X X X X X X X X X X X X X X X X X X X X X X X X X X X X X X X X X X X X X X X X X X X X X X X X X X X X X XoX X X X X X X X X X X X X X X X X X X X X X X X|.|.|.|. X|. X|.|.|.|.|.|.|.|.|.|.|.|.|.|.|.|.|.|.|.|.|.|.|.|.|.|.|.|.|.|.|.}.}.|.}.|.|.|.}.}.|..X|.}.}.}.}.|..X|.|.|.|.|.|.|..X|.|.|.|.|.|.|.|.}.}.}.}.}.}.}.}.|.}.}.|.|.|.}.}.}.}.}.}.}.}.}.}.}.}.}.(.(.(.(.(.(.(.}.}.}.}.(.(.}.}.}.}.}.}.}.}..X}.(.).).(.(.(.).).).(.(.(.).).).).).).).).).).).).(.).).).).).).).).).(.).).).).).(.(.(.).).).).).).).).).).).).).).",
").).).).).).).(.).).).).).).).).(.(.(.(.(.(.(.(.(.).).).).).).(.(.(.(.(.(.(.(.(.).).).).(.(.(.(.(.(.}.}.}.}.}.}.(.(.(.(.(.(.(.(.}.}.}.}.}.}.}.}.(.(.(.(.(.}.}.}.|.|.|.|.|.|.|.|.}.|.|.}.|.|.|.|..X|./.}.}.|.|.|.|.|.|.|.|.|.|.|.|.|.|.|.|.|.|.|.|.|.|.|.|.|.|.|.|.|.|.|.|.|.|. X|.|.|.|.|.|.|. X X X|.|.|.|.|. X X X X X X X X X X X X X X X XoXoX X X X X X XXX X X X X X X X X X X X X X X X X X X X X X X X X X X X X X X X X X X X X X X X X X X X X X X X X XXX X XXX X XXXXXXXXXXXXX X XXXoXXX X X X X X X X X X X X X X X X X X X X X X X X X X X X X X X X X X X X X X X X X X X X X X X X X X X X X X X X X X X X X|.|. X|. X X|.|.|. XoX X|.|.|.|.|. X|.|.|. X X X X X X X X|. X|.|.|.|.|.|.|. X X X X|.|.|.|.|.|.|.|.|.|.|.|.|.|.|.|.|.|.|.|.|.|.|.|.}.|.|.|.|.|.|.|.|.|.|.|.|.|.|.|..X|.(.(.(.(.(.(.(.(.(.(.(.(.(.(.(.(.(.(.(.(.(.(.(.(.(.(.(.(.(.(.(.(.(.(.(.(.(.(.(.(.(.(.(.(.(.(.(.(.(.(.(.(.(.(.(.(.(.",
"(.(.(.(.(.|.(.(.|.(.(.(.(.(.|.|.|.|.|.|.|.|.|.|.|.|.(.(.|.|.|.|.|.(.(.(.|.|.|.|.|.(.(.|.|.|.|.|.|.|.|.|.|.|.|.|.|.|.|.|.|.|.|.|.|.|.|.|.|.|.|.|.|.|.|.|.|.|.|.|.|.|.|.|.|.|.|.|.|.|.|.|. X X X XXXXX|.|.|. X X|. X|. X|.|. X X X X X X X X X XXX XXX XXX XXX X X XXX XXXXXXXXXXXXXXXXXXX XXX X XXXXX XXXXXXXXXXXXXXXXXXXXXXXXXXXXXXXXXXXXXXXoXoXoXoXXXXXXXoXoXoXoXoXoXoXoXXXXXXXXXXXXXXXXXXXXXXXOXOXOXOXXXXXXXXXXXXXXXXXXXXXXXXXOXOXXXXXOXOXOXOXOXOXOXoXOXOXOXOXOXOXOXOXXXOXOXXXOXOXXXXXXXOXXXXX@XoXXXXXXXXXXXXXXXXXXXXXXXXXXXXXXXXXXXXXXXXXXXXXoXoXoXoXXXXXXXXXXXXXXXXXXXXXXXXXXXXXXXXXXXXXXXXXXXXXXXXXXXXXXXXXXXXXXXXXXXXXXXXXXXXXXXXXXXXXXXXXoXXXXX X XXXXXXXXXXXoXXXoXoXXXXXXXXXXXXXXXXXXXXXXXXXXX XXXXXXXXXXXXXXXXX X XXXXXXXXX X X|.XXXXXXXXXXXXXXXX X X X X X X X X X X X X X X X X X X XXX|.|.|.|.|.|.|.|.|.|.|.|.|.|.|.|.|.|.|.|.|.|.|.|.|.|.|.|.|.|.|.|.|.|.|.|.|.|.|.|.|.|.|.|.|.|.|.|.|.|.|.|.|.|.|.|.|.|.",
"|.XXXXXXXXoXoXXXoXoXoXoXoXoXoXoXoXoXoXoXoXoXoXoXoXoXXXXXoXoXoXoXoXoXoXoXoXoXoXoXoXoXoXoXoXoXoXoXoXoXoXoXoXoXoXoXoXoXoXoXoXoXoXoXoXOXOXOXOXOXOXOXOXOXOXOXOXOXOXOXOXOXOXOXOXOXOXOXOXOXOXOXOXOXOXOX@XOXoXoXoXOXOXoXOXOXOXOXOXOXOXOXOXOXOXOXOXOXOXOXOXOXOXOXOXOXOXOX@XOXOXOXOXOXOXOXOXOXOXOXOXOX@X@X@X@X@X@X@X@X@X@X@X@X@X@X@X@X@X@X@X@X@X@X@X@X@X@X+X@XOXOXOX@X@X@X@X+X@X@X@XOX@X+X@X@X@X+X@XOX@X@X+X+X+X+X+X+X+X+X+X+X+X+X+X+X+X+X+XOXOXOXOXOX+X+X+X+X+X+X+X+X+X+X+X+X+X+X+X+X+X+X@X+X+X+X+X+X+X+X$X+X@XOX@X@X@X@X+X@X@X+X@X@X@X@X@X@X@X@X@X@X@X@XOXOXOX@X@X@X@X@X@X@X@X@X@X@X@X@X@X@X@X@X@X@X@X@X@X@X@X@X@X@X@X@X@X@X@X@X@X@X@X@XOXOXOXOXOXOXOXOX@X@XOXOXOXOXOXOXOXOXOXOXOXOXOXOXOXOXOXOXOXOXOXOX@XOXOXOX@X@X@X@XOXOXOXOXOXOXOXOX@X@XOXOXOXOXOXoXOXoXOXoXOXOXOXOXOXOXOXOXOXOXOXOXOXOXOXOXOXOXOXOX@XOXoXoXoXoXoXoXoXoXoXoXoXoXoXoXoXoXoXoXoXoXoXoXoXoXoXoXoXoXoXoXoXoXoXoXoXoXoXoXoXoXoXoXoXoXoXoXoXoXoXoXoXXXoXXXXXXXXX",
"OXOXOXOXOX@X@X@X@X@X@X@X@X@X@X+X@X@X@X@X@X+X+X+X+X+X@X@X@X+X+X+X+X+X+X+X+X+X+X+X@X@X@X+X@X+X+X+X+X+X+X+X+X+X+X+X+X+X+X+X+X+X+X+X+X+X+X+X+X+X+X+X+X+X+X+X+X+X+X+X+X+X+X+X+X+X+X+X+X+X+X+X+X+X+X+X+X+X+X+X+X+X+X+X+X+X+X+X+X+X+X+X#X#X#X#X#X#X#X#X+X+X+X+X#X#X#X#X#X#X#X#X#X#X+X+X+X+X+X#X#X#X#X#X#X#X#X#X#X#X#X#X#X#X#X#X#X#X#X#XaXaX#X#X#X#XaXaXaX#X#X#X#X#XaXaX#X#X#X#XaX#XaXaXaXaXaXaXaXaX#XaXaXaXaXaXaXaXaXaXaXaXaXaXaXaXaXaXaXaXaXaXaXaXaXaXaXaXaXaXaXaXaXaX#X$X$X$X$X$X$X$X$X$X$X$XaXaXaXaXfXfX$X#X$X#XaX$XaXaXaXaXaXaXaXaX$XaX$X#X#X#X#X#X#X#X#X#X#X#X#X#X#XaXaXaXaXaXaXaXaXaXaXaXaXaXaXaX#XaXaXaXaXaXaXaX#X#X#X#X#X#X#X#X+X#X#X#XaXaXaXaXaXaXaX+X+X+X+X+X+X+X+X+X+X+X+X+X+X+X+X+X+X+X+X+X+X+X+X+X+X+X+X+X+X+X+X+X+X+X+X+X$X$X$X+X+X+X+X+X+X+X+X+X+X+X+X+X+X+X+X+X+X+X+X+X+X+X+X+X+X+X+X+XaX+X+X@X@X+X+X+X+X+X+X+X+X+X+X+X+X+X+X+X+X+X+X+X@X@X@X@X@X@X@X@X+X+X+X+X+X+X+X+X+X+X@X@X@X@X+X+X+X+X+X@X@X@X@X@X@X@X@X",
"+X+XaX+X+X#X#X+X#X+X#X+X#X#X#X#X#X#X#X#X#X#X#X#X#X#X#X+X#X#X#X#X#X#X#X+X#X+X#X#X#X+X#X+X#X+X#X#XaXaXaXaX#X#X#X#XaXaXaXaXaXaXaXaX#X#X#X#X#X#X#X#X#X#X#X#X#X#X#X#XaXaX#X#X#X#XaX#XaXaXaXaXaXaXaXaXaXaX#X#X#XaX#XaXaXaXaXaXaXaXaXaXaXaXaXaXaXaXaXaXaXaXaXaXaXaXaXaX#X#X#XaXaXaXaXaXaXaXaXaXaXaXaXaXaXaXaXaXaXaXaXaXaXaXaXaXaXaXaXaXaXaXaXaXsXsXsXsXsXsXsXsXsXsXsXfXsXsXsXsXsXsXsXsXsXsXsXsXsXsXsXsXsXsXsXsXsXsXsXaXsXaXsXsXsXsXsXsXsXsXsXsXsXsXdXdXsXsXsXsXsXsXsXsXsXsXsXsXsXsXsXsXsXsXsXsXsXsXsXsXsXsXsXaXaXaXsXsXsXsXsXsXsXaXsXsXaXaXaXaXaXaXsXaXsXsXsXaXsXaXaXaXaXaXaXaXaXaXaXaXaXaXaXaXaXaXaXaXaXaXaXaXaXaXaXaXaXaXaXaXaXaXaXaXaXaXaXaXaXaXaXaXaXaXaXaXaXaXaXaXaXaXaXaXaXaXaXaXaXaXaXaXaXaXaXaXaXaX#X#X#X#X#X#X#X#XaXaXaXaXaXaXaXaXaXaXaXaXaXaXaXaXaXaXaXaXaXaX#X#X#X#X#X#X#X#X#X#X#X#X#X#X#X#XaXaX#X#X#X#X#X#X#X#X#X#X#X#X#X#X#X#X#X#X#X#X#X+X#X#X#X#X#X#X#X#X#X#X#X#X#X#X#X#X#X#X#X+X+X+X#X#X+X+X+X+X#X#X#X#X#X#X#X",
"aXdXdXfXfXfXfXfXfXfXfXfXfXfXfXfXfXfXfXfXfXfXfXfXfXfXfXfXfXfXfXfXfXfXfXfXfXfXfXfXfXfXfXfXfXfXfXfXfXfXfXfXfXfXfXfXfXfXfXfXfXfXfXfXfXsXsXsXsXsXsXsXfXfXsXsXsXsXsXfXfXfXfXfXfXfXfXfXfXfXfXfXfXfXfXfXdXfXfXfXfXdXdXdXdXdXdXdXfXfXdXdXdXdXdXdXdXdXdXdXdXdXdXsXdXdXdXdXsXsXsXdXdXdXdXdXdXdXdXdXdXdXdXdXdXdXdXdXdXdXdXdXdXdXdXdXdXdXdXdXdXdXdXdXdXdXdXdXdXdXdXdXdXdXdXdXdXdXdXdXdXdXdXdXdXdXdXdXdXdXdXdXhXdXdXdXdXdXdXdXdXdXdXdXdXdXdXdXdXdXdXdXdXdXdXdXdXdXdXdXdXdXdXdXdXhXhXhXhXhXhXhXhXhXhXhXhXdXdXdXdXdXdXdXdXdXdXdXdXdXdXdXdXdXdXdXdXdXdXdXdXdXdXdXdXdXdXdXdXdXdXdXdXdXdXdXdXdXdXdXdXdXdXdXdXdXdXdXdXdXdXdXdXdXdXdXdXdXdXdXdXdXdXdXdXdXdXdXdXdXdXdXdXdXdXdXdXdXdXdXdXdXdXdXdXdXdXdXdXdXdXfXfXfXfXfXfXfXfXfXfXfXfXfXfXfXfXfXdXfXdXdXfXfXdXdXdXdXdXdXdXdXdXdXfXdXdXfXfXsXsXsXsXsXsXsXfXfXfXfXfXfXfXfXfXfXfXfXfXfXfXfXfXfXfXfXfXfXfXfXfXfXfXfXfXfXfXfXfXfXfXfXfXfXfXfXfXfXfXfXsXaXaXaXsXaXfXfXsXaXsXfXaXfXfXfXfXfXfXfXfXfXfX",
"dXhXhXgXgXgXgXgXgXgXgXgXgXgXgXgXgXgXgXgXgXgXgXgXkXkXgXgXgXkXgXgXkXkXkXkXkXgXkXgXkXkXgXkXgXgXgXgXgXgXgXgXgXgXgXgXgXgXgXgXgXgXgXgXkXkXkXkXkXkXkXkXkXkXkXkXkXkXkXkXkXkXkXkXkXkXkXkXkXkXkXkXkXkXkXkXgXgXgXgXgXgXgXkXgXgXgXgXgXgXgXgXkXkXkXkXkXkXkXkXkXkXkXkXkXkXkXkXkXkXkXkXkXkXkXkXzXzXzXzXkXkXkXkXkXkXkXkXkXkXkXkXkXkXkXkXkXkXkXkXkXkXkXkXgXgXkXkXgXgXgXgXkXkXgXgXgXgXgXgXgXgXgXgXgXgXgXgXgXgXgXgXgXgXgXjXgXkXkXkXlXlXlXjXkXjXgXgXgXgXgXjXkXjXkXjXkXkXkXkXkXkXkXjXjXjXjXjXjXjXjXjXjXjXjXjXjXjXjXjXjXjXlXjXjXjXkXjXjXjXjXjXkXkXjXjXjXjXjXjXjXkXjXjXgXgXgXjXjXjXkXjXlXlXkXkXkXkXkXkXkXkXkXkXkXkXkXkXgXkXkXkXkXkXkXkXkXkXkXkXkXkXkXkXgXgXkXgXkXkXkXkXkXkXkXkXgXgXgXgXgXgXgXgXgXgXgXgXgXgXgXgXgXgXkXzXkXkXkXzXkXkXkXkXkXzXzXzXkXzXkXzXgXgXgXgXgXgXgXgXgXgXgXgXgXgXgXgXjXgXgXgXgXgXgXgXgXgXgXgXgXgXgXgXgXgXzXgXgXgXgXgXgXgXgXgXgXgXgXgXgXgXgXgXgXgXgXgXgXgXgXgXgXgXgXgXgXzXzXgXgXgXgXgXgXgXzXgXgXgXzXgXgXgXgXgXgXgXgXgXgXgXgX",
"gXlXlXxXxXxXvXvXvXvXvXvXvXvXvXvXvXvXvXvXvXvXvXvXvXvXvXvXvXvXvXvXvXvXvXvXvXvXvXvXvXvXvXvXvXvXvXvXvXvXvXvXvXvXvXvXvXxXvXxXvXvXvXvXxXxXxXxXxXxXxXxXxXxXxXxXxXxXxXxXvXvXvXvXvXvXvXvXvXvXvXvXvXvXvXvXvXvXvXvXvXvXvXvXvXvXvXvXvXvXvXvXxXxXxXxXxXxXxXxXxXxXxXxXxXxXxXxXxXxXxXxXxXxXxXxXxXxXxXxXxXxXxXxXxXxXxXxXxXxXxXxXxXxXxXxXxXxXxXxXxXxXxXxXxXxXxXxXxXxXxXxXxXxXxXxXxXxXxXxXxXxXxXxXxXxXxXxXxXxXxXxXxXxXxXxXxXxXxXxXcXxXxXxXxXxXxXxXxXxXxXxXxXxXxXxXxXxXxXxXxXxXxXxXxXxXxXxXvXxXxXxXxXxXxXxXxXvXvXvXvXvXvXvXvXvXvXvXvXvXvXvXvXvXvXvXvXvXvXvXvXvXvXvXvXvXvXvXvXvXvXvXvXcXcXcXxXxXxXxXxXxXxXxXxXxXxXxXxXxXxXxXxXxXxXxXxXxXxXxXxXxXxXxXxXxXxXxXxXxXxXxXxXxXxXxXxXxXxXxXxXxXxXxXxXxXxXxXxXxXxXxXxXxXxXxXxXxXxXxXvXxXxXxXxXxXxXxXxXxXxXxXxXxXvXvXvXxXxXxXxXxXxXxXxXxXvXvXvXvXvXvXvXvXvXvXvXvXvXvXvXvXvXvXvXvXvXvXvXvXvXvXvXvXvXvXvXvXvXvXvXvXvXvXvXvXvXvXvXvXvXvXvXvXvXvXxXxXxXxXxXxXxXxXxXxXxXxXxXxXxXxXvXvXvXxXvXxXxXxXxXxXxX",
"vXvXbXnXnXnXnXnXmXmXmXmXmXmXnXnXnXnXnXmXmXmXmXnXnXnXmXmXmXmXmXmXnXnXnXnXnXnXnXnXnXnXnXnXnXnXmXmXmXmXmXmXmXmXmXmXnXmXnXnXnXnXmXmXmXnXmXnXmXnXmXnXmXnXnXnXmXnXmXmXnXmXnXmXnXnXnXnXnXnXnXmXnXnXnXnXmXmXmXmXmXmXnXnXnXnXnXnXnXnXnXnXmXmXmXmXmXmXmXmXmXmXmXmXnXmXnXmXmXmXnXmXnXnXnXnXnXmXnXmXnXmXmXmXnXmXnXmXmXmXmXmXnXmXmXmXmXmXmXmXmXbXmXmXmXnXnXMXnXnXnXMXMXMXnXmXMXMXnXnXnXnXnXMXnXnXMXMXMXMXnXMXMXMXMXMXnXmXnXmXmXmXnXmXnXmXmXmXmXmXnXmXnXMXnXmXMXMXMXMXMXMXnXnXnXMXMXMXMXMXMXnXMXnXnXnXnXmXnXmXnXnXMXMXnXmXnXnXMXMXMXMXnXnXnXnXmXmXnXmXnXMXMXMXMXMXMXMXMXnXnXnXnXnXnXnXnXmXnXmXnXnXnXnXnXnXnXnXnXmXnXmXnXmXnXmXnXnXnXnXnXnXnXnXnXnXnXnXnXnXnXnXmXmXmXnXnXnXnXnXnXnXnXnXnXnXnXnXnXnXnXnXmXnXmXmXnXnXnXmXnXnXnXnXnXnXnXnXnXmXmXmXmXmXnXnXnXnXnXnXnXnXnXnXnXnXnXnXmXmXmXmXmXmXmXmXmXmXmXmXmXmXmXmXmXnXnXmXnXmXmXmXmXnXnXnXnXnXnXnXmXmXmXmXmXmXmXmXnXnXnXnXnXnXnXnXnXnXnXnXnXmXnXmXmXnXnXnXnXnXnXnXmXmXmXmXnXnXnXnXnXnXnX",
"mXMXPXKXKXKXKXKXGXGXGXKXKXKXKXKXKXKXKXKXKXKXKXKXKXKXKXKXKXKXKXKXKXKXKXKXKXKXKXKXJXJXJXKXKXKXKXKXKXKXKXKXKXKXKXKXKXKXKXKXKXKXKXKXKXJXGXJXGXGXGXGXGXJXGXJXGXJXLXGXLXLXLXLXLXLXLXLXLXLXLXLXLXLXLXLXGXGXGXGXKXKXKXKXKXKXGXGXGXGXGXGXJXLXLXLXLXLXJXJXGXJXGXGXGXJXGXJXLXGXLXLXLXJXGXLXLXLXLXJXJXLXLXLXJXJXJXJXJXJXJXJXLXJXLXJXLXJXLXJXJXJXJXJXJXJXJXJXJXKXJXKXJXKXJXKXKXKXKXKXKXKXKXKXKXKXKXKXKXKXKXKXKXJXJXJXJXJXJXJXLXJXJXLXLXJXJXLXLXJXJXJXJXJXLXJXJXJXJXJXJXJXLXJXKXKXKXKXKXKXKXKXKXKXKXKXJXKXKXKXKXKXKXKXKXKXKXKXKXKXKXKXKXKXKXKXKXKXKXKXKXKXKXKXKXKXKXKXKXKXKXKXJXJXJXJXLXLXLXJXGXJXJXJXJXJXLXLXLXLXLXLXJXJXJXJXJXJXJXJXJXJXGXJXGXGXGXGXGXGXGXGXJXGXGXJXJXGXGXJXJXJXJXJXJXJXJXJXLXLXLXLXLXLXLXLXLXLXGXGXGXGXLXLXLXLXLXLXLXLXLXJXKXKXKXKXKXKXKXKXKXKXKXKXKXKXKXKXKXKXKXKXKXKXJXJXGXGXGXKXKXKXKXKXJXJXKXKXKXKXKXKXKXKXKXKXKXKXKXKXKXKXKXKXKXKXKXKXKXKXKXKXKXKXKXKXGXGXGXGXJXGXGXGXGXGXGXGXGXGXGXKXKXKXKXKXKXKXKXKXKXKXKX",
"mXDXPXKXKXGXLXLXHXHXHXLXLXGXGXGXLXLXLXLXLXLXLXLXGXGXGXGXLXLXLXLXGXLXLXLXLXLXLXLXLXLXLXLXLXLXLXGXLXJXJXJXJXJXGXGXGXJXJXJXGXGXGXGXHXHXHXHXHXHXHXHXHXHXHXHXHXHXHXHXHXHXHXHXHXHXHXHXHXHXHXHXHXHXHXHXHXGXHXGXGXGXGXGXLXLXHXLXHXLXHXHXHXHXHXHXHXHXHXHXHXHXHXHXHXHXHXHXHXHXHXHXHXHXHXHXHXHXHXHXHXHXHXHXHXHXHXHXHXHXHXHXHXHXHXHXHXHXHXHXHXHXHXHXHXHXHXHXHXHXHXHXHXHXHXHXJXJXJXJXJXLXLXLXJXJXJXJXJXJXJXLXHXHXHXHXHXHXHXHXHXHXHXHXHXHXHXHXHXHXHXLXHXLXHXLXHXHXHXHXHXHXHXLXLXJXJXJXJXJXJXJXJXJXJXJXLXJXJXJXGXJXJXJXJXLXLXLXLXLXLXLXLXLXLXLXLXLXLXLXJXJXJXJXJXJXJXLXLXLXJXLXLXHXHXHXHXHXHXHXHXHXHXHXHXHXHXHXHXHXHXHXHXHXHXHXHXHXHXHXHXHXHXHXHXHXHXHXHXHXHXHXHXHXHXHXHXHXHXHXHXHXHXHXHXHXHXHXHXHXHXHXHXHXHXHXHXHXHXHXHXHXHXHXHXHXHXHXHXHXHXHXLXGXGXGXGXGXGXGXGXGXGXGXGXJXGXGXLXLXLXLXLXLXLXLXHXGXHXGXLXGXLXGXLXLXLXLXLXLXLXLXLXLXLXLXLXLXLXLXGXGXGXGXGXGXLXLXGXGXGXGXGXGXGXGXHXHXHXHXHXHXHXGXHXHXHXHXHXHXHXHXGXGXGXGXGXGXGXGXGXGXGX",
"vXbXnXDXDXFXFXFXFXFXFXFXFXFXFXFXFXFXFXFXFXFXFXFXFXFXFXFXFXFXFXFXFXFXFXFXFXFXFXFXFXFXFXFXFXFXFXFXFXFXFXFXFXFXFXDXDXFXFXFXFXDXDXDXDXDXDXDXDXDXDXDXDXDXDXDXDXDXDXDXDXDXDXDXFXFXFXFXFXFXFXFXFXFXFXFXFXFXFXFXFXFXFXFXFXFXFXFXFXFXFXFXDXDXDXDXDXDXDXDXFXFXFXFXFXFXDXDXFXDXDXPXFXDXDXDXDXDXDXDXFXFXFXFXDXDXDXDXDXDXDXDXDXDXDXDXDXDXDXDXDXDXDXDXDXDXDXDXDXDXDXDXDXDXDXFXFXFXFXFXFXFXFXFXFXFXFXFXFXFXFXFXFXDXFXDXFXDXFXDXFXDXDXDXFXDXDXPXDXDXDXDXDXDXDXDXDXDXDXDXDXPXDXPXPXPXPXPXDXPXPXPXPXPXPXPXPXPXPXDXFXFXFXFXFXFXFXFXFXFXFXFXFXFXFXFXFXFXFXFXFXFXFXFXFXFXFXFXFXFXFXFXDXDXDXDXPXPXDXDXDXDXDXDXDXDXDXFXFXFXFXFXFXFXFXFXFXFXFXFXFXFXFXFXFXFXFXFXFXFXFXFXFXFXFXFXFXFXFXFXFXFXFXFXFXFXFXFXDXDXDXDXDXDXFXFXFXDXDXDXDXFXFXFXFXDXDXFXFXFXFXDXFXFXFXFXFXFXFXFXDXDXDXDXFXFXFXFXFXFXFXFXFXFXFXFXFXFXFXFXFXFXFXFXFXFXFXFXFXFXFXFXFXFXFXFXFXFXFXFXFXFXFXFXFXFXFXFXFXFXFXFXFXFXFXFXDXDXDXDXDXDXDXDXDXDXDXDXDXDXDXDXFXFXFXFXFXFXFXFXFXFXFX"
};
